P3
128 16
255
0 64 0 0 64 0 0 16 0 0 64 0 0 64 0 0 64 0 184 16 0 64 24 0 176 16 0 0 128 0 0 0 8 0 64 0 16 32 0 0 0 8 16 32 0 0 16 0 16 32 0 0 0 8 0 16 0 0 64 0 0 128 0 0 0 32 144 64 0 0 0 16 16 32 0 0 128 0 0 64 0 0 128 0 56 24 0 0 0 32 192 16 0 0 128 0 176 16 0 0 16 0 0 16 0 176 16 0 64 24 0 0 64 0 0 64 0 0 0 8 56 24 0 0 0 64 176 16 0 184 16 0 144 64 0 144 24 0 0 0 64 0 0 8 176 16 0 0 0 64 192 16 0 0 48 0 0 16 0 176 16 0 184 16 0 0 48 0 0 0 64 0 0 8 16 32 0 0 0 64 0 0 32 56 24 0 0 0 32 144 64 0 0 0 16 0 0 16 0 0 32 0 0 16 0 64 0 16 32 0 0 64 0 0 0 8 0 64 0 0 64 0 0 16 0 0 64 0 0 64 0 0 64 0 0 16 0 0 16 0 0 64 0 0 64 0 0 128 0 0 64 0 0 64 0 0 64 0 0 128 0 0 64 0 0 64 0 0 64 0 0 64 0 0 64 0 0 64 0 0 0 32 0 0 8 0 0 16 0 64 0 0 64 0 0 0 64 0 64 0 0 64 0 184 16 0 0 0 64 0 64 0 0 64 0 0 64 0 0 0 32 0 64 0 0 64 0 0 0 32 0 64 0 0 0 8 0 0 32 0 0 32 0 64 0 0 16 0 184 16 0 144 64 0 0 64 0 0 16 0 0 128 0 0 0 64 144 24 0 0 0 64 56 24 0 192 16 0 0 0 64 176 16 0
0 64 0 0 64 0 0 128 0 0 64 0 0 64 0 0 64 0 176 16 0 56 24 0 0 0 8 0 48 0 0 0 16 16 32 0 176 16 0 144 64 0 144 24 0 144 64 0 0 0 16 0 64 0 0 64 0 184 16 0 64 24 0 0 0 32 0 48 0 144 24 0 176 16 0 0 0 64 0 16 0 0 128 0 144 24 0 0 0 64 0 64 0 144 64 0 56 24 0 0 64 0 184 16 0 0 0 16 176 16 0 0 0 64 144 24 0 0 0 64 144 64 0 0 0 8 144 64 0 144 64 0 0 16 0 0 64 0 0 0 16 0 16 0 0 0 8 0 64 0 144 64 0 144 64 0 176 16 0 0 0 16 192 16 0 0 0 64 0 0 64 192 16 0 0 0 8 0 64 0 184 16 0 0 0 64 144 24 0 0 0 64 0 0 8 0 64 0 0 64 0 0 128 0 0 0 8 0 0 8 144 64 0 176 16 0 0 16 0 0 64 0 0 0 8 0 64 0 0 64 0 0 64 0 64 24 0 64 24 0 0 64 0 0 64 0 0 16 0 0 64 0 0 64 0 0 16 0 56 24 0 64 24 0 0 64 0 0 64 0 0 0 8 0 64 0 0 64 0 0 16 0 0 0 16 0 0 16 0 64 0 0 64 0 0 64 0 0 64 0 0 64 0 0 0 16 0 64 0 0 0 64 0 0 32 0 64 0 0 64 0 0 64 0 0 64 0 0 0 16 0 0 32 0 0 32 184 16 0 0 16 0 0 128 0 184 16 0 0 64 0 184 16 0 192 16 0 0 48 0 0 0 32 64 24 0 144 64 0 56 24 0 56 24 0 56 24 0 64 24 0 0 128 0
0 64 0 0 64 0 0 64 0 0 64 0 0 64 0 0 64 0 184 16 0 144 24 0 0 48 0 16 32 0 56 24 0 56 24 0 144 24 0 144 64 0 56 24 0 0 0 32 176 16 0 0 48 0 144 24 0 144 24 0 16 32 0 16 32 0 64 24 0 0 16 0 0 0 32 0 64 0 0 0 32 0 0 16 64 24 0 16 32 0 0 16 0 64 24 0 0 0 16 0 64 0 0 128 0 64 24 0 56 24 0 192 16 0 0 0 8 64 24 0 0 0 8 0 64 0 0 0 32 176 16 0 0 48 0 176 16 0 0 0 32 176 16 0 192 16 0 0 128 0 192 16 0 16 32 0 56 24 0 0 0 8 0 48 0 56 24 0 192 16 0 176 16 0 16 32 0 0 48 0 0 0 64 0 64 0 0 0 16 0 128 0 0 0 8 0 128 0 16 32 0 0 0 8 0 0 8 0 64 0 16 32 0 144 24 0 0 64 0 0 64 0 0 16 0 0 16 0 0 64 0 0 16 0 0 64 0 0 16 0 0 64 0 0 0 8 0 64 0 0 64 0 0 0 8 0 64 0 0 16 0 0 16 0 0 64 0 0 64 0 0 64 0 0 64 0 0 64 0 0 0 32 144 64 0 0 16 0 0 64 0 0 64 0 0 16 0 0 64 0 0 64 0 0 128 0 0 16 0 0 64 0 0 0 32 0 64 0 0 0 64 0 64 0 0 64 0 0 128 0 0 0 32 0 0 64 0 0 32 0 0 32 0 64 0 184 16 0 0 0 32 0 16 0 0 0 32 0 0 16 0 0 8 0 64 0 0 0 64 64 24 0 0 0 32 0 0 64 144 24 0 144 64 0
0 64 0 0 64 0 0 128 0 0 64 0 0 64 0 0 64 0 16 32 0 64 24 0 16 32 0 0 48 0 184 16 0 0 0 32 0 0 8 16 32 0 64 24 0 144 24 0 64 24 0 0 0 64 0 64 0 0 64 0 0 0 8 176 16 0 16 32 0 56 24 0 144 64 0 0 64 0 0 0 64 0 48 0 0 0 8 0 16 0 0 0 8 0 64 0 176 16 0 0 0 64 0 48 0 16 32 0 176 16 0 0 0 8 0 64 0 0 16 0 0 0 8 0 48 0 0 0 16 56 24 0 0 64 0 0 16 0 192 16 0 0 64 0 0 0 32 0 0 8 184 16 0 0 128 0 16 32 0 16 32 0 0 16 0 0 128 0 192 16 0 56 24 0 0 0 16 0 16 0 0 0 64 0 64 0 0 0 8 192 16 0 0 0 8 0 0 8 0 64 0 0 0 8 0 64 0 144 24 0 0 0 16 0 48 0 0 64 0 0 64 0 144 24 0 0 64 0 0 64 0 0 0 8 0 0 64 0 128 0 0 64 0 0 64 0 0 64 0 0 64 0 0 64 0 0 64 0 144 24 0 144 24 0 0 64 0 0 64 0 0 64 0 0 64 0 0 64 0 184 16 0 0 0 16 0 0 16 0 64 0 0 64 0 0 16 0 0 64 0 0 64 0 0 0 64 0 16 0 144 64 0 0 64 0 0 64 0 0 16 0 0 64 0 0 64 0 144 24 0 0 16 0 0 128 0 0 64 0 0 64 0 0 0 8 0 64 0 184 16 0 0 128 0 144 24 0 184 16 0 0 64 0 0 128 0 0 0 64 0 64 0 0 64 0 144 24 0 0 0 16 0 64 0
0 0 32 0 0 64 0 0 32 184 16 0 184 16 0 184 16 0 16 32 0 0 0 64 144 24 0 0 64 0 0 128 0 0 64 0 0 64 0 0 0 8 192 16 0 0 128 0 16 32 0 176 16 0 0 0 32 0 64 0 0 0 64 184 16 0 144 24 0 0 0 16 0 0 64 0 0 8 0 64 0 184 16 0 176 16 0 184 16 0 0 0 16 64 24 0 0 128 0 0 64 0 0 64 0 64 24 0 64 24 0 64 24 0 0 64 0 64 24 0 56 24 0 144 64 0 56 24 0 56 24 0 184 16 0 0 64 0 0 0 64 0 48 0 16 32 0 0 0 32 0 0 16 0 0 16 0 0 16 176 16 0 56 24 0 0 128 0 192 16 0 192 16 0 0 64 0 144 24 0 176 16 0 0 64 0 0 0 64 176 16 0 0 128 0 0 64 0 0 128 0 0 0 16 0 64 0 0 64 0 0 64 0 144 24 0 0 64 0 0 64 0 0 64 0 0 64 0 0 64 0 0 64 0 0 16 0 56 24 0 0 64 0 0 64 0 0 64 0 0 64 0 0 64 0 0 64 0 184 16 0 192 16 0 0 64 0 0 64 0 0 0 8 0 64 0 0 64 0 0 16 0 0 0 8 144 24 0 0 64 0 0 64 0 0 0 8 0 64 0 0 64 0 0 128 0 0 0 8 0 0 8 0 64 0 0 64 0 144 64 0 0 64 0 0 64 0 0 128 0 144 64 0 0 16 0 0 0 8 144 64 0 144 64 0 144 64 0 144 24 0 144 64 0 144 24 0 0 0 8 0 0 8 0 64 0 0 16 0 176 16 0 0 48 0 144 24 0 0 16 0 0 16 0
184 16 0 0 64 0 0 0 32 0 0 32 0 0 32 0 16 0 144 24 0 0 0 64 144 24 0 0 48 0 0 128 0 0 128 0 0 48 0 0 48 0 0 128 0 192 16 0 176 16 0 0 0 32 0 64 0 0 64 0 0 128 0 184 16 0 176 16 0 0 0 8 176 16 0 0 64 0 0 64 0 184 16 0 16 32 0 64 24 0 0 16 0 144 24 0 144 64 0 0 0 64 192 16 0 0 0 8 144 64 0 0 0 8 64 24 0 0 64 0 64 24 0 0 64 0 64 24 0 16 32 0 184 16 0 0 0 8 0 0 64 0 0 64 0 0 32 0 64 0 0 0 64 144 64 0 144 64 0 144 64 0 0 128 0 144 64 0 144 64 0 16 32 0 192 16 0 0 0 64 64 24 0 144 64 0 144 64 0 0 0 32 0 0 16 0 0 8 0 0 8 0 0 8 0 0 8 0 0 8 176 16 0 176 16 0 0 64 0 0 64 0 0 16 0 0 64 0 0 64 0 0 16 0 184 16 0 16 32 0 0 64 0 0 64 0 144 24 0 0 64 0 0 64 0 0 0 8 0 0 64 0 128 0 0 64 0 0 64 0 0 16 0 0 64 0 0 64 0 0 0 32 0 48 0 0 48 0 0 64 0 0 64 0 144 64 0 0 64 0 0 64 0 0 0 32 144 64 0 0 16 0 0 64 0 0 64 0 0 16 0 0 64 0 0 64 0 0 0 32 144 64 0 144 64 0 0 64 0 0 0 32 0 0 32 0 64 0 0 0 8 0 16 0 0 16 0 56 24 0 0 0 64 0 0 64 0 64 0 0 0 64 192 16 0 0 0 64 0 0 32 184 16 0
0 0 32 0 16 0 0 16 0 0 16 0 0 16 0 184 16 0 0 0 8 0 0 16 0 64 0 0 0 64 0 16 0 0 64 0 16 32 0 0 0 64 56 24 0 0 48 0 0 16 0 0 128 0 0 0 8 0 0 32 0 0 64 192 16 0 144 64 0 184 16 0 0 0 32 0 64 0 0 16 0 16 32 0 0 0 16 16 32 0 184 16 0 16 32 0 0 16 0 0 64 0 0 128 0 0 0 8 0 0 8 144 64 0 192 16 0 144 64 0 0 128 0 0 0 8 0 0 16 184 16 0 192 16 0 184 16 0 0 0 8 184 16 0 56 24 0 0 16 0 0 0 8 144 24 0 0 0 8 144 24 0 176 16 0 144 64 0 176 16 0 144 24 0 0 0 32 0 0 64 56 24 0 0 16 0 0 16 0 0 16 0 0 64 0 0 64 0 0 0 32 0 64 0 0 0 32 0 64 0 0 0 32 0 0 32 0 48 0 0 64 0 0 64 0 0 64 0 0 64 0 0 64 0 0 48 0 0 48 0 0 64 0 0 64 0 0 64 0 0 64 0 0 64 0 0 64 0 0 16 0 0 16 0 0 64 0 0 64 0 0 0 8 0 64 0 0 64 0 0 64 0 0 0 8 144 64 0 0 64 0 0 64 0 0 64 0 0 64 0 0 64 0 0 128 0 0 64 0 0 0 8 0 16 0 0 64 0 0 64 0 0 64 0 0 64 0 0 128 0 144 64 0 144 64 0 144 64 0 176 16 0 0 0 64 56 24 0 0 16 0 144 24 0 176 16 0 56 24 0 144 64 0 144 64 0 0 64 0 144 64 0 56 24 0 144 24 0 0 128 0 0 0 16
0 64 0 0 0 32 144 24 0 184 16 0 0 0 32 0 0 32 0 0 16 184 16 0 0 0 32 0 0 16 0 0 8 0 0 16 56 24 0 144 64 0 0 0 64 16 32 0 0 16 0 0 16 0 0 64 0 192 16 0 0 0 64 0 0 64 0 16 0 0 0 64 0 128 0 0 0 16 0 0 8 0 0 64 184 16 0 144 24 0 0 128 0 56 24 0 144 64 0 0 48 0 16 32 0 0 0 32 184 16 0 192 16 0 184 16 0 0 0 16 192 16 0 0 64 0 192 16 0 0 128 0 0 16 0 0 128 0 144 64 0 16 32 0 64 24 0 0 0 32 0 0 16 144 64 0 0 48 0 144 24 0 0 48 0 144 64 0 64 24 0 192 16 0 0 0 8 144 24 0 0 0 8 0 0 16 192 16 0 16 32 0 0 64 0 0 64 0 0 128 0 0 64 0 0 64 0 0 64 0 64 24 0 56 24 0 0 64 0 0 64 0 0 0 8 0 48 0 0 48 0 0 48 0 176 16 0 176 16 0 0 64 0 0 64 0 144 24 0 0 64 0 0 64 0 0 64 0 16 32 0 0 0 16 0 64 0 0 64 0 0 64 0 0 64 0 0 0 8 0 16 0 0 0 16 0 0 64 0 64 0 0 64 0 0 16 0 0 64 0 0 64 0 0 0 32 0 16 0 0 16 0 0 16 0 0 64 0 0 64 0 0 16 0 0 16 0 144 64 0 0 16 0 0 64 0 144 64 0 0 0 8 0 64 0 192 16 0 0 0 32 64 24 0 176 16 0 144 24 0 184 16 0 184 16 0 0 64 0 0 0 16 176 16 0 16 32 0 0 0 64 16 32 0
0 16 0 0 0 64 144 64 0 0 0 16 0 0 32 64 24 0 144 24 0 176 16 0 0 0 64 0 0 64 16 32 0 0 64 0 192 16 0 56 24 0 16 32 0 144 64 0 64 24 0 64 24 0 16 32 0 16 32 0 0 64 0 184 16 0 144 24 0 192 16 0 0 64 0 144 64 0 0 64 0 0 64 0 184 16 0 0 48 0 144 64 0 0 0 8 0 64 0 0 64 0 0 0 32 0 16 0 0 0 64 0 48 0 0 48 0 144 24 0 0 64 0 0 64 0 176 16 0 64 24 0 184 16 0 64 24 0 0 16 0 56 24 0 0 128 0 0 64 0 0 64 0 0 64 0 0 64 0 0 16 0 0 128 0 0 128 0 0 64 0 0 64 0 0 64 0 0 64 0 0 64 0 16 32 0 0 48 0 0 128 0 0 64 0 0 64 0 0 128 0 0 64 0 0 64 0 144 24 0 0 128 0 0 16 0 144 64 0 0 64 0 0 64 0 0 64 0 0 64 0 192 16 0 0 0 8 0 0 8 0 64 0 0 64 0 0 128 0 0 64 0 0 64 0 0 48 0 0 128 0 0 64 0 0 64 0 184 16 0 192 16 0 0 64 0 0 64 0 0 0 8 0 48 0 0 0 64 0 0 64 0 0 64 144 64 0 0 0 64 192 16 0 16 32 0 144 24 0 184 16 0 0 0 16 56 24 0 0 0 64 0 64 0 0 128 0 0 0 8 56 24 0 144 64 0 0 64 0 0 0 32 0 0 8 0 0 8 184 16 0 0 0 16 64 24 0 176 16 0 0 64 0 0 0 8 0 0 8 144 64 0 144 64 0 0 0 16 16 32 0 0 64 0
56 24 0 0 0 16 176 16 0 184 16 0 0 16 0 184 16 0 192 16 0 0 48 0 0 48 0 176 16 0 0 0 64 56 24 0 176 16 0 144 64 0 192 16 0 0 48 0 176 16 0 56 24 0 56 24 0 144 64 0 0 16 0 0 128 0 0 0 64 0 0 32 0 64 0 0 16 0 0 16 0 0 64 0 0 0 32 0 0 16 144 64 0 192 16 0 0 64 0 0 64 0 64 24 0 0 0 16 64 24 0 0 64 0 0 64 0 56 24 0 0 64 0 0 48 0 0 48 0 0 0 8 144 64 0 0 48 0 192 16 0 176 16 0 0 64 0 0 64 0 0 0 32 0 64 0 0 128 0 0 0 32 0 0 16 0 0 16 0 64 0 0 64 0 0 64 0 0 64 0 0 64 0 0 0 8 0 0 64 0 0 64 0 64 0 0 64 0 0 128 0 0 64 0 0 64 0 0 64 0 0 0 64 0 0 32 0 64 0 144 64 0 0 64 0 0 64 0 0 64 0 0 64 0 0 0 8 0 64 0 0 64 0 0 64 0 0 0 32 0 64 0 0 64 0 0 0 32 0 64 0 0 0 16 184 16 0 0 64 0 0 0 64 0 16 0 0 64 0 192 16 0 0 16 0 0 0 64 0 0 64 0 128 0 56 24 0 0 128 0 0 0 64 0 0 16 64 24 0 0 0 8 0 0 8 0 16 0 0 48 0 144 24 0 16 32 0 0 0 64 144 64 0 184 16 0 0 64 0 56 24 0 0 0 64 0 128 0 0 16 0 0 0 16 64 24 0 176 16 0 0 64 0 64 24 0 0 128 0 144 24 0 0 0 32 184 16 0 176 16 0 0 0 8
0 128 0 0 48 0 0 0 16 0 0 32 184 16 0 56 24 0 0 16 0 184 16 0 176 16 0 64 24 0 192 16 0 0 0 8 144 64 0 192 16 0 0 16 0 176 16 0 0 0 16 176 16 0 176 16 0 0 0 16 0 16 0 0 64 0 144 64 0 176 16 0 0 0 16 16 32 0 64 24 0 0 16 0 64 24 0 0 0 8 192 16 0 192 16 0 0 16 0 0 0 64 0 48 0 144 64 0 0 16 0 0 16 0 64 24 0 0 0 32 0 128 0 0 0 64 144 24 0 0 48 0 0 48 0 0 48 0 192 16 0 0 0 32 0 64 0 0 0 8 0 128 0 0 64 0 144 24 0 0 16 0 0 0 16 0 0 8 0 64 0 0 64 0 0 16 0 0 64 0 0 64 0 56 24 0 0 64 0 0 16 0 0 64 0 0 64 0 0 0 64 0 64 0 0 128 0 56 24 0 0 64 0 0 128 0 0 64 0 0 64 0 0 0 32 0 64 0 0 64 0 0 64 0 0 0 32 0 128 0 0 64 0 0 64 0 0 0 8 0 64 0 0 64 0 0 48 0 0 0 8 0 64 0 0 64 0 0 64 0 0 64 0 184 16 0 184 16 0 56 24 0 0 64 0 192 16 0 176 16 0 0 0 64 64 24 0 64 24 0 0 48 0 192 16 0 176 16 0 176 16 0 0 0 8 0 64 0 16 32 0 0 0 32 0 128 0 0 0 16 0 64 0 176 16 0 0 16 0 0 16 0 0 0 16 176 16 0 176 16 0 176 16 0 64 24 0 0 0 8 0 0 32 56 24 0 56 24 0 0 0 8 0 0 8 0 0 8 176 16 0 0 16 0
184 16 0 0 0 32 0 0 64 0 128 0 0 0 8 0 0 32 184 16 0 144 24 0 176 16 0 64 24 0 64 24 0 0 64 0 192 16 0 0 48 0 144 24 0 144 24 0 0 16 0 192 16 0 64 24 0 144 64 0 176 16 0 0 16 0 16 32 0 16 32 0 0 0 32 184 16 0 0 16 0 0 64 0 16 32 0 0 64 0 56 24 0 0 0 64 0 128 0 0 128 0 0 0 16 0 16 0 144 24 0 184 16 0 56 24 0 144 64 0 144 24 0 0 0 8 0 0 8 0 0 8 0 64 0 0 64 0 144 24 0 144 24 0 0 64 0 0 64 0 0 128 0 0 128 0 0 0 8 0 16 0 0 0 32 144 24 0 0 64 0 0 64 0 0 64 0 0 64 0 0 64 0 0 64 0 0 16 0 0 128 0 0 64 0 0 64 0 0 128 0 0 64 0 0 64 0 0 128 0 0 64 0 192 16 0 0 64 0 0 64 0 0 0 8 0 64 0 0 64 0 0 16 0 16 32 0 0 0 16 0 64 0 0 64 0 0 0 32 0 64 0 0 64 0 0 0 32 0 64 0 144 24 0 0 64 0 0 64 0 144 24 0 0 16 0 144 64 0 64 24 0 144 64 0 0 16 0 0 16 0 0 128 0 56 24 0 0 16 0 64 24 0 0 16 0 192 16 0 0 48 0 0 0 8 144 64 0 176 16 0 184 16 0 192 16 0 64 24 0 176 16 0 0 0 32 0 64 0 144 24 0 184 16 0 184 16 0 0 0 32 184 16 0 192 16 0 144 64 0 0 64 0 0 0 64 0 0 8 144 24 0 144 24 0 56 24 0 0 64 0 16 32 0
176 16 0 176 16 0 64 24 0 0 0 32 0 16 0 16 32 0 0 64 0 144 24 0 0 0 8 0 0 8 144 64 0 0 64 0 144 24 0 0 0 8 0 128 0 64 24 0 0 0 8 0 0 8 0 0 16 144 24 0 0 0 64 16 32 0 0 64 0 0 0 64 0 64 0 0 128 0 0 128 0 0 128 0 0 0 32 0 48 0 0 0 32 0 64 0 0 64 0 0 64 0 0 0 64 0 0 32 0 16 0 0 128 0 0 64 0 0 16 0 0 0 64 0 128 0 0 0 64 0 0 64 0 0 32 64 24 0 144 24 0 144 64 0 0 128 0 0 128 0 0 0 16 0 128 0 0 128 0 0 48 0 16 32 0 0 128 0 0 64 0 0 64 0 0 0 8 0 64 0 0 64 0 0 0 16 0 0 8 144 24 0 0 64 0 0 64 0 0 48 0 0 64 0 0 128 0 56 24 0 0 64 0 0 128 0 0 64 0 0 64 0 0 64 0 0 64 0 0 64 0 0 48 0 0 64 0 0 0 8 0 0 32 0 64 0 0 64 0 0 64 0 0 64 0 0 64 0 16 32 0 16 32 0 0 0 32 0 0 32 0 16 0 0 0 32 0 64 0 184 16 0 0 0 32 184 16 0 0 64 0 0 0 64 64 24 0 64 24 0 192 16 0 64 24 0 192 16 0 0 64 0 0 64 0 0 0 64 64 24 0 0 48 0 0 0 16 176 16 0 16 32 0 0 0 8 0 64 0 56 24 0 16 32 0 0 128 0 0 48 0 176 16 0 56 24 0 16 32 0 0 64 0 64 24 0 192 16 0 0 0 8 0 64 0 0 0 8 16 32 0 0 16 0
0 128 0 0 0 64 0 0 32 0 128 0 0 0 64 0 0 8 144 24 0 16 32 0 0 64 0 64 24 0 64 24 0 0 64 0 0 48 0 0 64 0 64 24 0 192 16 0 0 128 0 0 128 0 0 0 16 0 0 16 56 24 0 0 128 0 0 16 0 16 32 0 0 64 0 0 64 0 0 64 0 0 64 0 0 0 8 0 128 0 0 128 0 0 48 0 0 64 0 0 64 0 0 64 0 0 64 0 176 16 0 0 0 32 144 24 0 0 0 64 0 64 0 0 0 32 184 16 0 0 0 32 0 64 0 0 0 32 0 16 0 0 0 8 0 64 0 0 64 0 0 0 8 0 64 0 0 64 0 0 64 0 144 24 0 16 32 0 0 64 0 0 64 0 0 16 0 0 64 0 0 64 0 0 64 0 0 16 0 144 64 0 0 64 0 0 64 0 0 16 0 0 64 0 0 64 0 0 64 0 0 16 0 0 0 8 0 64 0 0 64 0 0 0 32 0 64 0 0 64 0 0 0 8 0 0 32 0 64 0 0 0 32 0 64 0 0 128 0 0 0 32 0 64 0 0 64 0 0 128 0 192 16 0 0 64 0 0 64 0 0 0 8 0 0 32 0 16 0 0 0 64 144 64 0 0 16 0 0 128 0 0 0 8 144 24 0 0 0 64 0 0 32 0 0 32 64 24 0 0 0 64 144 64 0 0 128 0 0 64 0 0 64 0 0 128 0 0 64 0 64 24 0 0 0 8 0 64 0 0 48 0 0 64 0 0 64 0 0 16 0 56 24 0 192 16 0 0 0 8 0 64 0 0 0 32 0 64 0 144 64 0 184 16 0 184 16 0 0 0 32 0 16 0
144 64 0 144 64 0 0 48 0 0 0 16 144 64 0 0 128 0 0 0 8 64 24 0 0 0 8 0 0 8 0 0 8 0 64 0 0 48 0 0 0 32 0 0 32 0 0 64 0 64 0 0 64 0 0 64 0 0 64 0 0 64 0 0 64 0 0 16 0 144 24 0 0 64 0 0 128 0 0 64 0 0 128 0 0 0 32 56 24 0 176 16 0 64 24 0 144 24 0 0 0 8 144 64 0 16 32 0 0 0 8 0 0 64 0 0 8 0 128 0 0 64 0 0 64 0 0 64 0 0 0 16 64 24 0 0 64 0 16 32 0 56 24 0 0 64 0 0 64 0 0 64 0 0 64 0 0 64 0 0 16 0 0 0 8 144 24 0 0 64 0 0 64 0 0 64 0 0 64 0 0 64 0 0 0 64 0 64 0 0 16 0 0 128 0 0 64 0 0 64 0 0 64 0 0 64 0 0 0 64 0 64 0 0 64 0 0 64 0 0 64 0 0 128 0 0 64 0 0 64 0 0 128 0 192 16 0 0 16 0 0 64 0 0 128 0 0 64 0 0 64 0 0 64 0 144 64 0 0 128 0 0 128 0 0 0 8 144 24 0 144 24 0 0 0 8 144 64 0 0 0 8 144 24 0 144 64 0 0 64 0 0 0 32 0 0 32 0 64 0 0 0 8 0 0 16 0 0 64 0 0 8 0 64 0 0 64 0 0 64 0 0 64 0 144 24 0 144 64 0 0 16 0 0 64 0 0 16 0 16 32 0 0 64 0 184 16 0 0 16 0 144 64 0 192 16 0 0 48 0 0 0 32 64 24 0 192 16 0 0 0 8 144 24 0 0 0 32 192 16 0 0 0 8
64 24 0 176 16 0 192 16 0 144 24 0 184 16 0 0 0 16 176 16 0 144 24 0 0 0 32 0 0 32 0 0 64 184 16 0 144 64 0 0 64 0 0 48 0 0 0 8 16 32 0 144 24 0 144 24 0 0 0 8 0 64 0 0 0 8 176 16 0 0 48 0 0 0 8 144 64 0 0 16 0 0 64 0 0 64 0 0 64 0 0 16 0 0 16 0 0 0 8 0 0 8 0 128 0 144 64 0 0 16 0 0 0 8 0 0 8 0 0 8 0 128 0 0 16 0 0 0 64 0 0 16 176 16 0 0 0 8 184 16 0 0 0 32 0 64 0 0 64 0 0 0 32 0 64 0 0 64 0 0 0 64 0 0 32 0 64 0 0 64 0 0 128 0 0 64 0 0 64 0 0 64 0 0 128 0 0 64 0 0 128 0 0 64 0 0 64 0 176 16 0 0 64 0 0 16 0 0 128 0 0 0 8 0 128 0 0 64 0 0 64 0 0 64 0 0 64 0 0 64 0 184 16 0 0 0 8 0 0 16 0 64 0 0 64 0 0 0 32 0 64 0 0 64 0 0 64 0 0 0 32 0 0 8 0 64 0 0 0 8 144 64 0 0 64 0 0 0 64 0 48 0 56 24 0 0 0 32 0 64 0 0 64 0 144 64 0 0 64 0 56 24 0 0 128 0 192 16 0 56 24 0 0 64 0 144 24 0 56 24 0 0 16 0 0 0 32 144 64 0 0 48 0 64 24 0 0 64 0 16 32 0 0 0 32 0 0 64 144 24 0 192 16 0 144 24 0 0 48 0 144 64 0 144 64 0 144 64 0 0 64 0 144 24 0 0 128 0 0 64 0 0 0 64