P3
128 136
255
224 32 24
8 8 56
0 128 128
16 16 56
8 80 64
224 32 24
104 32 0
88 128 128
192 24 56
192 24 56
104 32 0
88 128 128
192 24 56
192 24 56
192 24 56
192 24 56
8 8 56
8 8 56
224 32 24
88 128 128
224 32 24
24 80 64
72 40 0
8 8 56
8 8 48
0 128 128
216 184 128
8 8 56
224 160 128
224 160 128
8 8 48
8 8 56
64 72 80
16 16 56
88 128 128
72 40 0
24 80 64
224 32 128
192 24 56
224 160 128
192 24 56
192 24 56
192 24 56
192 24 56
192 24 56
192 24 56
64 72 80
192 24 56
224 32 24
224 160 128
24 80 64
24 80 64
24 80 64
0 128 128
192 24 56
224 32 24
24 80 64
192 24 56
224 32 24
104 32 0
64 72 80
72 40 0
88 128 128
16 16 56
224 32 128
224 160 128
8 8 56
0 128 128
8 80 64
8 80 64
192 24 56
104 32 0
224 32 24
88 128 128
224 160 128
192 24 56
224 32 24
224 32 24
88 128 128
64 72 80
0 128 128
224 160 128
224 32 24
192 24 56
8 8 56
224 160 128
88 128 128
224 32 128
16 16 56
192 24 56
8 8 48
8 8 56
224 32 24
0 128 128
8 8 56
8 8 56
224 32 128
192 24 56
216 184 128
192 24 56
8 80 64
8 80 64
224 32 24
224 32 128
8 8 56
192 24 56
0 128 128
224 32 24
72 40 0
72 40 0
224 32 24
8 8 48
104 32 0
88 128 128
8 8 56
0 128 128
104 32 0
224 160 128
88 128 128
64 72 80
88 128 128
192 24 56
216 184 128
8 8 56
8 8 48
224 32 128
192 24 56
8 8 56
88 128 128
24 80 64
192 24 56
88 128 128
88 128 128
88 128 128
224 32 24
192 24 56
24 80 64
0 128 128
224 32 24
0 128 128
72 40 0
192 24 56
0 128 128
64 72 80
8 8 48
8 8 56
88 128 128
8 8 56
8 8 56
64 72 80
72 40 0
64 72 80
224 160 128
8 80 64
8 8 48
64 72 80
8 8 56
8 8 48
24 80 64
64 72 80
64 72 80
224 160 128
224 160 128
104 32 0
104 32 0
192 24 56
224 32 24
224 32 128
192 24 56
192 24 56
192 24 56
192 24 56
224 160 128
192 24 56
8 80 64
224 160 128
8 80 64
88 128 128
224 160 128
8 8 56
0 128 128
192 24 56
88 128 128
0 128 128
192 24 56
224 32 128
24 80 64
192 24 56
192 24 56
192 24 56
192 24 56
24 80 64
24 80 64
224 160 128
8 8 56
192 24 56
24 80 64
24 80 64
192 24 56
64 72 80
88 128 128
0 128 128
24 80 64
88 128 128
104 32 0
104 32 0
8 8 56
224 32 24
72 40 0
0 128 128
88 128 128
0 128 128
88 128 128
88 128 128
24 80 64
8 80 64
8 8 48
192 24 56
8 8 56
24 80 64
8 8 56
8 8 48
192 24 56
64 72 80
24 80 64
192 24 56
16 16 56
192 24 56
224 160 128
24 80 64
192 24 56
64 72 80
224 32 24
192 24 56
224 160 128
192 24 56
8 8 56
8 8 56
88 128 128
64 72 80
16 16 56
224 32 24
72 40 0
88 128 128
224 32 24
0 128 128
8 8 56
8 8 56
8 8 56
192 24 56
192 24 56
16 16 56
72 40 0
64 72 80
88 128 128
24 80 64
8 8 56
192 24 56
88 128 128
8 8 56
72 40 0
72 40 0
192 24 56
88 128 128
8 8 56
8 8 56
224 32 128
0 128 128
0 128 128
0 128 128
0 128 128
16 16 56
16 16 56
224 32 24
72 40 0
224 32 24
104 32 0
8 80 64
8 8 56
8 8 48
16 16 56
88 128 128
88 128 128
104 32 0
24 80 64
224 32 128
24 80 64
8 8 48
64 72 80
192 24 56
192 24 56
104 32 0
104 32 0
0 128 128
72 40 0
8 80 64
192 24 56
192 24 56
192 24 56
192 24 56
224 160 128
224 160 128
8 80 64
192 24 56
8 8 56
104 32 0
192 24 56
224 160 128
104 32 0
16 16 56
224 160 128
16 16 56
224 32 128
0 128 128
224 32 24
24 80 64
0 128 128
8 8 56
224 32 24
72 40 0
192 24 56
192 24 56
224 32 128
88 128 128
0 128 128
0 128 128
192 24 56
64 72 80
8 8 56
192 24 56
16 16 56
224 160 128
72 40 0
72 40 0
224 32 24
8 80 64
8 8 48
192 24 56
8 80 64
224 160 128
16 16 56
8 8 48
24 80 64
224 32 128
8 8 56
192 24 56
72 40 0
224 160 128
88 128 128
8 8 56
224 160 128
8 80 64
224 32 24
192 24 56
224 160 128
0 128 128
8 80 64
8 80 64
0 128 128
64 72 80
88 128 128
192 24 56
216 184 128
192 24 56
224 32 128
224 32 128
8 8 56
8 80 64
8 8 48
192 24 56
88 128 128
24 80 64
0 128 128
8 8 48
224 32 24
8 8 48
224 32 24
192 24 56
8 8 56
8 8 56
8 8 56
8 8 56
88 128 128
8 8 48
224 32 24
224 32 128
224 160 128
224 32 24
224 32 24
224 32 24
0 128 128
104 32 0
216 184 128
224 32 24
24 80 64
0 128 128
8 8 56
88 128 128
8 80 64
8 8 48
224 160 128
224 160 128
0 128 128
24 80 64
0 128 128
192 24 56
192 24 56
224 32 128
192 24 56
192 24 56
224 32 128
8 80 64
8 8 56
16 16 56
16 16 56
192 24 56
64 72 80
224 160 128
8 8 56
104 32 0
88 128 128
0 128 128
216 184 128
224 32 24
192 24 56
192 24 56
192 24 56
192 24 56
192 24 56
192 24 56
8 8 48
192 24 56
0 128 128
224 32 128
192 24 56
224 32 128
8 8 48
0 128 128
216 184 128
24 80 64
8 8 56
8 8 56
224 160 128
24 80 64
88 128 128
88 128 128
224 160 128
8 8 48
224 32 128
224 32 128
192 24 56
224 32 128
24 80 64
24 80 64
224 160 128
224 32 24
224 32 24
192 24 56
88 128 128
192 24 56
8 8 56
8 8 56
88 128 128
64 72 80
8 8 56
224 32 24
24 80 64
224 32 24
88 128 128
88 128 128
224 160 128
8 8 48
72 40 0
192 24 56
104 32 0
0 128 128
16 16 56
72 40 0
192 24 56
216 184 128
88 128 128
192 24 56
64 72 80
192 24 56
224 32 128
224 32 128
0 128 128
64 72 80
8 8 56
192 24 56
0 128 128
224 32 24
72 40 0
72 40 0
224 32 24
64 72 80
8 8 56
192 24 56
16 16 56
192 24 56
88 128 128
216 184 128
224 160 128
8 80 64
88 128 128
192 24 56
216 184 128
8 8 56
8 8 48
224 32 128
192 24 56
64 72 80
88 128 128
24 80 64
192 24 56
88 128 128
224 32 128
88 128 128
72 40 0
0 128 128
104 32 0
192 24 56
16 16 56
0 128 128
224 160 128
224 160 128
192 24 56
104 32 0
8 8 56
8 8 56
224 160 128
0 128 128
88 128 128
24 80 64
24 80 64
8 8 56
64 72 80
224 160 128
16 16 56
24 80 64
224 32 24
24 80 64
64 72 80
24 80 64
64 72 80
224 160 128
8 8 56
8 8 56
216 184 128
8 8 48
192 24 56
24 80 64
192 24 56
192 24 56
192 24 56
192 24 56
88 128 128
192 24 56
72 40 0
88 128 128
104 32 0
224 32 24
24 80 64
224 32 24
216 184 128
192 24 56
88 128 128
104 32 0
24 80 64
224 160 128
224 160 128
72 40 0
16 16 56
224 32 24
0 128 128
88 128 128
224 32 128
24 80 64
0 128 128
88 128 128
224 32 128
224 32 128
192 24 56
72 40 0
104 32 0
0 128 128
8 8 56
192 24 56
88 128 128
192 24 56
0 128 128
8 80 64
224 160 128
224 32 24
104 32 0
192 24 56
224 32 24
24 80 64
0 128 128
8 8 48
104 32 0
192 24 56
16 16 56
224 32 128
104 32 0
104 32 0
224 32 128
24 80 64
8 8 56
192 24 56
16 16 56
192 24 56
8 8 56
8 8 56
192 24 56
8 8 48
224 32 24
192 24 56
224 160 128
88 128 128
224 32 24
224 32 24
192 24 56
72 40 0
72 40 0
0 128 128
8 8 48
192 24 56
16 16 56
24 80 64
0 128 128
64 72 80
8 8 56
192 24 56
16 16 56
224 32 24
72 40 0
8 8 48
88 128 128
8 8 56
8 8 56
224 32 24
88 128 128
8 8 56
8 8 56
8 8 56
192 24 56
88 128 128
224 32 24
224 160 128
192 24 56
192 24 56
224 32 24
192 24 56
224 160 128
16 16 56
16 16 56
224 32 24
8 8 56
8 8 56
224 32 128
16 16 56
8 8 56
16 16 56
216 184 128
224 32 128
8 80 64
64 72 80
8 8 56
16 16 56
224 32 24
8 80 64
64 72 80
224 32 24
224 32 24
64 72 80
64 72 80
104 32 0
224 160 128
0 128 128
192 24 56
192 24 56
192 24 56
192 24 56
24 80 64
224 160 128
8 8 48
224 32 24
0 128 128
0 128 128
224 32 24
224 32 24
192 24 56
192 24 56
0 128 128
192 24 56
224 160 128
0 128 128
224 32 24
88 128 128
224 160 128
224 160 128
192 24 56
24 80 64
24 80 64
224 32 24
224 32 128
192 24 56
224 32 24
224 32 24
192 24 56
8 80 64
224 32 128
192 24 56
224 32 24
0 128 128
8 80 64
8 80 64
224 32 24
88 128 128
216 184 128
192 24 56
0 128 128
88 128 128
8 8 56
8 8 48
8 8 56
8 8 48
16 16 56
192 24 56
8 8 48
8 8 56
224 32 24
16 16 56
88 128 128
72 40 0
224 32 24
192 24 56
224 160 128
192 24 56
8 8 56
8 8 56
192 24 56
64 72 80
88 128 128
192 24 56
216 184 128
192 24 56
224 32 128
224 32 128
8 8 56
64 72 80
104 32 0
192 24 56
224 32 24
224 32 128
224 160 128
104 32 0
0 128 128
24 80 64
224 32 24
192 24 56
224 160 128
88 128 128
8 8 56
8 80 64
224 32 128
216 184 128
224 32 24
88 128 128
8 8 56
224 32 24
224 32 24
224 32 24
88 128 128
8 8 48
8 8 56
224 32 24
224 32 128
224 160 128
192 24 56
88 128 128
224 160 128
88 128 128
224 160 128
192 24 56
224 32 24
88 128 128
8 80 64
8 8 48
224 32 128
16 16 56
224 160 128
224 32 128
8 8 56
16 16 56
216 184 128
8 8 56
8 8 56
72 40 0
64 72 80
88 128 128
88 128 128
64 72 80
72 40 0
104 32 0
216 184 128
224 32 128
224 160 128
192 24 56
224 160 128
192 24 56
224 32 24
24 80 64
224 32 128
192 24 56
224 32 24
64 72 80
192 24 56
8 8 56
64 72 80
192 24 56
216 184 128
104 32 0
0 128 128
88 128 128
224 160 128
224 32 24
192 24 56
224 32 24
192 24 56
24 80 64
224 160 128
192 24 56
0 128 128
0 128 128
104 32 0
224 160 128
192 24 56
64 72 80
24 80 64
192 24 56
88 128 128
24 80 64
24 80 64
24 80 64
192 24 56
224 32 128
16 16 56
192 24 56
8 8 48
224 32 24
192 24 56
8 80 64
224 32 24
8 8 56
224 32 128
192 24 56
8 8 56
24 80 64
8 8 56
8 8 48
224 32 24
224 32 128
88 128 128
192 24 56
216 184 128
192 24 56
224 32 128
8 8 48
192 24 56
8 80 64
8 8 56
192 24 56
16 16 56
192 24 56
8 8 56
8 8 56
224 32 24
8 8 48
16 16 56
192 24 56
8 8 56
224 32 24
192 24 56
8 80 64
192 24 56
64 72 80
88 128 128
192 24 56
216 184 128
8 8 56
8 8 48
224 32 128
8 8 56
8 80 64
104 32 0
0 128 128
8 8 56
192 24 56
88 128 128
192 24 56
192 24 56
8 80 64
64 72 80
104 32 0
216 184 128
104 32 0
24 80 64
8 8 56
0 128 128
16 16 56
24 80 64
224 32 24
104 32 0
24 80 64
192 24 56
224 160 128
88 128 128
8 8 56
104 32 0
88 128 128
224 32 128
224 32 128
8 8 48
88 128 128
224 160 128
192 24 56
64 72 80
224 32 24
224 32 24
64 72 80
8 8 48
88 128 128
8 80 64
88 128 128
224 160 128
192 24 56
224 160 128
104 32 0
224 160 128
192 24 56
16 16 56
224 160 128
104 32 0
8 8 56
104 32 0
0 128 128
8 80 64
192 24 56
64 72 80
8 8 56
224 32 128
0 128 128
24 80 64
24 80 64
224 32 128
224 32 128
24 80 64
64 72 80
0 128 128
0 128 128
88 128 128
224 32 128
224 32 24
224 32 24
224 32 24
104 32 0
192 24 56
224 160 128
0 128 128
192 24 56
224 32 128
224 32 128
8 8 56
16 16 56
8 8 48
192 24 56
8 8 56
224 160 128
8 8 56
224 32 128
224 32 24
8 80 64
8 8 56
192 24 56
72 40 0
192 24 56
104 32 0
216 184 128
192 24 56
8 80 64
8 8 56
192 24 56
16 16 56
192 24 56
8 8 56
8 8 56
192 24 56
64 72 80
224 32 24
192 24 56
224 160 128
88 128 128
224 32 24
224 32 24
192 24 56
72 40 0
0 128 128
192 24 56
88 128 128
192 24 56
224 32 128
72 40 0
24 80 64
8 8 48
8 8 56
192 24 56
16 16 56
224 32 24
72 40 0
8 8 48
88 128 128
72 40 0
8 8 48
192 24 56
8 80 64
192 24 56
8 80 64
0 128 128
192 24 56
224 32 128
16 16 56
224 160 128
8 8 48
24 80 64
216 184 128
0 128 128
216 184 128
8 80 64
104 32 0
192 24 56
16 16 56
88 128 128
104 32 0
224 160 128
0 128 128
72 40 0
16 16 56
192 24 56
8 8 48
224 32 24
8 8 56
8 80 64
224 32 24
8 8 56
88 128 128
192 24 56
0 128 128
192 24 56
104 32 0
104 32 0
224 160 128
8 80 64
8 8 56
192 24 56
104 32 0
224 32 24
0 128 128
8 8 56
192 24 56
8 8 48
192 24 56
192 24 56
216 184 128
104 32 0
224 160 128
192 24 56
224 160 128
24 80 64
24 80 64
0 128 128
216 184 128
88 128 128
72 40 0
104 32 0
8 80 64
72 40 0
224 32 24
192 24 56
224 160 128
88 128 128
224 32 24
16 16 56
224 32 128
24 80 64
192 24 56
224 32 24
192 24 56
8 8 48
104 32 0
88 128 128
216 184 128
8 8 48
24 80 64
192 24 56
16 16 56
192 24 56
224 32 24
192 24 56
88 128 128
8 8 56
8 8 56
192 24 56
192 24 56
224 32 24
8 8 56
8 8 56
192 24 56
8 8 56
88 128 128
224 32 24
88 128 128
0 128 128
88 128 128
0 128 128
224 32 24
64 72 80
224 32 24
224 160 128
192 24 56
224 32 128
16 16 56
224 32 24
104 32 0
24 80 64
88 128 128
192 24 56
192 24 56
24 80 64
8 80 64
88 128 128
224 160 128
8 8 56
64 72 80
8 8 56
8 8 56
8 8 56
192 24 56
8 8 48
8 8 56
0 128 128
8 8 56
224 32 24
224 32 24
224 32 24
104 32 0
88 128 128
192 24 56
8 8 48
224 32 128
104 32 0
104 32 0
88 128 128
64 72 80
16 16 56
88 128 128
0 128 128
16 16 56
192 24 56
8 8 48
224 32 24
192 24 56
8 80 64
224 32 24
64 72 80
224 32 128
192 24 56
8 8 56
24 80 64
8 8 56
8 8 48
224 32 24
8 8 48
8 8 56
192 24 56
104 32 0
192 24 56
72 40 0
72 40 0
192 24 56
64 72 80
216 184 128
88 128 128
8 80 64
192 24 56
24 80 64
216 184 128
192 24 56
72 40 0
64 72 80
192 24 56
8 8 48
224 32 24
216 184 128
8 8 56
8 8 56
72 40 0
0 128 128
8 8 56
16 16 56
8 8 56
192 24 56
192 24 56
8 8 56
88 128 128
88 128 128
192 24 56
216 184 128
0 128 128
104 32 0
88 128 128
192 24 56
8 80 64
224 32 128
0 128 128
224 32 24
224 32 24
104 32 0
88 128 128
8 8 48
192 24 56
224 160 128
8 8 56
0 128 128
0 128 128
224 32 128
0 128 128
8 8 48
0 128 128
224 32 24
8 8 56
192 24 56
8 8 56
224 32 24
224 32 24
8 8 48
8 8 56
8 8 56
192 24 56
0 128 128
192 24 56
72 40 0
224 160 128
192 24 56
8 8 56
88 128 128
224 32 24
88 128 128
0 128 128
88 128 128
192 24 56
224 32 24
8 8 56
8 8 56
88 128 128
192 24 56
224 32 24
8 8 56
8 8 56
88 128 128
224 32 128
8 8 48
8 8 56
8 8 48
88 128 128
224 32 128
24 80 64
88 128 128
24 80 64
24 80 64
88 128 128
224 32 24
8 8 56
24 80 64
72 40 0
224 32 128
224 32 24
224 32 24
8 80 64
224 160 128
192 24 56
192 24 56
192 24 56
16 16 56
192 24 56
8 8 48
192 24 56
8 8 56
224 160 128
8 8 56
8 80 64
192 24 56
8 8 48
8 8 56
192 24 56
72 40 0
192 24 56
104 32 0
216 184 128
192 24 56
64 72 80
224 32 24
192 24 56
8 80 64
192 24 56
224 32 24
8 8 56
192 24 56
64 72 80
192 24 56
192 24 56
8 8 56
88 128 128
192 24 56
192 24 56
0 128 128
64 72 80
0 128 128
192 24 56
192 24 56
224 160 128
64 72 80
72 40 0
104 32 0
8 8 56
0 128 128
192 24 56
72 40 0
88 128 128
72 40 0
0 128 128
224 32 24
8 8 56
0 128 128
192 24 56
192 24 56
72 40 0
0 128 128
0 128 128
224 32 24
88 128 128
24 80 64
192 24 56
72 40 0
224 32 128
64 72 80
88 128 128
64 72 80
8 8 48
8 8 56
192 24 56
104 32 0
192 24 56
224 160 128
0 128 128
224 32 24
8 8 56
88 128 128
224 32 24
88 128 128
0 128 128
88 128 128
0 128 128
224 32 24
8 8 56
224 32 24
224 160 128
192 24 56
224 32 128
16 16 56
224 32 24
104 32 0
72 40 0
8 8 56
192 24 56
0 128 128
192 24 56
8 8 48
224 160 128
192 24 56
8 8 56
224 32 24
8 8 56
224 32 24
192 24 56
8 8 56
192 24 56
8 8 48
8 80 64
8 8 56
0 128 128
16 16 56
0 128 128
0 128 128
24 80 64
0 128 128
216 184 128
192 24 56
24 80 64
192 24 56
0 128 128
88 128 128
192 24 56
216 184 128
0 128 128
24 80 64
88 128 128
16 16 56
8 8 56
224 32 24
88 128 128
216 184 128
216 184 128
8 8 56
192 24 56
72 40 0
224 160 128
88 128 128
8 8 56
192 24 56
8 80 64
24 80 64
192 24 56
104 32 0
0 128 128
16 16 56
72 40 0
192 24 56
216 184 128
88 128 128
192 24 56
0 128 128
192 24 56
104 32 0
8 8 48
224 160 128
8 8 56
8 8 48
224 160 128
104 32 0
224 32 24
0 128 128
8 8 48
192 24 56
8 8 48
24 80 64
16 16 56
192 24 56
88 128 128
104 32 0
224 160 128
64 72 80
88 128 128
8 8 56
224 32 24
104 32 0
224 32 24
104 32 0
88 128 128
192 24 56
224 32 128
24 80 64
192 24 56
0 128 128
24 80 64
216 184 128
24 80 64
192 24 56
0 128 128
0 128 128
224 160 128
8 8 48
224 160 128
64 72 80
0 128 128
216 184 128
224 32 128
0 128 128
88 128 128
224 32 128
88 128 128
224 32 128
88 128 128
88 128 128
224 32 128
8 8 56
192 24 56
224 32 128
192 24 56
8 8 56
224 160 128
192 24 56
8 8 56
88 128 128
224 32 24
192 24 56
0 128 128
104 32 0
88 128 128
24 80 64
24 80 64
224 32 24
224 160 128
192 24 56
88 128 128
224 32 24
8 8 56
224 160 128
216 184 128
88 128 128
88 128 128
104 32 0
192 24 56
192 24 56
192 24 56
88 128 128
0 128 128
64 72 80
224 32 128
8 8 48
224 32 128
224 160 128
224 32 24
0 128 128
224 32 24
8 80 64
192 24 56
0 128 128
88 128 128
224 32 128
104 32 0
224 160 128
8 8 56
104 32 0
24 80 64
64 72 80
24 80 64
72 40 0
104 32 0
72 40 0
8 8 48
72 40 0
192 24 56
104 32 0
0 128 128
16 16 56
24 80 64
192 24 56
216 184 128
224 160 128
192 24 56
16 16 56
88 128 128
8 8 48
8 8 48
88 128 128
24 80 64
8 8 56
192 24 56
104 32 0
192 24 56
72 40 0
72 40 0
224 32 24
8 8 48
8 8 56
192 24 56
16 16 56
224 160 128
88 128 128
8 8 56
192 24 56
64 72 80
192 24 56
192 24 56
16 16 56
72 40 0
216 184 128
224 160 128
216 184 128
24 80 64
24 80 64
224 160 128
72 40 0
8 8 56
224 32 24
16 16 56
0 128 128
8 8 56
192 24 56
192 24 56
8 8 56
0 128 128
88 128 128
192 24 56
0 128 128
24 80 64
88 128 128
104 32 0
104 32 0
8 80 64
64 72 80
0 128 128
8 80 64
16 16 56
8 8 56
192 24 56
192 24 56
192 24 56
192 24 56
88 128 128
8 8 56
224 32 128
224 32 24
224 160 128
192 24 56
88 128 128
224 32 24
8 8 56
224 160 128
216 184 128
8 8 56
88 128 128
8 8 56
192 24 56
0 128 128
224 160 128
88 128 128
72 40 0
88 128 128
224 32 24
192 24 56
0 128 128
104 32 0
88 128 128
72 40 0
24 80 64
8 8 56
88 128 128
88 128 128
24 80 64
8 8 48
8 8 56
8 8 56
224 32 128
72 40 0
8 8 48
8 8 56
8 8 56
224 160 128
8 80 64
0 128 128
88 128 128
8 8 56
88 128 128
192 24 56
224 160 128
72 40 0
8 8 56
88 128 128
16 16 56
224 32 128
16 16 56
16 16 56
0 128 128
64 72 80
88 128 128
0 128 128
104 32 0
104 32 0
192 24 56
16 16 56
88 128 128
104 32 0
8 8 56
88 128 128
72 40 0
0 128 128
192 24 56
8 8 48
224 32 24
8 8 56
8 80 64
88 128 128
72 40 0
224 32 24
192 24 56
16 16 56
88 128 128
8 8 56
8 8 56
88 128 128
72 40 0
72 40 0
0 128 128
8 8 48
192 24 56
224 32 24
72 40 0
192 24 56
216 184 128
8 80 64
192 24 56
64 72 80
192 24 56
64 72 80
224 32 24
8 8 48
216 184 128
192 24 56
224 32 24
104 32 0
0 128 128
224 160 128
104 32 0
224 32 24
0 128 128
8 8 48
192 24 56
8 80 64
192 24 56
8 80 64
0 128 128
192 24 56
8 8 48
8 8 56
104 32 0
192 24 56
192 24 56
16 16 56
0 128 128
72 40 0
192 24 56
216 184 128
24 80 64
104 32 0
192 24 56
8 8 48
224 160 128
16 16 56
88 128 128
88 128 128
224 32 24
88 128 128
0 128 128
192 24 56
192 24 56
72 40 0
224 32 24
24 80 64
192 24 56
192 24 56
192 24 56
224 32 24
24 80 64
88 128 128
24 80 64
8 8 56
88 128 128
0 128 128
192 24 56
8 8 56
224 160 128
104 32 0
0 128 128
224 32 24
8 8 56
192 24 56
88 128 128
224 32 24
8 8 56
224 32 128
0 128 128
72 40 0
8 8 56
64 72 80
8 8 56
0 128 128
8 8 56
0 128 128
8 8 56
224 32 24
8 8 56
192 24 56
224 32 24
8 8 56
224 32 24
8 8 56
192 24 56
224 160 128
224 32 128
224 32 24
224 160 128
224 160 128
224 160 128
88 128 128
192 24 56
16 16 56
192 24 56
8 8 48
8 8 56
224 32 24
0 128 128
192 24 56
64 72 80
224 32 128
192 24 56
8 8 56
224 160 128
72 40 0
64 72 80
224 160 128
64 72 80
88 128 128
192 24 56
0 128 128
192 24 56
104 32 0
8 8 48
224 160 128
64 72 80
104 32 0
88 128 128
8 8 56
0 128 128
104 32 0
224 160 128
88 128 128
72 40 0
224 160 128
104 32 0
104 32 0
216 184 128
64 72 80
224 32 24
64 72 80
224 32 24
192 24 56
224 160 128
224 32 24
224 32 128
224 32 24
192 24 56
104 32 0
224 32 24
88 128 128
192 24 56
192 24 56
224 32 24
88 128 128
88 128 128
192 24 56
224 32 128
24 80 64
192 24 56
216 184 128
0 128 128
72 40 0
0 128 128
16 16 56
72 40 0
24 80 64
192 24 56
16 16 56
192 24 56
224 32 24
224 160 128
192 24 56
216 184 128
224 32 128
192 24 56
0 128 128
192 24 56
8 8 48
88 128 128
224 160 128
8 8 56
224 160 128
224 32 24
192 24 56
8 8 56
224 160 128
224 160 128
16 16 56
224 32 24
224 32 24
192 24 56
224 160 128
88 128 128
16 16 56
8 8 56
192 24 56
216 184 128
88 128 128
224 32 24
88 128 128
224 160 128
8 8 48
88 128 128
16 16 56
224 32 128
216 184 128
224 160 128
224 160 128
224 160 128
192 24 56
216 184 128
192 24 56
8 80 64
104 32 0
224 32 24
104 32 0
192 24 56
224 32 128
192 24 56
16 16 56
104 32 0
224 32 24
8 8 56
192 24 56
224 32 24
88 128 128
0 128 128
64 72 80
16 16 56
8 8 48
192 24 56
8 8 56
24 80 64
8 8 56
8 8 48
192 24 56
224 32 128
8 8 56
192 24 56
72 40 0
192 24 56
104 32 0
216 184 128
224 160 128
64 72 80
8 8 56
192 24 56
104 32 0
192 24 56
72 40 0
72 40 0
224 32 24
8 8 48
16 16 56
224 32 24
72 40 0
88 128 128
192 24 56
16 16 56
88 128 128
72 40 0
224 32 24
104 32 0
88 128 128
0 128 128
8 80 64
224 32 24
16 16 56
0 128 128
8 8 56
104 32 0
72 40 0
104 32 0
72 40 0
0 128 128
224 160 128
8 8 56
24 80 64
104 32 0
192 24 56
224 32 24
16 16 56
224 32 24
104 32 0
192 24 56
88 128 128
224 32 24
8 80 64
224 32 24
8 80 64
192 24 56
16 16 56
224 32 128
224 160 128
0 128 128
0 128 128
8 8 56
8 8 56
8 8 56
0 128 128
0 128 128
24 80 64
88 128 128
8 8 56
192 24 56
224 32 24
224 32 24
104 32 0
224 32 24
0 128 128
192 24 56
224 160 128
88 128 128
16 16 56
224 32 128
224 32 24
216 184 128
88 128 128
224 32 24
192 24 56
8 8 56
88 128 128
8 8 48
224 32 24
64 72 80
8 8 56
224 32 128
16 16 56
192 24 56
192 24 56
224 160 128
224 32 128
224 160 128
64 72 80
8 8 56
72 40 0
8 8 56
24 80 64
88 128 128
192 24 56
192 24 56
24 80 64
8 8 48
224 160 128
224 160 128
224 160 128
8 8 56
8 8 56
216 184 128
8 80 64
224 32 24
16 16 56
8 8 56
8 8 48
88 128 128
192 24 56
8 8 48
72 40 0
192 24 56
192 24 56
8 8 56
64 72 80
8 8 56
192 24 56
72 40 0
224 32 24
192 24 56
192 24 56
8 8 56
64 72 80
8 8 56
192 24 56
64 72 80
224 32 128
224 160 128
224 160 128
224 32 128
16 16 56
224 32 128
88 128 128
8 80 64
24 80 64
0 128 128
0 128 128
24 80 64
192 24 56
192 24 56
192 24 56
224 160 128
64 72 80
192 24 56
192 24 56
24 80 64
192 24 56
24 80 64
224 160 128
224 160 128
64 72 80
192 24 56
192 24 56
24 80 64
192 24 56
24 80 64
192 24 56
192 24 56
64 72 80
88 128 128
88 128 128
24 80 64
224 160 128
24 80 64
224 160 128
224 160 128
64 72 80
192 24 56
192 24 56
24 80 64
192 24 56
24 80 64
192 24 56
192 24 56
216 184 128
0 128 128
0 128 128
24 80 64
224 32 24
224 160 128
224 32 24
192 24 56
64 72 80
192 24 56
192 24 56
24 80 64
192 24 56
24 80 64
192 24 56
192 24 56
64 72 80
192 24 56
192 24 56
24 80 64
192 24 56
24 80 64
192 24 56
192 24 56
64 72 80
192 24 56
192 24 56
24 80 64
192 24 56
24 80 64
192 24 56
192 24 56
192 24 56
192 24 56
192 24 56
192 24 56
192 24 56
192 24 56
192 24 56
192 24 56
192 24 56
88 128 128
0 128 128
192 24 56
192 24 56
192 24 56
192 24 56
192 24 56
24 80 64
224 160 128
216 184 128
224 160 128
192 24 56
8 8 56
224 160 128
64 72 80
8 8 56
192 24 56
192 24 56
8 8 56
8 8 48
8 8 56
192 24 56
72 40 0
8 8 56
192 24 56
192 24 56
8 8 56
72 40 0
8 8 56
192 24 56
8 8 56
104 32 0
192 24 56
192 24 56
224 32 128
8 8 56
224 32 128
192 24 56
64 72 80
0 128 128
192 24 56
224 32 24
224 32 24
16 16 56
192 24 56
0 128 128
192 24 56
72 40 0
224 32 128
0 128 128
24 80 64
192 24 56
192 24 56
192 24 56
24 80 64
216 184 128
224 32 128
192 24 56
24 80 64
192 24 56
24 80 64
24 80 64
192 24 56
64 72 80
0 128 128
192 24 56
24 80 64
224 32 24
224 160 128
224 32 24
192 24 56
24 80 64
0 128 128
224 160 128
224 32 24
224 32 24
224 32 24
224 32 24
224 32 24
64 72 80
192 24 56
192 24 56
24 80 64
192 24 56
24 80 64
192 24 56
192 24 56
64 72 80
192 24 56
192 24 56
24 80 64
192 24 56
24 80 64
192 24 56
192 24 56
64 72 80
192 24 56
192 24 56
24 80 64
192 24 56
24 80 64
192 24 56
192 24 56
64 72 80
192 24 56
192 24 56
24 80 64
192 24 56
24 80 64
192 24 56
192 24 56
64 72 80
192 24 56
192 24 56
24 80 64
192 24 56
24 80 64
192 24 56
192 24 56
0 128 128
192 24 56
192 24 56
192 24 56
192 24 56
192 24 56
192 24 56
192 24 56
192 24 56
0 128 128
192 24 56
192 24 56
192 24 56
192 24 56
192 24 56
192 24 56
216 184 128
224 160 128
224 160 128
224 160 128
192 24 56
216 184 128
224 160 128
216 184 128
224 32 24
192 24 56
192 24 56
224 32 24
64 72 80
8 8 56
192 24 56
8 8 56
8 8 48
192 24 56
192 24 56
104 32 0
64 72 80
224 32 128
192 24 56
8 8 48
8 8 56
192 24 56
192 24 56
72 40 0
64 72 80
8 8 56
192 24 56
64 72 80
0 128 128
0 128 128
16 16 56
192 24 56
0 128 128
192 24 56
192 24 56
0 128 128
72 40 0
192 24 56
0 128 128
24 80 64
192 24 56
192 24 56
224 160 128
224 160 128
64 72 80
88 128 128
88 128 128
24 80 64
192 24 56
24 80 64
24 80 64
192 24 56
216 184 128
192 24 56
192 24 56
24 80 64
224 32 24
224 160 128
224 32 24
224 32 24
64 72 80
192 24 56
192 24 56
24 80 64
224 32 24
24 80 64
224 32 24
224 32 24
64 72 80
192 24 56
192 24 56
24 80 64
192 24 56
24 80 64
192 24 56
192 24 56
64 72 80
192 24 56
192 24 56
24 80 64
192 24 56
24 80 64
192 24 56
192 24 56
64 72 80
192 24 56
192 24 56
24 80 64
192 24 56
24 80 64
192 24 56
192 24 56
64 72 80
192 24 56
192 24 56
24 80 64
192 24 56
24 80 64
192 24 56
192 24 56
64 72 80
192 24 56
192 24 56
24 80 64
192 24 56
24 80 64
192 24 56
192 24 56
192 24 56
192 24 56
192 24 56
192 24 56
192 24 56
192 24 56
192 24 56
192 24 56
192 24 56
88 128 128
192 24 56
192 24 56
192 24 56
192 24 56
192 24 56
192 24 56
64 72 80
8 8 56
72 40 0
8 8 56
24 80 64
88 128 128
8 8 56
8 8 56
88 128 128
192 24 56
192 24 56
104 32 0
8 8 56
224 32 128
192 24 56
8 8 48
72 40 0
192 24 56
192 24 56
72 40 0
8 8 48
8 8 56
192 24 56
72 40 0
8 8 56
192 24 56
192 24 56
224 32 24
72 40 0
8 8 56
192 24 56
64 72 80
0 128 128
192 24 56
0 128 128
224 32 24
0 128 128
224 160 128
0 128 128
224 160 128
72 40 0
224 32 128
192 24 56
24 80 64
192 24 56
192 24 56
224 160 128
224 160 128
72 40 0
192 24 56
0 128 128
24 80 64
192 24 56
24 80 64
24 80 64
224 160 128
64 72 80
192 24 56
192 24 56
24 80 64
192 24 56
24 80 64
192 24 56
192 24 56
64 72 80
0 128 128
192 24 56
24 80 64
224 32 24
24 80 64
224 32 24
224 32 24
64 72 80
192 24 56
192 24 56
24 80 64
192 24 56
24 80 64
192 24 56
192 24 56
64 72 80
192 24 56
192 24 56
24 80 64
192 24 56
24 80 64
192 24 56
192 24 56
64 72 80
192 24 56
192 24 56
24 80 64
192 24 56
24 80 64
192 24 56
192 24 56
64 72 80
192 24 56
192 24 56
24 80 64
192 24 56
24 80 64
192 24 56
192 24 56
64 72 80
192 24 56
192 24 56
24 80 64
192 24 56
24 80 64
192 24 56
192 24 56
192 24 56
0 128 128
192 24 56
192 24 56
192 24 56
192 24 56
192 24 56
192 24 56
88 128 128
192 24 56
0 128 128
192 24 56
192 24 56
192 24 56
192 24 56
192 24 56
8 8 56
16 16 56
8 8 56
224 32 24
224 32 24
224 32 128
224 32 24
64 72 80
8 8 56
192 24 56
192 24 56
8 8 56
64 72 80
8 8 56
192 24 56
72 40 0
8 8 56
192 24 56
192 24 56
8 8 56
64 72 80
8 8 56
192 24 56
8 8 56
104 32 0
192 24 56
192 24 56
224 32 128
64 72 80
224 32 128
192 24 56
64 72 80
0 128 128
224 32 24
224 32 24
0 128 128
224 160 128
0 128 128
8 8 56
0 128 128
216 184 128
192 24 56
192 24 56
24 80 64
192 24 56
192 24 56
224 160 128
24 80 64
64 72 80
192 24 56
192 24 56
24 80 64
192 24 56
24 80 64
224 32 24
224 32 24
64 72 80
192 24 56
192 24 56
24 80 64
192 24 56
24 80 64
192 24 56
192 24 56
64 72 80
0 128 128
0 128 128
24 80 64
224 32 24
24 80 64
224 32 24
224 32 24
64 72 80
192 24 56
192 24 56
24 80 64
192 24 56
24 80 64
192 24 56
192 24 56
64 72 80
192 24 56
192 24 56
24 80 64
192 24 56
24 80 64
192 24 56
192 24 56
64 72 80
192 24 56
192 24 56
24 80 64
192 24 56
24 80 64
192 24 56
192 24 56
64 72 80
192 24 56
192 24 56
24 80 64
192 24 56
24 80 64
192 24 56
192 24 56
64 72 80
192 24 56
192 24 56
24 80 64
192 24 56
24 80 64
192 24 56
192 24 56
192 24 56
192 24 56
192 24 56
192 24 56
192 24 56
192 24 56
192 24 56
192 24 56
192 24 56
0 128 128
192 24 56
192 24 56
192 24 56
192 24 56
192 24 56
192 24 56
216 184 128
24 80 64
72 40 0
24 80 64
192 24 56
224 32 128
224 32 24
64 72 80
224 32 24
192 24 56
192 24 56
8 8 56
72 40 0
8 8 56
192 24 56
8 8 56
224 32 128
192 24 56
192 24 56
224 32 128
8 8 56
224 32 128
192 24 56
8 8 48
72 40 0
192 24 56
192 24 56
8 8 56
8 8 48
8 8 56
192 24 56
64 72 80
192 24 56
192 24 56
192 24 56
192 24 56
224 160 128
224 160 128
224 160 128
224 160 128
216 184 128
0 128 128
192 24 56
24 80 64
192 24 56
224 160 128
192 24 56
224 32 24
72 40 0
0 128 128
192 24 56
24 80 64
224 160 128
224 32 24
224 32 24
192 24 56
64 72 80
88 128 128
192 24 56
24 80 64
224 160 128
224 32 24
224 160 128
224 160 128
24 80 64
192 24 56
24 80 64
192 24 56
192 24 56
192 24 56
192 24 56
224 160 128
64 72 80
88 128 128
192 24 56
24 80 64
224 160 128
224 32 24
192 24 56
192 24 56
64 72 80
192 24 56
192 24 56
24 80 64
224 160 128
224 32 24
224 160 128
192 24 56
64 72 80
192 24 56
192 24 56
24 80 64
192 24 56
24 80 64
192 24 56
192 24 56
64 72 80
192 24 56
192 24 56
24 80 64
192 24 56
24 80 64
192 24 56
192 24 56
8 80 64
88 128 128
88 128 128
224 32 24
192 24 56
224 32 24
192 24 56
192 24 56
192 24 56
192 24 56
192 24 56
192 24 56
88 128 128
88 128 128
88 128 128
192 24 56
192 24 56
88 128 128
192 24 56
192 24 56
192 24 56
192 24 56
192 24 56
192 24 56
8 80 64
24 80 64
8 8 56
224 32 24
88 128 128
72 40 0
224 32 24
72 40 0
88 128 128
192 24 56
192 24 56
104 32 0
64 72 80
224 32 128
192 24 56
8 8 48
72 40 0
192 24 56
192 24 56
72 40 0
64 72 80
8 8 56
192 24 56
64 72 80
8 8 56
192 24 56
192 24 56
224 32 24
64 72 80
8 8 56
192 24 56
64 72 80
104 32 0
192 24 56
224 160 128
192 24 56
192 24 56
224 160 128
192 24 56
192 24 56
216 184 128
88 128 128
192 24 56
24 80 64
192 24 56
224 160 128
224 32 24
224 32 24
72 40 0
224 32 128
0 128 128
24 80 64
224 160 128
224 32 24
224 32 24
192 24 56
72 40 0
192 24 56
192 24 56
24 80 64
224 160 128
24 80 64
192 24 56
192 24 56
64 72 80
192 24 56
192 24 56
24 80 64
192 24 56
24 80 64
192 24 56
192 24 56
72 40 0
192 24 56
192 24 56
24 80 64
224 160 128
224 32 24
192 24 56
224 160 128
64 72 80
192 24 56
192 24 56
24 80 64
192 24 56
24 80 64
192 24 56
192 24 56
64 72 80
192 24 56
192 24 56
24 80 64
192 24 56
24 80 64
192 24 56
192 24 56
64 72 80
192 24 56
192 24 56
24 80 64
192 24 56
24 80 64
192 24 56
192 24 56
8 80 64
88 128 128
88 128 128
224 32 24
192 24 56
224 32 24
192 24 56
192 24 56
192 24 56
192 24 56
192 24 56
192 24 56
192 24 56
88 128 128
192 24 56
192 24 56
88 128 128
0 128 128
192 24 56
192 24 56
192 24 56
192 24 56
192 24 56
192 24 56
8 80 64
8 8 56
216 184 128
8 8 56
8 8 56
8 8 56
224 32 24
216 184 128
8 8 56
192 24 56
192 24 56
72 40 0
8 8 48
8 8 56
192 24 56
72 40 0
224 32 24
192 24 56
192 24 56
224 32 24
72 40 0
8 8 56
192 24 56
216 184 128
8 8 48
192 24 56
192 24 56
104 32 0
8 8 56
224 32 128
192 24 56
64 72 80
104 32 0
88 128 128
224 160 128
192 24 56
192 24 56
24 80 64
192 24 56
224 32 24
216 184 128
224 32 128
88 128 128
24 80 64
192 24 56
224 160 128
224 32 24
224 32 24
216 184 128
192 24 56
88 128 128
24 80 64
224 160 128
224 32 24
224 32 24
224 32 24
72 40 0
88 128 128
192 24 56
24 80 64
224 160 128
24 80 64
192 24 56
192 24 56
64 72 80
192 24 56
192 24 56
24 80 64
192 24 56
24 80 64
192 24 56
192 24 56
64 72 80
88 128 128
192 24 56
24 80 64
224 160 128
224 32 24
192 24 56
224 160 128
64 72 80
192 24 56
192 24 56
24 80 64
192 24 56
24 80 64
192 24 56
192 24 56
64 72 80
192 24 56
192 24 56
24 80 64
192 24 56
24 80 64
192 24 56
192 24 56
64 72 80
192 24 56
192 24 56
24 80 64
192 24 56
24 80 64
192 24 56
192 24 56
16 16 56
88 128 128
88 128 128
224 32 24
192 24 56
224 32 24
192 24 56
192 24 56
192 24 56
192 24 56
192 24 56
192 24 56
192 24 56
88 128 128
88 128 128
192 24 56
8 8 56
88 128 128
224 160 128
224 160 128
192 24 56
192 24 56
224 160 128
224 160 128
224 32 24
192 24 56
8 8 56
192 24 56
72 40 0
192 24 56
64 72 80
192 24 56
224 160 128
192 24 56
192 24 56
24 80 64
64 72 80
224 32 24
224 32 128
24 80 64
224 32 24
192 24 56
224 32 24
224 32 24
64 72 80
224 32 24
8 8 48
224 32 24
224 32 24
192 24 56
224 32 24
224 32 24
224 32 24
224 32 24
224 160 128
16 16 56
64 72 80
224 32 24
192 24 56
8 8 56
8 8 48
72 40 0
192 24 56
8 8 56
24 80 64
104 32 0
8 8 56
224 32 24
8 8 56
224 32 24
192 24 56
8 80 64
224 32 128
224 32 128
192 24 56
192 24 56
64 72 80
192 24 56
216 184 128
192 24 56
8 8 56
8 8 56
224 160 128
88 128 128
8 8 56
8 8 56
224 160 128
8 8 56
8 8 56
72 40 0
224 32 24
24 80 64
8 8 56
8 8 56
224 32 24
192 24 56
8 8 48
72 40 0
216 184 128
224 32 24
216 184 128
224 32 24
8 8 56
192 24 56
192 24 56
216 184 128
216 184 128
16 16 56
8 80 64
224 32 24
192 24 56
8 8 56
192 24 56
88 128 128
88 128 128
192 24 56
8 80 64
192 24 56
16 16 56
88 128 128
24 80 64
8 8 56
8 8 48
224 160 128
104 32 0
24 80 64
224 160 128
104 32 0
224 32 24
24 80 64
224 160 128
192 24 56
88 128 128
224 160 128
8 80 64
224 160 128
224 32 128
0 128 128
8 8 56
224 32 24
88 128 128
192 24 56
0 128 128
88 128 128
8 8 56
224 160 128
192 24 56
0 128 128
0 128 128
8 8 56
192 24 56
8 8 56
0 128 128
192 24 56
16 16 56
0 128 128
8 8 48
0 128 128
216 184 128
16 16 56
192 24 56
192 24 56
0 128 128
192 24 56
24 80 64
0 128 128
24 80 64
224 32 128
192 24 56
192 24 56
0 128 128
224 160 128
64 72 80
8 8 56
8 80 64
8 8 56
64 72 80
224 160 128
192 24 56
16 16 56
104 32 0
8 8 48
72 40 0
8 8 56
8 8 56
88 128 128
224 32 24
88 128 128
72 40 0
8 8 56
64 72 80
192 24 56
72 40 0
192 24 56
0 128 128
192 24 56
8 8 56
72 40 0
192 24 56
224 160 128
216 184 128
224 160 128
8 8 56
16 16 56
8 80 64
88 128 128
24 80 64
216 184 128
88 128 128
0 128 128
8 80 64
16 16 56
64 72 80
0 128 128
16 16 56
104 32 0
224 160 128
224 32 24
24 80 64
0 128 128
72 40 0
192 24 56
88 128 128
216 184 128
8 8 48
8 8 48
216 184 128
0 128 128
8 8 56
192 24 56
224 32 24
192 24 56
72 40 0
0 128 128
192 24 56
0 128 128
8 8 56
72 40 0
0 128 128
24 80 64
224 160 128
16 16 56
0 128 128
192 24 56
8 8 56
224 160 128
88 128 128
8 8 56
192 24 56
224 32 24
224 32 24
224 32 24
24 80 64
192 24 56
72 40 0
0 128 128
224 160 128
192 24 56
72 40 0
0 128 128
24 80 64
192 24 56
88 128 128
8 8 56
72 40 0
224 32 24
16 16 56
24 80 64
72 40 0
72 40 0
224 32 24
224 160 128
24 80 64
8 8 56
88 128 128
224 32 128
64 72 80
8 8 48
216 184 128
224 160 128
192 24 56
192 24 56
224 160 128
88 128 128
8 80 64
88 128 128
16 16 56
104 32 0
88 128 128
192 24 56
104 32 0
88 128 128
64 72 80
88 128 128
72 40 0
104 32 0
192 24 56
192 24 56
88 128 128
192 24 56
64 72 80
88 128 128
72 40 0
88 128 128
72 40 0
224 32 24
224 160 128
224 160 128
64 72 80
72 40 0
88 128 128
8 8 56
88 128 128
88 128 128
88 128 128
224 160 128
192 24 56
0 128 128
88 128 128
224 32 24
8 80 64
8 8 56
192 24 56
192 24 56
8 8 56
8 80 64
104 32 0
0 128 128
224 32 24
0 128 128
72 40 0
16 16 56
8 8 56
0 128 128
8 8 56
8 8 56
8 8 56
192 24 56
224 160 128
192 24 56
16 16 56
72 40 0
8 8 56
16 16 56
192 24 56
192 24 56
192 24 56
192 24 56
192 24 56
224 32 24
192 24 56
192 24 56
8 8 56
224 160 128
0 128 128
24 80 64
224 32 128
8 80 64
0 128 128
16 16 56
8 80 64
8 8 56
8 8 56
192 24 56
8 8 56
0 128 128
104 32 0
0 128 128
8 80 64
88 128 128
224 32 128
224 32 128
72 40 0
224 32 24
104 32 0
16 16 56
224 32 128
224 160 128
104 32 0
192 24 56
104 32 0
0 128 128
192 24 56
192 24 56
8 8 56
224 32 128
224 32 128
0 128 128
224 32 128
8 8 56
0 128 128
8 8 56
224 32 24
192 24 56
224 32 24
192 24 56
192 24 56
192 24 56
224 32 24
0 128 128
8 80 64
8 80 64
88 128 128
216 184 128
8 8 48
104 32 0
8 8 48
224 160 128
192 24 56
192 24 56
192 24 56
224 32 24
64 72 80
224 32 24
8 8 48
224 32 24
192 24 56
192 24 56
224 32 24
0 128 128
8 8 48
16 16 56
104 32 0
0 128 128
192 24 56
192 24 56
224 32 24
0 128 128
64 72 80
16 16 56
216 184 128
0 128 128
104 32 0
8 8 56
8 8 56
104 32 0
16 16 56
104 32 0
0 128 128
24 80 64
224 32 128
224 32 24
224 32 128
16 16 56
224 32 128
8 8 48
216 184 128
8 8 56
88 128 128
192 24 56
88 128 128
224 32 24
64 72 80
88 128 128
0 128 128
104 32 0
16 16 56
192 24 56
192 24 56
192 24 56
224 32 24
16 16 56
88 128 128
8 80 64
8 8 48
72 40 0
24 80 64
224 32 24
8 8 56
8 8 56
224 32 24
192 24 56
224 32 128
0 128 128
192 24 56
192 24 56
8 8 48
104 32 0
104 32 0
8 8 48
8 8 56
16 16 56
24 80 64
224 32 24
224 32 24
224 32 24
216 184 128
192 24 56
104 32 0
224 160 128
104 32 0
224 32 24
64 72 80
88 128 128
0 128 128
88 128 128
8 8 48
8 8 56
8 8 48
8 8 56
8 8 56
104 32 0
224 32 24
88 128 128
224 32 128
0 128 128
224 32 24
224 32 24
192 24 56
88 128 128
0 128 128
104 32 0
8 8 56
224 160 128
192 24 56
192 24 56
224 160 128
0 128 128
8 8 56
8 80 64
224 32 128
0 128 128
0 128 128
224 32 128
224 32 128
224 32 128
16 16 56
8 8 56
72 40 0
224 32 128
8 8 48
88 128 128
24 80 64
72 40 0
24 80 64
24 80 64
192 24 56
192 24 56
0 128 128
224 160 128
216 184 128
224 160 128
8 80 64
224 160 128
224 32 24
192 24 56
192 24 56
24 80 64
64 72 80
224 160 128
224 32 128
24 80 64
192 24 56
192 24 56
224 160 128
88 128 128
64 72 80
104 32 0
16 16 56
88 128 128
104 32 0
224 160 128
192 24 56
224 160 128
88 128 128
88 128 128
224 32 24
88 128 128
72 40 0
192 24 56
224 160 128
8 8 56
72 40 0
24 80 64
192 24 56
216 184 128
224 32 24
16 16 56
8 8 56
192 24 56
8 8 56
192 24 56
192 24 56
8 8 48
8 8 56
0 128 128
224 160 128
192 24 56
64 72 80
192 24 56
64 72 80
192 24 56
8 8 48
8 8 56
216 184 128
8 8 48
224 32 24
8 8 56
224 32 24
8 8 56
8 8 56
216 184 128
224 160 128
24 80 64
8 8 56
8 8 56
224 160 128
192 24 56
72 40 0
224 32 24
16 16 56
192 24 56
72 40 0
192 24 56
8 8 56
192 24 56
192 24 56
16 16 56
16 16 56
192 24 56
8 8 48
192 24 56
104 32 0
0 128 128
192 24 56
0 128 128
0 128 128
192 24 56
8 8 48
192 24 56
104 32 0
0 128 128
216 184 128
8 8 56
72 40 0
24 80 64
8 80 64
24 80 64
24 80 64
72 40 0
88 128 128
224 32 24
8 8 56
88 128 128
0 128 128
8 8 56
8 8 48
8 8 56
8 8 56
192 24 56
0 128 128
224 160 128
8 8 56
104 32 0
192 24 56
8 8 56
8 8 56
8 8 56
88 128 128
192 24 56
192 24 56
8 8 56
224 160 128
216 184 128
192 24 56
192 24 56
88 128 128
192 24 56
72 40 0
192 24 56
72 40 0
192 24 56
192 24 56
192 24 56
88 128 128
192 24 56
216 184 128
192 24 56
216 184 128
0 128 128
224 160 128
192 24 56
192 24 56
24 80 64
64 72 80
224 32 24
224 32 128
24 80 64
16 16 56
224 32 24
192 24 56
224 160 128
64 72 80
16 16 56
8 8 56
0 128 128
8 8 48
0 128 128
192 24 56
224 32 128
8 8 56
8 8 48
16 16 56
192 24 56
8 8 56
88 128 128
88 128 128
88 128 128
8 8 56
224 32 24
192 24 56
224 32 24
64 72 80
224 32 24
224 32 128
104 32 0
224 32 128
8 8 48
224 32 24
8 80 64
8 8 56
224 160 128
8 8 56
192 24 56
16 16 56
88 128 128
192 24 56
16 16 56
224 32 24
224 160 128
24 80 64
88 128 128
216 184 128
192 24 56
0 128 128
72 40 0
8 80 64
16 16 56
16 16 56
224 160 128
224 32 128
104 32 0
88 128 128
104 32 0
224 32 24
104 32 0
88 128 128
192 24 56
8 8 56
224 32 24
192 24 56
8 8 56
224 32 24
104 32 0
88 128 128
192 24 56
8 8 56
224 32 24
0 128 128
8 8 56
224 160 128
192 24 56
192 24 56
192 24 56
224 32 24
224 160 128
224 32 24
224 160 128
8 8 56
192 24 56
224 32 24
192 24 56
224 32 24
88 128 128
0 128 128
224 32 128
224 32 24
192 24 56
192 24 56
224 32 24
24 80 64
224 32 24
192 24 56
224 32 24
24 80 64
8 8 48
224 32 128
224 32 128
72 40 0
16 16 56
16 16 56
24 80 64
88 128 128
192 24 56
224 32 24
224 32 128
224 32 128
0 128 128
192 24 56
8 80 64
0 128 128
192 24 56
16 16 56
0 128 128
64 72 80
0 128 128
216 184 128
16 16 56
192 24 56
192 24 56
0 128 128
192 24 56
72 40 0
0 128 128
216 184 128
224 32 128
224 32 24
88 128 128
8 8 56
224 32 24
8 80 64
224 32 24
0 128 128
8 8 56
8 8 48
8 8 56
0 128 128
224 32 24
88 128 128
88 128 128
0 128 128
88 128 128
0 128 128
8 8 48
192 24 56
192 24 56
216 184 128
0 128 128
64 72 80
192 24 56
104 32 0
192 24 56
224 32 24
192 24 56
24 80 64
104 32 0
0 128 128
24 80 64
216 184 128
224 160 128
8 8 56
104 32 0
88 128 128
8 8 56
224 32 24
192 24 56
104 32 0
192 24 56
224 160 128
192 24 56
192 24 56
224 160 128
224 160 128
192 24 56
8 8 56
216 184 128
224 160 128
24 80 64
8 8 56
8 8 56
224 160 128
192 24 56
8 8 48
0 128 128
224 32 128
88 128 128
216 184 128
224 160 128
16 16 56
104 32 0
8 8 48
0 128 128
224 32 128
224 32 128
24 80 64
104 32 0
16 16 56
104 32 0
8 8 56
24 80 64
72 40 0
192 24 56
16 16 56
192 24 56
224 160 128
192 24 56
216 184 128
224 32 128
8 8 56
224 160 128
224 32 128
24 80 64
224 160 128
24 80 64
88 128 128
192 24 56
192 24 56
88 128 128
88 128 128
88 128 128
192 24 56
88 128 128
224 32 128
8 8 56
224 32 128
72 40 0
8 80 64
72 40 0
8 80 64
24 80 64
224 160 128
192 24 56
224 160 128
224 160 128
64 72 80
224 160 128
8 80 64
224 160 128
192 24 56
192 24 56
224 160 128
88 128 128
64 72 80
88 128 128
16 16 56
104 32 0
104 32 0
192 24 56
192 24 56
192 24 56
64 72 80
192 24 56
16 16 56
192 24 56
72 40 0
0 128 128
0 128 128
16 16 56
224 160 128
72 40 0
88 128 128
24 80 64
0 128 128
192 24 56
0 128 128
224 160 128
8 8 48
16 16 56
8 80 64
224 32 24
8 8 48
192 24 56
8 8 48
192 24 56
64 72 80
8 8 56
192 24 56
72 40 0
88 128 128
88 128 128
192 24 56
88 128 128
104 32 0
192 24 56
8 8 56
0 128 128
72 40 0
224 32 24
24 80 64
192 24 56
8 8 56
0 128 128
88 128 128
104 32 0
8 8 48
224 160 128
192 24 56
224 160 128
64 72 80
64 72 80
16 16 56
8 80 64
216 184 128
224 160 128
8 8 56
104 32 0
88 128 128
88 128 128
72 40 0
88 128 128
8 80 64
8 8 56
8 80 64
192 24 56
64 72 80
224 32 128
224 160 128
0 128 128
8 80 64
8 8 56
8 80 64
8 8 56
8 8 56
8 80 64
104 32 0
0 128 128
8 8 56
192 24 56
104 32 0
88 128 128
192 24 56
8 8 56
192 24 56
16 16 56
24 80 64
224 32 24
192 24 56
192 24 56
224 32 24
224 160 128
224 32 128
8 8 56
8 8 56
192 24 56
192 24 56
8 8 56
8 8 48
8 8 48
192 24 56
8 8 56
8 8 56
224 32 128
8 80 64
224 32 128
224 32 24
24 80 64
24 80 64
24 80 64
224 32 128
0 128 128
224 32 128
192 24 56
8 8 56
0 128 128
192 24 56
224 32 128
8 8 48
0 128 128
0 128 128
0 128 128
0 128 128
8 8 56
0 128 128
24 80 64
24 80 64
224 32 24
72 40 0
0 128 128
72 40 0
8 8 56
104 32 0
224 32 24
88 128 128
192 24 56
192 24 56
192 24 56
192 24 56
64 72 80
24 80 64
224 32 128
224 160 128
24 80 64
0 128 128
192 24 56
224 32 128
192 24 56
224 160 128
0 128 128
224 32 128
88 128 128
0 128 128
192 24 56
0 128 128
192 24 56
192 24 56
0 128 128
16 16 56
8 80 64
88 128 128
224 32 24
224 32 128
192 24 56
8 8 56
104 32 0
8 8 56
88 128 128
224 32 128
192 24 56
8 8 48
224 160 128
192 24 56
8 8 56
24 80 64
0 128 128
72 40 0
192 24 56
24 80 64
192 24 56
192 24 56
216 184 128
24 80 64
192 24 56
8 8 56
192 24 56
24 80 64
192 24 56
192 24 56
224 160 128
88 128 128
224 160 128
24 80 64
88 128 128
104 32 0
192 24 56
104 32 0
216 184 128
24 80 64
8 8 56
8 8 56
72 40 0
16 16 56
0 128 128
0 128 128
24 80 64
224 160 128
88 128 128
88 128 128
104 32 0
104 32 0
88 128 128
8 8 56
24 80 64
8 8 56
16 16 56
16 16 56
0 128 128
16 16 56
224 32 128
0 128 128
88 128 128
8 8 48
216 184 128
64 72 80
104 32 0
64 72 80
104 32 0
64 72 80
64 72 80
0 128 128
0 128 128
192 24 56
8 8 56
192 24 56
224 160 128
8 8 56
224 160 128
24 80 64
16 16 56
0 128 128
0 128 128
24 80 64
224 160 128
224 160 128
24 80 64
8 8 56
224 160 128
24 80 64
224 32 128
16 16 56
72 40 0
216 184 128
88 128 128
88 128 128
192 24 56
88 128 128
88 128 128
224 32 128
8 80 64
8 8 56
8 8 56
24 80 64
224 160 128
216 184 128
224 160 128
64 72 80
224 160 128
72 40 0
104 32 0
224 160 128
192 24 56
216 184 128
88 128 128
16 16 56
192 24 56
16 16 56
192 24 56
8 8 48
224 160 128
192 24 56
24 80 64
192 24 56
224 32 24
192 24 56
224 32 24
64 72 80
64 72 80
8 8 48
104 32 0
24 80 64
24 80 64
192 24 56
16 16 56
224 32 24
88 128 128
8 8 56
192 24 56
16 16 56
224 32 24
0 128 128
24 80 64
24 80 64
192 24 56
192 24 56
88 128 128
88 128 128
24 80 64
192 24 56
216 184 128
8 8 48
224 32 24
192 24 56
224 32 24
16 16 56
224 160 128
192 24 56
224 160 128
8 8 48
192 24 56
224 160 128
224 32 24
104 32 0
0 128 128
8 8 56
64 72 80
224 160 128
88 128 128
88 128 128
104 32 0
104 32 0
88 128 128
88 128 128
224 160 128
0 128 128
192 24 56
192 24 56
0 128 128
0 128 128
224 160 128
192 24 56
0 128 128
72 40 0
8 80 64
64 72 80
88 128 128
8 8 48
192 24 56
88 128 128
224 160 128
64 72 80
64 72 80
64 72 80
64 72 80
64 72 80
64 72 80
64 72 80
64 72 80
8 80 64
88 128 128
224 32 128
88 128 128
0 128 128
192 24 56
224 160 128
8 8 56
224 32 128
8 8 56
224 32 128
224 32 24
8 8 56
8 8 56
0 128 128
8 8 56
224 32 24
24 80 64
72 40 0
88 128 128
192 24 56
88 128 128
224 32 24
224 32 128
192 24 56
224 160 128
8 8 48
224 160 128
72 40 0
72 40 0
24 80 64
0 128 128
8 8 56
192 24 56
8 8 56
0 128 128
8 8 56
0 128 128
8 8 56
224 32 128
192 24 56
192 24 56
0 128 128
192 24 56
0 128 128
224 32 24
0 128 128
224 32 24
72 40 0
0 128 128
72 40 0
224 32 24
0 128 128
8 8 56
16 16 56
8 80 64
224 160 128
8 8 48
224 32 24
192 24 56
88 128 128
192 24 56
224 160 128
224 32 24
88 128 128
8 8 48
224 32 24
192 24 56
88 128 128
88 128 128
192 24 56
8 80 64
224 32 24
224 160 128
24 80 64
224 160 128
24 80 64
192 24 56
88 128 128
224 32 24
24 80 64
0 128 128
72 40 0
192 24 56
72 40 0
192 24 56
0 128 128
64 72 80
0 128 128
104 32 0
88 128 128
224 32 128
72 40 0
16 16 56
192 24 56
192 24 56
0 128 128
192 24 56
192 24 56
0 128 128
0 128 128
192 24 56
192 24 56
8 8 56
8 8 56
192 24 56
224 32 24
8 80 64
8 8 56
224 32 24
16 16 56
8 8 56
0 128 128
8 8 48
0 128 128
8 8 48
8 8 48
16 16 56
8 8 48
192 24 56
64 72 80
64 72 80
64 72 80
64 72 80
64 72 80
64 72 80
64 72 80
64 72 80
0 128 128
104 32 0
224 160 128
224 32 24
224 32 128
64 72 80
224 160 128
72 40 0
8 8 56
224 32 128
8 8 48
224 32 128
224 160 128
24 80 64
24 80 64
24 80 64
8 8 56
88 128 128
72 40 0
8 8 56
224 32 24
192 24 56
88 128 128
224 32 24
192 24 56
192 24 56
192 24 56
192 24 56
104 32 0
16 16 56
8 8 48
16 16 56
224 32 128
224 160 128
88 128 128
104 32 0
216 184 128
8 8 56
8 8 56
216 184 128
104 32 0
224 32 24
216 184 128
192 24 56
216 184 128
0 128 128
72 40 0
8 8 56
224 32 24
224 32 24
192 24 56
192 24 56
224 32 24
192 24 56
192 24 56
192 24 56
72 40 0
16 16 56
216 184 128
72 40 0
224 32 24
224 160 128
24 80 64
24 80 64
224 160 128
72 40 0
8 80 64
24 80 64
16 16 56
224 32 24
224 32 24
8 80 64
72 40 0
192 24 56
88 128 128
192 24 56
224 160 128
224 32 24
192 24 56
224 32 24
24 80 64
192 24 56
192 24 56
88 128 128
88 128 128
224 32 24
88 128 128
8 8 56
104 32 0
72 40 0
8 8 56
192 24 56
88 128 128
224 32 24
8 8 48
88 128 128
8 8 56
192 24 56
224 32 24
8 8 56
8 80 64
16 16 56
16 16 56
8 80 64
24 80 64
24 80 64
224 32 24
8 8 56
224 160 128
224 32 24
88 128 128
88 128 128
72 40 0
72 40 0
216 184 128
8 80 64
88 128 128
24 80 64
192 24 56
224 160 128
64 72 80
64 72 80
64 72 80
64 72 80
64 72 80
64 72 80
64 72 80
64 72 80
216 184 128
192 24 56
72 40 0
192 24 56
8 8 56
224 32 24
104 32 0
8 80 64
224 32 128
88 128 128
224 32 128
192 24 56
8 8 56
104 32 0
192 24 56
8 8 48
8 80 64
192 24 56
88 128 128
192 24 56
192 24 56
8 8 56
192 24 56
8 8 56
8 8 56
192 24 56
224 32 24
192 24 56
224 32 24
8 8 48
72 40 0
88 128 128
224 32 128
192 24 56
192 24 56
88 128 128
224 160 128
64 72 80
24 80 64
0 128 128
216 184 128
24 80 64
88 128 128
88 128 128
8 8 48
224 160 128
8 8 56
104 32 0
224 32 128
224 32 128
88 128 128
192 24 56
192 24 56
88 128 128
104 32 0
192 24 56
224 160 128
8 8 56
0 128 128
192 24 56
8 8 56
192 24 56
224 32 24
16 16 56
8 8 56
8 8 48
8 8 48
104 32 0
8 80 64
224 32 24
88 128 128
8 8 56
8 8 56
224 160 128
224 32 24
224 160 128
216 184 128
192 24 56
192 24 56
16 16 56
216 184 128
88 128 128
216 184 128
192 24 56
216 184 128
88 128 128
192 24 56
24 80 64
8 8 56
224 32 24
216 184 128
224 32 128
72 40 0
224 160 128
72 40 0
16 16 56
24 80 64
224 32 24
24 80 64
216 184 128
224 160 128
224 160 128
224 160 128
24 80 64
216 184 128
8 8 48
8 8 56
16 16 56
64 72 80
0 128 128
0 128 128
224 32 24
8 8 56
192 24 56
192 24 56
192 24 56
224 160 128
8 8 56
224 160 128
8 8 56
64 72 80
64 72 80
64 72 80
64 72 80
64 72 80
64 72 80
64 72 80
64 72 80
192 24 56
192 24 56
192 24 56
8 8 56
224 160 128
224 32 24
224 32 24
8 8 56
24 80 64
104 32 0
88 128 128
88 128 128
24 80 64
224 32 24
224 32 24
24 80 64
24 80 64
24 80 64
216 184 128
224 32 128
104 32 0
24 80 64
16 16 56
8 8 56
224 32 128
192 24 56
224 32 128
0 128 128
0 128 128
224 32 128
0 128 128
224 32 128
8 8 56
8 8 56
64 72 80
24 80 64
16 16 56
224 32 24
8 8 56
16 16 56
224 32 24
88 128 128
72 40 0
0 128 128
192 24 56
192 24 56
192 24 56
224 160 128
64 72 80
216 184 128
88 128 128
224 32 24
104 32 0
224 160 128
88 128 128
104 32 0
64 72 80
8 80 64
72 40 0
16 16 56
216 184 128
224 32 24
224 160 128
192 24 56
104 32 0
0 128 128
8 8 56
224 160 128
104 32 0
224 160 128
192 24 56
8 8 56
24 80 64
88 128 128
104 32 0
0 128 128
8 8 56
224 32 24
192 24 56
72 40 0
64 72 80
192 24 56
192 24 56
192 24 56
192 24 56
24 80 64
192 24 56
24 80 64
8 80 64
88 128 128
8 8 56
104 32 0
64 72 80
104 32 0
8 8 48
72 40 0
24 80 64
8 8 56
8 8 56
72 40 0
16 16 56
0 128 128
8 8 56
224 32 24
104 32 0
104 32 0
104 32 0
192 24 56
88 128 128
224 32 24
192 24 56
192 24 56
216 184 128
8 8 48
64 72 80
8 8 48
8 80 64
104 32 0
224 32 128
224 32 24
64 72 80
64 72 80
64 72 80
64 72 80
64 72 80
64 72 80
64 72 80
64 72 80
224 32 128
0 128 128
0 128 128
0 128 128
88 128 128
88 128 128
8 8 56
224 32 24
224 32 128
8 8 56
224 32 128
224 160 128
8 8 56
8 8 56
88 128 128
8 8 56
192 24 56
224 32 24
224 32 24
0 128 128
88 128 128
8 8 56
224 160 128
8 8 56
192 24 56
224 32 24
8 80 64
224 32 24
216 184 128
224 32 24
224 32 24
88 128 128
8 8 56
88 128 128
224 32 24
224 160 128
8 8 56
192 24 56
224 32 24
224 32 128
104 32 0
104 32 0
224 160 128
104 32 0
224 160 128
192 24 56
224 160 128
224 160 128
224 32 24
88 128 128
24 80 64
192 24 56
192 24 56
0 128 128
192 24 56
8 8 56
8 8 56
16 16 56
88 128 128
88 128 128
0 128 128
88 128 128
8 8 56
88 128 128
0 128 128
8 80 64
224 160 128
192 24 56
0 128 128
0 128 128
192 24 56
8 8 56
104 32 0
8 8 56
8 8 56
8 8 56
224 32 24
104 32 0
0 128 128
104 32 0
24 80 64
192 24 56
24 80 64
192 24 56
24 80 64
192 24 56
192 24 56
72 40 0
104 32 0
16 16 56
224 32 128
224 32 128
216 184 128
88 128 128
104 32 0
88 128 128
224 160 128
88 128 128
88 128 128
104 32 0
104 32 0
88 128 128
88 128 128
24 80 64
0 128 128
192 24 56
192 24 56
0 128 128
0 128 128
192 24 56
192 24 56
8 8 56
224 160 128
8 80 64
104 32 0
64 72 80
64 72 80
88 128 128
64 72 80
224 160 128
64 72 80
64 72 80
64 72 80
64 72 80
64 72 80
64 72 80
64 72 80
64 72 80
224 160 128
8 80 64
224 32 24
192 24 56
8 8 56
72 40 0
216 184 128
8 8 56
8 8 56
224 32 128
8 80 64
224 32 128
224 32 24
24 80 64
24 80 64
24 80 64
0 128 128
0 128 128
8 8 56
224 32 24
104 32 0
88 128 128
8 8 56
88 128 128
192 24 56
224 160 128
192 24 56
192 24 56
72 40 0
192 24 56
72 40 0
192 24 56
224 32 128
224 32 24
0 128 128
8 80 64
72 40 0
8 8 56
8 8 56
72 40 0
8 80 64
88 128 128
64 72 80
192 24 56
16 16 56
192 24 56
8 8 56
0 128 128
104 32 0
104 32 0
224 160 128
104 32 0
224 160 128
192 24 56
224 160 128
224 160 128
216 184 128
104 32 0
16 16 56
224 32 24
104 32 0
224 32 24
224 32 24
224 32 24
8 8 56
24 80 64
0 128 128
8 8 56
88 128 128
88 128 128
192 24 56
8 8 56
24 80 64
192 24 56
8 8 56
192 24 56
24 80 64
192 24 56
192 24 56
224 160 128
216 184 128
88 128 128
192 24 56
224 32 128
0 128 128
224 160 128
224 32 128
8 8 48
8 80 64
224 32 24
0 128 128
192 24 56
0 128 128
88 128 128
16 16 56
0 128 128
0 128 128
192 24 56
192 24 56
0 128 128
0 128 128
192 24 56
224 160 128
0 128 128
216 184 128
216 184 128
192 24 56
224 32 128
224 32 24
224 160 128
0 128 128
8 8 56
216 184 128
24 80 64
72 40 0
8 8 48
8 8 48
216 184 128
104 32 0
8 8 56
64 72 80
64 72 80
64 72 80
64 72 80
64 72 80
64 72 80
64 72 80
64 72 80
16 16 56
224 160 128
224 32 24
88 128 128
0 128 128
192 24 56
72 40 0
8 8 56
24 80 64
224 32 128
224 32 24
192 24 56
24 80 64
224 160 128
224 32 128
64 72 80
8 8 56
88 128 128
192 24 56
88 128 128
72 40 0
8 8 56
8 8 48
192 24 56
224 32 24
224 160 128
16 16 56
192 24 56
224 32 24
8 8 56
224 160 128
8 8 48
224 32 24
8 8 56
88 128 128
88 128 128
224 32 24
8 8 56
8 8 56
72 40 0
8 8 48
8 8 56
104 32 0
192 24 56
8 80 64
88 128 128
224 32 24
192 24 56
104 32 0
24 80 64
88 128 128
192 24 56
224 32 128
88 128 128
72 40 0
0 128 128
8 8 56
88 128 128
24 80 64
192 24 56
0 128 128
16 16 56
224 32 128
8 8 56
224 32 24
224 160 128
16 16 56
192 24 56
224 32 24
8 8 56
224 160 128
8 8 48
8 8 56
224 32 128
8 8 56
192 24 56
104 32 0
88 128 128
8 8 48
192 24 56
88 128 128
8 8 56
8 8 48
88 128 128
192 24 56
8 8 56
24 80 64
16 16 56
224 32 24
8 8 56
192 24 56
192 24 56
224 32 24
224 32 24
104 32 0
8 8 56
224 160 128
24 80 64
224 160 128
104 32 0
192 24 56
224 32 128
8 8 56
16 16 56
224 160 128
24 80 64
224 160 128
104 32 0
192 24 56
224 32 128
224 32 24
8 80 64
192 24 56
224 160 128
192 24 56
192 24 56
88 128 128
192 24 56
216 184 128
88 128 128
88 128 128
224 32 24
88 128 128
192 24 56
192 24 56
0 128 128
224 32 24
24 80 64
8 8 56
224 160 128
192 24 56
224 160 128
192 24 56
0 128 128
224 32 24
224 32 128
224 32 24
224 160 128
88 128 128
0 128 128
224 32 24
8 8 56
224 160 128
24 80 64
88 128 128
224 32 24
224 160 128
0 128 128
88 128 128
88 128 128
72 40 0
224 32 24
8 8 48
8 8 56
88 128 128
224 160 128
8 80 64
224 32 128
224 32 24
192 24 56
88 128 128
24 80 64
192 24 56
0 128 128
88 128 128
8 8 48
224 32 24
8 8 56
8 8 56
192 24 56
224 32 24
192 24 56
8 8 48
8 8 56
8 8 56
192 24 56
8 8 56
224 32 24
0 128 128
224 32 24
104 32 0
224 160 128
88 128 128
192 24 56
224 32 24
0 128 128
8 8 56
192 24 56
224 32 24
224 32 24
0 128 128
0 128 128
8 8 48
8 8 56
8 8 48
224 160 128
8 80 64
224 32 128
224 32 24
192 24 56
88 128 128
224 32 24
192 24 56
192 24 56
88 128 128
88 128 128
24 80 64
224 32 24
8 8 48
224 160 128
104 32 0
192 24 56
16 16 56
0 128 128
224 32 24
16 16 56
88 128 128
192 24 56
224 32 24
0 128 128
88 128 128
8 8 48
224 32 128
24 80 64
8 8 56
192 24 56
8 8 56
88 128 128
8 8 48
104 32 0
224 160 128
16 16 56
8 8 56
192 24 56
0 128 128
104 32 0
8 8 48
104 32 0
88 128 128
8 80 64
224 32 128
88 128 128
224 160 128
224 32 24
0 128 128
16 16 56
88 128 128
224 32 24
224 32 128
192 24 56
16 16 56
192 24 56
8 8 48
88 128 128
224 160 128
8 8 56
24 80 64
192 24 56
16 16 56
224 160 128
224 160 128
104 32 0
88 128 128
224 32 24
88 128 128
224 32 24
88 128 128
192 24 56
192 24 56
0 128 128
224 32 24
224 32 24
8 8 56
88 128 128
224 160 128
224 32 24
0 128 128
16 16 56
224 32 128
8 8 56
8 8 56
192 24 56
192 24 56
192 24 56
8 8 48
8 8 56
8 8 56
192 24 56
8 8 56
88 128 128
24 80 64
192 24 56
8 8 56
72 40 0
88 128 128
224 32 128
224 32 24
8 8 56
88 128 128
88 128 128
224 32 24
224 32 24
64 72 80
8 8 56
224 32 24
8 8 56
192 24 56
192 24 56
224 32 24
224 32 24
104 32 0
8 8 56
224 32 128
0 128 128
8 8 56
224 160 128
8 8 56
104 32 0
16 16 56
224 160 128
8 8 56
192 24 56
192 24 56
192 24 56
8 8 48
8 8 56
8 8 56
192 24 56
8 8 56
88 128 128
192 24 56
224 32 24
8 8 56
72 40 0
216 184 128
88 128 128
24 80 64
224 32 128
224 32 24
192 24 56
24 80 64
24 80 64
0 128 128
224 32 24
72 40 0
8 8 56
16 16 56
224 32 24
72 40 0
8 8 56
88 128 128
104 32 0
0 128 128
192 24 56
192 24 56
88 128 128
8 80 64
0 128 128
24 80 64
8 80 64
0 128 128
192 24 56
104 32 0
192 24 56
16 16 56
0 128 128
224 32 24
64 72 80
8 8 56
224 32 128
8 8 56
224 160 128
224 32 24
192 24 56
224 32 128
16 16 56
24 80 64
104 32 0
224 160 128
192 24 56
224 32 24
224 32 24
8 8 48
224 32 24
16 16 56
192 24 56
224 32 24
8 8 56
192 24 56
224 32 24
0 128 128
224 32 24
8 8 56
88 128 128
192 24 56
224 32 24
8 8 56
72 40 0
192 24 56
224 32 128
224 32 24
0 128 128
8 8 56
192 24 56
224 32 24
224 32 24
0 128 128
0 128 128
224 32 24
8 8 56
192 24 56
88 128 128
224 32 24
224 32 24
64 72 80
8 8 56
8 8 56
224 32 128
192 24 56
192 24 56
24 80 64
224 32 24
8 8 56
16 16 56
88 128 128
224 32 24
8 8 48
192 24 56
192 24 56
0 128 128
224 32 24
16 16 56
88 128 128
192 24 56
224 32 24
0 128 128
88 128 128
8 8 48
224 32 128
24 80 64
8 8 56
88 128 128
24 80 64
224 32 24
8 8 56
8 8 56
8 8 56
88 128 128
224 32 24
8 8 56
192 24 56
88 128 128
224 32 24
224 32 24
64 72 80
8 8 56
224 32 24
224 160 128
16 16 56
192 24 56
224 32 24
8 8 56
224 160 128
8 8 48
0 128 128
0 128 128
8 8 56
224 32 128
224 32 24
224 32 128
8 8 56
224 160 128
224 32 24
224 160 128
192 24 56
192 24 56
8 80 64
224 32 24
8 8 48
88 128 128
8 8 56
0 128 128
224 32 24
224 160 128
88 128 128
216 184 128
8 8 48
224 32 24
8 8 56
0 128 128
8 8 56
192 24 56
192 24 56
224 32 24
0 128 128
224 32 24
224 32 24
88 128 128
88 128 128
224 160 128
224 32 24
216 184 128
0 128 128
24 80 64
224 160 128
224 32 24
104 32 0
88 128 128
192 24 56
8 8 56
224 32 24
16 16 56
8 8 56
224 32 24
192 24 56
224 32 128
8 8 56
224 32 128
192 24 56
24 80 64
224 32 24
0 128 128
224 160 128
88 128 128
224 32 24
8 8 56
224 32 128
72 40 0
224 32 128
0 128 128
224 160 128
0 128 128
8 8 56
8 8 48
16 16 56
224 160 128
88 128 128
224 32 24
192 24 56
224 160 128
88 128 128
8 8 48
8 8 56
72 40 0
88 128 128
224 32 24
0 128 128
0 128 128
88 128 128
224 32 128
24 80 64
224 32 24
72 40 0
224 32 24
16 16 56
192 24 56
8 8 56
8 8 56
192 24 56
192 24 56
72 40 0
8 8 56
8 8 56
192 24 56
8 8 56
8 8 56
8 8 56
88 128 128
8 8 56
224 32 128
224 32 24
88 128 128
104 32 0
192 24 56
8 8 48
0 128 128
88 128 128
224 32 24
192 24 56
224 160 128
88 128 128
8 8 48
8 8 56
72 40 0
8 8 48
8 8 56
8 8 48
224 160 128
8 80 64
224 32 128
72 40 0
192 24 56
8 8 48
8 8 56
64 72 80
8 8 56
88 128 128
216 184 128
24 80 64
192 24 56
104 32 0
24 80 64
88 128 128
224 160 128
104 32 0
104 32 0
8 80 64
224 32 24
24 80 64
224 32 24
216 184 128
16 16 56
192 24 56
0 128 128
8 8 56
88 128 128
24 80 64
224 32 24
8 8 56
16 16 56
224 160 128
8 8 56
88 128 128
0 128 128
88 128 128
224 32 24
192 24 56
88 128 128
224 32 128
88 128 128
72 40 0
0 128 128
8 8 56
224 160 128
8 8 56
104 32 0
192 24 56
88 128 128
192 24 56
224 32 24
224 32 24
24 80 64
224 160 128
8 8 56
192 24 56
224 160 128
192 24 56
0 128 128
104 32 0
24 80 64
224 32 128
192 24 56
104 32 0
8 8 48
24 80 64
224 32 24
8 8 56
88 128 128
24 80 64
192 24 56
8 8 56
0 128 128
8 8 56
104 32 0
72 40 0
8 8 56
8 8 56
224 32 24
8 8 56
8 8 56
88 128 128
88 128 128
8 8 56
8 8 56
192 24 56
192 24 56
8 8 56
72 40 0
104 32 0
224 32 128
224 32 24
224 160 128
88 128 128
88 128 128
16 16 56
8 8 56
8 8 56
104 32 0
8 8 56
88 128 128
192 24 56
192 24 56
72 40 0
8 8 56
8 8 48
192 24 56
88 128 128
224 160 128
0 128 128
192 24 56
88 128 128
88 128 128
224 160 128
192 24 56
72 40 0
8 8 56
72 40 0
224 32 24
0 128 128
0 128 128
88 128 128
88 128 128
8 8 56
192 24 56
192 24 56
192 24 56
8 8 48
8 8 56
8 8 56
192 24 56
72 40 0
224 32 24
16 16 56
192 24 56
104 32 0
224 160 128
88 128 128
192 24 56
8 8 56
192 24 56
192 24 56
192 24 56
8 8 48
72 40 0
8 8 48
224 32 24
24 80 64
224 160 128
224 32 24
0 128 128
16 16 56
72 40 0
24 80 64
224 160 128
224 32 24
224 160 128
192 24 56
8 80 64
16 16 56
16 16 56
8 8 56
8 8 56
8 8 56
0 128 128
216 184 128
192 24 56
224 160 128
192 24 56
0 128 128
104 32 0
8 8 56
192 24 56
104 32 0
224 160 128
72 40 0
0 128 128
224 32 24
24 80 64
24 80 64
192 24 56
224 160 128
8 8 56
224 32 24
64 72 80
0 128 128
224 160 128
8 8 56
192 24 56
0 128 128
192 24 56
104 32 0
224 160 128
88 128 128
192 24 56
24 80 64
0 128 128
224 32 24
192 24 56
224 160 128
104 32 0
224 32 128
8 8 48
8 8 56
88 128 128
192 24 56
88 128 128
72 40 0
8 8 56
8 8 56
192 24 56
224 32 24
8 8 56
224 32 24
192 24 56
224 32 24
8 8 56
8 8 56
8 8 48
104 32 0
24 80 64
224 32 128
8 8 56
104 32 0
88 128 128
16 16 56
224 32 24
88 128 128
224 32 24
192 24 56
224 160 128
88 128 128
88 128 128
72 40 0
224 32 24
8 8 56
88 128 128
224 32 24
224 32 24
8 8 56
72 40 0
104 32 0
8 8 56
24 80 64
88 128 128
224 160 128
224 160 128
72 40 0
24 80 64
0 128 128
224 160 128
224 32 24
8 8 56
192 24 56
88 128 128
224 32 24
224 32 24
64 72 80
8 8 56
224 32 24
8 8 56
192 24 56
192 24 56
224 32 24
224 32 24
104 32 0
224 160 128
224 32 24
8 8 56
192 24 56
192 24 56
224 32 24
224 32 24
8 8 48
72 40 0
88 128 128
192 24 56
192 24 56
0 128 128
224 32 128
88 128 128
216 184 128
0 128 128
88 128 128
192 24 56
8 80 64
192 24 56
192 24 56
192 24 56
192 24 56
16 16 56
0 128 128
0 128 128
0 128 128
224 32 24
192 24 56
224 160 128
0 128 128
192 24 56
24 80 64
8 80 64
8 8 56
104 32 0
88 128 128
192 24 56
64 72 80
224 160 128
224 160 128
224 160 128
224 160 128
216 184 128
88 128 128
192 24 56
192 24 56
88 128 128
224 32 24
8 8 56
192 24 56
192 24 56
224 32 24
224 32 24
104 32 0
8 8 56
192 24 56
224 160 128
0 128 128
192 24 56
88 128 128
192 24 56
104 32 0
88 128 128
88 128 128
224 32 24
224 160 128
0 128 128
88 128 128
88 128 128
72 40 0
224 32 24
8 8 48
8 8 56
88 128 128
192 24 56
8 8 56
104 32 0
224 32 24
192 24 56
8 8 56
192 24 56
16 16 56
192 24 56
104 32 0
224 160 128
88 128 128
192 24 56
8 8 56
88 128 128
192 24 56
192 24 56
8 8 56
72 40 0
8 8 48
8 8 56
224 32 24
8 8 48
224 32 24
192 24 56
224 32 24
8 8 56
8 8 56
8 8 48
88 128 128
224 32 24
224 160 128
0 128 128
88 128 128
88 128 128
72 40 0
224 32 24
88 128 128
224 32 24
192 24 56
224 160 128
88 128 128
8 8 48
8 8 56
72 40 0
88 128 128
192 24 56
224 32 24
0 128 128
88 128 128
8 8 48
224 32 128
24 80 64
88 128 128
224 32 24
104 32 0
224 160 128
224 32 128
104 32 0
8 80 64
0 128 128
8 8 56
88 128 128
224 160 128
224 32 24
8 8 56
16 16 56
8 80 64
104 32 0
8 8 48
88 128 128
0 128 128
192 24 56
224 160 128
104 32 0
192 24 56
88 128 128
88 128 128
0 128 128
0 128 128
224 32 24
88 128 128
8 80 64
192 24 56
8 8 56
8 8 56
192 24 56
16 16 56
0 128 128
192 24 56
8 8 56
192 24 56
88 128 128
8 8 56
192 24 56
88 128 128
0 128 128
8 8 48
8 8 56
88 128 128
216 184 128
88 128 128
192 24 56
8 8 56
8 8 56
104 32 0
224 32 128
88 128 128
16 16 56
8 8 56
8 8 48
0 128 128
224 32 24
192 24 56
192 24 56
8 8 48
88 128 128
8 8 56
88 128 128
88 128 128
224 32 128
8 8 56
8 8 56
88 128 128
8 80 64
8 8 56
8 8 56
224 32 24
88 128 128
224 160 128
192 24 56
0 128 128
216 184 128
72 40 0
192 24 56
0 128 128
0 128 128
216 184 128
24 80 64
224 160 128
88 128 128
64 72 80
88 128 128
88 128 128
88 128 128
24 80 64
72 40 0
64 72 80
64 72 80
224 32 24
224 160 128
192 24 56
192 24 56
224 32 24
224 32 24
224 160 128
24 80 64
224 32 128
192 24 56
192 24 56
72 40 0
224 32 128
8 8 48
192 24 56
104 32 0
88 128 128
224 32 24
88 128 128
192 24 56
88 128 128
0 128 128
224 32 24
216 184 128
192 24 56
192 24 56
24 80 64
224 32 128
224 32 24
88 128 128
192 24 56
64 72 80
224 160 128
88 128 128
224 32 24
8 8 56
224 160 128
0 128 128
224 32 128
8 8 56
104 32 0
224 32 24
224 32 24
192 24 56
224 160 128
8 8 56
0 128 128
8 8 56
8 8 56
0 128 128
8 8 56
192 24 56
8 8 56
192 24 56
0 128 128
8 80 64
224 32 128
8 8 56
8 8 56
224 32 24
192 24 56
192 24 56
224 32 128
224 32 24
88 128 128
16 16 56
8 8 56
224 32 24
224 32 24
8 8 56
224 32 24
8 8 56
224 32 128
192 24 56
192 24 56
224 32 24
8 8 48
8 80 64
24 80 64
8 8 48
8 8 56
192 24 56
0 128 128
192 24 56
224 160 128
224 160 128
8 8 56
8 8 56
8 8 56
192 24 56
8 8 48
224 32 24
24 80 64
0 128 128
0 128 128
224 160 128
88 128 128
224 32 24
192 24 56
8 8 56
88 128 128
104 32 0
16 16 56
216 184 128
8 8 48
216 184 128
216 184 128
104 32 0
8 8 48
216 184 128
8 8 48
216 184 128
72 40 0
224 32 128
0 128 128
192 24 56
216 184 128
72 40 0
104 32 0
88 128 128
72 40 0
192 24 56
88 128 128
104 32 0
8 80 64
16 16 56
16 16 56
224 32 24
88 128 128
192 24 56
8 8 56
0 128 128
88 128 128
0 128 128
192 24 56
8 80 64
224 160 128
224 32 24
216 184 128
192 24 56
192 24 56
0 128 128
8 8 56
224 32 128
8 80 64
224 32 24
16 16 56
192 24 56
104 32 0
88 128 128
8 8 56
104 32 0
224 32 128
88 128 128
224 160 128
192 24 56
224 32 24
192 24 56
8 8 56
192 24 56
0 128 128
8 8 56
8 8 56
0 128 128
16 16 56
88 128 128
224 160 128
8 8 56
0 128 128
224 32 24
72 40 0
8 8 56
16 16 56
8 8 56
224 32 24
64 72 80
72 40 0
192 24 56
88 128 128
192 24 56
24 80 64
24 80 64
192 24 56
24 80 64
8 8 56
192 24 56
8 8 56
192 24 56
8 8 56
192 24 56
192 24 56
8 8 56
224 32 128
192 24 56
192 24 56
224 32 24
8 8 48
8 80 64
24 80 64
8 8 48
24 80 64
88 128 128
8 8 56
224 160 128
24 80 64
24 80 64
104 32 0
8 8 56
224 32 24
224 160 128
192 24 56
0 128 128
16 16 56
224 32 24
216 184 128
224 160 128
0 128 128
16 16 56
0 128 128
8 8 56
24 80 64
224 32 24
224 32 24
8 8 56
0 128 128
88 128 128
0 128 128
8 8 56
8 8 56
0 128 128
8 8 56
8 80 64
216 184 128
104 32 0
224 32 24
88 128 128
24 80 64
192 24 56
24 80 64
224 160 128
24 80 64
88 128 128
192 24 56
224 32 128
24 80 64
216 184 128
8 8 56
16 16 56
64 72 80
192 24 56
0 128 128
8 8 56
8 80 64
16 16 56
8 8 56
8 80 64
8 8 56
192 24 56
0 128 128
88 128 128
8 8 56
224 160 128
192 24 56
72 40 0
0 128 128
0 128 128
192 24 56
24 80 64
224 160 128
192 24 56
0 128 128
88 128 128
24 80 64
104 32 0
224 160 128
192 24 56
224 32 24
16 16 56
64 72 80
0 128 128
88 128 128
192 24 56
224 32 128
192 24 56
8 80 64
88 128 128
0 128 128
8 8 56
104 32 0
192 24 56
88 128 128
224 32 24
104 32 0
8 8 56
224 160 128
224 32 24
224 32 128
88 128 128
224 160 128
224 160 128
0 128 128
16 16 56
88 128 128
8 8 56
192 24 56
224 160 128
224 32 24
0 128 128
192 24 56
0 128 128
104 32 0
72 40 0
8 8 56
192 24 56
0 128 128
0 128 128
224 32 24
224 32 24
192 24 56
224 32 24
24 80 64
88 128 128
8 8 56
224 160 128
24 80 64
24 80 64
104 32 0
8 8 56
192 24 56
24 80 64
192 24 56
192 24 56
192 24 56
224 32 128
8 8 56
16 16 56
88 128 128
24 80 64
104 32 0
224 160 128
104 32 0
224 160 128
24 80 64
216 184 128
224 32 128
192 24 56
192 24 56
72 40 0
224 32 128
8 80 64
192 24 56
88 128 128
192 24 56
88 128 128
8 8 56
0 128 128
8 8 56
224 160 128
192 24 56
8 80 64
224 32 128
88 128 128
8 8 48
8 8 56
0 128 128
0 128 128
88 128 128
0 128 128
216 184 128
0 128 128
224 32 128
192 24 56
216 184 128
24 80 64
8 8 56
8 8 56
64 72 80
0 128 128
88 128 128
104 32 0
224 32 24
8 80 64
8 8 56
8 8 56
224 32 24
224 160 128
192 24 56
0 128 128
16 16 56
224 32 24
104 32 0
24 80 64
8 80 64
192 24 56
0 128 128
192 24 56
224 32 128
88 128 128
88 128 128
0 128 128
224 160 128
224 32 24
192 24 56
104 32 0
224 160 128
8 8 56
224 32 24
16 16 56
16 16 56
192 24 56
224 160 128
88 128 128
24 80 64
224 32 24
192 24 56
216 184 128
0 128 128
224 160 128
192 24 56
192 24 56
0 128 128
224 32 128
24 80 64
8 8 48
8 8 56
0 128 128
8 8 56
192 24 56
8 8 56
192 24 56
0 128 128
8 80 64
224 32 128
0 128 128
8 8 56
224 32 24
192 24 56
192 24 56
224 32 128
224 32 24
88 128 128
224 32 24
192 24 56
192 24 56
192 24 56
88 128 128
72 40 0
8 8 56
192 24 56
24 80 64
192 24 56
192 24 56
192 24 56
0 128 128
8 8 56
16 16 56
8 8 56
88 128 128
224 32 128
88 128 128
104 32 0
8 8 48
88 128 128
8 8 48
224 32 128
192 24 56
0 128 128
224 32 24
8 80 64
8 8 48
0 128 128
88 128 128
24 80 64
64 72 80
192 24 56
192 24 56
192 24 56
192 24 56
64 72 80
224 32 128
8 8 56
0 128 128
0 128 128
0 128 128
0 128 128
8 8 56
0 128 128
8 8 56
224 32 24
8 8 56
88 128 128
8 8 56
24 80 64
88 128 128
192 24 56
16 16 56
216 184 128
88 128 128
88 128 128
192 24 56
72 40 0
216 184 128
216 184 128
224 32 128
8 80 64
0 128 128
224 32 128
8 8 56
8 8 56
216 184 128
64 72 80
16 16 56
88 128 128
224 32 24
88 128 128
192 24 56
88 128 128
192 24 56
224 32 24
8 8 56
8 8 56
88 128 128
224 160 128
224 32 24
0 128 128
16 16 56
88 128 128
8 80 64
0 128 128
192 24 56
0 128 128
88 128 128
0 128 128
224 160 128
224 160 128
72 40 0
88 128 128
88 128 128
216 184 128
8 8 48
104 32 0
8 8 48
104 32 0
64 72 80
8 8 56
224 32 128
104 32 0
224 32 24
224 32 24
192 24 56
224 32 128
0 128 128
72 40 0
192 24 56
88 128 128
192 24 56
24 80 64
24 80 64
192 24 56
24 80 64
8 8 56
192 24 56
8 8 56
192 24 56
8 8 56
192 24 56
192 24 56
8 8 56
224 32 128
224 32 24
224 32 128
192 24 56
88 128 128
192 24 56
0 128 128
104 32 0
8 8 56
88 128 128
224 32 128
88 128 128
104 32 0
8 8 48
88 128 128
8 8 48
0 128 128
192 24 56
224 160 128
88 128 128
16 16 56
224 32 128
8 8 56
72 40 0
24 80 64
88 128 128
224 160 128
192 24 56
224 32 24
224 32 24
216 184 128
224 32 128
24 80 64
192 24 56
72 40 0
88 128 128
224 32 24
192 24 56
224 160 128
224 32 24
8 8 56
224 160 128
224 160 128
224 32 24
0 128 128
16 16 56
224 160 128
16 16 56
8 80 64
16 16 56
16 16 56
64 72 80
8 80 64
8 80 64
16 16 56
16 16 56
24 80 64
0 128 128
192 24 56
88 128 128
72 40 0
216 184 128
64 72 80
8 8 56
24 80 64
192 24 56
8 8 56
72 40 0
8 8 56
224 160 128
192 24 56
104 32 0
8 8 56
192 24 56
0 128 128
192 24 56
8 8 48
224 160 128
192 24 56
8 8 56
224 32 24
224 160 128
72 40 0
224 160 128
224 160 128
224 160 128
224 32 24
0 128 128
8 8 56
104 32 0
88 128 128
192 24 56
16 16 56
0 128 128
24 80 64
16 16 56
224 32 128
0 128 128
8 8 56
224 160 128
104 32 0
192 24 56
8 8 48
192 24 56
88 128 128
0 128 128
224 32 128
192 24 56
88 128 128
0 128 128
224 32 24
8 8 48
192 24 56
224 160 128
224 32 24
0 128 128
192 24 56
0 128 128
104 32 0
72 40 0
224 32 24
88 128 128
0 128 128
192 24 56
224 32 24
224 32 24
192 24 56
224 32 24
24 80 64
192 24 56
224 32 24
88 128 128
216 184 128
224 160 128
192 24 56
24 80 64
0 128 128
192 24 56
224 160 128
88 128 128
16 16 56
224 32 128
8 8 56
72 40 0
8 8 56
0 128 128
224 32 24
224 32 24
8 8 56
216 184 128
16 16 56
24 80 64
192 24 56
224 32 24
192 24 56
192 24 56
192 24 56
192 24 56
72 40 0
224 32 24
192 24 56
192 24 56
192 24 56
224 32 24
224 32 24
192 24 56
192 24 56
0 128 128
224 160 128
0 128 128
104 32 0
24 80 64
24 80 64
224 160 128
0 128 128
8 8 56
72 40 0
16 16 56
224 160 128
0 128 128
224 32 24
104 32 0
8 8 56
216 184 128
24 80 64
224 32 128
192 24 56
0 128 128
24 80 64
64 72 80
24 80 64
104 32 0
64 72 80
192 24 56
192 24 56
24 80 64
8 8 48
192 24 56
0 128 128
0 128 128
224 32 24
224 160 128
192 24 56
0 128 128
224 32 24
8 8 56
224 160 128
216 184 128
88 128 128
192 24 56
192 24 56
24 80 64
8 8 56
104 32 0
224 160 128
0 128 128
24 80 64
16 16 56
24 80 64
88 128 128
192 24 56
192 24 56
72 40 0
192 24 56
8 8 56
192 24 56
0 128 128
88 128 128
224 32 128
8 8 56
88 128 128
8 8 56
8 80 64
192 24 56
0 128 128
192 24 56
64 72 80
8 8 56
24 80 64
104 32 0
224 32 128
0 128 128
8 8 56
224 32 24
192 24 56
192 24 56
224 32 128
224 32 24
88 128 128
224 32 24
192 24 56
224 160 128
224 160 128
192 24 56
16 16 56
224 32 24
0 128 128
224 160 128
192 24 56
192 24 56
192 24 56
192 24 56
224 160 128
224 160 128
8 8 56
0 128 128
224 32 24
224 32 24
8 8 56
216 184 128
16 16 56
24 80 64
224 160 128
8 8 56
224 160 128
192 24 56
192 24 56
8 8 56
224 32 128
104 32 0
224 32 128
224 32 24
16 16 56
224 32 24
8 80 64
216 184 128
8 8 56
72 40 0
224 32 128
192 24 56
88 128 128
8 8 56
224 32 128
224 32 128
192 24 56
224 32 128
192 24 56
0 128 128
0 128 128
224 160 128
0 128 128
224 32 24
88 128 128
8 8 56
0 128 128
0 128 128
16 16 56
8 8 56
224 160 128
88 128 128
8 8 48
88 128 128
64 72 80
192 24 56
0 128 128
88 128 128
72 40 0
216 184 128
8 8 56
8 8 56
8 80 64
192 24 56
0 128 128
72 40 0
88 128 128
8 8 48
8 8 56
8 8 48
88 128 128
224 32 24
88 128 128
192 24 56
192 24 56
192 24 56
16 16 56
24 80 64
8 8 56
192 24 56
104 32 0
192 24 56
0 128 128
0 128 128
0 128 128
88 128 128
224 32 24
192 24 56
192 24 56
72 40 0
24 80 64
224 32 24
192 24 56
88 128 128
224 160 128
192 24 56
24 80 64
0 128 128
224 32 24
192 24 56
88 128 128
16 16 56
224 160 128
8 8 56
224 160 128
224 160 128
224 160 128
0 128 128
8 8 56
72 40 0
8 8 56
192 24 56
8 8 56
192 24 56
8 8 56
192 24 56
192 24 56
8 8 56
224 32 128
224 160 128
8 8 48
224 160 128
104 32 0
224 160 128
8 8 56
104 32 0
224 32 128
192 24 56
88 128 128
192 24 56
88 128 128
0 128 128
224 32 24
8 8 48
224 160 128
8 8 56
224 160 128
192 24 56
192 24 56
224 160 128
224 32 128
104 32 0
24 80 64
0 128 128
0 128 128
0 128 128
72 40 0
72 40 0
0 128 128
72 40 0
24 80 64
216 184 128
88 128 128
224 32 24
192 24 56
192 24 56
8 8 56
192 24 56
224 32 24
224 32 128
224 32 24
192 24 56
224 32 24
192 24 56
0 128 128
16 16 56
8 80 64
8 80 64
104 32 0
192 24 56
224 32 24
192 24 56
88 128 128
192 24 56
8 8 56
192 24 56
88 128 128
0 128 128
16 16 56
224 32 24
192 24 56
24 80 64
224 32 24
224 160 128
224 32 24
192 24 56
192 24 56
224 32 24
104 32 0
24 80 64
8 8 56
88 128 128
8 8 48
192 24 56
224 160 128
16 16 56
0 128 128
224 160 128
192 24 56
224 32 24
192 24 56
0 128 128
224 160 128
192 24 56
16 16 56
224 32 24
24 80 64
0 128 128
104 32 0
192 24 56
24 80 64
224 32 24
0 128 128
72 40 0
224 32 128
224 32 24
16 16 56
224 32 24
8 8 56
216 184 128
224 32 24
216 184 128
8 8 56
88 128 128
224 160 128
224 32 24
8 8 56
16 16 56
88 128 128
216 184 128
8 8 56
192 24 56
0 128 128
24 80 64
8 8 56
216 184 128
224 160 128
104 32 0
224 32 24
8 8 56
0 128 128
0 128 128
16 16 56
8 80 64
8 8 56
64 72 80
8 8 56
0 128 128
216 184 128
192 24 56
224 160 128
192 24 56
0 128 128
224 160 128
24 80 64
88 128 128
8 80 64
88 128 128
216 184 128
104 32 0
88 128 128
8 80 64
224 160 128
8 8 56
192 24 56
8 8 56
104 32 0
224 160 128
192 24 56
224 160 128
88 128 128
224 32 24
88 128 128
192 24 56
192 24 56
0 128 128
224 32 24
24 80 64
72 40 0
224 32 24
64 72 80
0 128 128
8 8 56
192 24 56
16 16 56
8 8 56
8 80 64
224 32 24
192 24 56
192 24 56
8 8 56
104 32 0
192 24 56
104 32 0
0 128 128
104 32 0
104 32 0
192 24 56
0 128 128
0 128 128
224 32 24
0 128 128
88 128 128
224 32 24
88 128 128
192 24 56
192 24 56
192 24 56
8 8 56
224 32 24
88 128 128
192 24 56
104 32 0
224 32 24
8 8 56
192 24 56
0 128 128
88 128 128
8 8 48
0 128 128
0 128 128
192 24 56
24 80 64
224 160 128
192 24 56
224 160 128
224 32 128
224 32 24
16 16 56
24 80 64
8 80 64
216 184 128
224 32 24
72 40 0
192 24 56
224 32 24
224 160 128
192 24 56
8 8 56
224 160 128
16 16 56
0 128 128
8 8 56
88 128 128
224 160 128
192 24 56
0 128 128
16 16 56
88 128 128
88 128 128
224 32 24
192 24 56
16 16 56
224 160 128
224 32 24
192 24 56
192 24 56
16 16 56
224 160 128
224 160 128
88 128 128
0 128 128
192 24 56
224 32 24
24 80 64
8 8 56
88 128 128
224 32 24
88 128 128
192 24 56
88 128 128
0 128 128
224 32 24
216 184 128
0 128 128
192 24 56
8 8 56
224 160 128
8 8 56
192 24 56
192 24 56
0 128 128
192 24 56
224 160 128
192 24 56
224 32 24
224 32 24
88 128 128
224 160 128
8 8 56
0 128 128
192 24 56
224 160 128
88 128 128
192 24 56
8 8 56
88 128 128
24 80 64
224 32 128
192 24 56
0 128 128
192 24 56
8 8 48
88 128 128
224 160 128
8 8 56
224 32 24
192 24 56
0 128 128
72 40 0
24 80 64
224 32 24
192 24 56
88 128 128
8 8 56
88 128 128
224 160 128
192 24 56
0 128 128
0 128 128
8 8 56
224 32 128
224 32 24
0 128 128
192 24 56
192 24 56
224 32 24
224 32 24
0 128 128
0 128 128
88 128 128
0 128 128
8 8 48
192 24 56
88 128 128
16 16 56
192 24 56
88 128 128
224 160 128
0 128 128
16 16 56
192 24 56
8 8 56
24 80 64
224 32 24
72 40 0
16 16 56
16 16 56
224 160 128
224 32 128
192 24 56
8 8 56
224 32 24
104 32 0
8 8 56
88 128 128
224 160 128
224 32 24
8 8 56
16 16 56
88 128 128
8 8 48
224 32 128
0 128 128
0 128 128
24 80 64
88 128 128
104 32 0
8 8 56
88 128 128
24 80 64
0 128 128
224 32 24
192 24 56
24 80 64
224 160 128
0 128 128
8 80 64
88 128 128
192 24 56
192 24 56
224 32 24
8 8 56
88 128 128
224 160 128
224 32 128
24 80 64
0 128 128
72 40 0
88 128 128
224 32 24
224 32 24
224 160 128
224 32 24
224 32 128
192 24 56
0 128 128
192 24 56
104 32 0
88 128 128
8 8 56
104 32 0
8 8 56
192 24 56
8 8 56
8 8 56
224 160 128
192 24 56
224 160 128
224 160 128
224 32 128
192 24 56
88 128 128
192 24 56
224 32 128
0 128 128
192 24 56
224 32 128
224 32 128
0 128 128
8 8 56
192 24 56
88 128 128
192 24 56
0 128 128
88 128 128
24 80 64
104 32 0
224 160 128
0 128 128
224 32 24
224 32 24
104 32 0
224 32 24
88 128 128
192 24 56
192 24 56
0 128 128
88 128 128
8 8 56
224 32 24
8 8 56
24 80 64
0 128 128
224 32 24
192 24 56
24 80 64
224 160 128
0 128 128
8 80 64
192 24 56
224 32 24
88 128 128
192 24 56
0 128 128
192 24 56
16 16 56
0 128 128
224 160 128
0 128 128
0 128 128
192 24 56
192 24 56
8 8 56
224 32 24
224 160 128
16 16 56
8 8 56
192 24 56
192 24 56
224 32 24
8 80 64
8 8 56
64 72 80
224 32 128
224 32 128
16 16 56
224 160 128
192 24 56
192 24 56
224 32 128
192 24 56
24 80 64
0 128 128
224 32 24
192 24 56
224 160 128
224 160 128
224 32 128
8 8 56
24 80 64
16 16 56
8 8 48
192 24 56
192 24 56
192 24 56
224 32 24
88 128 128
192 24 56
224 160 128
192 24 56
224 32 24
88 128 128
192 24 56
104 32 0
88 128 128
8 8 56
88 128 128
224 160 128
192 24 56
0 128 128
0 128 128
88 128 128
224 32 128
88 128 128
192 24 56
192 24 56
0 128 128
192 24 56
0 128 128
0 128 128
224 32 24
24 80 64
104 32 0
224 160 128
192 24 56
224 32 24
16 16 56
216 184 128
192 24 56
8 8 56
8 80 64
224 160 128
192 24 56
192 24 56
192 24 56
8 80 64
192 24 56
24 80 64
0 128 128
224 32 24
192 24 56
104 32 0
224 160 128
0 128 128
8 8 56
8 8 56
192 24 56
0 128 128
192 24 56
8 8 56
224 160 128
192 24 56
8 8 56
224 160 128
224 32 24
88 128 128
224 160 128
224 160 128
8 8 56
224 32 24
16 16 56
24 80 64
8 80 64
8 8 56
192 24 56
224 160 128
224 160 128
8 8 56
104 32 0
192 24 56
8 8 56
192 24 56
192 24 56
88 128 128
192 24 56
104 32 0
88 128 128
0 128 128
0 128 128
16 16 56
224 160 128
192 24 56
192 24 56
0 128 128
192 24 56
8 8 56
192 24 56
8 8 56
224 160 128
224 160 128
104 32 0
88 128 128
24 80 64
88 128 128
224 32 24
192 24 56
192 24 56
104 32 0
88 128 128
72 40 0
24 80 64
8 8 56
0 128 128
8 80 64
192 24 56
224 32 24
192 24 56
192 24 56
224 32 24
192 24 56
224 160 128
192 24 56
192 24 56
8 8 56
192 24 56
104 32 0
88 128 128
216 184 128
192 24 56
16 16 56
192 24 56
24 80 64
224 160 128
192 24 56
224 32 24
224 32 128
88 128 128
104 32 0
192 24 56
0 128 128
16 16 56
88 128 128
16 16 56
24 80 64
224 32 128
8 8 56
88 128 128
216 184 128
104 32 0
224 32 128
8 80 64
224 32 128
192 24 56
192 24 56
24 80 64
224 32 128
64 72 80
8 8 56
72 40 0
192 24 56
24 80 64
224 160 128
88 128 128
192 24 56
0 128 128
224 32 24
16 16 56
8 8 56
192 24 56
8 80 64
192 24 56
8 8 56
192 24 56
192 24 56
8 8 56
224 32 24
8 8 56
0 128 128
0 128 128
16 16 56
8 80 64
8 8 56
8 8 48
224 32 24
8 8 56
192 24 56
0 128 128
16 16 56
224 32 24
104 32 0
24 80 64
0 128 128
192 24 56
0 128 128
88 128 128
192 24 56
224 160 128
224 160 128
24 80 64
224 32 24
192 24 56
16 16 56
88 128 128
224 32 24
88 128 128
88 128 128
24 80 64
224 32 128
192 24 56
192 24 56
192 24 56
224 32 128
64 72 80
192 24 56
64 72 80
192 24 56
16 16 56
8 80 64
224 160 128
192 24 56
192 24 56
192 24 56
192 24 56
8 8 56
88 128 128
0 128 128
192 24 56
104 32 0
104 32 0
8 8 56
192 24 56
0 128 128
88 128 128
16 16 56
224 160 128
8 8 56
192 24 56
88 128 128
0 128 128
72 40 0
192 24 56
192 24 56
192 24 56
24 80 64
24 80 64
192 24 56
224 32 24
224 32 128
192 24 56
192 24 56
24 80 64
224 32 128
64 72 80
192 24 56
24 80 64
192 24 56
192 24 56
24 80 64
88 128 128
224 32 24
8 8 56
192 24 56
104 32 0
8 8 56
0 128 128
224 32 24
104 32 0
88 128 128
88 128 128
0 128 128
0 128 128
192 24 56
224 160 128
192 24 56
224 32 24
192 24 56
88 128 128
224 160 128
224 160 128
24 80 64
224 32 24
8 8 48
192 24 56
192 24 56
192 24 56
24 80 64
224 32 128
224 32 128
88 128 128
8 8 56
192 24 56
0 128 128
192 24 56
88 128 128
16 16 56
224 160 128
88 128 128
224 32 24
224 32 24
24 80 64
104 32 0
192 24 56
224 160 128
88 128 128
224 32 24
88 128 128
192 24 56
192 24 56
0 128 128
224 32 24
24 80 64
104 32 0
192 24 56
8 8 56
0 128 128
192 24 56
0 128 128
0 128 128
224 32 24
8 8 56
88 128 128
88 128 128
224 160 128
72 40 0
8 8 56
224 32 24
224 32 24
88 128 128
192 24 56
192 24 56
24 80 64
8 8 56
104 32 0
224 160 128
224 32 128
24 80 64
224 32 128
24 80 64
192 24 56
224 160 128
224 160 128
224 32 128
8 8 48
88 128 128
192 24 56
192 24 56
104 32 0
88 128 128
104 32 0
192 24 56
224 160 128
224 32 128
192 24 56
16 16 56
192 24 56
0 128 128
88 128 128
192 24 56
224 32 128
224 32 24
88 128 128
88 128 128
192 24 56
224 32 24
8 8 56
224 160 128
8 8 56
192 24 56
192 24 56
24 80 64
224 32 128
192 24 56
224 32 128
88 128 128
72 40 0
24 80 64
224 32 128
24 80 64
192 24 56
224 32 24
192 24 56
224 32 128
8 80 64
224 32 128
192 24 56
88 128 128
224 32 24
224 32 128
16 16 56
224 32 24
8 8 48
224 32 24
224 160 128
224 160 128
192 24 56
224 32 24
8 8 56
88 128 128
224 32 128
224 32 128
192 24 56
88 128 128
192 24 56
224 32 128
0 128 128
224 32 24
224 32 128
224 32 24
192 24 56
224 32 24
8 8 56
224 160 128
192 24 56
224 32 24
88 128 128
224 32 128
192 24 56
88 128 128
192 24 56
8 80 64
0 128 128
224 32 24
8 80 64
0 128 128
192 24 56
24 80 64
8 8 56
224 32 24
88 128 128
8 8 56
24 80 64
224 32 128
192 24 56
0 128 128
192 24 56
8 8 48
88 128 128
224 160 128
8 8 56
224 32 128
192 24 56
0 128 128
224 160 128
224 32 128
104 32 0
192 24 56
8 8 56
224 32 24
16 16 56
24 80 64
88 128 128
192 24 56
88 128 128
16 16 56
104 32 0
8 8 56
192 24 56
104 32 0
192 24 56
0 128 128
0 128 128
224 160 128
224 32 128
224 32 24
192 24 56
192 24 56
88 128 128
224 32 24
8 8 56
88 128 128
8 8 56
224 160 128
192 24 56
8 8 48
192 24 56
224 160 128
192 24 56
192 24 56
104 32 0
8 8 56
192 24 56
88 128 128
192 24 56
192 24 56
8 8 56
192 24 56
8 8 56
88 128 128
224 32 24
192 24 56
192 24 56
192 24 56
224 32 128
24 80 64
8 80 64
224 32 128
0 128 128
88 128 128
224 32 24
192 24 56
192 24 56
0 128 128
224 160 128
224 32 24
192 24 56
192 24 56
192 24 56
24 80 64
224 32 24
0 128 128
224 32 24
24 80 64
192 24 56
16 16 56
88 128 128
104 32 0
224 160 128
192 24 56
8 8 56
88 128 128
8 8 56
224 160 128
192 24 56
0 128 128
192 24 56
8 80 64
0 128 128
24 80 64
0 128 128
224 32 24
88 128 128
224 160 128
224 160 128
0 128 128
8 8 56
224 32 128
192 24 56
192 24 56
192 24 56
88 128 128
88 128 128
88 128 128
192 24 56
24 80 64
16 16 56
8 8 56
192 24 56
192 24 56
192 24 56
16 16 56
192 24 56
224 32 128
0 128 128
8 8 56
192 24 56
88 128 128
192 24 56
0 128 128
88 128 128
24 80 64
104 32 0
224 160 128
192 24 56
16 16 56
224 32 24
104 32 0
224 32 24
24 80 64
192 24 56
104 32 0
192 24 56
24 80 64
224 32 24
192 24 56
216 184 128
8 8 56
192 24 56
0 128 128
8 8 56
8 8 56
216 184 128
192 24 56
192 24 56
88 128 128
16 16 56
8 8 56
224 160 128
88 128 128
224 32 24
0 128 128
224 32 128
8 8 56
88 128 128
192 24 56
192 24 56
8 8 56
8 8 56
8 8 56
224 32 128
224 32 128
192 24 56
0 128 128
224 160 128
224 32 128
104 32 0
192 24 56
8 8 56
224 32 24
0 128 128
24 80 64
224 160 128
224 32 24
224 160 128
0 128 128
224 32 24
224 32 128
88 128 128
104 32 0
192 24 56
0 128 128
16 16 56
88 128 128
16 16 56
24 80 64
88 128 128
224 160 128
192 24 56
224 32 24
224 32 24
216 184 128
88 128 128
16 16 56
224 160 128
192 24 56
192 24 56
224 32 24
224 32 24
224 160 128
24 80 64
8 8 56
0 128 128
0 128 128
8 8 56
224 160 128
224 160 128
224 32 128
104 32 0
8 8 56
192 24 56
0 128 128
216 184 128
224 160 128
72 40 0
192 24 56
0 128 128
192 24 56
224 160 128
192 24 56
224 32 128
192 24 56
192 24 56
192 24 56
192 24 56
224 32 24
88 128 128
16 16 56
224 32 128
8 8 56
216 184 128
192 24 56
16 16 56
216 184 128
192 24 56
8 8 56
8 80 64
8 8 56
8 8 56
216 184 128
8 8 56
216 184 128
8 8 56
0 128 128
8 80 64
8 80 64
0 128 128
8 8 56
8 8 56
104 32 0
8 8 56
24 80 64
224 32 128
72 40 0
192 24 56
192 24 56
24 80 64
224 32 128
88 128 128
192 24 56
8 8 56
8 8 56
0 128 128
192 24 56
8 8 56
16 16 56
224 160 128
16 16 56
224 32 24
16 16 56
224 32 24
224 32 24
192 24 56
24 80 64
192 24 56
224 32 24
192 24 56
8 8 56
224 160 128
0 128 128
24 80 64
224 32 24
8 8 56
224 32 24
192 24 56
8 8 56
192 24 56
8 8 48
8 80 64
24 80 64
192 24 56
8 8 48
192 24 56
24 80 64
224 32 24
192 24 56
216 184 128
88 128 128
224 32 24
224 32 24
224 32 24
8 8 56
8 8 56
224 160 128
8 8 56
24 80 64
8 8 48
8 8 56
192 24 56
192 24 56
192 24 56
8 8 56
0 128 128
192 24 56
224 32 24
192 24 56
192 24 56
192 24 56
192 24 56
16 16 56
24 80 64
88 128 128
192 24 56
8 8 56
0 128 128
192 24 56
0 128 128
88 128 128
16 16 56
224 160 128
224 32 128
8 80 64
192 24 56
88 128 128
224 160 128
88 128 128
104 32 0
0 128 128
0 128 128
192 24 56
224 160 128
0 128 128
192 24 56
192 24 56
8 80 64
192 24 56
24 80 64
192 24 56
192 24 56
192 24 56
192 24 56
192 24 56
192 24 56
192 24 56
88 128 128
192 24 56
0 128 128
8 8 48
224 32 24
224 160 128
192 24 56
0 128 128
224 160 128
216 184 128
224 160 128
224 160 128
224 160 128
224 160 128
192 24 56
8 8 56
8 8 56
224 160 128
8 8 56
224 160 128
192 24 56
192 24 56
192 24 56
8 8 48
8 8 48
104 32 0
88 128 128
88 128 128
192 24 56
104 32 0
224 32 24
88 128 128
224 32 24
8 8 56
192 24 56
8 8 56
8 8 48
16 16 56
64 72 80
24 80 64
88 128 128
88 128 128
216 184 128
8 8 48
224 32 128
224 32 128
72 40 0
224 160 128
192 24 56
8 8 56
192 24 56
192 24 56
192 24 56
192 24 56
192 24 56
192 24 56
224 160 128
8 8 56
88 128 128
88 128 128
224 160 128
192 24 56
224 160 128
192 24 56
224 32 24
192 24 56
224 160 128
224 160 128
192 24 56
16 16 56
8 8 56
8 8 56
88 128 128
224 160 128
224 32 24
0 128 128
16 16 56
8 8 56
224 32 128
24 80 64
192 24 56
224 160 128
88 128 128
224 32 24
224 32 24
224 160 128
0 128 128
224 32 128
224 32 24
16 16 56
224 32 24
8 80 64
216 184 128
8 8 56
72 40 0
8 8 56
192 24 56
0 128 128
192 24 56
224 160 128
224 160 128
8 8 56
224 32 24
72 40 0
192 24 56
8 8 56
224 32 128
24 80 64
8 8 56
192 24 56
192 24 56
0 128 128
224 32 128
88 128 128
8 8 56
192 24 56
216 184 128
224 32 24
192 24 56
192 24 56
192 24 56
192 24 56
88 128 128
192 24 56
192 24 56
192 24 56
192 24 56
104 32 0
192 24 56
8 8 48
224 160 128
64 72 80
24 80 64
24 80 64
16 16 56
8 8 56
8 8 56
0 128 128
8 80 64
8 80 64
0 128 128
8 8 56
8 8 56
64 72 80
104 32 0
8 8 48
0 128 128
8 8 48
0 128 128
16 16 56
0 128 128
72 40 0
224 32 24
8 8 48
88 128 128
8 8 56
224 160 128
0 128 128
224 160 128
16 16 56
192 24 56
72 40 0
192 24 56
24 80 64
64 72 80
24 80 64
8 8 56
0 128 128
192 24 56
0 128 128
224 160 128
192 24 56
192 24 56
192 24 56
192 24 56
8 8 56
192 24 56
224 160 128
192 24 56
192 24 56
72 40 0
224 32 24
8 8 48
8 8 56
192 24 56
192 24 56
192 24 56
0 128 128
72 40 0
88 128 128
72 40 0
8 80 64
192 24 56
0 128 128
192 24 56
88 128 128
88 128 128
192 24 56
88 128 128
216 184 128
192 24 56
16 16 56
192 24 56
24 80 64
224 160 128
192 24 56
16 16 56
192 24 56
224 32 24
224 160 128
224 160 128
8 8 56
224 160 128
16 16 56
8 8 56
8 8 56
88 128 128
224 160 128
192 24 56
8 8 56
16 16 56
88 128 128
8 8 48
224 32 24
224 160 128
192 24 56
0 128 128
16 16 56
224 32 24
216 184 128
224 160 128
88 128 128
8 8 56
64 72 80
104 32 0
8 8 48
192 24 56
8 8 56
224 32 128
0 128 128
88 128 128
88 128 128
0 128 128
224 32 128
0 128 128
88 128 128
88 128 128
192 24 56
224 32 24
192 24 56
88 128 128
192 24 56
192 24 56
192 24 56
224 160 128
224 160 128
224 32 24
224 32 24
224 160 128
8 8 56
8 8 56
88 128 128
216 184 128
224 160 128
0 128 128
224 160 128
216 184 128
224 160 128
224 160 128
224 160 128
224 160 128
104 32 0
216 184 128
8 80 64
224 32 24
216 184 128
224 32 24
224 32 24
0 128 128
192 24 56
88 128 128
192 24 56
88 128 128
8 8 56
104 32 0
192 24 56
192 24 56
8 8 48
224 32 128
192 24 56
24 80 64
72 40 0
192 24 56
192 24 56
8 80 64
8 8 56
192 24 56
8 8 56
8 8 56
8 8 56
8 8 56
216 184 128
8 8 56
8 8 56
192 24 56
0 128 128
224 32 24
8 8 56
224 160 128
192 24 56
8 8 56
24 80 64
8 8 56
192 24 56
192 24 56
224 32 24
24 80 64
8 8 48
0 128 128
8 8 56
88 128 128
224 160 128
224 32 24
0 128 128
16 16 56
88 128 128
8 8 56
192 24 56
192 24 56
24 80 64
8 8 56
192 24 56
8 8 56
192 24 56
104 32 0
224 32 128
0 128 128
16 16 56
224 160 128
88 128 128
104 32 0
8 8 48
192 24 56
24 80 64
0 128 128
224 32 24
192 24 56
224 160 128
224 160 128
16 16 56
8 8 48
88 128 128
24 80 64
104 32 0
224 160 128
104 32 0
224 160 128
24 80 64
216 184 128
216 184 128
192 24 56
192 24 56
224 32 128
224 32 24
24 80 64
224 32 128
64 72 80
224 32 24
192 24 56
192 24 56
16 16 56
224 32 24
224 32 24
192 24 56
192 24 56
192 24 56
224 32 24
192 24 56
0 128 128
224 160 128
88 128 128
192 24 56
104 32 0
88 128 128
0 128 128
88 128 128
0 128 128
0 128 128
16 16 56
192 24 56
192 24 56
16 16 56
192 24 56
8 8 56
0 128 128
0 128 128
0 128 128
16 16 56
8 8 56
64 72 80
216 184 128
192 24 56
0 128 128
8 8 48
192 24 56
224 32 24
0 128 128
16 16 56
8 8 56
24 80 64
224 32 128
216 184 128
192 24 56
192 24 56
24 80 64
8 8 56
8 8 56
224 160 128
8 8 56
224 32 24
192 24 56
192 24 56
224 32 24
192 24 56
216 184 128
224 160 128
224 160 128
224 160 128
224 160 128
224 160 128
192 24 56
224 32 24
192 24 56
224 160 128
88 128 128
0 128 128
8 8 56
88 128 128
24 80 64
224 160 128
24 80 64
192 24 56
224 160 128
0 128 128
88 128 128
8 80 64
0 128 128
24 80 64
88 128 128
8 80 64
88 128 128
216 184 128
104 32 0
88 128 128
16 16 56
224 32 128
192 24 56
88 128 128
192 24 56
224 32 128
0 128 128
224 32 24
8 8 48
24 80 64
16 16 56
8 8 48
192 24 56
224 160 128
192 24 56
224 32 24
104 32 0
192 24 56
224 160 128
192 24 56
192 24 56
88 128 128
192 24 56
104 32 0
8 8 56
224 32 128
192 24 56
0 128 128
192 24 56
88 128 128
104 32 0
0 128 128
88 128 128
24 80 64
0 128 128
8 8 56
224 160 128
8 8 56
224 32 24
0 128 128
72 40 0
192 24 56
192 24 56
192 24 56
8 8 56
192 24 56
192 24 56
192 24 56
0 128 128
192 24 56
224 32 24
192 24 56
192 24 56
88 128 128
88 128 128
224 160 128
88 128 128
224 160 128
0 128 128
224 160 128
224 160 128
72 40 0
224 160 128
24 80 64
224 160 128
224 160 128
8 8 56
8 80 64
216 184 128
216 184 128
8 8 56
8 8 56
224 160 128
216 184 128
8 8 56
224 32 24
8 8 56
216 184 128
192 24 56
192 24 56
192 24 56
72 40 0
16 16 56
16 16 56
0 128 128
8 8 56
104 32 0
16 16 56
224 160 128
8 8 56
104 32 0
224 32 128
88 128 128
224 32 128
8 80 64
104 32 0
8 80 64
8 8 56
0 128 128
0 128 128
8 80 64
8 80 64
0 128 128
8 8 56
8 8 56
224 32 24
224 160 128
24 80 64
88 128 128
104 32 0
192 24 56
192 24 56
224 160 128
104 32 0
216 184 128
24 80 64
224 32 128
224 32 128
224 32 24
104 32 0
224 32 24
192 24 56
224 160 128
192 24 56
224 32 24
224 32 24
88 128 128
224 160 128
8 8 56
24 80 64
0 128 128
224 32 24
88 128 128
104 32 0
224 160 128
0 128 128
8 8 56
216 184 128
192 24 56
224 32 24
0 128 128
224 160 128
224 160 128
224 32 24
224 160 128
224 32 128
88 128 128
88 128 128
224 160 128
0 128 128
16 16 56
224 32 128
224 32 24
24 80 64
88 128 128
224 160 128
192 24 56
224 32 24
224 32 24
216 184 128
88 128 128
216 184 128
192 24 56
224 32 24
8 8 56
224 32 24
0 128 128
104 32 0
104 32 0
192 24 56
8 8 56
0 128 128
224 32 24
192 24 56
16 16 56
192 24 56
192 24 56
192 24 56
192 24 56
192 24 56
0 128 128
224 160 128
88 128 128
104 32 0
192 24 56
16 16 56
192 24 56
72 40 0
224 32 24
16 16 56
224 32 24
224 32 24
192 24 56
224 32 128
224 32 24
192 24 56
8 8 56
0 128 128
192 24 56
224 32 24
0 128 128
16 16 56
16 16 56
64 72 80
224 160 128
64 72 80
224 160 128
224 160 128
104 32 0
224 32 24
88 128 128
16 16 56
224 32 128
8 8 56
216 184 128
192 24 56
224 32 24
224 160 128
192 24 56
216 184 128
88 128 128
24 80 64
72 40 0
224 32 24
216 184 128
224 160 128
192 24 56
224 160 128
216 184 128
224 160 128
224 160 128
224 160 128
224 160 128
8 8 56
192 24 56
224 32 24
192 24 56
192 24 56
224 32 24
192 24 56
16 16 56
224 32 24
224 160 128
104 32 0
192 24 56
192 24 56
224 32 24
0 128 128
224 32 24
224 32 128
192 24 56
88 128 128
192 24 56
224 32 128
0 128 128
192 24 56
224 32 128
16 16 56
224 160 128
192 24 56
192 24 56
224 32 24
224 32 24
224 160 128
224 160 128
192 24 56
192 24 56
24 80 64
8 8 56
224 32 24
8 8 56
192 24 56
216 184 128
24 80 64
8 8 48
8 8 56
192 24 56
224 32 24
192 24 56
8 8 56
16 16 56
192 24 56
8 8 56
192 24 56
192 24 56
192 24 56
192 24 56
16 16 56
224 32 24
224 32 128
224 32 24
16 16 56
16 16 56
16 16 56
88 128 128
224 32 24
8 8 48
192 24 56
8 8 56
0 128 128
192 24 56
0 128 128
192 24 56
0 128 128
0 128 128
192 24 56
192 24 56
192 24 56
0 128 128
88 128 128
88 128 128
104 32 0
24 80 64
24 80 64
88 128 128
88 128 128
216 184 128
8 8 48
224 32 128
224 32 128
72 40 0
8 8 56
192 24 56
8 8 56
8 80 64
8 8 56
8 8 56
216 184 128
8 8 56
72 40 0
72 40 0
0 128 128
224 160 128
16 16 56
192 24 56
192 24 56
192 24 56
88 128 128
0 128 128
104 32 0
224 32 128
8 8 48
64 72 80
224 160 128
104 32 0
16 16 56
0 128 128
192 24 56
8 8 56
8 8 56
224 160 128
192 24 56
0 128 128
224 32 128
224 160 128
0 128 128
0 128 128
0 128 128
0 128 128
16 16 56
0 128 128
224 32 128
224 32 24
192 24 56
8 8 56
0 128 128
192 24 56
224 32 24
0 128 128
16 16 56
16 16 56
64 72 80
224 160 128
64 72 80
224 160 128
224 160 128
104 32 0
224 32 24
192 24 56
16 16 56
8 80 64
224 32 24
8 8 56
88 128 128
24 80 64
8 8 56
192 24 56
192 24 56
8 8 48
8 8 56
192 24 56
224 32 24
8 8 56
104 32 0
216 184 128
224 32 24
8 8 48
16 16 56
192 24 56
192 24 56
224 32 24
8 8 56
16 16 56
224 32 128
192 24 56
0 128 128
192 24 56
16 16 56
0 128 128
0 128 128
104 32 0
192 24 56
192 24 56
104 32 0
16 16 56
216 184 128
16 16 56
8 8 48
224 32 128
16 16 56
72 40 0
64 72 80
16 16 56
16 16 56
16 16 56
192 24 56
16 16 56
224 160 128
88 128 128
16 16 56
88 128 128
16 16 56
104 32 0
88 128 128
192 24 56
224 32 24
0 128 128
192 24 56
224 32 128
8 8 48
24 80 64
192 24 56
224 32 24
192 24 56
224 160 128
216 184 128
216 184 128
8 8 56
8 8 56
224 32 24
24 80 64
224 32 24
192 24 56
224 32 24
88 128 128
224 160 128
224 160 128
8 8 48
104 32 0
64 72 80
224 32 24
16 16 56
8 8 56
104 32 0
88 128 128
24 80 64
224 32 128
192 24 56
192 24 56
192 24 56
192 24 56
192 24 56
192 24 56
24 80 64
0 128 128
192 24 56
192 24 56
192 24 56
192 24 56
192 24 56
192 24 56
24 80 64
224 32 128
192 24 56
192 24 56
192 24 56
192 24 56
192 24 56
192 24 56
8 8 56
192 24 56
8 8 56
8 80 64
8 8 56
8 8 56
216 184 128
8 8 56
72 40 0
72 40 0
0 128 128
224 160 128
16 16 56
192 24 56
192 24 56
192 24 56
8 8 56
192 24 56
224 32 128
224 32 24
224 32 128
0 128 128
0 128 128
64 72 80
8 8 56
192 24 56
192 24 56
72 40 0
224 32 24
192 24 56
192 24 56
224 32 24
224 32 128
0 128 128
88 128 128
224 160 128
104 32 0
88 128 128
192 24 56
88 128 128
24 80 64
192 24 56
224 160 128
8 8 56
224 32 24
24 80 64
224 160 128
24 80 64
0 128 128
88 128 128
0 128 128
0 128 128
104 32 0
0 128 128
224 32 128
8 8 56
16 16 56
24 80 64
72 40 0
88 128 128
8 80 64
224 160 128
0 128 128
224 160 128
224 32 128
192 24 56
88 128 128
224 32 24
224 32 128
0 128 128
224 160 128
224 32 128
224 32 128
192 24 56
192 24 56
216 184 128
8 8 48
16 16 56
0 128 128
224 32 24
8 80 64
88 128 128
8 8 48
8 80 64
224 160 128
224 160 128
72 40 0
192 24 56
224 32 128
192 24 56
88 128 128
192 24 56
224 32 128
0 128 128
224 32 24
224 32 128
216 184 128
8 8 48
104 32 0
16 16 56
224 32 24
64 72 80
224 32 128
192 24 56
24 80 64
0 128 128
192 24 56
192 24 56
192 24 56
192 24 56
192 24 56
192 24 56
72 40 0
0 128 128
192 24 56
192 24 56
192 24 56
192 24 56
192 24 56
192 24 56
24 80 64
0 128 128
192 24 56
192 24 56
192 24 56
192 24 56
192 24 56
192 24 56
192 24 56
216 184 128
224 160 128
224 160 128
224 160 128
224 160 128
224 160 128
8 8 56
64 72 80
16 16 56
88 128 128
104 32 0
64 72 80
192 24 56
88 128 128
192 24 56
88 128 128
224 32 24
224 32 24
8 8 56
16 16 56
104 32 0
224 160 128
216 184 128
104 32 0
0 128 128
192 24 56
8 8 56
88 128 128
192 24 56
224 160 128
88 128 128
16 16 56
224 32 24
8 8 56
192 24 56
8 8 56
88 128 128
192 24 56
224 160 128
192 24 56
224 32 24
192 24 56
8 8 56
192 24 56
0 128 128
224 32 24
224 32 24
224 160 128
224 32 24
0 128 128
192 24 56
8 8 56
224 160 128
192 24 56
8 8 48
8 8 56
192 24 56
192 24 56
224 32 24
8 8 56
72 40 0
0 128 128
24 80 64
8 8 56
0 128 128
224 32 24
192 24 56
104 32 0
8 8 56
8 8 56
64 72 80
224 32 24
224 32 128
8 8 56
192 24 56
192 24 56
88 128 128
72 40 0
8 8 48
8 8 48
0 128 128
8 80 64
224 32 24
88 128 128
192 24 56
0 128 128
88 128 128
24 80 64
0 128 128
224 32 24
192 24 56
104 32 0
224 160 128
16 16 56
8 8 56
88 128 128
88 128 128
192 24 56
8 80 64
88 128 128
192 24 56
88 128 128
192 24 56
24 80 64
0 128 128
192 24 56
192 24 56
192 24 56
192 24 56
192 24 56
192 24 56
72 40 0
0 128 128
192 24 56
192 24 56
192 24 56
192 24 56
192 24 56
192 24 56
216 184 128
224 32 128
224 160 128
192 24 56
224 160 128
192 24 56
192 24 56
192 24 56
216 184 128
0 128 128
0 128 128
8 80 64
8 80 64
0 128 128
8 8 56
8 8 56
16 16 56
8 8 56
224 160 128
8 8 56
64 72 80
192 24 56
192 24 56
224 160 128
8 8 56
192 24 56
192 24 56
8 8 56
8 8 56
8 8 56
192 24 56
8 8 56
8 8 56
224 32 24
192 24 56
8 8 48
8 8 56
192 24 56
224 32 24
8 8 56
192 24 56
192 24 56
192 24 56
192 24 56
8 8 56
88 128 128
88 128 128
88 128 128
224 160 128
8 8 56
8 8 56
192 24 56
192 24 56
16 16 56
216 184 128
88 128 128
0 128 128
224 160 128
192 24 56
88 128 128
192 24 56
16 16 56
224 160 128
72 40 0
224 32 24
72 40 0
192 24 56
88 128 128
224 32 24
192 24 56
8 8 48
8 8 56
24 80 64
88 128 128
224 160 128
192 24 56
24 80 64
16 16 56
224 32 128
72 40 0
104 32 0
224 160 128
104 32 0
192 24 56
88 128 128
192 24 56
8 8 56
192 24 56
8 8 56
0 128 128
16 16 56
224 160 128
8 8 56
216 184 128
192 24 56
216 184 128
224 32 24
8 8 56
0 128 128
0 128 128
16 16 56
8 80 64
72 40 0
104 32 0
0 128 128
0 128 128
192 24 56
0 128 128
8 8 56
8 8 56
224 32 24
0 128 128
24 80 64
0 128 128
192 24 56
192 24 56
192 24 56
192 24 56
192 24 56
192 24 56
24 80 64
192 24 56
192 24 56
192 24 56
192 24 56
192 24 56
192 24 56
192 24 56
24 80 64
0 128 128
224 160 128
192 24 56
224 160 128
192 24 56
192 24 56
224 160 128
8 8 56
192 24 56
224 160 128
216 184 128
224 160 128
224 160 128
224 160 128
224 160 128
88 128 128
88 128 128
16 16 56
224 32 24
16 16 56
224 32 24
224 32 24
16 16 56
192 24 56
224 160 128
224 160 128
0 128 128
224 160 128
224 32 128
8 8 48
216 184 128
8 8 56
88 128 128
192 24 56
72 40 0
224 32 24
192 24 56
192 24 56
224 32 24
16 16 56
72 40 0
224 160 128
8 80 64
104 32 0
224 160 128
192 24 56
224 160 128
0 128 128
224 160 128
8 8 48
88 128 128
192 24 56
192 24 56
192 24 56
192 24 56
88 128 128
16 16 56
88 128 128
224 160 128
64 72 80
192 24 56
16 16 56
88 128 128
8 80 64
0 128 128
88 128 128
224 32 24
16 16 56
104 32 0
192 24 56
104 32 0
224 160 128
192 24 56
224 32 24
224 32 128
104 32 0
8 8 56
192 24 56
64 72 80
8 8 56
192 24 56
104 32 0
192 24 56
192 24 56
8 8 56
16 16 56
24 80 64
224 160 128
224 160 128
88 128 128
224 32 24
16 16 56
16 16 56
24 80 64
8 8 56
88 128 128
8 8 56
104 32 0
192 24 56
192 24 56
0 128 128
8 8 56
224 32 24
16 16 56
16 16 56
16 16 56
192 24 56
224 160 128
8 8 56
16 16 56
0 128 128
24 80 64
0 128 128
192 24 56
192 24 56
192 24 56
192 24 56
192 24 56
192 24 56
24 80 64
192 24 56
192 24 56
192 24 56
192 24 56
192 24 56
192 24 56
192 24 56
24 80 64
0 128 128
192 24 56
192 24 56
192 24 56
192 24 56
192 24 56
192 24 56
224 32 128
224 160 128
0 128 128
0 128 128
0 128 128
0 128 128
16 16 56
8 8 56
216 184 128
224 32 24
88 128 128
224 32 24
104 32 0
192 24 56
224 160 128
192 24 56
224 32 128
88 128 128
8 8 56
224 160 128
0 128 128
192 24 56
88 128 128
72 40 0
8 8 48
224 160 128
192 24 56
8 8 56
88 128 128
192 24 56
224 160 128
88 128 128
0 128 128
88 128 128
0 128 128
8 8 56
8 80 64
8 8 48
192 24 56
0 128 128
8 8 56
192 24 56
224 32 24
224 32 24
192 24 56
216 184 128
224 32 24
8 8 56
88 128 128
0 128 128
192 24 56
224 160 128
8 80 64
88 128 128
0 128 128
216 184 128
88 128 128
8 8 56
216 184 128
8 8 48
0 128 128
24 80 64
192 24 56
224 32 24
0 128 128
224 160 128
0 128 128
88 128 128
0 128 128
192 24 56
24 80 64
8 8 48
0 128 128
192 24 56
192 24 56
16 16 56
72 40 0
88 128 128
88 128 128
104 32 0
8 8 56
0 128 128
64 72 80
0 128 128
24 80 64
224 32 24
224 32 24
224 160 128
224 32 128
192 24 56
224 32 128
192 24 56
224 32 128
192 24 56
192 24 56
8 8 48
16 16 56
16 16 56
16 16 56
192 24 56
104 32 0
64 72 80
0 128 128
192 24 56
24 80 64
192 24 56
192 24 56
192 24 56
192 24 56
192 24 56
192 24 56
192 24 56
24 80 64
192 24 56
192 24 56
192 24 56
192 24 56
192 24 56
192 24 56
192 24 56
216 184 128
88 128 128
224 160 128
192 24 56
224 160 128
192 24 56
192 24 56
192 24 56
224 160 128
8 80 64
8 8 56
216 184 128
216 184 128
8 8 56
8 8 56
8 8 56
16 16 56
224 160 128
8 8 56
8 80 64
64 72 80
192 24 56
0 128 128
224 160 128
8 8 48
224 160 128
104 32 0
24 80 64
192 24 56
16 16 56
8 8 56
16 16 56
72 40 0
224 160 128
192 24 56
224 32 128
8 8 56
192 24 56
224 32 24
0 128 128
104 32 0
224 160 128
216 184 128
192 24 56
8 8 56
0 128 128
104 32 0
224 32 24
104 32 0
88 128 128
224 160 128
24 80 64
88 128 128
224 160 128
224 160 128
224 160 128
24 80 64
104 32 0
192 24 56
192 24 56
224 32 24
224 32 24
104 32 0
8 80 64
216 184 128
88 128 128
88 128 128
192 24 56
216 184 128
224 32 24
224 160 128
224 32 24
224 32 128
88 128 128
224 160 128
192 24 56
16 16 56
0 128 128
8 8 56
72 40 0
104 32 0
0 128 128
0 128 128
192 24 56
224 160 128
8 8 56
224 32 24
72 40 0
16 16 56
224 160 128
0 128 128
224 160 128
8 8 56
192 24 56
192 24 56
0 128 128
8 8 56
192 24 56
192 24 56
192 24 56
64 72 80
8 8 56
224 160 128
216 184 128
0 128 128
0 128 128
192 24 56
0 128 128
8 8 48
104 32 0
8 8 56
192 24 56
24 80 64
192 24 56
192 24 56
192 24 56
192 24 56
192 24 56
192 24 56
192 24 56
24 80 64
192 24 56
192 24 56
192 24 56
192 24 56
192 24 56
192 24 56
192 24 56
72 40 0
0 128 128
24 80 64
192 24 56
24 80 64
192 24 56
192 24 56
224 160 128
8 80 64
88 128 128
192 24 56
8 8 56
0 128 128
192 24 56
224 32 24
0 128 128
88 128 128
8 8 56
224 32 24
0 128 128
16 16 56
192 24 56
192 24 56
24 80 64
8 8 56
192 24 56
224 160 128
224 32 24
0 128 128
0 128 128
192 24 56
0 128 128
216 184 128
104 32 0
192 24 56
16 16 56
216 184 128
192 24 56
192 24 56
224 32 24
224 160 128
192 24 56
104 32 0
104 32 0
8 8 56
8 8 56
0 128 128
8 8 56
24 80 64
224 32 24
224 32 24
192 24 56
192 24 56
224 160 128
16 16 56
8 8 56
224 160 128
224 32 24
104 32 0
0 128 128
192 24 56
224 160 128
224 32 24
24 80 64
224 160 128
8 8 56
224 160 128
0 128 128
104 32 0
192 24 56
64 72 80
224 32 24
8 8 56
8 8 56
24 80 64
88 128 128
8 8 56
224 160 128
0 128 128
24 80 64
16 16 56
224 32 24
72 40 0
88 128 128
0 128 128
88 128 128
224 32 24
104 32 0
224 32 128
192 24 56
192 24 56
24 80 64
224 32 128
64 72 80
224 160 128
8 80 64
224 160 128
8 8 56
192 24 56
224 160 128
224 160 128
8 8 56
8 8 56
16 16 56
104 32 0
192 24 56
192 24 56
192 24 56
224 32 24
224 32 24
192 24 56
192 24 56
24 80 64
88 128 128
192 24 56
224 160 128
192 24 56
224 160 128
192 24 56
192 24 56
216 184 128
192 24 56
192 24 56
192 24 56
192 24 56
192 24 56
192 24 56
192 24 56
24 80 64
192 24 56
224 32 24
224 160 128
224 32 24
192 24 56
192 24 56
24 80 64
24 80 64
192 24 56
192 24 56
192 24 56
192 24 56
192 24 56
192 24 56
192 24 56
64 72 80
192 24 56
88 128 128
224 160 128
224 160 128
192 24 56
224 160 128
192 24 56
216 184 128
88 128 128
224 160 128
192 24 56
224 160 128
224 160 128
192 24 56
224 160 128
72 40 0
88 128 128
224 32 24
192 24 56
224 32 24
224 32 24
192 24 56
224 32 24
24 80 64
0 128 128
192 24 56
192 24 56
192 24 56
192 24 56
192 24 56
192 24 56
24 80 64
88 128 128
192 24 56
192 24 56
192 24 56
192 24 56
192 24 56
192 24 56
216 184 128
88 128 128
224 160 128
192 24 56
192 24 56
192 24 56
192 24 56
192 24 56
24 80 64
8 8 56
192 24 56
192 24 56
224 160 128
192 24 56
224 160 128
192 24 56
72 40 0
88 128 128
192 24 56
192 24 56
192 24 56
192 24 56
192 24 56
192 24 56
64 72 80
224 32 128
24 80 64
192 24 56
24 80 64
192 24 56
192 24 56
192 24 56
216 184 128
192 24 56
192 24 56
192 24 56
192 24 56
192 24 56
192 24 56
192 24 56
24 80 64
24 80 64
192 24 56
24 80 64
192 24 56
192 24 56
192 24 56
192 24 56
216 184 128
8 80 64
192 24 56
224 32 24
224 32 24
24 80 64
192 24 56
224 160 128
72 40 0
8 8 48
192 24 56
24 80 64
192 24 56
192 24 56
192 24 56
192 24 56
64 72 80
8 8 48
224 160 128
224 32 24
192 24 56
224 160 128
192 24 56
192 24 56
64 72 80
192 24 56
192 24 56
192 24 56
192 24 56
192 24 56
192 24 56
192 24 56
24 80 64
192 24 56
192 24 56
192 24 56
192 24 56
192 24 56
192 24 56
192 24 56
24 80 64
0 128 128
0 128 128
224 32 24
224 32 24
192 24 56
224 32 24
192 24 56
64 72 80
224 32 128
224 160 128
192 24 56
224 160 128
24 80 64
192 24 56
24 80 64
72 40 0
192 24 56
224 32 24
224 160 128
224 32 24
24 80 64
192 24 56
224 32 24
24 80 64
0 128 128
192 24 56
192 24 56
192 24 56
192 24 56
192 24 56
192 24 56
216 184 128
88 128 128
192 24 56
192 24 56
192 24 56
224 160 128
192 24 56
224 160 128
72 40 0
192 24 56
224 160 128
192 24 56
192 24 56
192 24 56
192 24 56
224 160 128
24 80 64
8 8 56
192 24 56
192 24 56
192 24 56
224 160 128
192 24 56
192 24 56
24 80 64
224 32 128
192 24 56
192 24 56
192 24 56
192 24 56
192 24 56
192 24 56
24 80 64
192 24 56
24 80 64
192 24 56
24 80 64
192 24 56
192 24 56
24 80 64
216 184 128
88 128 128
192 24 56
224 160 128
192 24 56
192 24 56
192 24 56
192 24 56
24 80 64
216 184 128
192 24 56
24 80 64
192 24 56
192 24 56
192 24 56
192 24 56
216 184 128
8 80 64
192 24 56
224 32 24
224 32 24
24 80 64
192 24 56
224 160 128
24 80 64
224 32 24
192 24 56
224 32 24
192 24 56
192 24 56
192 24 56
192 24 56
64 72 80
8 8 48
224 160 128
192 24 56
192 24 56
224 160 128
192 24 56
192 24 56
72 40 0
88 128 128
192 24 56
192 24 56
192 24 56
192 24 56
192 24 56
224 160 128
24 80 64
192 24 56
192 24 56
224 160 128
224 160 128
192 24 56
224 160 128
192 24 56
72 40 0
0 128 128
192 24 56
192 24 56
192 24 56
192 24 56
192 24 56
192 24 56
216 184 128
88 128 128
224 160 128
192 24 56
224 160 128
224 160 128
192 24 56
224 160 128
72 40 0
88 128 128
224 32 24
192 24 56
224 32 24
224 32 24
192 24 56
224 32 24
24 80 64
192 24 56
192 24 56
192 24 56
192 24 56
192 24 56
192 24 56
192 24 56
24 80 64
0 128 128
192 24 56
192 24 56
192 24 56
192 24 56
192 24 56
224 160 128
72 40 0
192 24 56
224 160 128
192 24 56
192 24 56
192 24 56
192 24 56
224 160 128
72 40 0
24 80 64
192 24 56
192 24 56
24 80 64
192 24 56
24 80 64
192 24 56
24 80 64
224 32 128
192 24 56
192 24 56
192 24 56
192 24 56
192 24 56
192 24 56
24 80 64
88 128 128
192 24 56
192 24 56
192 24 56
192 24 56
192 24 56
192 24 56
24 80 64
224 160 128
192 24 56
224 160 128
192 24 56
192 24 56
192 24 56
192 24 56
24 80 64
216 184 128
192 24 56
24 80 64
192 24 56
192 24 56
192 24 56
192 24 56
24 80 64
64 72 80
192 24 56
24 80 64
24 80 64
24 80 64
192 24 56
192 24 56
24 80 64
192 24 56
192 24 56
192 24 56
192 24 56
192 24 56
192 24 56
192 24 56
72 40 0
216 184 128
24 80 64
192 24 56
224 160 128
192 24 56
192 24 56
224 32 24
216 184 128
88 128 128
192 24 56
224 160 128
192 24 56
192 24 56
192 24 56
224 160 128
24 80 64
88 128 128
192 24 56
224 160 128
192 24 56
192 24 56
192 24 56
224 160 128
64 72 80
0 128 128
88 128 128
224 160 128
224 160 128
192 24 56
224 160 128
192 24 56
216 184 128
88 128 128
224 160 128
192 24 56
224 160 128
224 160 128
192 24 56
224 160 128
72 40 0
192 24 56
224 32 24
192 24 56
224 32 24
224 32 24
192 24 56
224 32 24
24 80 64
192 24 56
192 24 56
192 24 56
192 24 56
192 24 56
192 24 56
192 24 56
64 72 80
224 32 128
192 24 56
192 24 56
192 24 56
224 32 24
192 24 56
224 32 24
216 184 128
88 128 128
224 160 128
224 32 24
192 24 56
192 24 56
192 24 56
24 80 64
72 40 0
24 80 64
192 24 56
192 24 56
224 32 24
224 160 128
224 32 24
192 24 56
24 80 64
224 32 128
192 24 56
192 24 56
192 24 56
192 24 56
192 24 56
192 24 56
24 80 64
88 128 128
192 24 56
192 24 56
192 24 56
192 24 56
192 24 56
192 24 56
64 72 80
224 32 24
192 24 56
24 80 64
192 24 56
192 24 56
192 24 56
192 24 56
24 80 64
216 184 128
192 24 56
24 80 64
192 24 56
192 24 56
192 24 56
192 24 56
72 40 0
8 8 48
192 24 56
224 160 128
224 160 128
24 80 64
192 24 56
224 32 24
24 80 64
104 32 0
192 24 56
224 160 128
192 24 56
192 24 56
192 24 56
192 24 56
24 80 64
216 184 128
224 160 128
224 32 24
224 160 128
192 24 56
192 24 56
192 24 56
72 40 0
224 32 128
224 32 24
192 24 56
224 32 24
192 24 56
192 24 56
224 32 24
216 184 128
192 24 56
192 24 56
224 160 128
192 24 56
192 24 56
192 24 56
224 160 128
72 40 0
192 24 56
0 128 128
224 32 24
224 32 24
192 24 56
224 32 24
192 24 56
64 72 80
224 32 128
24 80 64
192 24 56
24 80 64
24 80 64
192 24 56
24 80 64
216 184 128
0 128 128
192 24 56
192 24 56
192 24 56
192 24 56
192 24 56
192 24 56
24 80 64
104 32 0
192 24 56
192 24 56
192 24 56
224 160 128
192 24 56
192 24 56
216 184 128
224 32 128
192 24 56
224 160 128
192 24 56
192 24 56
192 24 56
224 160 128
72 40 0
0 128 128
24 80 64
192 24 56
192 24 56
224 160 128
192 24 56
192 24 56
216 184 128
8 8 56
192 24 56
192 24 56
224 32 24
192 24 56
224 32 24
224 160 128
24 80 64
0 128 128
192 24 56
192 24 56
192 24 56
192 24 56
192 24 56
192 24 56
72 40 0
224 32 128
224 32 24
192 24 56
224 32 24
192 24 56
192 24 56
192 24 56
72 40 0
104 32 0
192 24 56
224 160 128
192 24 56
192 24 56
192 24 56
192 24 56
24 80 64
216 184 128
192 24 56
24 80 64
192 24 56
192 24 56
192 24 56
192 24 56
72 40 0
8 8 48
192 24 56
224 160 128
224 160 128
24 80 64
192 24 56
224 32 24
24 80 64
72 40 0
224 160 128
224 32 24
192 24 56
224 160 128
192 24 56
192 24 56
72 40 0
64 72 80
24 80 64
192 24 56
224 160 128
224 32 24
192 24 56
192 24 56
72 40 0
192 24 56
224 160 128
192 24 56
224 160 128
192 24 56
192 24 56
192 24 56
24 80 64
192 24 56
192 24 56
192 24 56
192 24 56
192 24 56
192 24 56
192 24 56
24 80 64
192 24 56
192 24 56
192 24 56
192 24 56
192 24 56
192 24 56
192 24 56
72 40 0
224 32 128
24 80 64
192 24 56
24 80 64
24 80 64
192 24 56
24 80 64
216 184 128
192 24 56
192 24 56
224 32 24
192 24 56
224 32 24
192 24 56
192 24 56
24 80 64
88 128 128
192 24 56
192 24 56
192 24 56
192 24 56
192 24 56
224 160 128
64 72 80
0 128 128
192 24 56
192 24 56
192 24 56
224 32 24
192 24 56
224 32 24
24 80 64
88 128 128
24 80 64
192 24 56
192 24 56
224 160 128
192 24 56
224 32 24
216 184 128
224 32 24
192 24 56
192 24 56
192 24 56
224 32 24
192 24 56
192 24 56
216 184 128
224 32 128
224 160 128
192 24 56
224 160 128
192 24 56
192 24 56
192 24 56
216 184 128
192 24 56
224 32 24
192 24 56
224 32 24
192 24 56
192 24 56
224 32 24
64 72 80
0 128 128
192 24 56
24 80 64
192 24 56
192 24 56
192 24 56
192 24 56
24 80 64
64 72 80
192 24 56
24 80 64
192 24 56
192 24 56
192 24 56
192 24 56
64 72 80
8 8 48
224 160 128
192 24 56
192 24 56
224 32 24
192 24 56
24 80 64
24 80 64
224 160 128
224 160 128
192 24 56
192 24 56
224 160 128
192 24 56
192 24 56
72 40 0
64 72 80
24 80 64
192 24 56
192 24 56
24 80 64
192 24 56
224 160 128
24 80 64
224 32 128
224 160 128
192 24 56
224 160 128
192 24 56
192 24 56
224 32 24
24 80 64
192 24 56
192 24 56
24 80 64
224 32 24
224 160 128
224 32 24
224 160 128
216 184 128
192 24 56
192 24 56
192 24 56
192 24 56
192 24 56
192 24 56
192 24 56
72 40 0
224 32 128
24 80 64
192 24 56
24 80 64
24 80 64
192 24 56
24 80 64
24 80 64
224 32 128
192 24 56
224 160 128
192 24 56
224 160 128
192 24 56
192 24 56
24 80 64
88 128 128
192 24 56
192 24 56
192 24 56
192 24 56
192 24 56
224 160 128
216 184 128
192 24 56
192 24 56
192 24 56
192 24 56
192 24 56
192 24 56
224 32 24
216 184 128
88 128 128
24 80 64
192 24 56
192 24 56
192 24 56
192 24 56
24 80 64
216 184 128
224 32 24
192 24 56
192 24 56
224 32 24
192 24 56
224 32 24
192 24 56
24 80 64
0 128 128
224 160 128
192 24 56
224 160 128
192 24 56
192 24 56
224 160 128
216 184 128
0 128 128
192 24 56
192 24 56
192 24 56
192 24 56
192 24 56
192 24 56
24 80 64
216 184 128
192 24 56
24 80 64
192 24 56
192 24 56
192 24 56
192 24 56
24 80 64
64 72 80
192 24 56
24 80 64
192 24 56
192 24 56
192 24 56
192 24 56
24 80 64
72 40 0
192 24 56
24 80 64
224 32 24
224 32 24
192 24 56
192 24 56
24 80 64
224 160 128
224 160 128
192 24 56
192 24 56
224 160 128
192 24 56
192 24 56
24 80 64
64 72 80
24 80 64
192 24 56
224 32 24
224 160 128
192 24 56
224 160 128
72 40 0
224 32 128
192 24 56
224 32 24
224 160 128
192 24 56
192 24 56
224 32 24
216 184 128
0 128 128
192 24 56
24 80 64
192 24 56
224 160 128
192 24 56
224 32 24
64 72 80
192 24 56
0 128 128
224 32 24
224 32 24
192 24 56
224 32 24
192 24 56
72 40 0
224 32 128
24 80 64
192 24 56
24 80 64
24 80 64
192 24 56
24 80 64
24 80 64
192 24 56
192 24 56
192 24 56
192 24 56
192 24 56
192 24 56
192 24 56
24 80 64
104 32 0
192 24 56
192 24 56
224 160 128
192 24 56
224 160 128
192 24 56
72 40 0
224 32 128
192 24 56
192 24 56
192 24 56
192 24 56
192 24 56
192 24 56
72 40 0
0 128 128
24 80 64
192 24 56
192 24 56
224 160 128
192 24 56
224 32 24
216 184 128
224 32 24
192 24 56
192 24 56
192 24 56
224 32 24
192 24 56
192 24 56
24 80 64
0 128 128
192 24 56
192 24 56
192 24 56
192 24 56
192 24 56
192 24 56
24 80 64
224 32 128
192 24 56
192 24 56
192 24 56
192 24 56
192 24 56
192 24 56
64 72 80
224 160 128
192 24 56
24 80 64
192 24 56
192 24 56
192 24 56
192 24 56
24 80 64
8 80 64
192 24 56
224 32 24
192 24 56
192 24 56
192 24 56
192 24 56
24 80 64
16 16 56
192 24 56
224 32 24
224 32 24
224 32 24
192 24 56
192 24 56
216 184 128
16 16 56
192 24 56
24 80 64
192 24 56
192 24 56
192 24 56
192 24 56
24 80 64
64 72 80
24 80 64
192 24 56
224 32 24
224 160 128
192 24 56
224 160 128
24 80 64
0 128 128
192 24 56
192 24 56
224 160 128
192 24 56
192 24 56
192 24 56
24 80 64
192 24 56
192 24 56
192 24 56
192 24 56
24 80 64
192 24 56
224 32 24
24 80 64
192 24 56
192 24 56
192 24 56
24 80 64
224 32 24
192 24 56
224 160 128
216 184 128
0 128 128
24 80 64
24 80 64
192 24 56
192 24 56
192 24 56
224 160 128
64 72 80
88 128 128
24 80 64
24 80 64
192 24 56
24 80 64
192 24 56
192 24 56
24 80 64
0 128 128
0 128 128
224 32 24
24 80 64
224 32 24
192 24 56
224 160 128
64 72 80
0 128 128
224 160 128
224 160 128
24 80 64
224 32 24
192 24 56
24 80 64
72 40 0
192 24 56
224 32 24
24 80 64
224 32 24
224 160 128
224 160 128
192 24 56
24 80 64
192 24 56
224 32 24
224 32 24
24 80 64
224 32 24
192 24 56
24 80 64
216 184 128
0 128 128
192 24 56
192 24 56
24 80 64
224 160 128
192 24 56
24 80 64
216 184 128
224 32 128
24 80 64
192 24 56
192 24 56
224 160 128
192 24 56
224 32 24
24 80 64
224 160 128
192 24 56
192 24 56
224 32 24
24 80 64
224 160 128
192 24 56
24 80 64
88 128 128
192 24 56
192 24 56
192 24 56
24 80 64
192 24 56
24 80 64
64 72 80
64 72 80
192 24 56
192 24 56
224 160 128
192 24 56
192 24 56
224 32 24
24 80 64
72 40 0
192 24 56
24 80 64
192 24 56
224 32 24
192 24 56
224 160 128
64 72 80
24 80 64
192 24 56
24 80 64
24 80 64
24 80 64
192 24 56
224 32 24
216 184 128
24 80 64
24 80 64
192 24 56
192 24 56
192 24 56
192 24 56
224 32 24
24 80 64
224 32 128
192 24 56
192 24 56
192 24 56
24 80 64
192 24 56
224 32 24
72 40 0
224 32 128
224 32 24
192 24 56
24 80 64
224 32 24
192 24 56
224 160 128
72 40 0
104 32 0
224 32 24
24 80 64
192 24 56
224 160 128
192 24 56
192 24 56
72 40 0
0 128 128
8 8 56
24 80 64
224 160 128
24 80 64
192 24 56
192 24 56
72 40 0
192 24 56
24 80 64
24 80 64
192 24 56
24 80 64
192 24 56
24 80 64
216 184 128
224 32 128
224 160 128
24 80 64
224 160 128
224 32 24
192 24 56
24 80 64
64 72 80
224 32 128
24 80 64
24 80 64
24 80 64
224 160 128
192 24 56
192 24 56
64 72 80
104 32 0
24 80 64
224 32 24
24 80 64
224 32 24
192 24 56
24 80 64
24 80 64
0 128 128
224 160 128
224 160 128
24 80 64
24 80 64
192 24 56
24 80 64
72 40 0
192 24 56
24 80 64
192 24 56
192 24 56
224 160 128
192 24 56
24 80 64
72 40 0
24 80 64
192 24 56
192 24 56
24 80 64
24 80 64
192 24 56
192 24 56
24 80 64
8 8 48
192 24 56
192 24 56
224 160 128
224 32 24
192 24 56
24 80 64
24 80 64
224 32 24
224 160 128
224 160 128
24 80 64
224 160 128
192 24 56
24 80 64
72 40 0
24 80 64
192 24 56
24 80 64
192 24 56
224 32 24
192 24 56
224 160 128
64 72 80
64 72 80
192 24 56
24 80 64
24 80 64
24 80 64
192 24 56
224 32 24
216 184 128
64 72 80
24 80 64
192 24 56
192 24 56
192 24 56
192 24 56
224 32 24
216 184 128
192 24 56
192 24 56
192 24 56
192 24 56
24 80 64
192 24 56
224 32 24
64 72 80
192 24 56
192 24 56
192 24 56
24 80 64
192 24 56
192 24 56
192 24 56
64 72 80
8 8 56
24 80 64
224 160 128
224 32 24
224 32 24
192 24 56
224 160 128
72 40 0
192 24 56
192 24 56
224 32 24
192 24 56
224 32 24
192 24 56
224 32 24
216 184 128
192 24 56
88 128 128
224 160 128
24 80 64
24 80 64
192 24 56
192 24 56
64 72 80
0 128 128
224 160 128
224 160 128
24 80 64
192 24 56
192 24 56
24 80 64
24 80 64
192 24 56
224 32 24
224 32 24
224 32 24
224 160 128
192 24 56
224 32 24
72 40 0
192 24 56
224 32 24
224 32 24
24 80 64
224 32 24
192 24 56
24 80 64
72 40 0
192 24 56
224 160 128
224 160 128
224 32 24
224 32 24
192 24 56
224 32 24
72 40 0
88 128 128
224 32 24
224 160 128
224 160 128
224 160 128
192 24 56
24 80 64
72 40 0
24 80 64
192 24 56
192 24 56
224 32 24
24 80 64
224 160 128
192 24 56
216 184 128
72 40 0
192 24 56
192 24 56
24 80 64
192 24 56
192 24 56
24 80 64
64 72 80
8 8 56
224 160 128
192 24 56
224 160 128
24 80 64
192 24 56
224 32 24
72 40 0
64 72 80
192 24 56
24 80 64
192 24 56
192 24 56
192 24 56
24 80 64
72 40 0
24 80 64
192 24 56
24 80 64
24 80 64
24 80 64
192 24 56
24 80 64
24 80 64
24 80 64
24 80 64
192 24 56
192 24 56
192 24 56
192 24 56
224 160 128
24 80 64
0 128 128
192 24 56
192 24 56
192 24 56
24 80 64
192 24 56
224 32 24
64 72 80
224 32 128
192 24 56
192 24 56
24 80 64
192 24 56
192 24 56
192 24 56
64 72 80
16 16 56
24 80 64
224 160 128
224 32 24
224 32 24
192 24 56
224 160 128
72 40 0
192 24 56
224 32 24
224 32 24
192 24 56
224 32 24
192 24 56
192 24 56
72 40 0
192 24 56
0 128 128
224 32 24
24 80 64
224 32 24
192 24 56
224 160 128
216 184 128
224 32 128
24 80 64
24 80 64
24 80 64
192 24 56
192 24 56
24 80 64
64 72 80
192 24 56
224 160 128
224 160 128
24 80 64
224 160 128
192 24 56
224 32 24
72 40 0
8 8 48
192 24 56
192 24 56
224 32 24
224 160 128
224 160 128
192 24 56
24 80 64
0 128 128
224 160 128
224 160 128
224 32 24
224 32 24
192 24 56
224 32 24
64 72 80
0 128 128
224 32 24
224 160 128
224 160 128
24 80 64
192 24 56
224 160 128
24 80 64
224 32 24
224 160 128
224 160 128
24 80 64
24 80 64
192 24 56
224 160 128
72 40 0
8 8 56
192 24 56
192 24 56
224 32 24
224 160 128
192 24 56
224 32 24
72 40 0
64 72 80
192 24 56
192 24 56
192 24 56
224 32 24
192 24 56
224 32 24
216 184 128
24 80 64
192 24 56
24 80 64
192 24 56
224 32 24
192 24 56
224 160 128
64 72 80
72 40 0
192 24 56
24 80 64
24 80 64
24 80 64
192 24 56
224 32 24
24 80 64
64 72 80
24 80 64
192 24 56
192 24 56
192 24 56
192 24 56
224 160 128
24 80 64
88 128 128
192 24 56
192 24 56
192 24 56
24 80 64
192 24 56
192 24 56
24 80 64
192 24 56
192 24 56
192 24 56
24 80 64
192 24 56
192 24 56
24 80 64
72 40 0
104 32 0
224 32 24
24 80 64
192 24 56
224 160 128
192 24 56
224 32 24
72 40 0
0 128 128
224 32 24
224 32 24
192 24 56
224 32 24
192 24 56
192 24 56
24 80 64
192 24 56
224 160 128
224 160 128
224 32 24
224 160 128
192 24 56
24 80 64
64 72 80
88 128 128
24 80 64
24 80 64
224 32 24
224 160 128
192 24 56
24 80 64
24 80 64
88 128 128
192 24 56
224 32 24
224 160 128
24 80 64
224 32 24
192 24 56
24 80 64
104 32 0
192 24 56
192 24 56
224 32 24
192 24 56
192 24 56
224 32 24
64 72 80
192 24 56
224 160 128
192 24 56
224 32 24
24 80 64
192 24 56
224 32 24
64 72 80
224 32 128
224 32 24
224 160 128
224 160 128
24 80 64
192 24 56
224 160 128
216 184 128
224 32 24
192 24 56
192 24 56
192 24 56
24 80 64
224 32 24
224 160 128
216 184 128
0 128 128
192 24 56
192 24 56
192 24 56
24 80 64
192 24 56
224 32 24
72 40 0
64 72 80
192 24 56
224 160 128
224 32 24
224 160 128
192 24 56
224 160 128
24 80 64
216 184 128
192 24 56
24 80 64
192 24 56
192 24 56
192 24 56
24 80 64
64 72 80
216 184 128
192 24 56
24 80 64
24 80 64
24 80 64
192 24 56
192 24 56
72 40 0
224 32 24
224 32 24
192 24 56
192 24 56
192 24 56
192 24 56
192 24 56
216 184 128
0 128 128
192 24 56
192 24 56
192 24 56
24 80 64
192 24 56
192 24 56
24 80 64
224 32 128
192 24 56
192 24 56
24 80 64
192 24 56
192 24 56
24 80 64
216 184 128
8 80 64
224 160 128
24 80 64
192 24 56
224 32 24
192 24 56
224 160 128
24 80 64
192 24 56
0 128 128
24 80 64
224 32 24
24 80 64
224 160 128
224 160 128
24 80 64
88 128 128
224 32 24
224 32 24
224 160 128
24 80 64
192 24 56
224 32 24
72 40 0
0 128 128
24 80 64
24 80 64
24 80 64
192 24 56
192 24 56
224 32 24
72 40 0
224 32 128
224 32 24
24 80 64
224 32 24
24 80 64
224 160 128
192 24 56
72 40 0
72 40 0
224 32 24
192 24 56
224 32 24
192 24 56
192 24 56
224 32 24
216 184 128
192 24 56
24 80 64
224 32 24
224 32 24
24 80 64
192 24 56
224 32 24
24 80 64
88 128 128
224 32 24
224 160 128
224 160 128
24 80 64
192 24 56
24 80 64
24 80 64
224 32 24
192 24 56
192 24 56
24 80 64
224 32 24
192 24 56
192 24 56
216 184 128
64 72 80
192 24 56
192 24 56
224 32 24
192 24 56
192 24 56
24 80 64
216 184 128
224 160 128
224 32 24
24 80 64
224 32 24
24 80 64
192 24 56
24 80 64
216 184 128
24 80 64
192 24 56
24 80 64
192 24 56
192 24 56
192 24 56
24 80 64
72 40 0
72 40 0
192 24 56
24 80 64
24 80 64
24 80 64
192 24 56
224 160 128
64 72 80
64 72 80
224 32 24
224 160 128
192 24 56
192 24 56
192 24 56
192 24 56
72 40 0
88 128 128
192 24 56
224 160 128
192 24 56
24 80 64
224 160 128
192 24 56
64 72 80
88 128 128
224 160 128
224 160 128
224 32 24
192 24 56
192 24 56
192 24 56
64 72 80
0 128 128
224 32 24
224 32 24
224 160 128
224 160 128
192 24 56
224 32 24
216 184 128
192 24 56
192 24 56
224 160 128
192 24 56
224 160 128
224 160 128
192 24 56
72 40 0
104 32 0
8 8 56
224 32 24
24 80 64
24 80 64
192 24 56
192 24 56
72 40 0
88 128 128
24 80 64
24 80 64
24 80 64
192 24 56
192 24 56
224 32 24
24 80 64
88 128 128
224 160 128
192 24 56
192 24 56
224 32 24
192 24 56
192 24 56
24 80 64
104 32 0
192 24 56
192 24 56
24 80 64
224 160 128
192 24 56
224 32 24
216 184 128
192 24 56
24 80 64
224 32 24
192 24 56
224 160 128
192 24 56
192 24 56
216 184 128
0 128 128
192 24 56
24 80 64
24 80 64
24 80 64
192 24 56
24 80 64
216 184 128
216 184 128
192 24 56
192 24 56
224 160 128
224 32 24
224 32 24
224 160 128
72 40 0
24 80 64
192 24 56
192 24 56
24 80 64
192 24 56
192 24 56
24 80 64
64 72 80
8 8 48
224 32 24
224 160 128
224 32 24
24 80 64
192 24 56
192 24 56
216 184 128
8 80 64
224 160 128
24 80 64
192 24 56
192 24 56
192 24 56
224 32 24
24 80 64
24 80 64
192 24 56
24 80 64
224 32 24
224 32 24
192 24 56
24 80 64
24 80 64
224 32 24
224 32 24
192 24 56
192 24 56
192 24 56
192 24 56
224 32 24
24 80 64
88 128 128
192 24 56
192 24 56
224 160 128
24 80 64
192 24 56
192 24 56
72 40 0
0 128 128
224 160 128
224 160 128
224 32 24
192 24 56
192 24 56
224 160 128
72 40 0
192 24 56
24 80 64
224 32 24
224 160 128
224 160 128
192 24 56
24 80 64
216 184 128
88 128 128
192 24 56
224 160 128
192 24 56
224 160 128
224 160 128
192 24 56
24 80 64
192 24 56
192 24 56
192 24 56
24 80 64
224 160 128
192 24 56
224 32 24
72 40 0
0 128 128
24 80 64
24 80 64
24 80 64
192 24 56
192 24 56
224 32 24
64 72 80
192 24 56
24 80 64
224 32 24
224 32 24
224 32 24
192 24 56
192 24 56
24 80 64
8 80 64
192 24 56
192 24 56
224 160 128
224 32 24
224 32 24
224 160 128
216 184 128
192 24 56
24 80 64
224 32 24
192 24 56
224 160 128
192 24 56
192 24 56
64 72 80
88 128 128
192 24 56
24 80 64
24 80 64
24 80 64
192 24 56
24 80 64
216 184 128
104 32 0
224 32 24
224 32 24
24 80 64
24 80 64
192 24 56
224 32 24
216 184 128
8 8 56
192 24 56
192 24 56
192 24 56
24 80 64
192 24 56
224 160 128
24 80 64
72 40 0
192 24 56
224 160 128
192 24 56
224 160 128
192 24 56
224 160 128
72 40 0
224 32 24
224 160 128
24 80 64
192 24 56
192 24 56
192 24 56
24 80 64
72 40 0
24 80 64
192 24 56
24 80 64
224 32 24
224 32 24
192 24 56
224 160 128
24 80 64
8 80 64
24 80 64
224 160 128
224 160 128
192 24 56
192 24 56
24 80 64
216 184 128
72 40 0
192 24 56
24 80 64
24 80 64
24 80 64
192 24 56
224 32 24
24 80 64
224 160 128
24 80 64
224 32 24
224 32 24
24 80 64
192 24 56
24 80 64
72 40 0
192 24 56
224 160 128
224 160 128
24 80 64
24 80 64
192 24 56
224 160 128
24 80 64
192 24 56
72 40 0
24 80 64
24 80 64
24 80 64
24 80 64
192 24 56
224 32 24
0 128 128
224 32 24
192 24 56
192 24 56
224 32 24
224 32 24
224 32 24
192 24 56
224 160 128
224 160 128
8 80 64
88 128 128
0 128 128
192 24 56
192 24 56
224 32 24
192 24 56
192 24 56
192 24 56
224 160 128
192 24 56
192 24 56
192 24 56
8 8 48
64 72 80
64 72 80
64 72 80
8 80 64
64 72 80
64 72 80
64 72 80
192 24 56
192 24 56
192 24 56
224 160 128
192 24 56
192 24 56
192 24 56
224 32 24
88 128 128
0 128 128
88 128 128
192 24 56
0 128 128
192 24 56
88 128 128
224 32 128
224 32 128
224 32 128
192 24 56
192 24 56
192 24 56
224 32 128
0 128 128
224 32 128
224 32 128
192 24 56
192 24 56
88 128 128
224 32 128
88 128 128
0 128 128
224 32 128
88 128 128
88 128 128
0 128 128
224 32 128
224 32 128
224 32 128
24 80 64
224 160 128
224 32 128
0 128 128
192 24 56
8 8 48
64 72 80
224 32 128
24 80 64
24 80 64
224 32 128
0 128 128
88 128 128
88 128 128
8 8 56
216 184 128
72 40 0
24 80 64
224 32 128
192 24 56
224 32 128
104 32 0
16 16 56
8 8 56
8 8 48
224 32 24
64 72 80
216 184 128
192 24 56
24 80 64
24 80 64
24 80 64
192 24 56
192 24 56
64 72 80
24 80 64
24 80 64
192 24 56
224 160 128
192 24 56
224 32 24
224 32 24
64 72 80
88 128 128
24 80 64
224 160 128
224 160 128
224 160 128
192 24 56
224 160 128
24 80 64
192 24 56
72 40 0
24 80 64
24 80 64
24 80 64
24 80 64
192 24 56
224 32 24
0 128 128
224 32 24
192 24 56
224 160 128
8 8 56
224 32 24
224 32 24
224 160 128
104 32 0
104 32 0
72 40 0
8 8 48
24 80 64
224 160 128
224 160 128
192 24 56
224 32 24
192 24 56
192 24 56
192 24 56
224 160 128
192 24 56
192 24 56
64 72 80
8 8 48
64 72 80
64 72 80
64 72 80
8 80 64
64 72 80
64 72 80
192 24 56
192 24 56
224 160 128
192 24 56
192 24 56
192 24 56
224 32 24
192 24 56
224 32 128
192 24 56
88 128 128
0 128 128
0 128 128
192 24 56
88 128 128
192 24 56
0 128 128
0 128 128
88 128 128
0 128 128
192 24 56
224 32 128
0 128 128
192 24 56
224 32 128
192 24 56
88 128 128
192 24 56
0 128 128
224 32 128
192 24 56
224 32 128
192 24 56
0 128 128
192 24 56
8 8 48
224 32 128
224 32 128
24 80 64
192 24 56
88 128 128
192 24 56
88 128 128
64 72 80
64 72 80
8 80 64
224 160 128
24 80 64
224 32 128
0 128 128
88 128 128
104 32 0
16 16 56
216 184 128
72 40 0
24 80 64
0 128 128
0 128 128
192 24 56
192 24 56
16 16 56
8 8 56
224 32 128
8 8 56
64 72 80
64 72 80
192 24 56
224 32 24
224 32 24
224 32 24
192 24 56
192 24 56
64 72 80
8 8 48
24 80 64
224 32 24
24 80 64
224 32 24
192 24 56
224 32 24
24 80 64
192 24 56
224 160 128
224 160 128
192 24 56
224 160 128
192 24 56
192 24 56
24 80 64
88 128 128
24 80 64
224 32 24
224 32 24
24 80 64
224 32 24
224 160 128
16 16 56
224 32 24
224 32 24
192 24 56
104 32 0
8 8 56
224 32 24
224 32 24
104 32 0
104 32 0
104 32 0
64 72 80
8 8 48
64 72 80
104 32 0
104 32 0
192 24 56
192 24 56
224 32 24
192 24 56
192 24 56
192 24 56
224 160 128
192 24 56
64 72 80
64 72 80
8 8 48
64 72 80
64 72 80
64 72 80
8 80 64
64 72 80
192 24 56
88 128 128
88 128 128
88 128 128
192 24 56
224 32 24
88 128 128
192 24 56
224 32 128
0 128 128
192 24 56
224 32 128
192 24 56
192 24 56
88 128 128
0 128 128
224 32 128
88 128 128
0 128 128
224 32 128
192 24 56
224 32 128
192 24 56
88 128 128
224 32 128
192 24 56
192 24 56
224 32 128
0 128 128
88 128 128
0 128 128
224 32 128
0 128 128
192 24 56
88 128 128
8 8 48
224 32 128
224 32 128
24 80 64
224 32 24
88 128 128
88 128 128
0 128 128
64 72 80
64 72 80
8 80 64
224 160 128
24 80 64
224 32 128
0 128 128
88 128 128
224 32 24
224 32 128
216 184 128
64 72 80
24 80 64
0 128 128
192 24 56
0 128 128
224 32 128
88 128 128
0 128 128
16 16 56
192 24 56
64 72 80
8 80 64
224 160 128
224 160 128
224 160 128
192 24 56
192 24 56
224 160 128
216 184 128
216 184 128
24 80 64
192 24 56
224 160 128
224 32 24
192 24 56
224 32 24
64 72 80
192 24 56
24 80 64
192 24 56
24 80 64
192 24 56
192 24 56
224 32 24
24 80 64
88 128 128
24 80 64
224 32 24
224 32 24
24 80 64
224 32 24
224 160 128
16 16 56
224 32 24
224 32 24
192 24 56
88 128 128
8 8 56
224 32 24
224 32 24
104 32 0
104 32 0
104 32 0
64 72 80
8 8 48
8 8 48
104 32 0
104 32 0
192 24 56
192 24 56
192 24 56
224 32 24
192 24 56
192 24 56
192 24 56
224 160 128
64 72 80
64 72 80
64 72 80
8 8 48
64 72 80
64 72 80
64 72 80
8 80 64
88 128 128
192 24 56
192 24 56
192 24 56
224 32 24
192 24 56
88 128 128
192 24 56
224 32 128
0 128 128
88 128 128
192 24 56
192 24 56
192 24 56
0 128 128
0 128 128
224 32 128
88 128 128
0 128 128
0 128 128
88 128 128
0 128 128
192 24 56
224 32 128
0 128 128
192 24 56
192 24 56
224 32 128
224 32 128
224 32 128
192 24 56
192 24 56
0 128 128
88 128 128
0 128 128
8 8 48
224 32 128
224 32 128
24 80 64
224 32 24
88 128 128
0 128 128
192 24 56
16 16 56
16 16 56
64 72 80
224 160 128
24 80 64
224 32 128
192 24 56
224 32 128
0 128 128
104 32 0
64 72 80
216 184 128
24 80 64
0 128 128
192 24 56
0 128 128
0 128 128
8 8 56
0 128 128
16 16 56
192 24 56
64 72 80
224 32 24
224 160 128
24 80 64
24 80 64
224 32 24
192 24 56
224 160 128
24 80 64
24 80 64
24 80 64
192 24 56
224 160 128
224 32 24
192 24 56
224 32 24
216 184 128
104 32 0
24 80 64
224 32 24
24 80 64
24 80 64
192 24 56
24 80 64
24 80 64
88 128 128
24 80 64
224 32 24
224 32 24
24 80 64
224 32 24
224 160 128
192 24 56
192 24 56
192 24 56
192 24 56
192 24 56
88 128 128
192 24 56
192 24 56
104 32 0
216 184 128
216 184 128
8 8 48
8 8 48
104 32 0
104 32 0
104 32 0
88 128 128
192 24 56
192 24 56
192 24 56
224 32 24
192 24 56
192 24 56
192 24 56
72 40 0
64 72 80
64 72 80
64 72 80
8 8 48
64 72 80
64 72 80
64 72 80
192 24 56
88 128 128
192 24 56
224 32 24
192 24 56
192 24 56
192 24 56
192 24 56
0 128 128
88 128 128
0 128 128
192 24 56
88 128 128
88 128 128
224 32 128
0 128 128
0 128 128
0 128 128
88 128 128
192 24 56
88 128 128
0 128 128
88 128 128
0 128 128
0 128 128
88 128 128
192 24 56
224 32 128
224 32 128
224 32 128
192 24 56
0 128 128
224 32 128
0 128 128
192 24 56
8 8 48
224 32 128
224 32 128
24 80 64
24 80 64
224 32 128
192 24 56
192 24 56
16 16 56
72 40 0
8 8 48
24 80 64
24 80 64
224 32 128
192 24 56
224 32 128
8 8 56
8 8 56
64 72 80
216 184 128
24 80 64
0 128 128
192 24 56
0 128 128
16 16 56
88 128 128
0 128 128
16 16 56
192 24 56
64 72 80
8 80 64
224 160 128
24 80 64
24 80 64
224 32 24
192 24 56
224 160 128
64 72 80
216 184 128
24 80 64
192 24 56
224 32 24
224 160 128
192 24 56
224 160 128
72 40 0
224 32 128
224 32 24
24 80 64
24 80 64
224 32 24
224 160 128
224 32 24
24 80 64
88 128 128
24 80 64
224 32 24
224 32 24
24 80 64
224 32 24
224 160 128
192 24 56
192 24 56
192 24 56
192 24 56
8 8 56
8 8 56
192 24 56
192 24 56
216 184 128
64 72 80
64 72 80
216 184 128
64 72 80
216 184 128
216 184 128
216 184 128
192 24 56
88 128 128
192 24 56
192 24 56
192 24 56
224 32 24
192 24 56
192 24 56
64 72 80
72 40 0
64 72 80
64 72 80
64 72 80
8 8 48
64 72 80
64 72 80
88 128 128
88 128 128
224 32 24
192 24 56
192 24 56
192 24 56
192 24 56
192 24 56
0 128 128
88 128 128
224 32 128
88 128 128
88 128 128
88 128 128
224 32 128
88 128 128
192 24 56
192 24 56
0 128 128
88 128 128
88 128 128
0 128 128
88 128 128
192 24 56
0 128 128
88 128 128
224 32 128
88 128 128
88 128 128
224 32 128
192 24 56
224 32 128
88 128 128
192 24 56
88 128 128
64 72 80
224 32 128
224 32 128
24 80 64
224 160 128
224 32 128
192 24 56
0 128 128
72 40 0
16 16 56
8 8 48
24 80 64
24 80 64
224 32 128
88 128 128
224 32 128
8 80 64
192 24 56
64 72 80
24 80 64
24 80 64
192 24 56
192 24 56
192 24 56
192 24 56
192 24 56
0 128 128
0 128 128
0 128 128
72 40 0
8 80 64
104 32 0
192 24 56
192 24 56
224 160 128
192 24 56
224 160 128
64 72 80
64 72 80
24 80 64
192 24 56
224 32 24
224 160 128
192 24 56
224 160 128
24 80 64
192 24 56
224 32 24
24 80 64
224 160 128
24 80 64
224 160 128
192 24 56
24 80 64
0 128 128
24 80 64
224 160 128
224 160 128
24 80 64
192 24 56
224 32 24
192 24 56
192 24 56
192 24 56
192 24 56
8 80 64
8 8 48
192 24 56
192 24 56
64 72 80
64 72 80
64 72 80
64 72 80
64 72 80
64 72 80
64 72 80
64 72 80
192 24 56
192 24 56
88 128 128
192 24 56
192 24 56
192 24 56
224 32 24
192 24 56
64 72 80
64 72 80
72 40 0
64 72 80
64 72 80
64 72 80
8 8 48
64 72 80
192 24 56
0 128 128
0 128 128
224 32 128
192 24 56
192 24 56
224 32 128
224 160 128
224 32 128
192 24 56
88 128 128
0 128 128
88 128 128
88 128 128
224 32 128
88 128 128
0 128 128
224 32 128
192 24 56
0 128 128
88 128 128
0 128 128
88 128 128
224 32 128
0 128 128
88 128 128
192 24 56
0 128 128
88 128 128
224 32 128
192 24 56
0 128 128
88 128 128
88 128 128
0 128 128
64 72 80
224 32 128
224 32 128
24 80 64
224 160 128
224 32 128
0 128 128
192 24 56
16 16 56
8 80 64
8 8 56
216 184 128
24 80 64
224 32 128
88 128 128
224 32 128
88 128 128
8 8 56
64 72 80
72 40 0
24 80 64
192 24 56
192 24 56
192 24 56
0 128 128
0 128 128
192 24 56
192 24 56
192 24 56
64 72 80
0 128 128
216 184 128
224 32 24
224 32 24
224 160 128
192 24 56
24 80 64
72 40 0
64 72 80
24 80 64
192 24 56
24 80 64
192 24 56
192 24 56
224 160 128
72 40 0
192 24 56
8 8 56
224 160 128
24 80 64
224 160 128
192 24 56
224 160 128
24 80 64
0 128 128
24 80 64
224 160 128
224 160 128
24 80 64
192 24 56
224 32 24
192 24 56
192 24 56
192 24 56
192 24 56
224 32 128
224 32 128
192 24 56
192 24 56
64 72 80
64 72 80
64 72 80
64 72 80
64 72 80
64 72 80
64 72 80
64 72 80
192 24 56
192 24 56
192 24 56
88 128 128
192 24 56
192 24 56
192 24 56
224 32 24
64 72 80
64 72 80
64 72 80
72 40 0
64 72 80
64 72 80
64 72 80
8 8 48
0 128 128
88 128 128
192 24 56
88 128 128
192 24 56
88 128 128
224 32 128
192 24 56
224 32 128
88 128 128
224 32 128
88 128 128
192 24 56
192 24 56
192 24 56
192 24 56
224 32 128
0 128 128
88 128 128
88 128 128
224 32 128
88 128 128
192 24 56
0 128 128
88 128 128
192 24 56
192 24 56
224 32 128
0 128 128
224 32 128
88 128 128
192 24 56
192 24 56
0 128 128
192 24 56
8 80 64
8 8 48
8 8 48
224 32 24
224 160 128
224 32 128
192 24 56
192 24 56
192 24 56
104 32 0
72 40 0
216 184 128
24 80 64
224 32 128
88 128 128
224 32 128
104 32 0
16 16 56
64 72 80
72 40 0
24 80 64
104 32 0
104 32 0
104 32 0
104 32 0
8 8 48
104 32 0
104 32 0
104 32 0
0 128 128
192 24 56
192 24 56
192 24 56
192 24 56
192 24 56
192 24 56
192 24 56
192 24 56
224 32 128
88 128 128
0 128 128
192 24 56
88 128 128
88 128 128
192 24 56
192 24 56
192 24 56
192 24 56
192 24 56
192 24 56
192 24 56
192 24 56
192 24 56
104 32 0
192 24 56
192 24 56
192 24 56
192 24 56
192 24 56
192 24 56
192 24 56
64 72 80
192 24 56
192 24 56
192 24 56
192 24 56
192 24 56
64 72 80
192 24 56
16 16 56
192 24 56
88 128 128
88 128 128
192 24 56
192 24 56
192 24 56
192 24 56
192 24 56
88 128 128
224 32 128
224 32 128
192 24 56
192 24 56
224 32 128
88 128 128
192 24 56
88 128 128
192 24 56
224 32 128
192 24 56
192 24 56
192 24 56
192 24 56
192 24 56
224 32 128
192 24 56
8 8 56
192 24 56
192 24 56
0 128 128
192 24 56
216 184 128
216 184 128
216 184 128
216 184 128
216 184 128
24 80 64
24 80 64
8 80 64
192 24 56
88 128 128
192 24 56
88 128 128
192 24 56
0 128 128
192 24 56
0 128 128
224 32 128
224 32 128
224 32 128
16 16 56
8 8 48
64 72 80
224 32 128
224 32 128
224 32 128
224 32 128
224 32 128
8 8 56
8 80 64
64 72 80
192 24 56
224 32 128
224 32 128
224 32 128
224 32 128
72 40 0
8 80 64
224 32 128
224 32 128
224 32 128
224 32 128
224 32 128
224 32 128
72 40 0
8 8 48
224 32 128
192 24 56
224 32 128
224 32 128
224 32 128
192 24 56
24 80 64
104 32 0
192 24 56
88 128 128
224 32 128
192 24 56
192 24 56
192 24 56
192 24 56
192 24 56
192 24 56
192 24 56
192 24 56
192 24 56
224 32 128
0 128 128
88 128 128
192 24 56
192 24 56
88 128 128
192 24 56
192 24 56
224 32 128
192 24 56
88 128 128
88 128 128
192 24 56
192 24 56
192 24 56
64 72 80
192 24 56
192 24 56
192 24 56
16 16 56
192 24 56
104 32 0
192 24 56
64 72 80
192 24 56
192 24 56
192 24 56
192 24 56
192 24 56
104 32 0
192 24 56
192 24 56
88 128 128
192 24 56
192 24 56
192 24 56
192 24 56
192 24 56
192 24 56
88 128 128
0 128 128
192 24 56
192 24 56
192 24 56
192 24 56
224 32 128
88 128 128
192 24 56
88 128 128
224 32 128
192 24 56
192 24 56
192 24 56
88 128 128
88 128 128
192 24 56
192 24 56
192 24 56
192 24 56
192 24 56
88 128 128
192 24 56
88 128 128
16 16 56
8 8 56
16 16 56
16 16 56
16 16 56
224 32 24
8 8 56
16 16 56
192 24 56
192 24 56
0 128 128
192 24 56
192 24 56
192 24 56
88 128 128
88 128 128
224 32 128
224 32 128
224 32 128
88 128 128
64 72 80
64 72 80
224 32 128
192 24 56
224 32 128
224 32 128
224 32 128
216 184 128
224 32 128
64 72 80
192 24 56
192 24 56
224 32 128
224 32 128
224 32 128
216 184 128
224 32 128
224 32 128
224 32 128
192 24 56
224 32 128
224 32 128
224 32 128
216 184 128
64 72 80
224 32 128
192 24 56
192 24 56
224 32 128
224 32 128
192 24 56
216 184 128
64 72 80
192 24 56
224 32 128
192 24 56
192 24 56
192 24 56
192 24 56
192 24 56
192 24 56
192 24 56
0 128 128
192 24 56
192 24 56
224 32 128
0 128 128
88 128 128
88 128 128
192 24 56
224 32 128
192 24 56
192 24 56
224 32 128
192 24 56
224 32 128
224 32 128
192 24 56
192 24 56
192 24 56
64 72 80
192 24 56
192 24 56
192 24 56
16 16 56
16 16 56
16 16 56
192 24 56
64 72 80
192 24 56
192 24 56
192 24 56
192 24 56
192 24 56
192 24 56
192 24 56
192 24 56
88 128 128
192 24 56
224 32 128
192 24 56
192 24 56
192 24 56
192 24 56
88 128 128
0 128 128
192 24 56
224 32 128
192 24 56
192 24 56
224 32 128
88 128 128
192 24 56
88 128 128
224 32 128
224 32 128
192 24 56
192 24 56
88 128 128
88 128 128
192 24 56
0 128 128
192 24 56
192 24 56
192 24 56
88 128 128
88 128 128
88 128 128
8 8 56
16 16 56
16 16 56
16 16 56
16 16 56
224 32 24
8 8 56
16 16 56
192 24 56
192 24 56
0 128 128
0 128 128
192 24 56
88 128 128
192 24 56
88 128 128
224 32 128
224 32 128
224 32 128
88 128 128
64 72 80
64 72 80
224 32 128
224 32 128
224 32 128
224 32 128
224 32 128
216 184 128
224 32 128
64 72 80
192 24 56
224 32 128
224 32 128
224 32 128
224 32 128
216 184 128
224 32 128
224 32 128
224 32 128
224 32 128
224 32 128
224 32 128
224 32 128
216 184 128
64 72 80
224 32 128
192 24 56
224 32 128
224 32 128
224 32 128
192 24 56
216 184 128
64 72 80
192 24 56
224 32 128
224 32 128
192 24 56
192 24 56
192 24 56
192 24 56
192 24 56
192 24 56
192 24 56
192 24 56
192 24 56
224 32 128
0 128 128
88 128 128
192 24 56
0 128 128
192 24 56
192 24 56
192 24 56
0 128 128
192 24 56
0 128 128
0 128 128
192 24 56
192 24 56
192 24 56
64 72 80
192 24 56
192 24 56
192 24 56
192 24 56
192 24 56
192 24 56
192 24 56
64 72 80
192 24 56
192 24 56
192 24 56
192 24 56
192 24 56
192 24 56
192 24 56
192 24 56
88 128 128
224 32 128
192 24 56
192 24 56
192 24 56
192 24 56
88 128 128
88 128 128
0 128 128
224 32 128
192 24 56
192 24 56
192 24 56
224 32 128
224 32 128
88 128 128
0 128 128
192 24 56
192 24 56
192 24 56
192 24 56
88 128 128
88 128 128
192 24 56
192 24 56
192 24 56
224 32 24
88 128 128
192 24 56
88 128 128
88 128 128
8 8 56
8 8 56
16 16 56
16 16 56
16 16 56
224 32 24
8 8 56
16 16 56
192 24 56
0 128 128
192 24 56
192 24 56
192 24 56
88 128 128
88 128 128
88 128 128
224 32 128
224 32 128
224 32 128
88 128 128
64 72 80
64 72 80
224 32 128
192 24 56
224 32 128
224 32 128
224 32 128
216 184 128
224 32 128
64 72 80
192 24 56
192 24 56
224 32 128
224 32 128
224 32 128
216 184 128
224 32 128
224 32 128
224 32 128
192 24 56
224 32 128
224 32 128
224 32 128
216 184 128
64 72 80
224 32 128
192 24 56
192 24 56
224 32 128
224 32 128
192 24 56
216 184 128
64 72 80
192 24 56
224 32 128
192 24 56
192 24 56
192 24 56
192 24 56
192 24 56
192 24 56
192 24 56
192 24 56
192 24 56
192 24 56
224 32 128
0 128 128
88 128 128
192 24 56
0 128 128
224 32 128
192 24 56
192 24 56
192 24 56
192 24 56
192 24 56
192 24 56
192 24 56
192 24 56
192 24 56
64 72 80
192 24 56
192 24 56
192 24 56
192 24 56
192 24 56
192 24 56
192 24 56
64 72 80
192 24 56
192 24 56
192 24 56
192 24 56
192 24 56
16 16 56
192 24 56
192 24 56
88 128 128
224 32 128
224 32 128
192 24 56
192 24 56
192 24 56
88 128 128
88 128 128
0 128 128
224 32 128
224 32 128
192 24 56
192 24 56
224 32 128
224 32 128
88 128 128
0 128 128
192 24 56
224 32 128
192 24 56
192 24 56
88 128 128
88 128 128
192 24 56
0 128 128
192 24 56
224 32 24
88 128 128
88 128 128
88 128 128
88 128 128
16 16 56
16 16 56
16 16 56
16 16 56
16 16 56
224 32 24
8 8 56
8 8 56
192 24 56
0 128 128
192 24 56
0 128 128
88 128 128
192 24 56
192 24 56
88 128 128
224 32 128
224 32 128
224 32 128
88 128 128
64 72 80
64 72 80
224 32 128
224 32 128
224 32 128
224 32 128
224 32 128
216 184 128
224 32 128
64 72 80
192 24 56
224 32 128
224 32 128
224 32 128
224 32 128
216 184 128
224 32 128
224 32 128
224 32 128
224 32 128
224 32 128
224 32 128
224 32 128
216 184 128
64 72 80
224 32 128
192 24 56
224 32 128
224 32 128
224 32 128
192 24 56
216 184 128
64 72 80
192 24 56
224 32 128
224 32 128
192 24 56
192 24 56
192 24 56
192 24 56
192 24 56
192 24 56
192 24 56
192 24 56
192 24 56
224 32 128
192 24 56
224 32 128
192 24 56
88 128 128
0 128 128
192 24 56
104 32 0
0 128 128
192 24 56
0 128 128
0 128 128
192 24 56
192 24 56
192 24 56
64 72 80
192 24 56
192 24 56
192 24 56
192 24 56
192 24 56
16 16 56
192 24 56
64 72 80
192 24 56
192 24 56
192 24 56
192 24 56
104 32 0
16 16 56
192 24 56
88 128 128
0 128 128
192 24 56
192 24 56
192 24 56
192 24 56
192 24 56
88 128 128
0 128 128
88 128 128
88 128 128
192 24 56
192 24 56
192 24 56
0 128 128
224 32 128
88 128 128
0 128 128
224 32 128
192 24 56
192 24 56
192 24 56
224 32 128
224 32 128
192 24 56
192 24 56
192 24 56
192 24 56
88 128 128
0 128 128
192 24 56
0 128 128
192 24 56
224 32 128
192 24 56
192 24 56
88 128 128
192 24 56
224 32 128
192 24 56
88 128 128
88 128 128
88 128 128
224 160 128
88 128 128
104 32 0
224 32 128
0 128 128
224 32 128
224 32 128
224 32 128
0 128 128
64 72 80
64 72 80
0 128 128
192 24 56
224 32 128
224 32 128
224 32 128
72 40 0
8 8 48
8 80 64
88 128 128
192 24 56
224 32 128
224 32 128
224 32 128
72 40 0
224 32 128
224 32 128
0 128 128
192 24 56
224 32 128
224 32 128
0 128 128
72 40 0
16 16 56
0 128 128
192 24 56
88 128 128
224 32 128
224 32 128
192 24 56
72 40 0
64 72 80
192 24 56
0 128 128
88 128 128
192 24 56
192 24 56
192 24 56
88 128 128
192 24 56
192 24 56
88 128 128
192 24 56
192 24 56
224 32 128
192 24 56
224 32 128
0 128 128
88 128 128
224 32 128
192 24 56
104 32 0
0 128 128
192 24 56
0 128 128
0 128 128
104 32 0
192 24 56
192 24 56
64 72 80
192 24 56
192 24 56
192 24 56
192 24 56
192 24 56
192 24 56
192 24 56
64 72 80
192 24 56
192 24 56
192 24 56
192 24 56
104 32 0
192 24 56
192 24 56
88 128 128
0 128 128
192 24 56
224 32 128
192 24 56
192 24 56
192 24 56
88 128 128
0 128 128
88 128 128
88 128 128
224 32 128
192 24 56
192 24 56
0 128 128
224 32 128
88 128 128
0 128 128
224 32 128
224 32 128
192 24 56
192 24 56
224 32 128
224 32 128
192 24 56
192 24 56
192 24 56
88 128 128
192 24 56
0 128 128
0 128 128
0 128 128
224 32 128
192 24 56
192 24 56
192 24 56
88 128 128
192 24 56
224 32 128
192 24 56
88 128 128
88 128 128
88 128 128
224 160 128
88 128 128
8 8 48
88 128 128
224 32 128
224 32 128
224 32 128
224 32 128
0 128 128
64 72 80
64 72 80
0 128 128
224 32 128
224 32 128
224 32 128
224 32 128
72 40 0
8 8 48
8 80 64
88 128 128
224 32 128
224 32 128
224 32 128
224 32 128
72 40 0
224 32 128
224 32 128
0 128 128
224 32 128
224 32 128
224 32 128
0 128 128
72 40 0
16 16 56
0 128 128
192 24 56
224 32 128
224 32 128
224 32 128
192 24 56
72 40 0
64 72 80
192 24 56
0 128 128
224 32 128
192 24 56
192 24 56
192 24 56
192 24 56
192 24 56
192 24 56
192 24 56
192 24 56
192 24 56
0 128 128
192 24 56
0 128 128
192 24 56
192 24 56
192 24 56
192 24 56
192 24 56
192 24 56
192 24 56
192 24 56
192 24 56
192 24 56
192 24 56
192 24 56
64 72 80
192 24 56
192 24 56
192 24 56
192 24 56
192 24 56
192 24 56
192 24 56
64 72 80
192 24 56
192 24 56
192 24 56
192 24 56
104 32 0
104 32 0
192 24 56
88 128 128
0 128 128
224 32 128
192 24 56
192 24 56
192 24 56
192 24 56
224 32 128
224 32 128
192 24 56
0 128 128
192 24 56
192 24 56
192 24 56
0 128 128
224 32 128
0 128 128
192 24 56
192 24 56
192 24 56
192 24 56
192 24 56
224 32 128
0 128 128
192 24 56
192 24 56
192 24 56
88 128 128
224 32 128
192 24 56
0 128 128
0 128 128
224 32 128
224 32 128
192 24 56
192 24 56
88 128 128
192 24 56
224 32 128
192 24 56
88 128 128
88 128 128
88 128 128
224 160 128
88 128 128
8 8 48
224 32 128
0 128 128
224 32 128
224 32 128
224 32 128
0 128 128
64 72 80
64 72 80
0 128 128
192 24 56
224 32 128
224 32 128
224 32 128
72 40 0
8 8 48
8 80 64
88 128 128
192 24 56
224 32 128
224 32 128
224 32 128
72 40 0
224 32 128
224 32 128
0 128 128
192 24 56
224 32 128
224 32 128
0 128 128
72 40 0
16 16 56
0 128 128
192 24 56
88 128 128
224 32 128
224 32 128
192 24 56
72 40 0
64 72 80
192 24 56
0 128 128
88 128 128
224 32 128
0 128 128
88 128 128
216 184 128
72 40 0
104 32 0
88 128 128
8 8 48
0 128 128
224 160 128
0 128 128
16 16 56
64 72 80
8 80 64
0 128 128
72 40 0
224 32 128
224 32 128
224 32 128
192 24 56
224 32 128
0 128 128
88 128 128
216 184 128
224 32 128
192 24 56
224 32 128
64 72 80
72 40 0
64 72 80
88 128 128
64 72 80
8 80 64
192 24 56
224 32 128
64 72 80
216 184 128
24 80 64
88 128 128
64 72 80
8 8 48
24 80 64
224 32 128
24 80 64
24 80 64
64 72 80
224 32 128
24 80 64
224 32 128
224 32 128
192 24 56
216 184 128
64 72 80
192 24 56
224 32 128
224 32 128
224 32 128
224 32 128
192 24 56
192 24 56
64 72 80
64 72 80
192 24 56
24 80 64
0 128 128
8 8 56
0 128 128
16 16 56
8 8 48
224 32 128
192 24 56
8 8 56
88 128 128
224 160 128
88 128 128
8 8 56
64 72 80
224 32 128
224 32 128
72 40 0
224 32 128
224 32 24
224 32 128
224 32 128
72 40 0
0 128 128
0 128 128
64 72 80
8 80 64
192 24 56
0 128 128
224 32 128
24 80 64
192 24 56
88 128 128
216 184 128
224 32 128
224 32 128
192 24 56
224 32 128
64 72 80
64 72 80
192 24 56
224 32 128
224 32 128
224 32 128
192 24 56
224 32 128
64 72 80
64 72 80
192 24 56
224 32 128
224 32 128
224 32 128
192 24 56
0 128 128
64 72 80
64 72 80
192 24 56
224 32 128
192 24 56
224 32 128
192 24 56
24 80 64
24 80 64
24 80 64
88 128 128
0 128 128
224 32 128
192 24 56
224 32 128
64 72 80
216 184 128
72 40 0
0 128 128
24 80 64
224 160 128
192 24 56
192 24 56
192 24 56
64 72 80
224 32 128
192 24 56
24 80 64
224 32 128
224 32 128
224 32 128
192 24 56
224 32 128
192 24 56
224 32 128
64 72 80
224 32 128
192 24 56
224 32 128
64 72 80
216 184 128
72 40 0
0 128 128
24 80 64
224 32 128
192 24 56
224 32 128
64 72 80
64 72 80
216 184 128
0 128 128
24 80 64
8 80 64
88 128 128
0 128 128
8 8 56
24 80 64
16 16 56
0 128 128
224 32 24
0 128 128
224 32 128
88 128 128
16 16 56
72 40 0
224 160 128
224 32 128
192 24 56
0 128 128
0 128 128
192 24 56
192 24 56
64 72 80
8 80 64
192 24 56
216 184 128
224 160 128
192 24 56
192 24 56
192 24 56
64 72 80
224 32 128
192 24 56
24 80 64
224 32 128
192 24 56
224 32 128
224 32 128
64 72 80
224 32 128
224 32 128
24 80 64
8 8 48
192 24 56
224 32 128
224 32 128
24 80 64
192 24 56
192 24 56
64 72 80
224 32 128
224 160 128
192 24 56
192 24 56
24 80 64
192 24 56
224 32 128
216 184 128
224 32 128
224 32 128
192 24 56
88 128 128
64 72 80
64 72 80
88 128 128
88 128 128
224 32 128
224 32 128
192 24 56
88 128 128
64 72 80
64 72 80
88 128 128
88 128 128
224 32 128
224 32 128
192 24 56
88 128 128
64 72 80
64 72 80
192 24 56
192 24 56
192 24 56
0 128 128
192 24 56
216 184 128
24 80 64
24 80 64
88 128 128
88 128 128
224 32 128
192 24 56
224 32 128
64 72 80
216 184 128
72 40 0
0 128 128
64 72 80
224 160 128
24 80 64
192 24 56
192 24 56
64 72 80
224 32 128
192 24 56
24 80 64
224 32 128
224 32 128
224 32 128
192 24 56
224 32 128
192 24 56
224 32 128
64 72 80
224 32 128
192 24 56
224 32 128
64 72 80
216 184 128
72 40 0
0 128 128
64 72 80
224 32 128
192 24 56
224 32 128
64 72 80
64 72 80
216 184 128
0 128 128
64 72 80
8 80 64
8 8 56
0 128 128
8 8 56
24 80 64
16 16 56
0 128 128
224 32 24
0 128 128
224 32 128
88 128 128
16 16 56
72 40 0
224 160 128
224 32 128
224 32 128
0 128 128
0 128 128
192 24 56
88 128 128
64 72 80
8 80 64
192 24 56
216 184 128
224 160 128
24 80 64
192 24 56
192 24 56
64 72 80
224 32 128
192 24 56
24 80 64
224 32 128
24 80 64
224 32 128
224 32 128
64 72 80
224 32 128
224 32 128
24 80 64
8 8 48
192 24 56
224 32 128
224 32 128
24 80 64
192 24 56
192 24 56
64 72 80
224 32 128
224 160 128
192 24 56
224 32 128
24 80 64
192 24 56
224 32 128
216 184 128
224 32 128
224 32 128
192 24 56
192 24 56
64 72 80
64 72 80
192 24 56
224 32 128
224 32 128
224 32 128
192 24 56
224 32 128
64 72 80
64 72 80
0 128 128
192 24 56
224 32 128
224 32 128
192 24 56
88 128 128
64 72 80
64 72 80
192 24 56
224 32 128
192 24 56
224 32 128
192 24 56
24 80 64
24 80 64
24 80 64
0 128 128
88 128 128
224 32 128
192 24 56
224 32 128
64 72 80
216 184 128
72 40 0
0 128 128
24 80 64
224 160 128
192 24 56
192 24 56
192 24 56
64 72 80
224 32 128
192 24 56
24 80 64
224 32 128
224 32 128
224 32 128
192 24 56
224 32 128
192 24 56
224 32 128
64 72 80
224 32 128
192 24 56
224 32 128
64 72 80
216 184 128
72 40 0
0 128 128
24 80 64
224 32 128
192 24 56
224 32 128
64 72 80
64 72 80
216 184 128
0 128 128
24 80 64
8 80 64
88 128 128
0 128 128
8 8 56
24 80 64
16 16 56
0 128 128
224 32 24
0 128 128
224 32 128
88 128 128
16 16 56
72 40 0
224 160 128
224 32 128
192 24 56
0 128 128
8 8 56
192 24 56
192 24 56
64 72 80
8 80 64
192 24 56
216 184 128
224 160 128
192 24 56
192 24 56
192 24 56
64 72 80
224 32 128
192 24 56
24 80 64
224 32 128
192 24 56
224 32 128
224 32 128
64 72 80
224 32 128
224 32 128
24 80 64
8 8 48
192 24 56
224 32 128
224 32 128
24 80 64
192 24 56
192 24 56
64 72 80
224 32 128
224 160 128
192 24 56
192 24 56
24 80 64
192 24 56
224 32 128
72 40 0
224 32 128
224 32 128
192 24 56
224 32 128
64 72 80
64 72 80
0 128 128
192 24 56
224 32 128
224 32 128
192 24 56
192 24 56
64 72 80
64 72 80
192 24 56
224 32 128
224 32 128
224 32 128
192 24 56
88 128 128
64 72 80
64 72 80
192 24 56
192 24 56
192 24 56
0 128 128
192 24 56
216 184 128
24 80 64
24 80 64
88 128 128
88 128 128
224 32 128
192 24 56
224 32 128
64 72 80
216 184 128
72 40 0
0 128 128
64 72 80
224 160 128
24 80 64
192 24 56
192 24 56
64 72 80
224 32 128
192 24 56
24 80 64
224 32 128
224 32 128
224 32 128
192 24 56
224 32 128
192 24 56
224 32 128
64 72 80
224 32 128
192 24 56
224 32 128
64 72 80
216 184 128
72 40 0
0 128 128
64 72 80
224 32 128
192 24 56
224 32 128
64 72 80
64 72 80
216 184 128
0 128 128
64 72 80
8 80 64
8 8 56
0 128 128
8 8 56
24 80 64
16 16 56
0 128 128
224 32 24
0 128 128
224 32 128
88 128 128
16 16 56
72 40 0
224 160 128
224 32 128
224 32 128
0 128 128
8 8 56
192 24 56
88 128 128
64 72 80
8 80 64
192 24 56
216 184 128
224 160 128
24 80 64
192 24 56
192 24 56
64 72 80
224 32 128
192 24 56
24 80 64
224 32 128
24 80 64
224 32 128
224 32 128
64 72 80
224 32 128
224 32 128
24 80 64
8 8 48
192 24 56
224 32 128
224 32 128
24 80 64
192 24 56
192 24 56
64 72 80
224 32 128
224 160 128
192 24 56
224 32 128
24 80 64
192 24 56
224 32 128
72 40 0
224 32 128
224 32 128
192 24 56
224 32 128
64 72 80
64 72 80
192 24 56
224 32 128
224 32 128
224 32 128
192 24 56
224 32 128
64 72 80
64 72 80
192 24 56
224 32 128
224 32 128
224 32 128
192 24 56
88 128 128
64 72 80
64 72 80
192 24 56
224 32 128
192 24 56
224 32 128
192 24 56
24 80 64
24 80 64
24 80 64
0 128 128
88 128 128
224 32 128
192 24 56
224 32 128
72 40 0
64 72 80
216 184 128
88 128 128
24 80 64
8 8 56
88 128 128
88 128 128
192 24 56
8 80 64
224 32 128
192 24 56
24 80 64
224 32 128
0 128 128
224 32 128
104 32 0
8 8 48
224 160 128
224 32 128
72 40 0
224 32 128
192 24 56
224 32 128
64 72 80
72 40 0
24 80 64
192 24 56
24 80 64
224 32 128
192 24 56
224 32 128
64 72 80
72 40 0
64 72 80
192 24 56
216 184 128
224 32 128
224 32 128
192 24 56
224 32 128
24 80 64
192 24 56
192 24 56
192 24 56
192 24 56
224 32 128
224 32 128
192 24 56
24 80 64
24 80 64
224 32 128
192 24 56
88 128 128
88 128 128
88 128 128
224 160 128
8 80 64
224 32 128
192 24 56
16 16 56
224 32 24
192 24 56
192 24 56
224 160 128
64 72 80
224 32 128
88 128 128
216 184 128
224 32 128
192 24 56
224 32 128
224 32 128
64 72 80
224 32 128
224 32 128
216 184 128
8 80 64
192 24 56
224 32 128
224 32 128
24 80 64
192 24 56
192 24 56
72 40 0
224 32 128
8 8 56
192 24 56
192 24 56
216 184 128
104 32 0
0 128 128
16 16 56
224 32 128
224 32 128
192 24 56
0 128 128
64 72 80
64 72 80
0 128 128
0 128 128
224 32 128
224 32 128
192 24 56
0 128 128
64 72 80
64 72 80
0 128 128
0 128 128
224 32 128
224 32 128
192 24 56
0 128 128
64 72 80
64 72 80
192 24 56
192 24 56
192 24 56
88 128 128
192 24 56
72 40 0
24 80 64
24 80 64
0 128 128
0 128 128
224 32 128
192 24 56
224 32 128
72 40 0
64 72 80
216 184 128
88 128 128
64 72 80
8 8 56
8 8 56
88 128 128
192 24 56
8 80 64
224 32 128
192 24 56
24 80 64
224 32 128
0 128 128
224 32 128
104 32 0
8 8 48
224 160 128
224 32 128
64 72 80
224 32 128
192 24 56
224 32 128
64 72 80
72 40 0
24 80 64
192 24 56
64 72 80
224 32 128
192 24 56
224 32 128
64 72 80
72 40 0
64 72 80
192 24 56
64 72 80
224 32 128
224 32 128
192 24 56
224 32 128
24 80 64
192 24 56
192 24 56
192 24 56
192 24 56
224 32 128
224 32 128
192 24 56
24 80 64
24 80 64
224 32 128
224 32 128
88 128 128
88 128 128
88 128 128
8 8 56
8 80 64
224 32 128
192 24 56
8 80 64
224 32 24
224 32 24
192 24 56
224 160 128
64 72 80
224 32 128
88 128 128
216 184 128
224 32 128
24 80 64
224 32 128
224 32 128
64 72 80
224 32 128
224 32 128
216 184 128
8 80 64
192 24 56
224 32 128
224 32 128
24 80 64
192 24 56
192 24 56
72 40 0
224 32 128
8 8 56
192 24 56
0 128 128
216 184 128
104 32 0
0 128 128
8 80 64
224 32 128
224 32 128
192 24 56
88 128 128
64 72 80
64 72 80
192 24 56
0 128 128
224 32 128
224 32 128
192 24 56
0 128 128
64 72 80
64 72 80
192 24 56
88 128 128
224 32 128
224 32 128
192 24 56
224 32 128
64 72 80
64 72 80
192 24 56
0 128 128
192 24 56
224 32 128
192 24 56
24 80 64
24 80 64
24 80 64
88 128 128
0 128 128
224 32 128
192 24 56
224 32 128
72 40 0
64 72 80
216 184 128
88 128 128
24 80 64
8 8 56
88 128 128
88 128 128
192 24 56
8 80 64
224 32 128
192 24 56
24 80 64
224 32 128
0 128 128
224 32 128
104 32 0
8 8 48
224 160 128
224 32 128
72 40 0
224 32 128
192 24 56
224 32 128
64 72 80
72 40 0
24 80 64
192 24 56
24 80 64
224 32 128
192 24 56
224 32 128
64 72 80
72 40 0
64 72 80
192 24 56
216 184 128
224 32 128
224 32 128
192 24 56
224 32 128
24 80 64
192 24 56
192 24 56
192 24 56
192 24 56
224 32 128
224 32 128
192 24 56
24 80 64
24 80 64
224 32 128
192 24 56
88 128 128
8 8 56
88 128 128
224 160 128
8 80 64
224 32 128
192 24 56
16 16 56
224 32 24
192 24 56
192 24 56
224 160 128
64 72 80
224 32 128
88 128 128
216 184 128
224 32 128
192 24 56
224 32 128
224 32 128
64 72 80
224 32 128
224 32 128
216 184 128
8 80 64
192 24 56
224 32 128
224 32 128
24 80 64
192 24 56
192 24 56
72 40 0
224 32 128
8 8 56
192 24 56
88 128 128
216 184 128
104 32 0
0 128 128
224 32 24
224 32 128
224 32 128
192 24 56
0 128 128
64 72 80
64 72 80
192 24 56
88 128 128
224 32 128
224 32 128
192 24 56
192 24 56
64 72 80
64 72 80
192 24 56
0 128 128
224 32 128
224 32 128
192 24 56
0 128 128
64 72 80
64 72 80
192 24 56
88 128 128
192 24 56
88 128 128
192 24 56
72 40 0
24 80 64
24 80 64
0 128 128
0 128 128
192 24 56
224 32 128
224 32 128
64 72 80
88 128 128
72 40 0
0 128 128
64 72 80
8 8 48
192 24 56
224 32 128
192 24 56
64 72 80
64 72 80
192 24 56
224 32 128
224 32 128
224 160 128
224 32 128
192 24 56
64 72 80
64 72 80
192 24 56
192 24 56
8 80 64
192 24 56
224 32 128
24 80 64
224 32 128
224 32 128
192 24 56
224 32 128
224 32 128
224 32 24
224 32 128
24 80 64
224 32 128
224 32 128
192 24 56
192 24 56
192 24 56
8 8 48
224 32 128
24 80 64
64 72 80
216 184 128
0 128 128
0 128 128
24 80 64
224 32 128
224 32 128
72 40 0
64 72 80
24 80 64
224 32 128
192 24 56
224 160 128
224 32 128
224 32 128
72 40 0
64 72 80
24 80 64
224 32 128
192 24 56
224 160 128
64 72 80
224 32 128
216 184 128
64 72 80
24 80 64
224 32 128
224 32 128
224 160 128
8 8 48
224 32 128
64 72 80
64 72 80
216 184 128
0 128 128
192 24 56
224 32 24
8 8 48
0 128 128
224 32 128
24 80 64
192 24 56
192 24 56
64 72 80
224 160 128
8 80 64
0 128 128
224 32 128
24 80 64
192 24 56
192 24 56
24 80 64
8 80 64
224 160 128
192 24 56
0 128 128
72 40 0
192 24 56
0 128 128
88 128 128
8 8 48
192 24 56
192 24 56
224 32 128
64 72 80
192 24 56
224 32 128
0 128 128
8 80 64
224 32 24
192 24 56
88 128 128
216 184 128
192 24 56
88 128 128
88 128 128
64 72 80
24 80 64
0 128 128
224 32 24
8 8 56
192 24 56
0 128 128
0 128 128
192 24 56
224 32 128
224 32 128
64 72 80
0 128 128
216 184 128
88 128 128
24 80 64
224 32 128
224 160 128
88 128 128
0 128 128
216 184 128
104 32 0
0 128 128
224 32 128
8 8 48
192 24 56
88 128 128
0 128 128
216 184 128
104 32 0
192 24 56
0 128 128
104 32 0
8 8 56
88 128 128
8 8 56
8 8 56
88 128 128
0 128 128
224 32 128
104 32 0
8 8 56
88 128 128
8 8 56
8 8 56
88 128 128
192 24 56
0 128 128
192 24 56
8 8 48
224 32 128
24 80 64
64 72 80
72 40 0
88 128 128
88 128 128
224 32 24
224 32 128
224 32 128
24 80 64
64 72 80
24 80 64
224 32 128
88 128 128
224 32 24
224 32 128
224 32 128
64 72 80
64 72 80
24 80 64
224 32 128
88 128 128
224 32 24
8 80 64
88 128 128
216 184 128
216 184 128
64 72 80
192 24 56
0 128 128
224 32 24
16 16 56
224 160 128
64 72 80
24 80 64
64 72 80
192 24 56
224 32 128
224 160 128
64 72 80
224 32 128
224 32 128
24 80 64
192 24 56
192 24 56
64 72 80
24 80 64
8 8 48
224 32 128
224 32 128
24 80 64
192 24 56
192 24 56
24 80 64
8 80 64
224 160 128
192 24 56
88 128 128
216 184 128
192 24 56
88 128 128
0 128 128
8 8 48
192 24 56
0 128 128
192 24 56
72 40 0
224 32 24
0 128 128
224 32 128
224 32 128
192 24 56
88 128 128
224 160 128
8 8 56
192 24 56
88 128 128
88 128 128
16 16 56
8 8 56
192 24 56
0 128 128
64 72 80
192 24 56
0 128 128
224 32 128
192 24 56
224 32 128
224 32 128
64 72 80
0 128 128
216 184 128
88 128 128
64 72 80
224 32 128
224 160 128
88 128 128
0 128 128
72 40 0
88 128 128
192 24 56
0 128 128
8 8 48
192 24 56
88 128 128
0 128 128
24 80 64
0 128 128
224 32 128
0 128 128
192 24 56
8 8 48
88 128 128
224 32 128
24 80 64
0 128 128
192 24 56
88 128 128
224 160 128
224 32 128
224 32 128
88 128 128
24 80 64
192 24 56
192 24 56
0 128 128
0 128 128
104 32 0
88 128 128
24 80 64
64 72 80
72 40 0
88 128 128
224 32 128
224 32 24
224 32 128
224 32 128
24 80 64
64 72 80
24 80 64
224 32 128
88 128 128
224 32 24
224 32 128
224 32 128
24 80 64
64 72 80
24 80 64
224 32 128
88 128 128
224 32 24
224 32 128
224 32 128
216 184 128
64 72 80
24 80 64
224 32 128
192 24 56
192 24 56
16 16 56
8 8 56
216 184 128
72 40 0
64 72 80
192 24 56
88 128 128
224 160 128
64 72 80
192 24 56
192 24 56
24 80 64
192 24 56
192 24 56
64 72 80
24 80 64
8 8 48
192 24 56
192 24 56
24 80 64
192 24 56
192 24 56
24 80 64
8 80 64
224 160 128
192 24 56
88 128 128
216 184 128
192 24 56
88 128 128
88 128 128
64 72 80
192 24 56
0 128 128
192 24 56
72 40 0
224 32 24
0 128 128
0 128 128
8 8 48
192 24 56
88 128 128
224 160 128
8 8 56
192 24 56
88 128 128
224 32 128
16 16 56
8 8 56
192 24 56
0 128 128
64 72 80
192 24 56
224 32 128
192 24 56
192 24 56
224 32 128
224 32 128
64 72 80
0 128 128
216 184 128
88 128 128
24 80 64
224 32 128
224 160 128
0 128 128
88 128 128
216 184 128
0 128 128
192 24 56
0 128 128
8 8 48
192 24 56
0 128 128
88 128 128
24 80 64
88 128 128
224 32 128
0 128 128
192 24 56
8 8 48
0 128 128
0 128 128
24 80 64
88 128 128
192 24 56
0 128 128
224 160 128
224 32 128
224 32 128
0 128 128
24 80 64
192 24 56
192 24 56
192 24 56
0 128 128
216 184 128
88 128 128
24 80 64
64 72 80
72 40 0
88 128 128
224 32 128
224 32 24
224 32 128
224 32 128
24 80 64
64 72 80
216 184 128
0 128 128
192 24 56
224 32 24
224 32 128
224 32 128
72 40 0
64 72 80
24 80 64
224 32 128
192 24 56
192 24 56
8 80 64
224 32 128
24 80 64
64 72 80
216 184 128
0 128 128
0 128 128
224 32 24
0 128 128
8 8 56
64 72 80
72 40 0
216 184 128
0 128 128
88 128 128
224 160 128
64 72 80
224 32 128
192 24 56
24 80 64
192 24 56
192 24 56
64 72 80
24 80 64
8 8 48
224 32 128
192 24 56
24 80 64
192 24 56
192 24 56
24 80 64
224 32 128
24 80 64
88 128 128
224 160 128
8 8 56
224 160 128
88 128 128
88 128 128
8 80 64
224 160 128
192 24 56
0 128 128
72 40 0
192 24 56
0 128 128
0 128 128
8 8 48
192 24 56
192 24 56
224 32 128
64 72 80
192 24 56
224 32 128
88 128 128
16 16 56
8 8 56
192 24 56
192 24 56
216 184 128
192 24 56
88 128 128
224 32 128
192 24 56
224 32 128
224 32 128
64 72 80
0 128 128
216 184 128
88 128 128
64 72 80
8 80 64
224 160 128
0 128 128
88 128 128
72 40 0
16 16 56
88 128 128
0 128 128
8 8 48
224 32 24
0 128 128
88 128 128
72 40 0
16 16 56
192 24 56
192 24 56
0 128 128
104 32 0
0 128 128
224 32 24
8 8 56
0 128 128
88 128 128
224 32 128
8 8 56
88 128 128
0 128 128
8 8 56
8 8 56
0 128 128
192 24 56
192 24 56
192 24 56
64 72 80
224 32 128
24 80 64
64 72 80
72 40 0
88 128 128
88 128 128
224 32 24
224 32 128
224 32 128
24 80 64
64 72 80
216 184 128
0 128 128
192 24 56
224 32 24
224 32 128
0 128 128
24 80 64
72 40 0
216 184 128
0 128 128
88 128 128
224 32 24
8 80 64
0 128 128
64 72 80
72 40 0
216 184 128
0 128 128
224 32 128
224 32 24
16 16 56
8 8 56
64 72 80
72 40 0
64 72 80
192 24 56
88 128 128
224 160 128
64 72 80
192 24 56
224 32 128
24 80 64
192 24 56
192 24 56
64 72 80
24 80 64
8 8 48
192 24 56
224 32 128
24 80 64
192 24 56
192 24 56
24 80 64
8 8 48
24 80 64
88 128 128
224 160 128
8 8 56
224 160 128
88 128 128
224 32 128
8 80 64
224 160 128
192 24 56
0 128 128
72 40 0
192 24 56
0 128 128
88 128 128
8 8 48
192 24 56
192 24 56
224 32 128
64 72 80
192 24 56
224 32 128
0 128 128
8 80 64
224 32 24
192 24 56
88 128 128
216 184 128
88 128 128
192 24 56
192 24 56
192 24 56
224 32 128
224 32 128
64 72 80
88 128 128
72 40 0
0 128 128
24 80 64
8 8 48
24 80 64
224 32 128
192 24 56
64 72 80
64 72 80
192 24 56
224 32 128
64 72 80
224 160 128
224 32 128
192 24 56
64 72 80
64 72 80
192 24 56
192 24 56
8 80 64
24 80 64
224 32 128
24 80 64
224 32 128
224 32 128
192 24 56
224 32 128
64 72 80
224 32 24
224 32 128
24 80 64
224 32 128
224 32 128
192 24 56
192 24 56
192 24 56
8 80 64
224 32 128
24 80 64
64 72 80
24 80 64
224 32 128
0 128 128
192 24 56
8 8 48
224 32 128
24 80 64
64 72 80
216 184 128
0 128 128
0 128 128
192 24 56
224 32 128
224 32 128
72 40 0
64 72 80
24 80 64
224 32 128
224 32 128
224 160 128
224 32 128
224 32 128
64 72 80
64 72 80
72 40 0
88 128 128
192 24 56
192 24 56
88 128 128
224 32 24
8 80 64
24 80 64
16 16 56
192 24 56
8 8 48
224 32 24
8 80 64
0 128 128
224 32 128
24 80 64
192 24 56
192 24 56
72 40 0
8 8 56
16 16 56
0 128 128
0 128 128
24 80 64
192 24 56
192 24 56
224 32 24
8 8 48
24 80 64
192 24 56
224 32 128
64 72 80
192 24 56
224 32 128
88 128 128
8 80 64
224 160 128
192 24 56
88 128 128
216 184 128
192 24 56
88 128 128
0 128 128
8 8 48
192 24 56
0 128 128
224 32 24
8 8 56
192 24 56
0 128 128
224 32 128
88 128 128
0 128 128
88 128 128
224 160 128
64 72 80
192 24 56
88 128 128
224 32 128
192 24 56
224 32 128
224 32 128
64 72 80
88 128 128
72 40 0
0 128 128
64 72 80
224 32 128
24 80 64
224 32 128
192 24 56
24 80 64
224 32 128
192 24 56
88 128 128
64 72 80
192 24 56
224 32 128
192 24 56
24 80 64
192 24 56
224 32 128
88 128 128
192 24 56
64 72 80
224 32 128
224 32 128
24 80 64
192 24 56
192 24 56
224 32 128
24 80 64
224 32 128
224 32 128
224 32 128
24 80 64
192 24 56
192 24 56
192 24 56
192 24 56
8 80 64
224 32 128
24 80 64
64 72 80
24 80 64
224 32 128
0 128 128
192 24 56
8 8 48
224 32 128
24 80 64
64 72 80
216 184 128
0 128 128
0 128 128
224 160 128
224 32 128
224 32 128
216 184 128
64 72 80
24 80 64
224 32 128
224 32 128
224 160 128
224 32 128
224 32 128
64 72 80
64 72 80
216 184 128
0 128 128
192 24 56
192 24 56
88 128 128
8 8 56
16 16 56
24 80 64
16 16 56
192 24 56
8 8 48
224 32 24
8 80 64
88 128 128
192 24 56
24 80 64
192 24 56
192 24 56
72 40 0
8 8 56
16 16 56
192 24 56
192 24 56
24 80 64
192 24 56
192 24 56
8 8 56
8 8 48
24 80 64
192 24 56
224 32 128
64 72 80
192 24 56
224 32 128
0 128 128
8 80 64
224 160 128
192 24 56
88 128 128
216 184 128
192 24 56
88 128 128
88 128 128
64 72 80
192 24 56
0 128 128
224 32 24
8 8 56
192 24 56
0 128 128
0 128 128
104 32 0
0 128 128
88 128 128
224 160 128
64 72 80
192 24 56
224 32 128
88 128 128
192 24 56
224 32 128
224 32 128
64 72 80
88 128 128
72 40 0
0 128 128
24 80 64
224 32 128
24 80 64
192 24 56
224 32 128
64 72 80
192 24 56
192 24 56
88 128 128
64 72 80
192 24 56
192 24 56
224 32 128
24 80 64
224 32 128
224 32 128
88 128 128
192 24 56
64 72 80
192 24 56
88 128 128
24 80 64
224 32 128
192 24 56
192 24 56
24 80 64
224 32 128
224 32 128
192 24 56
24 80 64
192 24 56
192 24 56
88 128 128
192 24 56
8 80 64
224 32 128
24 80 64
64 72 80
24 80 64
224 32 128
0 128 128
192 24 56
8 8 48
224 32 128
24 80 64
64 72 80
72 40 0
88 128 128
88 128 128
224 160 128
224 32 128
0 128 128
24 80 64
72 40 0
216 184 128
0 128 128
88 128 128
224 160 128
224 32 128
0 128 128
216 184 128
72 40 0
64 72 80
192 24 56
88 128 128
192 24 56
88 128 128
224 32 24
16 16 56
24 80 64
16 16 56
192 24 56
8 8 48
224 32 24
8 80 64
0 128 128
192 24 56
24 80 64
192 24 56
192 24 56
72 40 0
8 8 56
16 16 56
0 128 128
88 128 128
216 184 128
192 24 56
88 128 128
224 32 24
8 8 48
24 80 64
0 128 128
224 32 24
8 8 56
224 32 24
0 128 128
224 32 128
224 32 128
24 80 64
88 128 128
192 24 56
216 184 128
224 160 128
88 128 128
88 128 128
8 80 64
224 160 128
192 24 56
0 128 128
72 40 0
192 24 56
0 128 128
0 128 128
104 32 0
0 128 128
192 24 56
88 128 128
64 72 80
88 128 128
0 128 128
0 128 128
0 0 0
0 0 0
0 0 0
0 0 0
0 0 0
0 0 0
0 0 0
0 0 0
0 0 0
0 0 0
0 0 0
0 0 0
0 0 0
0 0 0
0 0 0
0 0 0
0 0 0
0 0 0
0 0 0
0 0 0
0 0 0
0 0 0
0 0 0
0 0 0
0 0 0
0 0 0
0 0 0
0 0 0
0 0 0
0 0 0
0 0 0
0 0 0
0 0 0
0 0 0
0 0 0
0 0 0
0 0 0
0 0 0
0 0 0
0 0 0
0 0 0
0 0 0
0 0 0
0 0 0
0 0 0
0 0 0
0 0 0
0 0 0
0 0 0
0 0 0
0 0 0
0 0 0
0 0 0
0 0 0
0 0 0
0 0 0
0 0 0
0 0 0
0 0 0
0 0 0
0 0 0
0 0 0
0 0 0
0 0 0
0 0 0
0 0 0
0 0 0
0 0 0
0 0 0
0 0 0
0 0 0
0 0 0
0 0 0
0 0 0
0 0 0
0 0 0
0 0 0
0 0 0
0 0 0
0 0 0
0 0 0
0 0 0
0 0 0
0 0 0
0 0 0
0 0 0
0 0 0
0 0 0
0 0 0
0 0 0
0 0 0
0 0 0
0 0 0
0 0 0
0 0 0
0 0 0
0 0 0
0 0 0
0 0 0
0 0 0
0 0 0
0 0 0
0 0 0
0 0 0
0 0 0
0 0 0
0 0 0
0 0 0
0 0 0
0 0 0
0 0 0
0 0 0
0 0 0
0 0 0
0 0 0
0 0 0
0 0 0
0 0 0
0 0 0
0 0 0
0 0 0
0 0 0
0 0 0
0 0 0
0 0 0
0 0 0
0 0 0
0 0 0
0 0 0
0 0 0
0 0 0
0 0 0
0 0 0
0 0 0
0 0 0
0 0 0
0 0 0
0 0 0
0 0 0
0 0 0
0 0 0
0 0 0
0 0 0
0 0 0
0 0 0
0 0 0
0 0 0
0 0 0
0 0 0
0 0 0
0 0 0
0 0 0
0 0 0
0 0 0
0 0 0
0 0 0
0 0 0
0 0 0
0 0 0
0 0 0
0 0 0
0 0 0
0 0 0
0 0 0
0 0 0
0 0 0
0 0 0
0 0 0
0 0 0
0 0 0
0 0 0
0 0 0
0 0 0
0 0 0
0 0 0
0 0 0
0 0 0
0 0 0
0 0 0
0 0 0
0 0 0
0 0 0
0 0 0
0 0 0
0 0 0
0 0 0
0 0 0
0 0 0
0 0 0
0 0 0
0 0 0
0 0 0
0 0 0
0 0 0
0 0 0
0 0 0
0 0 0
0 0 0
0 0 0
0 0 0
0 0 0
0 0 0
0 0 0
0 0 0
0 0 0
0 0 0
0 0 0
0 0 0
0 0 0
0 0 0
0 0 0
0 0 0
0 0 0
0 0 0
0 0 0
0 0 0
0 0 0
0 0 0
0 0 0
0 0 0
0 0 0
0 0 0
0 0 0
0 0 0
0 0 0
0 0 0
0 0 0
0 0 0
0 0 0
0 0 0
0 0 0
0 0 0
0 0 0
0 0 0
0 0 0
0 0 0
0 0 0
0 0 0
0 0 0
0 0 0
0 0 0
0 0 0
0 0 0
0 0 0
0 0 0
0 0 0
0 0 0
0 0 0
0 0 0
0 0 0
0 0 0
0 0 0
0 0 0
0 0 0
0 0 0
0 0 0
0 0 0
0 0 0
0 0 0
0 0 0
0 0 0
0 0 0
0 0 0
0 0 0
0 0 0
0 0 0
0 0 0
0 0 0
0 0 0
0 0 0
0 0 0
0 0 0
0 0 0
0 0 0
0 0 0
0 0 0
0 0 0
0 0 0
0 0 0
0 0 0
0 0 0
0 0 0
0 0 0
0 0 0
0 0 0
0 0 0
0 0 0
0 0 0
0 0 0
0 0 0
0 0 0
0 0 0
0 0 0
0 0 0
0 0 0
0 0 0
0 0 0
0 0 0
0 0 0
0 0 0
0 0 0
0 0 0
0 0 0
0 0 0
0 0 0
0 0 0
0 0 0
0 0 0
0 0 0
0 0 0
0 0 0
0 0 0
0 0 0
0 0 0
0 0 0
0 0 0
0 0 0
0 0 0
0 0 0
0 0 0
0 0 0
0 0 0
0 0 0
0 0 0
0 0 0
0 0 0
0 0 0
0 0 0
0 0 0
0 0 0
0 0 0
0 0 0
0 0 0
0 0 0
0 0 0
0 0 0
0 0 0
0 0 0
0 0 0
0 0 0
0 0 0
0 0 0
0 0 0
0 0 0
0 0 0
0 0 0
0 0 0
0 0 0
0 0 0
0 0 0
0 0 0
0 0 0
0 0 0
0 0 0
0 0 0
0 0 0
0 0 0
0 0 0
0 0 0
0 0 0
0 0 0
0 0 0
0 0 0
0 0 0
0 0 0
0 0 0
0 0 0
0 0 0
0 0 0
0 0 0
0 0 0
0 0 0
0 0 0
0 0 0
0 0 0
0 0 0
0 0 0
0 0 0
0 0 0
0 0 0
0 0 0
0 0 0
0 0 0
0 0 0
0 0 0
0 0 0
0 0 0
0 0 0
0 0 0
0 0 0
0 0 0
0 0 0
0 0 0
0 0 0
0 0 0
0 0 0
0 0 0
0 0 0
0 0 0
0 0 0
0 0 0
0 0 0
0 0 0
0 0 0
0 0 0
0 0 0
0 0 0
0 0 0
0 0 0
0 0 0
0 0 0
0 0 0
0 0 0
0 0 0
0 0 0
0 0 0
0 0 0
0 0 0
0 0 0
0 0 0
0 0 0
0 0 0
0 0 0
0 0 0
0 0 0
0 0 0
0 0 0
0 0 0
0 0 0
0 0 0
0 0 0
0 0 0
0 0 0
0 0 0
0 0 0
0 0 0
0 0 0
0 0 0
0 0 0
0 0 0
0 0 0
0 0 0
0 0 0
0 0 0
0 0 0
0 0 0
0 0 0
0 0 0
0 0 0
0 0 0
0 0 0
0 0 0
0 0 0
0 0 0
0 0 0
0 0 0
0 0 0
0 0 0
0 0 0
0 0 0
0 0 0
0 0 0
0 0 0
0 0 0
0 0 0
0 0 0
0 0 0
0 0 0
0 0 0
0 0 0
0 0 0
0 0 0
0 0 0
0 0 0
0 0 0
0 0 0
0 0 0
0 0 0
0 0 0
0 0 0
0 0 0
0 0 0
0 0 0
0 0 0
0 0 0
0 0 0
0 0 0
0 0 0
0 0 0
0 0 0
0 0 0
0 0 0
0 0 0
0 0 0
0 0 0
0 0 0
0 0 0
0 0 0
0 0 0
0 0 0
0 0 0
0 0 0
0 0 0
0 0 0
0 0 0
0 0 0
0 0 0
0 0 0
0 0 0
0 0 0
0 0 0
0 0 0
0 0 0
0 0 0
0 0 0
0 0 0
0 0 0
0 0 0
0 0 0
0 0 0
0 0 0
0 0 0
0 0 0
0 0 0
0 0 0
0 0 0
0 0 0
0 0 0
0 0 0
0 0 0
0 0 0
0 0 0
0 0 0
0 0 0
0 0 0
0 0 0
0 0 0
0 0 0
0 0 0
0 0 0
0 0 0
0 0 0
0 0 0
0 0 0
0 0 0
0 0 0
0 0 0
0 0 0
0 0 0
0 0 0
0 0 0
0 0 0
0 0 0
0 0 0
0 0 0
0 0 0
0 0 0
0 0 0
0 0 0
0 0 0
0 0 0
0 0 0
0 0 0
0 0 0
0 0 0
0 0 0
0 0 0
0 0 0
0 0 0
0 0 0
0 0 0
0 0 0
0 0 0
0 0 0
0 0 0
0 0 0
0 0 0
0 0 0
0 0 0
0 0 0
0 0 0
0 0 0
0 0 0
0 0 0
0 0 0
0 0 0
0 0 0
0 0 0
0 0 0
0 0 0
0 0 0
0 0 0
0 0 0
0 0 0
0 0 0
0 0 0
0 0 0
0 0 0
0 0 0
0 0 0
0 0 0
0 0 0
0 0 0
0 0 0
0 0 0
0 0 0
0 0 0
0 0 0
0 0 0
0 0 0
0 0 0
0 0 0
0 0 0
0 0 0
0 0 0
0 0 0
0 0 0
0 0 0
0 0 0
0 0 0
0 0 0
0 0 0
0 0 0
0 0 0
0 0 0
0 0 0
0 0 0
0 0 0
0 0 0
0 0 0
0 0 0
0 0 0
0 0 0
0 0 0
0 0 0
0 0 0
0 0 0
0 0 0
0 0 0
0 0 0
0 0 0
0 0 0
0 0 0
0 0 0
0 0 0
0 0 0
0 0 0
0 0 0
0 0 0
0 0 0
0 0 0
0 0 0
0 0 0
0 0 0
0 0 0
0 0 0
0 0 0
0 0 0
0 0 0
0 0 0
0 0 0
0 0 0
0 0 0
0 0 0
0 0 0
0 0 0
0 0 0
0 0 0
0 0 0
0 0 0
0 0 0
0 0 0
0 0 0
0 0 0
0 0 0
0 0 0
0 0 0
0 0 0
0 0 0
0 0 0
0 0 0
0 0 0
0 0 0
0 0 0
0 0 0
0 0 0
0 0 0
0 0 0
0 0 0
0 0 0
0 0 0
0 0 0
0 0 0
0 0 0
0 0 0
0 0 0
0 0 0
0 0 0
0 0 0
0 0 0
0 0 0
0 0 0
0 0 0
0 0 0
0 0 0
0 0 0
0 0 0
0 0 0
0 0 0
0 0 0
0 0 0
0 0 0
0 0 0
0 0 0
0 0 0
0 0 0
0 0 0
0 0 0
0 0 0
0 0 0
0 0 0
0 0 0
0 0 0
0 0 0
0 0 0
0 0 0
0 0 0
0 0 0
0 0 0
0 0 0
0 0 0
0 0 0
0 0 0
0 0 0
0 0 0
0 0 0
0 0 0
0 0 0
0 0 0
0 0 0
0 0 0
0 0 0
0 0 0
0 0 0
0 0 0
0 0 0
0 0 0
0 0 0
0 0 0
0 0 0
0 0 0
0 0 0
0 0 0
0 0 0
0 0 0
0 0 0
0 0 0
0 0 0
0 0 0
0 0 0
0 0 0
0 0 0
0 0 0
0 0 0
0 0 0
0 0 0
0 0 0
0 0 0
0 0 0
0 0 0
0 0 0
0 0 0
0 0 0
0 0 0
0 0 0
0 0 0
0 0 0
0 0 0
0 0 0
0 0 0
0 0 0
0 0 0
0 0 0
0 0 0
0 0 0
0 0 0
0 0 0
0 0 0
0 0 0
0 0 0
0 0 0
0 0 0
0 0 0
0 0 0
0 0 0
0 0 0
0 0 0
0 0 0
0 0 0
0 0 0
0 0 0
0 0 0
0 0 0
0 0 0
0 0 0
0 0 0
0 0 0
0 0 0
0 0 0
0 0 0
0 0 0
0 0 0
0 0 0
0 0 0
0 0 0
0 0 0
0 0 0
0 0 0
0 0 0
0 0 0
0 0 0
0 0 0
0 0 0
0 0 0
0 0 0
0 0 0
0 0 0
0 0 0
0 0 0
0 0 0
0 0 0
0 0 0
0 0 0
0 0 0
0 0 0
0 0 0
0 0 0
0 0 0
0 0 0
0 0 0
0 0 0
0 0 0
0 0 0
0 0 0
0 0 0
0 0 0
0 0 0
0 0 0
0 0 0
0 0 0
0 0 0
0 0 0
0 0 0
0 0 0
0 0 0
0 0 0
0 0 0
0 0 0
0 0 0
0 0 0
0 0 0
0 0 0
0 0 0
0 0 0
0 0 0
0 0 0
0 0 0
0 0 0
0 0 0
0 0 0
0 0 0
0 0 0
0 0 0
0 0 0
0 0 0
0 0 0
0 0 0
0 0 0
0 0 0
0 0 0
0 0 0
0 0 0
0 0 0
0 0 0
0 0 0
0 0 0
0 0 0
0 0 0
0 0 0
0 0 0
0 0 0
0 0 0
0 0 0
0 0 0
0 0 0
0 0 0
0 0 0
0 0 0
0 0 0
0 0 0
0 0 0
0 0 0
0 0 0
0 0 0
0 0 0
0 0 0
0 0 0
0 0 0
0 0 0
0 0 0
0 0 0
0 0 0
0 0 0
0 0 0
0 0 0
0 0 0
0 0 0
0 0 0
0 0 0
0 0 0
0 0 0
0 0 0
0 0 0
0 0 0
0 0 0
0 0 0
0 0 0
0 0 0
0 0 0
0 0 0
0 0 0
0 0 0
0 0 0
0 0 0
0 0 0
0 0 0
0 0 0
0 0 0
0 0 0
0 0 0
0 0 0
0 0 0
0 0 0
0 0 0
0 0 0
0 0 0
0 0 0
0 0 0
0 0 0
0 0 0
0 0 0
0 0 0
0 0 0
0 0 0
0 0 0
0 0 0
0 0 0
0 0 0
0 0 0
0 0 0
0 0 0
0 0 0
0 0 0
0 0 0
0 0 0
0 0 0
0 0 0
0 0 0
0 0 0
0 0 0
0 0 0
0 0 0
0 0 0
0 0 0
0 0 0
0 0 0
0 0 0
0 0 0
0 0 0
0 0 0
0 0 0
0 0 0
0 0 0
0 0 0
0 0 0
0 0 0
0 0 0
0 0 0
0 0 0
0 0 0
0 0 0
0 0 0
0 0 0
0 0 0
0 0 0
0 0 0
0 0 0
0 0 0
0 0 0
0 0 0
0 0 0
0 0 0
0 0 0
0 0 0
0 0 0
0 0 0
0 0 0
0 0 0
0 0 0
0 0 0
0 0 0
0 0 0
0 0 0
0 0 0
0 0 0
0 0 0
0 0 0
0 0 0
0 0 0
0 0 0
0 0 0
0 0 0
0 0 0
0 0 0
