P3
128 128
255
184 88 40 184 88 40 184 88 40 184 88 40 184 88 40 184 88 40 184 88 40 184 88 40 184 88 40 184 88 40 184 88 40 184 88 40 184 88 40 184 88 40 184 88 40 184 88 40 184 88 40 184 88 40 184 88 40 184 88 40 184 88 40 184 88 40 184 88 40 184 88 40 184 88 40 184 88 40 184 88 40 184 88 40 184 88 40 184 88 40 184 88 40 184 88 40 192 88 40 192 88 40 192 88 40 192 88 40 192 88 40 192 88 40 192 88 40 192 88 40 192 88 40 192 88 40 192 88 40 192 88 40 192 88 40 192 88 40 192 88 40 192 88 40 192 88 40 192 88 40 192 88 40 192 88 40 192 88 40 192 88 40 192 88 40 192 88 40 192 88 40 192 88 40 192 88 40 192 88 40 192 88 40 192 88 40 192 88 40 192 88 40 200 88 40 200 88 40 200 88 40 200 88 40 200 88 40 200 88 40 200 88 40 200 88 40 200 88 40 200 88 40 200 88 40 200 88 40 200 88 40 200 88 40 200 88 40 200 88 40 200 88 40 200 88 40 200 88 40 200 88 40 200 88 40 200 88 40 200 88 40 200 88 40 200 88 40 200 88 40 200 88 40 200 88 40 200 88 40 200 88 40 200 88 40 200 88 40 192 88 40 192 88 40 192 88 40 192 88 40 192 88 40 192 88 40 192 88 40 192 88 40 192 88 40 192 88 40 192 88 40 192 88 40 192 88 40 192 88 40 192 88 40 192 88 40 192 88 40 192 88 40 192 88 40 192 88 40 192 88 40 192 88 40 192 88 40 192 88 40 192 88 40 192 88 40 192 88 40 192 88 40 192 88 40 192 88 40 192 88 40 192 88 40
184 88 40 184 88 40 184 88 40 184 88 40 184 88 40 184 88 40 184 88 40 184 88 40 184 88 40 184 88 40 184 88 40 184 88 40 184 88 40 184 88 40 184 88 40 184 88 40 184 88 40 184 88 40 184 88 40 184 88 40 184 88 40 184 88 40 184 88 40 184 88 40 184 88 40 184 88 40 184 88 40 184 88 40 184 88 40 184 88 40 184 88 40 184 88 40 192 88 40 192 88 40 192 88 40 192 88 40 192 88 40 192 88 40 192 88 40 192 88 40 192 88 40 192 88 40 192 88 40 192 88 40 192 88 40 192 88 40 192 88 40 192 88 40 192 88 40 192 88 40 192 88 40 192 88 40 192 88 40 192 88 40 192 88 40 192 88 40 192 88 40 192 88 40 192 88 40 192 88 40 192 88 40 192 88 40 192 88 40 192 88 40 200 88 40 200 88 40 200 88 40 200 88 40 200 88 40 200 88 40 200 88 40 200 88 40 200 88 40 200 88 40 200 88 40 200 88 40 200 88 40 200 88 40 200 88 40 200 88 40 200 88 40 200 88 40 200 88 40 200 88 40 200 88 40 200 88 40 200 88 40 200 88 40 200 88 40 200 88 40 200 88 40 200 88 40 200 88 40 200 88 40 200 88 40 200 88 40 192 88 40 192 88 40 192 88 40 192 88 40 192 88 40 192 88 40 192 88 40 192 88 40 192 88 40 192 88 40 192 88 40 192 88 40 192 88 40 192 88 40 192 88 40 192 88 40 192 88 40 192 88 40 192 88 40 192 88 40 192 88 40 192 88 40 192 88 40 192 88 40 192 88 40 192 88 40 192 88 40 192 88 40 192 88 40 192 88 40 192 88 40 192 88 40
184 88 40 184 88 40 184 88 40 184 88 40 184 88 40 184 88 40 184 88 40 184 88 40 184 88 40 184 88 40 184 88 40 184 88 40 184 88 40 184 88 40 184 88 40 184 88 40 184 88 40 184 88 40 184 88 40 184 88 40 184 88 40 184 88 40 184 88 40 184 88 40 184 88 40 184 88 40 184 88 40 184 88 40 184 88 40 184 88 40 184 88 40 184 88 40 192 88 40 192 88 40 192 88 40 192 88 40 192 88 40 192 88 40 192 88 40 192 88 40 192 88 40 192 88 40 192 88 40 192 88 40 192 88 40 192 88 40 192 88 40 192 88 40 192 88 40 192 88 40 192 88 40 192 88 40 192 88 40 192 88 40 192 88 40 192 88 40 192 88 40 192 88 40 192 88 40 192 88 40 192 88 40 192 88 40 192 88 40 192 88 40 200 88 40 200 88 40 200 88 40 200 88 40 200 88 40 200 88 40 200 88 40 200 88 40 200 88 40 200 88 40 200 88 40 200 88 40 200 88 40 200 88 40 200 88 40 200 88 40 200 88 40 200 88 40 200 88 40 200 88 40 200 88 40 200 88 40 200 88 40 200 88 40 200 88 40 200 88 40 200 88 40 200 88 40 200 88 40 200 88 40 200 88 40 200 88 40 192 88 40 192 88 40 192 88 40 192 88 40 192 88 40 192 88 40 192 88 40 192 88 40 192 88 40 192 88 40 192 88 40 192 88 40 192 88 40 192 88 40 192 88 40 192 88 40 192 88 40 192 88 40 192 88 40 192 88 40 192 88 40 192 88 40 192 88 40 192 88 40 192 88 40 192 88 40 192 88 40 192 88 40 192 88 40 192 88 40 192 88 40 192 88 40
184 88 40 184 88 40 184 88 40 184 88 40 184 88 40 184 88 40 184 88 40 184 88 40 184 88 40 184 88 40 184 88 40 184 88 40 184 88 40 184 88 40 184 88 40 184 88 40 184 88 40 184 88 40 184 88 40 184 88 40 184 88 40 184 88 40 184 88 40 184 88 40 184 88 40 184 88 40 184 88 40 184 88 40 184 88 40 184 88 40 184 88 40 184 88 40 192 88 40 192 88 40 192 88 40 192 88 40 192 88 40 192 88 40 192 88 40 192 88 40 192 88 40 192 88 40 192 88 40 192 88 40 192 88 40 192 88 40 192 88 40 192 88 40 192 88 40 192 88 40 192 88 40 192 88 40 192 88 40 192 88 40 192 88 40 192 88 40 192 88 40 192 88 40 192 88 40 192 88 40 192 88 40 192 88 40 192 88 40 192 88 40 200 88 40 200 88 40 200 88 40 200 88 40 200 88 40 200 88 40 200 88 40 200 88 40 200 88 40 200 88 40 200 88 40 200 88 40 200 88 40 200 88 40 200 88 40 200 88 40 200 88 40 200 88 40 200 88 40 200 88 40 200 88 40 200 88 40 200 88 40 200 88 40 200 88 40 200 88 40 200 88 40 200 88 40 200 88 40 200 88 40 200 88 40 200 88 40 192 88 40 192 88 40 192 88 40 192 88 40 192 88 40 192 88 40 192 88 40 192 88 40 192 88 40 192 88 40 192 88 40 192 88 40 192 88 40 192 88 40 192 88 40 192 88 40 192 88 40 192 88 40 192 88 40 192 88 40 192 88 40 192 88 40 192 88 40 192 88 40 192 88 40 192 88 40 192 88 40 192 88 40 192 88 40 192 88 40 192 88 40 192 88 40
184 88 40 184 88 40 184 88 40 184 88 40 184 88 40 184 88 40 184 88 40 184 88 40 184 88 40 184 88 40 184 88 40 184 88 40 184 88 40 184 88 40 184 88 40 184 88 40 184 88 40 184 88 40 184 88 40 184 88 40 184 88 40 184 88 40 184 88 40 184 88 40 184 88 40 184 88 40 184 88 40 184 88 40 184 88 40 184 88 40 184 88 40 184 88 40 192 88 40 192 88 40 192 88 40 192 88 40 192 88 40 192 88 40 192 88 40 192 88 40 192 88 40 192 88 40 192 88 40 192 88 40 192 88 40 192 88 40 192 88 40 192 88 40 192 88 40 192 88 40 192 88 40 192 88 40 192 88 40 192 88 40 192 88 40 192 88 40 192 88 40 192 88 40 192 88 40 192 88 40 192 88 40 192 88 40 192 88 40 192 88 40 200 88 40 200 88 40 200 88 40 200 88 40 200 88 40 200 88 40 200 88 40 200 88 40 200 88 40 200 88 40 200 88 40 200 88 40 200 88 40 200 88 40 200 88 40 200 88 40 200 88 40 200 88 40 200 88 40 200 88 40 200 88 40 200 88 40 200 88 40 200 88 40 200 88 40 200 88 40 200 88 40 200 88 40 200 88 40 200 88 40 200 88 40 200 88 40 192 88 40 192 88 40 192 88 40 192 88 40 192 88 40 192 88 40 192 88 40 192 88 40 192 88 40 192 88 40 192 88 40 192 88 40 192 88 40 192 88 40 192 88 40 192 88 40 192 88 40 192 88 40 192 88 40 192 88 40 192 88 40 192 88 40 192 88 40 192 88 40 192 88 40 192 88 40 192 88 40 192 88 40 192 88 40 192 88 40 192 88 40 192 88 40
184 88 40 184 88 40 184 88 40 184 88 40 184 88 40 184 88 40 184 88 40 184 88 40 184 88 40 184 88 40 184 88 40 184 88 40 184 88 40 184 88 40 184 88 40 184 88 40 184 88 40 184 88 40 184 88 40 184 88 40 184 88 40 184 88 40 184 88 40 184 88 40 184 88 40 184 88 40 184 88 40 184 88 40 184 88 40 184 88 40 184 88 40 184 88 40 192 88 40 192 88 40 192 88 40 192 88 40 192 88 40 192 88 40 192 88 40 192 88 40 192 88 40 192 88 40 192 88 40 192 88 40 192 88 40 192 88 40 192 88 40 192 88 40 192 88 40 192 88 40 192 88 40 192 88 40 192 88 40 192 88 40 192 88 40 192 88 40 192 88 40 192 88 40 192 88 40 192 88 40 192 88 40 192 88 40 192 88 40 192 88 40 200 88 40 200 88 40 200 88 40 200 88 40 200 88 40 200 88 40 200 88 40 200 88 40 200 88 40 200 88 40 200 88 40 200 88 40 200 88 40 200 88 40 200 88 40 200 88 40 200 88 40 200 88 40 200 88 40 200 88 40 200 88 40 200 88 40 200 88 40 200 88 40 200 88 40 200 88 40 200 88 40 200 88 40 200 88 40 200 88 40 200 88 40 200 88 40 192 88 40 192 88 40 192 88 40 192 88 40 192 88 40 192 88 40 192 88 40 192 88 40 192 88 40 192 88 40 192 88 40 192 88 40 192 88 40 192 88 40 192 88 40 192 88 40 192 88 40 192 88 40 192 88 40 192 88 40 192 88 40 192 88 40 192 88 40 192 88 40 192 88 40 192 88 40 192 88 40 192 88 40 192 88 40 192 88 40 192 88 40 192 88 40
184 88 40 184 88 40 184 88 40 184 88 40 184 88 40 184 88 40 184 88 40 184 88 40 184 88 40 184 88 40 184 88 40 184 88 40 184 88 40 184 88 40 184 88 40 184 88 40 184 88 40 184 88 40 184 88 40 184 88 40 184 88 40 184 88 40 184 88 40 184 88 40 184 88 40 184 88 40 184 88 40 184 88 40 184 88 40 184 88 40 184 88 40 184 88 40 192 88 40 192 88 40 192 88 40 192 88 40 192 88 40 192 88 40 192 88 40 192 88 40 192 88 40 192 88 40 192 88 40 192 88 40 192 88 40 192 88 40 192 88 40 192 88 40 192 88 40 192 88 40 192 88 40 192 88 40 192 88 40 192 88 40 192 88 40 192 88 40 192 88 40 192 88 40 192 88 40 192 88 40 192 88 40 192 88 40 192 88 40 192 88 40 200 88 40 200 88 40 200 88 40 200 88 40 200 88 40 200 88 40 200 88 40 200 88 40 200 88 40 200 88 40 200 88 40 200 88 40 200 88 40 200 88 40 200 88 40 200 88 40 200 88 40 200 88 40 200 88 40 200 88 40 200 88 40 200 88 40 200 88 40 200 88 40 200 88 40 200 88 40 200 88 40 200 88 40 200 88 40 200 88 40 200 88 40 200 88 40 192 88 40 192 88 40 192 88 40 192 88 40 192 88 40 192 88 40 192 88 40 192 88 40 192 88 40 192 88 40 192 88 40 192 88 40 192 88 40 192 88 40 192 88 40 192 88 40 192 88 40 192 88 40 192 88 40 192 88 40 192 88 40 192 88 40 192 88 40 192 88 40 192 88 40 192 88 40 192 88 40 192 88 40 192 88 40 192 88 40 192 88 40 192 88 40
184 88 40 184 88 40 184 88 40 184 88 40 184 88 40 184 88 40 184 88 40 184 88 40 184 88 40 184 88 40 184 88 40 184 88 40 184 88 40 184 88 40 184 88 40 184 88 40 184 88 40 184 88 40 184 88 40 184 88 40 184 88 40 184 88 40 184 88 40 184 88 40 184 88 40 184 88 40 184 88 40 184 88 40 184 88 40 184 88 40 184 88 40 184 88 40 192 88 40 192 88 40 192 88 40 192 88 40 192 88 40 192 88 40 192 88 40 192 88 40 192 88 40 192 88 40 192 88 40 192 88 40 192 88 40 192 88 40 192 88 40 192 88 40 192 88 40 192 88 40 192 88 40 192 88 40 192 88 40 192 88 40 192 88 40 192 88 40 192 88 40 192 88 40 192 88 40 192 88 40 192 88 40 192 88 40 192 88 40 192 88 40 200 88 40 200 88 40 200 88 40 200 88 40 200 88 40 200 88 40 200 88 40 200 88 40 200 88 40 200 88 40 200 88 40 200 88 40 200 88 40 200 88 40 200 88 40 200 88 40 200 88 40 200 88 40 200 88 40 200 88 40 200 88 40 200 88 40 200 88 40 200 88 40 200 88 40 200 88 40 200 88 40 200 88 40 200 88 40 200 88 40 200 88 40 200 88 40 192 88 40 192 88 40 192 88 40 192 88 40 192 88 40 192 88 40 192 88 40 192 88 40 192 88 40 192 88 40 192 88 40 192 88 40 192 88 40 192 88 40 192 88 40 192 88 40 192 88 40 192 88 40 192 88 40 192 88 40 192 88 40 192 88 40 192 88 40 192 88 40 192 88 40 192 88 40 192 88 40 192 88 40 192 88 40 192 88 40 192 88 40 192 88 40
184 88 40 184 88 40 184 88 40 184 88 40 184 88 40 184 88 40 184 88 40 184 88 40 184 88 40 184 88 40 184 88 40 184 88 40 184 88 40 184 88 40 184 88 40 184 88 40 184 88 40 184 88 40 184 88 40 184 88 40 184 88 40 184 88 40 184 88 40 184 88 40 184 88 40 184 88 40 184 88 40 184 88 40 184 88 40 184 88 40 184 88 40 184 88 40 192 88 40 192 88 40 192 88 40 192 88 40 192 88 40 192 88 40 192 88 40 192 88 40 192 88 40 192 88 40 192 88 40 192 88 40 192 88 40 192 88 40 192 88 40 192 88 40 192 88 40 192 88 40 192 88 40 192 88 40 192 88 40 192 88 40 192 88 40 192 88 40 192 88 40 192 88 40 192 88 40 192 88 40 192 88 40 192 88 40 192 88 40 192 88 40 200 88 40 200 88 40 200 88 40 200 88 40 200 88 40 200 88 40 200 88 40 200 88 40 200 88 40 200 88 40 200 88 40 200 88 40 200 88 40 200 88 40 200 88 40 200 88 40 200 88 40 200 88 40 200 88 40 200 88 40 200 88 40 200 88 40 200 88 40 200 88 40 200 88 40 200 88 40 200 88 40 200 88 40 200 88 40 200 88 40 200 88 40 200 88 40 192 88 40 192 88 40 192 88 40 192 88 40 192 88 40 192 88 40 192 88 40 192 88 40 192 88 40 192 88 40 192 88 40 192 88 40 192 88 40 192 88 40 192 88 40 192 88 40 192 88 40 192 88 40 192 88 40 192 88 40 192 88 40 192 88 40 192 88 40 192 88 40 192 88 40 192 88 40 192 88 40 192 88 40 192 88 40 192 88 40 192 88 40 192 88 40
184 88 40 184 88 40 184 88 40 184 88 40 184 88 40 184 88 40 184 88 40 184 88 40 184 88 40 184 88 40 184 88 40 184 88 40 184 88 40 184 88 40 184 88 40 184 88 40 184 88 40 184 88 40 184 88 40 184 88 40 184 88 40 184 88 40 184 88 40 184 88 40 184 88 40 184 88 40 184 88 40 184 88 40 184 88 40 184 88 40 184 88 40 184 88 40 192 88 40 192 88 40 192 88 40 192 88 40 192 88 40 192 88 40 192 88 40 192 88 40 192 88 40 192 88 40 192 88 40 192 88 40 192 88 40 192 88 40 192 88 40 192 88 40 192 88 40 192 88 40 192 88 40 192 88 40 192 88 40 192 88 40 192 88 40 192 88 40 192 88 40 192 88 40 192 88 40 192 88 40 192 88 40 192 88 40 192 88 40 192 88 40 200 88 40 200 88 40 200 88 40 200 88 40 200 88 40 200 88 40 200 88 40 200 88 40 200 88 40 200 88 40 200 88 40 200 88 40 200 88 40 200 88 40 200 88 40 200 88 40 200 88 40 200 88 40 200 88 40 200 88 40 200 88 40 200 88 40 200 88 40 200 88 40 200 88 40 200 88 40 200 88 40 200 88 40 200 88 40 200 88 40 200 88 40 200 88 40 192 88 40 192 88 40 192 88 40 192 88 40 192 88 40 192 88 40 192 88 40 192 88 40 192 88 40 192 88 40 192 88 40 192 88 40 192 88 40 192 88 40 192 88 40 192 88 40 192 88 40 192 88 40 192 88 40 192 88 40 192 88 40 192 88 40 192 88 40 192 88 40 192 88 40 192 88 40 192 88 40 192 88 40 192 88 40 192 88 40 192 88 40 192 88 40
184 88 40 184 88 40 184 88 40 184 88 40 184 88 40 184 88 40 184 88 40 184 88 40 184 88 40 184 88 40 184 88 40 184 88 40 184 88 40 184 88 40 184 88 40 184 88 40 184 88 40 184 88 40 184 88 40 184 88 40 184 88 40 184 88 40 184 88 40 184 88 40 184 88 40 184 88 40 184 88 40 184 88 40 184 88 40 184 88 40 184 88 40 184 88 40 192 88 40 192 88 40 192 88 40 192 88 40 192 88 40 192 88 40 192 88 40 192 88 40 192 88 40 192 88 40 192 88 40 192 88 40 192 88 40 192 88 40 192 88 40 192 88 40 192 88 40 192 88 40 192 88 40 192 88 40 192 88 40 192 88 40 192 88 40 192 88 40 192 88 40 192 88 40 192 88 40 192 88 40 192 88 40 192 88 40 192 88 40 192 88 40 200 88 40 200 88 40 200 88 40 200 88 40 200 88 40 200 88 40 200 88 40 200 88 40 200 88 40 200 88 40 200 88 40 200 88 40 200 88 40 200 88 40 200 88 40 200 88 40 200 88 40 200 88 40 200 88 40 200 88 40 200 88 40 200 88 40 200 88 40 200 88 40 200 88 40 200 88 40 200 88 40 200 88 40 200 88 40 200 88 40 200 88 40 200 88 40 192 88 40 192 88 40 192 88 40 192 88 40 192 88 40 192 88 40 192 88 40 192 88 40 192 88 40 192 88 40 192 88 40 192 88 40 192 88 40 192 88 40 192 88 40 192 88 40 192 88 40 192 88 40 192 88 40 192 88 40 192 88 40 192 88 40 192 88 40 192 88 40 192 88 40 192 88 40 192 88 40 192 88 40 192 88 40 192 88 40 192 88 40 192 88 40
184 88 40 184 88 40 184 88 40 184 88 40 184 88 40 184 88 40 184 88 40 184 88 40 184 88 40 184 88 40 184 88 40 184 88 40 184 88 40 184 88 40 184 88 40 184 88 40 184 88 40 184 88 40 184 88 40 184 88 40 184 88 40 184 88 40 184 88 40 184 88 40 184 88 40 184 88 40 184 88 40 184 88 40 184 88 40 184 88 40 184 88 40 184 88 40 192 88 40 192 88 40 192 88 40 192 88 40 192 88 40 192 88 40 192 88 40 192 88 40 192 88 40 192 88 40 192 88 40 192 88 40 192 88 40 192 88 40 192 88 40 192 88 40 192 88 40 192 88 40 192 88 40 192 88 40 192 88 40 192 88 40 192 88 40 192 88 40 192 88 40 192 88 40 192 88 40 192 88 40 192 88 40 192 88 40 192 88 40 192 88 40 200 88 40 200 88 40 200 88 40 200 88 40 200 88 40 200 88 40 200 88 40 200 88 40 200 88 40 200 88 40 200 88 40 200 88 40 200 88 40 200 88 40 200 88 40 200 88 40 200 88 40 200 88 40 200 88 40 200 88 40 200 88 40 200 88 40 200 88 40 200 88 40 200 88 40 200 88 40 200 88 40 200 88 40 200 88 40 200 88 40 200 88 40 200 88 40 192 88 40 192 88 40 192 88 40 192 88 40 192 88 40 192 88 40 192 88 40 192 88 40 192 88 40 192 88 40 192 88 40 192 88 40 192 88 40 192 88 40 192 88 40 192 88 40 192 88 40 192 88 40 192 88 40 192 88 40 192 88 40 192 88 40 192 88 40 192 88 40 192 88 40 192 88 40 192 88 40 192 88 40 192 88 40 192 88 40 192 88 40 192 88 40
184 88 40 184 88 40 184 88 40 184 88 40 184 88 40 184 88 40 184 88 40 184 88 40 184 88 40 184 88 40 184 88 40 184 88 40 184 88 40 184 88 40 184 88 40 184 88 40 184 88 40 184 88 40 184 88 40 184 88 40 184 88 40 184 88 40 184 88 40 184 88 40 184 88 40 184 88 40 184 88 40 184 88 40 184 88 40 184 88 40 184 88 40 184 88 40 192 88 40 192 88 40 192 88 40 192 88 40 192 88 40 192 88 40 192 88 40 192 88 40 192 88 40 192 88 40 192 88 40 192 88 40 192 88 40 192 88 40 192 88 40 192 88 40 192 88 40 192 88 40 192 88 40 192 88 40 192 88 40 192 88 40 192 88 40 192 88 40 192 88 40 192 88 40 192 88 40 192 88 40 192 88 40 192 88 40 192 88 40 192 88 40 200 88 40 200 88 40 200 88 40 200 88 40 200 88 40 200 88 40 200 88 40 200 88 40 200 88 40 200 88 40 200 88 40 200 88 40 200 88 40 200 88 40 200 88 40 200 88 40 200 88 40 200 88 40 200 88 40 200 88 40 200 88 40 200 88 40 200 88 40 200 88 40 200 88 40 200 88 40 200 88 40 200 88 40 200 88 40 200 88 40 200 88 40 200 88 40 192 88 40 192 88 40 192 88 40 192 88 40 192 88 40 192 88 40 192 88 40 192 88 40 192 88 40 192 88 40 192 88 40 192 88 40 192 88 40 192 88 40 192 88 40 192 88 40 192 88 40 192 88 40 192 88 40 192 88 40 192 88 40 192 88 40 192 88 40 192 88 40 192 88 40 192 88 40 192 88 40 192 88 40 192 88 40 192 88 40 192 88 40 192 88 40
184 88 40 184 88 40 184 88 40 184 88 40 184 88 40 184 88 40 184 88 40 184 88 40 184 88 40 184 88 40 184 88 40 184 88 40 184 88 40 184 88 40 184 88 40 184 88 40 184 88 40 184 88 40 184 88 40 184 88 40 184 88 40 184 88 40 184 88 40 184 88 40 184 88 40 184 88 40 184 88 40 184 88 40 184 88 40 184 88 40 184 88 40 184 88 40 192 88 40 192 88 40 192 88 40 192 88 40 192 88 40 192 88 40 192 88 40 192 88 40 192 88 40 192 88 40 192 88 40 192 88 40 192 88 40 192 88 40 192 88 40 192 88 40 192 88 40 192 88 40 192 88 40 192 88 40 192 88 40 192 88 40 192 88 40 192 88 40 192 88 40 192 88 40 192 88 40 192 88 40 192 88 40 192 88 40 192 88 40 192 88 40 200 88 40 200 88 40 200 88 40 200 88 40 200 88 40 200 88 40 200 88 40 200 88 40 200 88 40 200 88 40 200 88 40 200 88 40 200 88 40 200 88 40 200 88 40 200 88 40 200 88 40 200 88 40 200 88 40 200 88 40 200 88 40 200 88 40 200 88 40 200 88 40 200 88 40 200 88 40 200 88 40 200 88 40 200 88 40 200 88 40 200 88 40 200 88 40 192 88 40 192 88 40 192 88 40 192 88 40 192 88 40 192 88 40 192 88 40 192 88 40 192 88 40 192 88 40 192 88 40 192 88 40 192 88 40 192 88 40 192 88 40 192 88 40 192 88 40 192 88 40 192 88 40 192 88 40 192 88 40 192 88 40 192 88 40 192 88 40 192 88 40 192 88 40 192 88 40 192 88 40 192 88 40 192 88 40 192 88 40 192 88 40
184 88 40 184 88 40 184 88 40 184 88 40 184 88 40 184 88 40 184 88 40 184 88 40 184 88 40 184 88 40 184 88 40 184 88 40 184 88 40 184 88 40 184 88 40 184 88 40 184 88 40 184 88 40 184 88 40 184 88 40 184 88 40 184 88 40 184 88 40 184 88 40 184 88 40 184 88 40 184 88 40 184 88 40 184 88 40 184 88 40 184 88 40 184 88 40 192 88 40 192 88 40 192 88 40 192 88 40 192 88 40 192 88 40 192 88 40 192 88 40 192 88 40 192 88 40 192 88 40 192 88 40 192 88 40 192 88 40 192 88 40 192 88 40 192 88 40 192 88 40 192 88 40 192 88 40 192 88 40 192 88 40 192 88 40 192 88 40 192 88 40 192 88 40 192 88 40 192 88 40 192 88 40 192 88 40 192 88 40 192 88 40 200 88 40 200 88 40 200 88 40 200 88 40 200 88 40 200 88 40 200 88 40 200 88 40 200 88 40 200 88 40 200 88 40 200 88 40 200 88 40 200 88 40 200 88 40 200 88 40 200 88 40 200 88 40 200 88 40 200 88 40 200 88 40 200 88 40 200 88 40 200 88 40 200 88 40 200 88 40 200 88 40 200 88 40 200 88 40 200 88 40 200 88 40 200 88 40 192 88 40 192 88 40 192 88 40 192 88 40 192 88 40 192 88 40 192 88 40 192 88 40 192 88 40 192 88 40 192 88 40 192 88 40 192 88 40 192 88 40 192 88 40 192 88 40 192 88 40 192 88 40 192 88 40 192 88 40 192 88 40 192 88 40 192 88 40 192 88 40 192 88 40 192 88 40 192 88 40 192 88 40 192 88 40 192 88 40 192 88 40 192 88 40
184 88 40 184 88 40 184 88 40 184 88 40 184 88 40 184 88 40 184 88 40 184 88 40 184 88 40 184 88 40 184 88 40 184 88 40 184 88 40 184 88 40 184 88 40 184 88 40 184 88 40 184 88 40 184 88 40 184 88 40 184 88 40 184 88 40 184 88 40 184 88 40 184 88 40 184 88 40 184 88 40 184 88 40 184 88 40 184 88 40 184 88 40 184 88 40 192 88 40 192 88 40 192 88 40 192 88 40 192 88 40 192 88 40 192 88 40 192 88 40 192 88 40 192 88 40 192 88 40 192 88 40 192 88 40 192 88 40 192 88 40 192 88 40 192 88 40 192 88 40 192 88 40 192 88 40 192 88 40 192 88 40 192 88 40 192 88 40 192 88 40 192 88 40 192 88 40 192 88 40 192 88 40 192 88 40 192 88 40 192 88 40 200 88 40 200 88 40 200 88 40 200 88 40 200 88 40 200 88 40 200 88 40 200 88 40 200 88 40 200 88 40 200 88 40 200 88 40 200 88 40 200 88 40 200 88 40 200 88 40 200 88 40 200 88 40 200 88 40 200 88 40 200 88 40 200 88 40 200 88 40 200 88 40 200 88 40 200 88 40 200 88 40 200 88 40 200 88 40 200 88 40 200 88 40 200 88 40 192 88 40 192 88 40 192 88 40 192 88 40 192 88 40 192 88 40 192 88 40 192 88 40 192 88 40 192 88 40 192 88 40 192 88 40 192 88 40 192 88 40 192 88 40 192 88 40 192 88 40 192 88 40 192 88 40 192 88 40 192 88 40 192 88 40 192 88 40 192 88 40 192 88 40 192 88 40 192 88 40 192 88 40 192 88 40 192 88 40 192 88 40 192 88 40
184 88 40 184 88 40 184 88 40 184 88 40 184 88 40 184 88 40 184 88 40 184 88 40 184 88 40 184 88 40 184 88 40 184 88 40 184 88 40 184 88 40 184 88 40 184 88 40 184 88 40 184 88 40 184 88 40 184 88 40 184 88 40 184 88 40 184 88 40 184 88 40 184 88 40 184 88 40 184 88 40 184 88 40 184 88 40 184 88 40 184 88 40 184 88 40 192 88 40 192 88 40 192 88 40 192 88 40 192 88 40 192 88 40 192 88 40 192 88 40 192 88 40 192 88 40 192 88 40 192 88 40 192 88 40 192 88 40 192 88 40 192 88 40 192 88 40 192 88 40 192 88 40 192 88 40 192 88 40 192 88 40 192 88 40 192 88 40 192 88 40 192 88 40 192 88 40 192 88 40 192 88 40 192 88 40 192 88 40 192 88 40 200 88 40 200 88 40 200 88 40 200 88 40 200 88 40 200 88 40 200 88 40 200 88 40 200 88 40 200 88 40 200 88 40 200 88 40 200 88 40 200 88 40 200 88 40 200 88 40 200 88 40 200 88 40 200 88 40 200 88 40 200 88 40 200 88 40 200 88 40 200 88 40 200 88 40 200 88 40 200 88 40 200 88 40 200 88 40 200 88 40 200 88 40 200 88 40 192 88 40 192 88 40 192 88 40 192 88 40 192 88 40 192 88 40 192 88 40 192 88 40 192 88 40 192 88 40 192 88 40 192 88 40 192 88 40 192 88 40 192 88 40 192 88 40 192 88 40 192 88 40 192 88 40 192 88 40 192 88 40 192 88 40 192 88 40 192 88 40 192 88 40 192 88 40 192 88 40 192 88 40 192 88 40 192 88 40 192 88 40 192 88 40
184 88 40 184 88 40 184 88 40 184 88 40 184 88 40 184 88 40 184 88 40 184 88 40 184 88 40 184 88 40 184 88 40 184 88 40 184 88 40 184 88 40 184 88 40 184 88 40 184 88 40 184 88 40 184 88 40 184 88 40 184 88 40 184 88 40 184 88 40 184 88 40 184 88 40 184 88 40 184 88 40 184 88 40 184 88 40 184 88 40 184 88 40 184 88 40 192 88 40 192 88 40 192 88 40 192 88 40 192 88 40 192 88 40 192 88 40 192 88 40 192 88 40 192 88 40 192 88 40 192 88 40 192 88 40 192 88 40 192 88 40 192 88 40 192 88 40 192 88 40 192 88 40 192 88 40 192 88 40 192 88 40 192 88 40 192 88 40 192 88 40 192 88 40 192 88 40 192 88 40 192 88 40 192 88 40 192 88 40 192 88 40 200 88 40 200 88 40 200 88 40 200 88 40 200 88 40 200 88 40 200 88 40 200 88 40 200 88 40 200 88 40 200 88 40 200 88 40 200 88 40 200 88 40 200 88 40 200 88 40 200 88 40 200 88 40 200 88 40 200 88 40 200 88 40 200 88 40 200 88 40 200 88 40 200 88 40 200 88 40 200 88 40 200 88 40 200 88 40 200 88 40 200 88 40 200 88 40 192 88 40 192 88 40 192 88 40 192 88 40 192 88 40 192 88 40 192 88 40 192 88 40 192 88 40 192 88 40 192 88 40 192 88 40 192 88 40 192 88 40 192 88 40 192 88 40 192 88 40 192 88 40 192 88 40 192 88 40 192 88 40 192 88 40 192 88 40 192 88 40 192 88 40 192 88 40 192 88 40 192 88 40 192 88 40 192 88 40 192 88 40 192 88 40
184 88 40 184 88 40 184 88 40 184 88 40 184 88 40 184 88 40 184 88 40 184 88 40 184 88 40 184 88 40 184 88 40 184 88 40 184 88 40 184 88 40 184 88 40 184 88 40 184 88 40 184 88 40 184 88 40 184 88 40 184 88 40 184 88 40 184 88 40 184 88 40 184 88 40 184 88 40 184 88 40 184 88 40 184 88 40 184 88 40 184 88 40 184 88 40 192 88 40 192 88 40 192 88 40 192 88 40 192 88 40 192 88 40 192 88 40 192 88 40 192 88 40 192 88 40 192 88 40 192 88 40 192 88 40 192 88 40 192 88 40 192 88 40 192 88 40 192 88 40 192 88 40 192 88 40 192 88 40 192 88 40 192 88 40 192 88 40 192 88 40 192 88 40 192 88 40 192 88 40 192 88 40 192 88 40 192 88 40 192 88 40 200 88 40 200 88 40 200 88 40 200 88 40 200 88 40 200 88 40 200 88 40 200 88 40 200 88 40 200 88 40 200 88 40 200 88 40 200 88 40 200 88 40 200 88 40 200 88 40 200 88 40 200 88 40 200 88 40 200 88 40 200 88 40 200 88 40 200 88 40 200 88 40 200 88 40 200 88 40 200 88 40 200 88 40 200 88 40 200 88 40 200 88 40 200 88 40 192 88 40 192 88 40 192 88 40 192 88 40 192 88 40 192 88 40 192 88 40 192 88 40 192 88 40 192 88 40 192 88 40 192 88 40 192 88 40 192 88 40 192 88 40 192 88 40 192 88 40 192 88 40 192 88 40 192 88 40 192 88 40 192 88 40 192 88 40 192 88 40 192 88 40 192 88 40 192 88 40 192 88 40 192 88 40 192 88 40 192 88 40 192 88 40
184 88 40 184 88 40 184 88 40 184 88 40 184 88 40 184 88 40 184 88 40 184 88 40 184 88 40 184 88 40 184 88 40 184 88 40 184 88 40 184 88 40 184 88 40 184 88 40 184 88 40 184 88 40 184 88 40 184 88 40 184 88 40 184 88 40 184 88 40 184 88 40 184 88 40 184 88 40 184 88 40 184 88 40 184 88 40 184 88 40 184 88 40 184 88 40 192 88 40 192 88 40 192 88 40 192 88 40 192 88 40 192 88 40 192 88 40 192 88 40 192 88 40 192 88 40 192 88 40 192 88 40 192 88 40 192 88 40 192 88 40 192 88 40 192 88 40 192 88 40 192 88 40 192 88 40 192 88 40 192 88 40 192 88 40 192 88 40 192 88 40 192 88 40 192 88 40 192 88 40 192 88 40 192 88 40 192 88 40 192 88 40 200 88 40 200 88 40 200 88 40 200 88 40 200 88 40 200 88 40 200 88 40 200 88 40 200 88 40 200 88 40 200 88 40 200 88 40 200 88 40 200 88 40 200 88 40 200 88 40 200 88 40 200 88 40 200 88 40 200 88 40 200 88 40 200 88 40 200 88 40 200 88 40 200 88 40 200 88 40 200 88 40 200 88 40 200 88 40 200 88 40 200 88 40 200 88 40 192 88 40 192 88 40 192 88 40 192 88 40 192 88 40 192 88 40 192 88 40 192 88 40 192 88 40 192 88 40 192 88 40 192 88 40 192 88 40 192 88 40 192 88 40 192 88 40 192 88 40 192 88 40 192 88 40 192 88 40 192 88 40 192 88 40 192 88 40 192 88 40 192 88 40 192 88 40 192 88 40 192 88 40 192 88 40 192 88 40 192 88 40 192 88 40
184 88 40 184 88 40 184 88 40 184 88 40 184 88 40 184 88 40 184 88 40 184 88 40 184 88 40 184 88 40 184 88 40 184 88 40 184 88 40 184 88 40 184 88 40 184 88 40 184 88 40 184 88 40 184 88 40 184 88 40 184 88 40 184 88 40 184 88 40 184 88 40 184 88 40 184 88 40 184 88 40 184 88 40 184 88 40 184 88 40 184 88 40 184 88 40 192 88 40 192 88 40 192 88 40 192 88 40 192 88 40 192 88 40 192 88 40 192 88 40 192 88 40 192 88 40 192 88 40 192 88 40 192 88 40 192 88 40 192 88 40 192 88 40 192 88 40 192 88 40 192 88 40 192 88 40 192 88 40 192 88 40 192 88 40 192 88 40 192 88 40 192 88 40 192 88 40 192 88 40 192 88 40 192 88 40 192 88 40 192 88 40 200 88 40 200 88 40 200 88 40 200 88 40 200 88 40 200 88 40 200 88 40 200 88 40 200 88 40 200 88 40 200 88 40 200 88 40 200 88 40 200 88 40 200 88 40 200 88 40 200 88 40 200 88 40 200 88 40 200 88 40 200 88 40 200 88 40 200 88 40 200 88 40 200 88 40 200 88 40 200 88 40 200 88 40 200 88 40 200 88 40 200 88 40 200 88 40 192 88 40 192 88 40 192 88 40 192 88 40 192 88 40 192 88 40 192 88 40 192 88 40 192 88 40 192 88 40 192 88 40 192 88 40 192 88 40 192 88 40 192 88 40 192 88 40 192 88 40 192 88 40 192 88 40 192 88 40 192 88 40 192 88 40 192 88 40 192 88 40 192 88 40 192 88 40 192 88 40 192 88 40 192 88 40 192 88 40 192 88 40 192 88 40
184 88 40 184 88 40 184 88 40 184 88 40 184 88 40 184 88 40 184 88 40 184 88 40 184 88 40 184 88 40 184 88 40 184 88 40 184 88 40 184 88 40 184 88 40 184 88 40 184 88 40 184 88 40 184 88 40 184 88 40 184 88 40 184 88 40 184 88 40 184 88 40 184 88 40 184 88 40 184 88 40 184 88 40 184 88 40 184 88 40 184 88 40 184 88 40 192 88 40 192 88 40 192 88 40 192 88 40 192 88 40 192 88 40 192 88 40 192 88 40 192 88 40 192 88 40 192 88 40 192 88 40 192 88 40 192 88 40 192 88 40 192 88 40 192 88 40 192 88 40 192 88 40 192 88 40 192 88 40 192 88 40 192 88 40 192 88 40 192 88 40 192 88 40 192 88 40 192 88 40 192 88 40 192 88 40 192 88 40 192 88 40 200 88 40 200 88 40 200 88 40 200 88 40 200 88 40 200 88 40 200 88 40 200 88 40 200 88 40 200 88 40 200 88 40 200 88 40 200 88 40 200 88 40 200 88 40 200 88 40 200 88 40 200 88 40 200 88 40 200 88 40 200 88 40 200 88 40 200 88 40 200 88 40 200 88 40 200 88 40 200 88 40 200 88 40 200 88 40 200 88 40 200 88 40 200 88 40 192 88 40 192 88 40 192 88 40 192 88 40 192 88 40 192 88 40 192 88 40 192 88 40 192 88 40 192 88 40 192 88 40 192 88 40 192 88 40 192 88 40 192 88 40 192 88 40 192 88 40 192 88 40 192 88 40 192 88 40 192 88 40 192 88 40 192 88 40 192 88 40 192 88 40 192 88 40 192 88 40 192 88 40 192 88 40 192 88 40 192 88 40 192 88 40
184 88 40 184 88 40 184 88 40 184 88 40 184 88 40 184 88 40 184 88 40 184 88 40 184 88 40 184 88 40 184 88 40 184 88 40 184 88 40 184 88 40 184 88 40 184 88 40 184 88 40 184 88 40 184 88 40 184 88 40 184 88 40 184 88 40 184 88 40 184 88 40 184 88 40 184 88 40 184 88 40 184 88 40 184 88 40 184 88 40 184 88 40 184 88 40 192 88 40 192 88 40 192 88 40 192 88 40 192 88 40 192 88 40 192 88 40 192 88 40 192 88 40 192 88 40 192 88 40 192 88 40 192 88 40 192 88 40 192 88 40 192 88 40 192 88 40 192 88 40 192 88 40 192 88 40 192 88 40 192 88 40 192 88 40 192 88 40 192 88 40 192 88 40 192 88 40 192 88 40 192 88 40 192 88 40 192 88 40 192 88 40 200 88 40 200 88 40 200 88 40 200 88 40 200 88 40 200 88 40 200 88 40 200 88 40 200 88 40 200 88 40 200 88 40 200 88 40 200 88 40 200 88 40 200 88 40 200 88 40 200 88 40 200 88 40 200 88 40 200 88 40 200 88 40 200 88 40 200 88 40 200 88 40 200 88 40 200 88 40 200 88 40 200 88 40 200 88 40 200 88 40 200 88 40 200 88 40 192 88 40 192 88 40 192 88 40 192 88 40 192 88 40 192 88 40 192 88 40 192 88 40 192 88 40 192 88 40 192 88 40 192 88 40 192 88 40 192 88 40 192 88 40 192 88 40 192 88 40 192 88 40 192 88 40 192 88 40 192 88 40 192 88 40 192 88 40 192 88 40 192 88 40 192 88 40 192 88 40 192 88 40 192 88 40 192 88 40 192 88 40 192 88 40
184 88 40 184 88 40 184 88 40 184 88 40 184 88 40 184 88 40 184 88 40 184 88 40 184 88 40 184 88 40 184 88 40 184 88 40 184 88 40 184 88 40 184 88 40 184 88 40 184 88 40 184 88 40 184 88 40 184 88 40 184 88 40 184 88 40 184 88 40 184 88 40 184 88 40 184 88 40 184 88 40 184 88 40 184 88 40 184 88 40 184 88 40 184 88 40 192 88 40 192 88 40 192 88 40 192 88 40 192 88 40 192 88 40 192 88 40 192 88 40 192 88 40 192 88 40 192 88 40 192 88 40 192 88 40 192 88 40 192 88 40 192 88 40 192 88 40 192 88 40 192 88 40 192 88 40 192 88 40 192 88 40 192 88 40 192 88 40 192 88 40 192 88 40 192 88 40 192 88 40 192 88 40 192 88 40 192 88 40 192 88 40 200 88 40 200 88 40 200 88 40 200 88 40 200 88 40 200 88 40 200 88 40 200 88 40 200 88 40 200 88 40 200 88 40 200 88 40 200 88 40 200 88 40 200 88 40 200 88 40 200 88 40 200 88 40 200 88 40 200 88 40 200 88 40 200 88 40 200 88 40 200 88 40 200 88 40 200 88 40 200 88 40 200 88 40 200 88 40 200 88 40 200 88 40 200 88 40 192 88 40 192 88 40 192 88 40 192 88 40 192 88 40 192 88 40 192 88 40 192 88 40 192 88 40 192 88 40 192 88 40 192 88 40 192 88 40 192 88 40 192 88 40 192 88 40 192 88 40 192 88 40 192 88 40 192 88 40 192 88 40 192 88 40 192 88 40 192 88 40 192 88 40 192 88 40 192 88 40 192 88 40 192 88 40 192 88 40 192 88 40 192 88 40
184 88 40 184 88 40 184 88 40 184 88 40 184 88 40 184 88 40 184 88 40 184 88 40 184 88 40 184 88 40 184 88 40 184 88 40 184 88 40 184 88 40 184 88 40 184 88 40 184 88 40 184 88 40 184 88 40 184 88 40 184 88 40 184 88 40 184 88 40 184 88 40 184 88 40 184 88 40 184 88 40 184 88 40 184 88 40 184 88 40 184 88 40 184 88 40 192 88 40 192 88 40 192 88 40 192 88 40 192 88 40 192 88 40 192 88 40 192 88 40 192 88 40 192 88 40 192 88 40 192 88 40 192 88 40 192 88 40 192 88 40 192 88 40 192 88 40 192 88 40 192 88 40 192 88 40 192 88 40 192 88 40 192 88 40 192 88 40 192 88 40 192 88 40 192 88 40 192 88 40 192 88 40 192 88 40 192 88 40 192 88 40 200 88 40 200 88 40 200 88 40 200 88 40 200 88 40 200 88 40 200 88 40 200 88 40 200 88 40 200 88 40 200 88 40 200 88 40 200 88 40 200 88 40 200 88 40 200 88 40 200 88 40 200 88 40 200 88 40 200 88 40 200 88 40 200 88 40 200 88 40 200 88 40 200 88 40 200 88 40 200 88 40 200 88 40 200 88 40 200 88 40 200 88 40 200 88 40 192 88 40 192 88 40 192 88 40 192 88 40 192 88 40 192 88 40 192 88 40 192 88 40 192 88 40 192 88 40 192 88 40 192 88 40 192 88 40 192 88 40 192 88 40 192 88 40 192 88 40 192 88 40 192 88 40 192 88 40 192 88 40 192 88 40 192 88 40 192 88 40 192 88 40 192 88 40 192 88 40 192 88 40 192 88 40 192 88 40 192 88 40 192 88 40
184 88 40 184 88 40 184 88 40 184 88 40 184 88 40 184 88 40 184 88 40 184 88 40 184 88 40 184 88 40 184 88 40 184 88 40 184 88 40 184 88 40 184 88 40 184 88 40 184 88 40 184 88 40 184 88 40 184 88 40 184 88 40 184 88 40 184 88 40 184 88 40 184 88 40 184 88 40 184 88 40 184 88 40 184 88 40 184 88 40 184 88 40 184 88 40 192 88 40 192 88 40 192 88 40 192 88 40 192 88 40 192 88 40 192 88 40 192 88 40 192 88 40 192 88 40 192 88 40 192 88 40 192 88 40 192 88 40 192 88 40 192 88 40 192 88 40 192 88 40 192 88 40 192 88 40 192 88 40 192 88 40 192 88 40 192 88 40 192 88 40 192 88 40 192 88 40 192 88 40 192 88 40 192 88 40 192 88 40 192 88 40 200 88 40 200 88 40 200 88 40 200 88 40 200 88 40 200 88 40 200 88 40 200 88 40 200 88 40 200 88 40 200 88 40 200 88 40 200 88 40 200 88 40 200 88 40 200 88 40 200 88 40 200 88 40 200 88 40 200 88 40 200 88 40 200 88 40 200 88 40 200 88 40 200 88 40 200 88 40 200 88 40 200 88 40 200 88 40 200 88 40 200 88 40 200 88 40 192 88 40 192 88 40 192 88 40 192 88 40 192 88 40 192 88 40 192 88 40 192 88 40 192 88 40 192 88 40 192 88 40 192 88 40 192 88 40 192 88 40 192 88 40 192 88 40 192 88 40 192 88 40 192 88 40 192 88 40 192 88 40 192 88 40 192 88 40 192 88 40 192 88 40 192 88 40 192 88 40 192 88 40 192 88 40 192 88 40 192 88 40 192 88 40
184 88 40 184 88 40 184 88 40 184 88 40 184 88 40 184 88 40 184 88 40 184 88 40 184 88 40 184 88 40 184 88 40 184 88 40 184 88 40 184 88 40 184 88 40 184 88 40 184 88 40 184 88 40 184 88 40 184 88 40 184 88 40 184 88 40 184 88 40 184 88 40 184 88 40 184 88 40 184 88 40 184 88 40 184 88 40 184 88 40 184 88 40 184 88 40 192 88 40 192 88 40 192 88 40 192 88 40 192 88 40 192 88 40 192 88 40 192 88 40 192 88 40 192 88 40 192 88 40 192 88 40 192 88 40 192 88 40 192 88 40 192 88 40 192 88 40 192 88 40 192 88 40 192 88 40 192 88 40 192 88 40 192 88 40 192 88 40 192 88 40 192 88 40 192 88 40 192 88 40 192 88 40 192 88 40 192 88 40 192 88 40 200 88 40 200 88 40 200 88 40 200 88 40 200 88 40 200 88 40 200 88 40 200 88 40 200 88 40 200 88 40 200 88 40 200 88 40 200 88 40 200 88 40 200 88 40 200 88 40 200 88 40 200 88 40 200 88 40 200 88 40 200 88 40 200 88 40 200 88 40 200 88 40 200 88 40 200 88 40 200 88 40 200 88 40 200 88 40 200 88 40 200 88 40 200 88 40 192 88 40 192 88 40 192 88 40 192 88 40 192 88 40 192 88 40 192 88 40 192 88 40 192 88 40 192 88 40 192 88 40 192 88 40 192 88 40 192 88 40 192 88 40 192 88 40 192 88 40 192 88 40 192 88 40 192 88 40 192 88 40 192 88 40 192 88 40 192 88 40 192 88 40 192 88 40 192 88 40 192 88 40 192 88 40 192 88 40 192 88 40 192 88 40
184 88 40 184 88 40 184 88 40 184 88 40 184 88 40 184 88 40 184 88 40 184 88 40 184 88 40 184 88 40 184 88 40 184 88 40 184 88 40 184 88 40 184 88 40 184 88 40 184 88 40 184 88 40 184 88 40 184 88 40 184 88 40 184 88 40 184 88 40 184 88 40 184 88 40 184 88 40 184 88 40 184 88 40 184 88 40 184 88 40 184 88 40 184 88 40 192 88 40 192 88 40 192 88 40 192 88 40 192 88 40 192 88 40 192 88 40 192 88 40 192 88 40 192 88 40 192 88 40 192 88 40 192 88 40 192 88 40 192 88 40 192 88 40 192 88 40 192 88 40 192 88 40 192 88 40 192 88 40 192 88 40 192 88 40 192 88 40 192 88 40 192 88 40 192 88 40 192 88 40 192 88 40 192 88 40 192 88 40 192 88 40 200 88 40 200 88 40 200 88 40 200 88 40 200 88 40 200 88 40 200 88 40 200 88 40 200 88 40 200 88 40 200 88 40 200 88 40 200 88 40 200 88 40 200 88 40 200 88 40 200 88 40 200 88 40 200 88 40 200 88 40 200 88 40 200 88 40 200 88 40 200 88 40 200 88 40 200 88 40 200 88 40 200 88 40 200 88 40 200 88 40 200 88 40 200 88 40 192 88 40 192 88 40 192 88 40 192 88 40 192 88 40 192 88 40 192 88 40 192 88 40 192 88 40 192 88 40 192 88 40 192 88 40 192 88 40 192 88 40 192 88 40 192 88 40 192 88 40 192 88 40 192 88 40 192 88 40 192 88 40 192 88 40 192 88 40 192 88 40 192 88 40 192 88 40 192 88 40 192 88 40 192 88 40 192 88 40 192 88 40 192 88 40
184 88 40 184 88 40 184 88 40 184 88 40 184 88 40 184 88 40 184 88 40 184 88 40 184 88 40 184 88 40 184 88 40 184 88 40 184 88 40 184 88 40 184 88 40 184 88 40 184 88 40 184 88 40 184 88 40 184 88 40 184 88 40 184 88 40 184 88 40 184 88 40 184 88 40 184 88 40 184 88 40 184 88 40 184 88 40 184 88 40 184 88 40 184 88 40 192 88 40 192 88 40 192 88 40 192 88 40 192 88 40 192 88 40 192 88 40 192 88 40 192 88 40 192 88 40 192 88 40 192 88 40 192 88 40 192 88 40 192 88 40 192 88 40 192 88 40 192 88 40 192 88 40 192 88 40 192 88 40 192 88 40 192 88 40 192 88 40 192 88 40 192 88 40 192 88 40 192 88 40 192 88 40 192 88 40 192 88 40 192 88 40 200 88 40 200 88 40 200 88 40 200 88 40 200 88 40 200 88 40 200 88 40 200 88 40 200 88 40 200 88 40 200 88 40 200 88 40 200 88 40 200 88 40 200 88 40 200 88 40 200 88 40 200 88 40 200 88 40 200 88 40 200 88 40 200 88 40 200 88 40 200 88 40 200 88 40 200 88 40 200 88 40 200 88 40 200 88 40 200 88 40 200 88 40 200 88 40 192 88 40 192 88 40 192 88 40 192 88 40 192 88 40 192 88 40 192 88 40 192 88 40 192 88 40 192 88 40 192 88 40 192 88 40 192 88 40 192 88 40 192 88 40 192 88 40 192 88 40 192 88 40 192 88 40 192 88 40 192 88 40 192 88 40 192 88 40 192 88 40 192 88 40 192 88 40 192 88 40 192 88 40 192 88 40 192 88 40 192 88 40 192 88 40
184 88 40 184 88 40 184 88 40 184 88 40 184 88 40 184 88 40 184 88 40 184 88 40 184 88 40 184 88 40 184 88 40 184 88 40 184 88 40 184 88 40 184 88 40 184 88 40 184 88 40 184 88 40 184 88 40 184 88 40 184 88 40 184 88 40 184 88 40 184 88 40 184 88 40 184 88 40 184 88 40 184 88 40 184 88 40 184 88 40 184 88 40 184 88 40 192 88 40 192 88 40 192 88 40 192 88 40 192 88 40 192 88 40 192 88 40 192 88 40 192 88 40 192 88 40 192 88 40 192 88 40 192 88 40 192 88 40 192 88 40 192 88 40 192 88 40 192 88 40 192 88 40 192 88 40 192 88 40 192 88 40 192 88 40 192 88 40 192 88 40 192 88 40 192 88 40 192 88 40 192 88 40 192 88 40 192 88 40 192 88 40 200 88 40 200 88 40 200 88 40 200 88 40 200 88 40 200 88 40 200 88 40 200 88 40 200 88 40 200 88 40 200 88 40 200 88 40 200 88 40 200 88 40 200 88 40 200 88 40 200 88 40 200 88 40 200 88 40 200 88 40 200 88 40 200 88 40 200 88 40 200 88 40 200 88 40 200 88 40 200 88 40 200 88 40 200 88 40 200 88 40 200 88 40 200 88 40 192 88 40 192 88 40 192 88 40 192 88 40 192 88 40 192 88 40 192 88 40 192 88 40 192 88 40 192 88 40 192 88 40 192 88 40 192 88 40 192 88 40 192 88 40 192 88 40 192 88 40 192 88 40 192 88 40 192 88 40 192 88 40 192 88 40 192 88 40 192 88 40 192 88 40 192 88 40 192 88 40 192 88 40 192 88 40 192 88 40 192 88 40 192 88 40
184 88 40 184 88 40 184 88 40 184 88 40 184 88 40 184 88 40 184 88 40 184 88 40 184 88 40 184 88 40 184 88 40 184 88 40 184 88 40 184 88 40 184 88 40 184 88 40 184 88 40 184 88 40 184 88 40 184 88 40 184 88 40 184 88 40 184 88 40 184 88 40 184 88 40 184 88 40 184 88 40 184 88 40 184 88 40 184 88 40 184 88 40 184 88 40 192 88 40 192 88 40 192 88 40 192 88 40 192 88 40 192 88 40 192 88 40 192 88 40 192 88 40 192 88 40 192 88 40 192 88 40 192 88 40 192 88 40 192 88 40 192 88 40 192 88 40 192 88 40 192 88 40 192 88 40 192 88 40 192 88 40 192 88 40 192 88 40 192 88 40 192 88 40 192 88 40 192 88 40 192 88 40 192 88 40 192 88 40 192 88 40 200 88 40 200 88 40 200 88 40 200 88 40 200 88 40 200 88 40 200 88 40 200 88 40 200 88 40 200 88 40 200 88 40 200 88 40 200 88 40 200 88 40 200 88 40 200 88 40 200 88 40 200 88 40 200 88 40 200 88 40 200 88 40 200 88 40 200 88 40 200 88 40 200 88 40 200 88 40 200 88 40 200 88 40 200 88 40 200 88 40 200 88 40 200 88 40 192 88 40 192 88 40 192 88 40 192 88 40 192 88 40 192 88 40 192 88 40 192 88 40 192 88 40 192 88 40 192 88 40 192 88 40 192 88 40 192 88 40 192 88 40 192 88 40 192 88 40 192 88 40 192 88 40 192 88 40 192 88 40 192 88 40 192 88 40 192 88 40 192 88 40 192 88 40 192 88 40 192 88 40 192 88 40 192 88 40 192 88 40 192 88 40
184 88 40 184 88 40 184 88 40 184 88 40 184 88 40 184 88 40 184 88 40 184 88 40 184 88 40 184 88 40 184 88 40 184 88 40 184 88 40 184 88 40 184 88 40 184 88 40 184 88 40 184 88 40 184 88 40 184 88 40 184 88 40 184 88 40 184 88 40 184 88 40 184 88 40 184 88 40 184 88 40 184 88 40 184 88 40 184 88 40 184 88 40 184 88 40 192 88 40 192 88 40 192 88 40 192 88 40 192 88 40 192 88 40 192 88 40 192 88 40 192 88 40 192 88 40 192 88 40 192 88 40 192 88 40 192 88 40 192 88 40 192 88 40 192 88 40 192 88 40 192 88 40 192 88 40 192 88 40 192 88 40 192 88 40 192 88 40 192 88 40 192 88 40 192 88 40 192 88 40 192 88 40 192 88 40 192 88 40 192 88 40 200 88 40 200 88 40 200 88 40 200 88 40 200 88 40 200 88 40 200 88 40 200 88 40 200 88 40 200 88 40 200 88 40 200 88 40 200 88 40 200 88 40 200 88 40 200 88 40 200 88 40 200 88 40 200 88 40 200 88 40 200 88 40 200 88 40 200 88 40 200 88 40 200 88 40 200 88 40 200 88 40 200 88 40 200 88 40 200 88 40 200 88 40 200 88 40 192 88 40 192 88 40 192 88 40 192 88 40 192 88 40 192 88 40 192 88 40 192 88 40 192 88 40 192 88 40 192 88 40 192 88 40 192 88 40 192 88 40 192 88 40 192 88 40 192 88 40 192 88 40 192 88 40 192 88 40 192 88 40 192 88 40 192 88 40 192 88 40 192 88 40 192 88 40 192 88 40 192 88 40 192 88 40 192 88 40 192 88 40 192 88 40
200 88 40 200 88 40 200 88 40 200 88 40 200 88 40 200 88 40 200 88 40 200 88 40 200 88 40 200 88 40 200 88 40 200 88 40 200 88 40 200 88 40 200 88 40 200 88 40 200 88 40 200 88 40 200 88 40 200 88 40 200 88 40 200 88 40 200 88 40 200 88 40 200 88 40 200 88 40 200 88 40 200 88 40 200 88 40 200 88 40 200 88 40 200 88 40 176 88 40 176 88 40 176 88 40 176 88 40 176 88 40 176 88 40 176 88 40 176 88 40 176 88 40 176 88 40 176 88 40 176 88 40 176 88 40 176 88 40 176 88 40 176 88 40 176 88 40 176 88 40 176 88 40 176 88 40 176 88 40 176 88 40 176 88 40 176 88 40 176 88 40 176 88 40 176 88 40 176 88 40 176 88 40 176 88 40 176 88 40 176 88 40 184 88 40 184 88 40 184 88 40 184 88 40 184 88 40 184 88 40 184 88 40 184 88 40 184 88 40 184 88 40 184 88 40 184 88 40 184 88 40 184 88 40 184 88 40 184 88 40 184 88 40 184 88 40 184 88 40 184 88 40 184 88 40 184 88 40 184 88 40 184 88 40 184 88 40 184 88 40 184 88 40 184 88 40 184 88 40 184 88 40 184 88 40 184 88 40 176 88 40 176 88 40 176 88 40 176 88 40 176 88 40 176 88 40 176 88 40 176 88 40 176 88 40 176 88 40 176 88 40 176 88 40 176 88 40 176 88 40 176 88 40 176 88 40 176 88 40 176 88 40 176 88 40 176 88 40 176 88 40 176 88 40 176 88 40 176 88 40 176 88 40 176 88 40 176 88 40 176 88 40 176 88 40 176 88 40 176 88 40 176 88 40
200 88 40 200 88 40 200 88 40 200 88 40 200 88 40 200 88 40 200 88 40 200 88 40 200 88 40 200 88 40 200 88 40 200 88 40 200 88 40 200 88 40 200 88 40 200 88 40 200 88 40 200 88 40 200 88 40 200 88 40 200 88 40 200 88 40 200 88 40 200 88 40 200 88 40 200 88 40 200 88 40 200 88 40 200 88 40 200 88 40 200 88 40 200 88 40 176 88 40 176 88 40 176 88 40 176 88 40 176 88 40 176 88 40 176 88 40 176 88 40 176 88 40 176 88 40 176 88 40 176 88 40 176 88 40 176 88 40 176 88 40 176 88 40 176 88 40 176 88 40 176 88 40 176 88 40 176 88 40 176 88 40 176 88 40 176 88 40 176 88 40 176 88 40 176 88 40 176 88 40 176 88 40 176 88 40 176 88 40 176 88 40 184 88 40 184 88 40 184 88 40 184 88 40 184 88 40 184 88 40 184 88 40 184 88 40 184 88 40 184 88 40 184 88 40 184 88 40 184 88 40 184 88 40 184 88 40 184 88 40 184 88 40 184 88 40 184 88 40 184 88 40 184 88 40 184 88 40 184 88 40 184 88 40 184 88 40 184 88 40 184 88 40 184 88 40 184 88 40 184 88 40 184 88 40 184 88 40 176 88 40 176 88 40 176 88 40 176 88 40 176 88 40 176 88 40 176 88 40 176 88 40 176 88 40 176 88 40 176 88 40 176 88 40 176 88 40 176 88 40 176 88 40 176 88 40 176 88 40 176 88 40 176 88 40 176 88 40 176 88 40 176 88 40 176 88 40 176 88 40 176 88 40 176 88 40 176 88 40 176 88 40 176 88 40 176 88 40 176 88 40 176 88 40
200 88 40 200 88 40 200 88 40 200 88 40 200 88 40 200 88 40 200 88 40 200 88 40 200 88 40 200 88 40 200 88 40 200 88 40 200 88 40 200 88 40 200 88 40 200 88 40 200 88 40 200 88 40 200 88 40 200 88 40 200 88 40 200 88 40 200 88 40 200 88 40 200 88 40 200 88 40 200 88 40 200 88 40 200 88 40 200 88 40 200 88 40 200 88 40 176 88 40 176 88 40 176 88 40 176 88 40 176 88 40 176 88 40 176 88 40 176 88 40 176 88 40 176 88 40 176 88 40 176 88 40 176 88 40 176 88 40 176 88 40 176 88 40 176 88 40 176 88 40 176 88 40 176 88 40 176 88 40 176 88 40 176 88 40 176 88 40 176 88 40 176 88 40 176 88 40 176 88 40 176 88 40 176 88 40 176 88 40 176 88 40 184 88 40 184 88 40 184 88 40 184 88 40 184 88 40 184 88 40 184 88 40 184 88 40 184 88 40 184 88 40 184 88 40 184 88 40 184 88 40 184 88 40 184 88 40 184 88 40 184 88 40 184 88 40 184 88 40 184 88 40 184 88 40 184 88 40 184 88 40 184 88 40 184 88 40 184 88 40 184 88 40 184 88 40 184 88 40 184 88 40 184 88 40 184 88 40 176 88 40 176 88 40 176 88 40 176 88 40 176 88 40 176 88 40 176 88 40 176 88 40 176 88 40 176 88 40 176 88 40 176 88 40 176 88 40 176 88 40 176 88 40 176 88 40 176 88 40 176 88 40 176 88 40 176 88 40 176 88 40 176 88 40 176 88 40 176 88 40 176 88 40 176 88 40 176 88 40 176 88 40 176 88 40 176 88 40 176 88 40 176 88 40
200 88 40 200 88 40 200 88 40 200 88 40 200 88 40 200 88 40 200 88 40 200 88 40 200 88 40 200 88 40 200 88 40 200 88 40 200 88 40 200 88 40 200 88 40 200 88 40 200 88 40 200 88 40 200 88 40 200 88 40 200 88 40 200 88 40 200 88 40 200 88 40 200 88 40 200 88 40 200 88 40 200 88 40 200 88 40 200 88 40 200 88 40 200 88 40 176 88 40 176 88 40 176 88 40 176 88 40 176 88 40 176 88 40 176 88 40 176 88 40 176 88 40 176 88 40 176 88 40 176 88 40 176 88 40 176 88 40 176 88 40 176 88 40 176 88 40 176 88 40 176 88 40 176 88 40 176 88 40 176 88 40 176 88 40 176 88 40 176 88 40 176 88 40 176 88 40 176 88 40 176 88 40 176 88 40 176 88 40 176 88 40 184 88 40 184 88 40 184 88 40 184 88 40 184 88 40 184 88 40 184 88 40 184 88 40 184 88 40 184 88 40 184 88 40 184 88 40 184 88 40 184 88 40 184 88 40 184 88 40 184 88 40 184 88 40 184 88 40 184 88 40 184 88 40 184 88 40 184 88 40 184 88 40 184 88 40 184 88 40 184 88 40 184 88 40 184 88 40 184 88 40 184 88 40 184 88 40 176 88 40 176 88 40 176 88 40 176 88 40 176 88 40 176 88 40 176 88 40 176 88 40 176 88 40 176 88 40 176 88 40 176 88 40 176 88 40 176 88 40 176 88 40 176 88 40 176 88 40 176 88 40 176 88 40 176 88 40 176 88 40 176 88 40 176 88 40 176 88 40 176 88 40 176 88 40 176 88 40 176 88 40 176 88 40 176 88 40 176 88 40 176 88 40
200 88 40 200 88 40 200 88 40 200 88 40 200 88 40 200 88 40 200 88 40 200 88 40 200 88 40 200 88 40 200 88 40 200 88 40 200 88 40 200 88 40 200 88 40 200 88 40 200 88 40 200 88 40 200 88 40 200 88 40 200 88 40 200 88 40 200 88 40 200 88 40 200 88 40 200 88 40 200 88 40 200 88 40 200 88 40 200 88 40 200 88 40 200 88 40 176 88 40 176 88 40 176 88 40 176 88 40 176 88 40 176 88 40 176 88 40 176 88 40 176 88 40 176 88 40 176 88 40 176 88 40 176 88 40 176 88 40 176 88 40 176 88 40 176 88 40 176 88 40 176 88 40 176 88 40 176 88 40 176 88 40 176 88 40 176 88 40 176 88 40 176 88 40 176 88 40 176 88 40 176 88 40 176 88 40 176 88 40 176 88 40 184 88 40 184 88 40 184 88 40 184 88 40 184 88 40 184 88 40 184 88 40 184 88 40 184 88 40 184 88 40 184 88 40 184 88 40 184 88 40 184 88 40 184 88 40 184 88 40 184 88 40 184 88 40 184 88 40 184 88 40 184 88 40 184 88 40 184 88 40 184 88 40 184 88 40 184 88 40 184 88 40 184 88 40 184 88 40 184 88 40 184 88 40 184 88 40 176 88 40 176 88 40 176 88 40 176 88 40 176 88 40 176 88 40 176 88 40 176 88 40 176 88 40 176 88 40 176 88 40 176 88 40 176 88 40 176 88 40 176 88 40 176 88 40 176 88 40 176 88 40 176 88 40 176 88 40 176 88 40 176 88 40 176 88 40 176 88 40 176 88 40 176 88 40 176 88 40 176 88 40 176 88 40 176 88 40 176 88 40 176 88 40
200 88 40 200 88 40 200 88 40 200 88 40 200 88 40 200 88 40 200 88 40 200 88 40 200 88 40 200 88 40 200 88 40 200 88 40 200 88 40 200 88 40 200 88 40 200 88 40 200 88 40 200 88 40 200 88 40 200 88 40 200 88 40 200 88 40 200 88 40 200 88 40 200 88 40 200 88 40 200 88 40 200 88 40 200 88 40 200 88 40 200 88 40 200 88 40 176 88 40 176 88 40 176 88 40 176 88 40 176 88 40 176 88 40 176 88 40 176 88 40 176 88 40 176 88 40 176 88 40 176 88 40 176 88 40 176 88 40 176 88 40 176 88 40 176 88 40 176 88 40 176 88 40 176 88 40 176 88 40 176 88 40 176 88 40 176 88 40 176 88 40 176 88 40 176 88 40 176 88 40 176 88 40 176 88 40 176 88 40 176 88 40 184 88 40 184 88 40 184 88 40 184 88 40 184 88 40 184 88 40 184 88 40 184 88 40 184 88 40 184 88 40 184 88 40 184 88 40 184 88 40 184 88 40 184 88 40 184 88 40 184 88 40 184 88 40 184 88 40 184 88 40 184 88 40 184 88 40 184 88 40 184 88 40 184 88 40 184 88 40 184 88 40 184 88 40 184 88 40 184 88 40 184 88 40 184 88 40 176 88 40 176 88 40 176 88 40 176 88 40 176 88 40 176 88 40 176 88 40 176 88 40 176 88 40 176 88 40 176 88 40 176 88 40 176 88 40 176 88 40 176 88 40 176 88 40 176 88 40 176 88 40 176 88 40 176 88 40 176 88 40 176 88 40 176 88 40 176 88 40 176 88 40 176 88 40 176 88 40 176 88 40 176 88 40 176 88 40 176 88 40 176 88 40
200 88 40 200 88 40 200 88 40 200 88 40 200 88 40 200 88 40 200 88 40 200 88 40 200 88 40 200 88 40 200 88 40 200 88 40 200 88 40 200 88 40 200 88 40 200 88 40 200 88 40 200 88 40 200 88 40 200 88 40 200 88 40 200 88 40 200 88 40 200 88 40 200 88 40 200 88 40 200 88 40 200 88 40 200 88 40 200 88 40 200 88 40 200 88 40 176 88 40 176 88 40 176 88 40 176 88 40 176 88 40 176 88 40 176 88 40 176 88 40 176 88 40 176 88 40 176 88 40 176 88 40 176 88 40 176 88 40 176 88 40 176 88 40 176 88 40 176 88 40 176 88 40 176 88 40 176 88 40 176 88 40 176 88 40 176 88 40 176 88 40 176 88 40 176 88 40 176 88 40 176 88 40 176 88 40 176 88 40 176 88 40 184 88 40 184 88 40 184 88 40 184 88 40 184 88 40 184 88 40 184 88 40 184 88 40 184 88 40 184 88 40 184 88 40 184 88 40 184 88 40 184 88 40 184 88 40 184 88 40 184 88 40 184 88 40 184 88 40 184 88 40 184 88 40 184 88 40 184 88 40 184 88 40 184 88 40 184 88 40 184 88 40 184 88 40 184 88 40 184 88 40 184 88 40 184 88 40 176 88 40 176 88 40 176 88 40 176 88 40 176 88 40 176 88 40 176 88 40 176 88 40 176 88 40 176 88 40 176 88 40 176 88 40 176 88 40 176 88 40 176 88 40 176 88 40 176 88 40 176 88 40 176 88 40 176 88 40 176 88 40 176 88 40 176 88 40 176 88 40 176 88 40 176 88 40 176 88 40 176 88 40 176 88 40 176 88 40 176 88 40 176 88 40
200 88 40 200 88 40 200 88 40 200 88 40 200 88 40 200 88 40 200 88 40 200 88 40 200 88 40 200 88 40 200 88 40 200 88 40 200 88 40 200 88 40 200 88 40 200 88 40 200 88 40 200 88 40 200 88 40 200 88 40 200 88 40 200 88 40 200 88 40 200 88 40 200 88 40 200 88 40 200 88 40 200 88 40 200 88 40 200 88 40 200 88 40 200 88 40 176 88 40 176 88 40 176 88 40 176 88 40 176 88 40 176 88 40 176 88 40 176 88 40 176 88 40 176 88 40 176 88 40 176 88 40 176 88 40 176 88 40 176 88 40 176 88 40 176 88 40 176 88 40 176 88 40 176 88 40 176 88 40 176 88 40 176 88 40 176 88 40 176 88 40 176 88 40 176 88 40 176 88 40 176 88 40 176 88 40 176 88 40 176 88 40 184 88 40 184 88 40 184 88 40 184 88 40 184 88 40 184 88 40 184 88 40 184 88 40 184 88 40 184 88 40 184 88 40 184 88 40 184 88 40 184 88 40 184 88 40 184 88 40 184 88 40 184 88 40 184 88 40 184 88 40 184 88 40 184 88 40 184 88 40 184 88 40 184 88 40 184 88 40 184 88 40 184 88 40 184 88 40 184 88 40 184 88 40 184 88 40 176 88 40 176 88 40 176 88 40 176 88 40 176 88 40 176 88 40 176 88 40 176 88 40 176 88 40 176 88 40 176 88 40 176 88 40 176 88 40 176 88 40 176 88 40 176 88 40 176 88 40 176 88 40 176 88 40 176 88 40 176 88 40 176 88 40 176 88 40 176 88 40 176 88 40 176 88 40 176 88 40 176 88 40 176 88 40 176 88 40 176 88 40 176 88 40
200 88 40 200 88 40 200 88 40 200 88 40 200 88 40 200 88 40 200 88 40 200 88 40 200 88 40 200 88 40 200 88 40 200 88 40 200 88 40 200 88 40 200 88 40 200 88 40 200 88 40 200 88 40 200 88 40 200 88 40 200 88 40 200 88 40 200 88 40 200 88 40 200 88 40 200 88 40 200 88 40 200 88 40 200 88 40 200 88 40 200 88 40 200 88 40 176 88 40 176 88 40 176 88 40 176 88 40 176 88 40 176 88 40 176 88 40 176 88 40 176 88 40 176 88 40 176 88 40 176 88 40 176 88 40 176 88 40 176 88 40 176 88 40 176 88 40 176 88 40 176 88 40 176 88 40 176 88 40 176 88 40 176 88 40 176 88 40 176 88 40 176 88 40 176 88 40 176 88 40 176 88 40 176 88 40 176 88 40 176 88 40 184 88 40 184 88 40 184 88 40 184 88 40 184 88 40 184 88 40 184 88 40 184 88 40 184 88 40 184 88 40 184 88 40 184 88 40 184 88 40 184 88 40 184 88 40 184 88 40 184 88 40 184 88 40 184 88 40 184 88 40 184 88 40 184 88 40 184 88 40 184 88 40 184 88 40 184 88 40 184 88 40 184 88 40 184 88 40 184 88 40 184 88 40 184 88 40 176 88 40 176 88 40 176 88 40 176 88 40 176 88 40 176 88 40 176 88 40 176 88 40 176 88 40 176 88 40 176 88 40 176 88 40 176 88 40 176 88 40 176 88 40 176 88 40 176 88 40 176 88 40 176 88 40 176 88 40 176 88 40 176 88 40 176 88 40 176 88 40 176 88 40 176 88 40 176 88 40 176 88 40 176 88 40 176 88 40 176 88 40 176 88 40
200 88 40 200 88 40 200 88 40 200 88 40 200 88 40 200 88 40 200 88 40 200 88 40 200 88 40 200 88 40 200 88 40 200 88 40 200 88 40 200 88 40 200 88 40 200 88 40 200 88 40 200 88 40 200 88 40 200 88 40 200 88 40 200 88 40 200 88 40 200 88 40 200 88 40 200 88 40 200 88 40 200 88 40 200 88 40 200 88 40 200 88 40 200 88 40 176 88 40 176 88 40 176 88 40 176 88 40 176 88 40 176 88 40 176 88 40 176 88 40 176 88 40 176 88 40 176 88 40 176 88 40 176 88 40 176 88 40 176 88 40 176 88 40 176 88 40 176 88 40 176 88 40 176 88 40 176 88 40 176 88 40 176 88 40 176 88 40 176 88 40 176 88 40 176 88 40 176 88 40 176 88 40 176 88 40 176 88 40 176 88 40 184 88 40 184 88 40 184 88 40 184 88 40 184 88 40 184 88 40 184 88 40 184 88 40 184 88 40 184 88 40 184 88 40 184 88 40 184 88 40 184 88 40 184 88 40 184 88 40 184 88 40 184 88 40 184 88 40 184 88 40 184 88 40 184 88 40 184 88 40 184 88 40 184 88 40 184 88 40 184 88 40 184 88 40 184 88 40 184 88 40 184 88 40 184 88 40 176 88 40 176 88 40 176 88 40 176 88 40 176 88 40 176 88 40 176 88 40 176 88 40 176 88 40 176 88 40 176 88 40 176 88 40 176 88 40 176 88 40 176 88 40 176 88 40 176 88 40 176 88 40 176 88 40 176 88 40 176 88 40 176 88 40 176 88 40 176 88 40 176 88 40 176 88 40 176 88 40 176 88 40 176 88 40 176 88 40 176 88 40 176 88 40
200 88 40 200 88 40 200 88 40 200 88 40 200 88 40 200 88 40 200 88 40 200 88 40 200 88 40 200 88 40 200 88 40 200 88 40 200 88 40 200 88 40 200 88 40 200 88 40 200 88 40 200 88 40 200 88 40 200 88 40 200 88 40 200 88 40 200 88 40 200 88 40 200 88 40 200 88 40 200 88 40 200 88 40 200 88 40 200 88 40 200 88 40 200 88 40 176 88 40 176 88 40 176 88 40 176 88 40 176 88 40 176 88 40 176 88 40 176 88 40 176 88 40 176 88 40 176 88 40 176 88 40 176 88 40 176 88 40 176 88 40 176 88 40 176 88 40 176 88 40 176 88 40 176 88 40 176 88 40 176 88 40 176 88 40 176 88 40 176 88 40 176 88 40 176 88 40 176 88 40 176 88 40 176 88 40 176 88 40 176 88 40 184 88 40 184 88 40 184 88 40 184 88 40 184 88 40 184 88 40 184 88 40 184 88 40 184 88 40 184 88 40 184 88 40 184 88 40 184 88 40 184 88 40 184 88 40 184 88 40 184 88 40 184 88 40 184 88 40 184 88 40 184 88 40 184 88 40 184 88 40 184 88 40 184 88 40 184 88 40 184 88 40 184 88 40 184 88 40 184 88 40 184 88 40 184 88 40 176 88 40 176 88 40 176 88 40 176 88 40 176 88 40 176 88 40 176 88 40 176 88 40 176 88 40 176 88 40 176 88 40 176 88 40 176 88 40 176 88 40 176 88 40 176 88 40 176 88 40 176 88 40 176 88 40 176 88 40 176 88 40 176 88 40 176 88 40 176 88 40 176 88 40 176 88 40 176 88 40 176 88 40 176 88 40 176 88 40 176 88 40 176 88 40
200 88 40 200 88 40 200 88 40 200 88 40 200 88 40 200 88 40 200 88 40 200 88 40 200 88 40 200 88 40 200 88 40 200 88 40 200 88 40 200 88 40 200 88 40 200 88 40 200 88 40 200 88 40 200 88 40 200 88 40 200 88 40 200 88 40 200 88 40 200 88 40 200 88 40 200 88 40 200 88 40 200 88 40 200 88 40 200 88 40 200 88 40 200 88 40 176 88 40 176 88 40 176 88 40 176 88 40 176 88 40 176 88 40 176 88 40 176 88 40 176 88 40 176 88 40 176 88 40 176 88 40 176 88 40 176 88 40 176 88 40 176 88 40 176 88 40 176 88 40 176 88 40 176 88 40 176 88 40 176 88 40 176 88 40 176 88 40 176 88 40 176 88 40 176 88 40 176 88 40 176 88 40 176 88 40 176 88 40 176 88 40 184 88 40 184 88 40 184 88 40 184 88 40 184 88 40 184 88 40 184 88 40 184 88 40 184 88 40 184 88 40 184 88 40 184 88 40 184 88 40 184 88 40 184 88 40 184 88 40 184 88 40 184 88 40 184 88 40 184 88 40 184 88 40 184 88 40 184 88 40 184 88 40 184 88 40 184 88 40 184 88 40 184 88 40 184 88 40 184 88 40 184 88 40 184 88 40 176 88 40 176 88 40 176 88 40 176 88 40 176 88 40 176 88 40 176 88 40 176 88 40 176 88 40 176 88 40 176 88 40 176 88 40 176 88 40 176 88 40 176 88 40 176 88 40 176 88 40 176 88 40 176 88 40 176 88 40 176 88 40 176 88 40 176 88 40 176 88 40 176 88 40 176 88 40 176 88 40 176 88 40 176 88 40 176 88 40 176 88 40 176 88 40
200 88 40 200 88 40 200 88 40 200 88 40 200 88 40 200 88 40 200 88 40 200 88 40 200 88 40 200 88 40 200 88 40 200 88 40 200 88 40 200 88 40 200 88 40 200 88 40 200 88 40 200 88 40 200 88 40 200 88 40 200 88 40 200 88 40 200 88 40 200 88 40 200 88 40 200 88 40 200 88 40 200 88 40 200 88 40 200 88 40 200 88 40 200 88 40 176 88 40 176 88 40 176 88 40 176 88 40 176 88 40 176 88 40 176 88 40 176 88 40 176 88 40 176 88 40 176 88 40 176 88 40 176 88 40 176 88 40 176 88 40 176 88 40 176 88 40 176 88 40 176 88 40 176 88 40 176 88 40 176 88 40 176 88 40 176 88 40 176 88 40 176 88 40 176 88 40 176 88 40 176 88 40 176 88 40 176 88 40 176 88 40 184 88 40 184 88 40 184 88 40 184 88 40 184 88 40 184 88 40 184 88 40 184 88 40 184 88 40 184 88 40 184 88 40 184 88 40 184 88 40 184 88 40 184 88 40 184 88 40 184 88 40 184 88 40 184 88 40 184 88 40 184 88 40 184 88 40 184 88 40 184 88 40 184 88 40 184 88 40 184 88 40 184 88 40 184 88 40 184 88 40 184 88 40 184 88 40 176 88 40 176 88 40 176 88 40 176 88 40 176 88 40 176 88 40 176 88 40 176 88 40 176 88 40 176 88 40 176 88 40 176 88 40 176 88 40 176 88 40 176 88 40 176 88 40 176 88 40 176 88 40 176 88 40 176 88 40 176 88 40 176 88 40 176 88 40 176 88 40 176 88 40 176 88 40 176 88 40 176 88 40 176 88 40 176 88 40 176 88 40 176 88 40
200 88 40 200 88 40 200 88 40 200 88 40 200 88 40 200 88 40 200 88 40 200 88 40 200 88 40 200 88 40 200 88 40 200 88 40 200 88 40 200 88 40 200 88 40 200 88 40 200 88 40 200 88 40 200 88 40 200 88 40 200 88 40 200 88 40 200 88 40 200 88 40 200 88 40 200 88 40 200 88 40 200 88 40 200 88 40 200 88 40 200 88 40 200 88 40 176 88 40 176 88 40 176 88 40 176 88 40 176 88 40 176 88 40 176 88 40 176 88 40 176 88 40 176 88 40 176 88 40 176 88 40 176 88 40 176 88 40 176 88 40 176 88 40 176 88 40 176 88 40 176 88 40 176 88 40 176 88 40 176 88 40 176 88 40 176 88 40 176 88 40 176 88 40 176 88 40 176 88 40 176 88 40 176 88 40 176 88 40 176 88 40 184 88 40 184 88 40 184 88 40 184 88 40 184 88 40 184 88 40 184 88 40 184 88 40 184 88 40 184 88 40 184 88 40 184 88 40 184 88 40 184 88 40 184 88 40 184 88 40 184 88 40 184 88 40 184 88 40 184 88 40 184 88 40 184 88 40 184 88 40 184 88 40 184 88 40 184 88 40 184 88 40 184 88 40 184 88 40 184 88 40 184 88 40 184 88 40 176 88 40 176 88 40 176 88 40 176 88 40 176 88 40 176 88 40 176 88 40 176 88 40 176 88 40 176 88 40 176 88 40 176 88 40 176 88 40 176 88 40 176 88 40 176 88 40 176 88 40 176 88 40 176 88 40 176 88 40 176 88 40 176 88 40 176 88 40 176 88 40 176 88 40 176 88 40 176 88 40 176 88 40 176 88 40 176 88 40 176 88 40 176 88 40
200 88 40 200 88 40 200 88 40 200 88 40 200 88 40 200 88 40 200 88 40 200 88 40 200 88 40 200 88 40 200 88 40 200 88 40 200 88 40 200 88 40 200 88 40 200 88 40 200 88 40 200 88 40 200 88 40 200 88 40 200 88 40 200 88 40 200 88 40 200 88 40 200 88 40 200 88 40 200 88 40 200 88 40 200 88 40 200 88 40 200 88 40 200 88 40 176 88 40 176 88 40 176 88 40 176 88 40 176 88 40 176 88 40 176 88 40 176 88 40 176 88 40 176 88 40 176 88 40 176 88 40 176 88 40 176 88 40 176 88 40 176 88 40 176 88 40 176 88 40 176 88 40 176 88 40 176 88 40 176 88 40 176 88 40 176 88 40 176 88 40 176 88 40 176 88 40 176 88 40 176 88 40 176 88 40 176 88 40 176 88 40 184 88 40 184 88 40 184 88 40 184 88 40 184 88 40 184 88 40 184 88 40 184 88 40 184 88 40 184 88 40 184 88 40 184 88 40 184 88 40 184 88 40 184 88 40 184 88 40 184 88 40 184 88 40 184 88 40 184 88 40 184 88 40 184 88 40 184 88 40 184 88 40 184 88 40 184 88 40 184 88 40 184 88 40 184 88 40 184 88 40 184 88 40 184 88 40 176 88 40 176 88 40 176 88 40 176 88 40 176 88 40 176 88 40 176 88 40 176 88 40 176 88 40 176 88 40 176 88 40 176 88 40 176 88 40 176 88 40 176 88 40 176 88 40 176 88 40 176 88 40 176 88 40 176 88 40 176 88 40 176 88 40 176 88 40 176 88 40 176 88 40 176 88 40 176 88 40 176 88 40 176 88 40 176 88 40 176 88 40 176 88 40
200 88 40 200 88 40 200 88 40 200 88 40 200 88 40 200 88 40 200 88 40 200 88 40 200 88 40 200 88 40 200 88 40 200 88 40 200 88 40 200 88 40 200 88 40 200 88 40 200 88 40 200 88 40 200 88 40 200 88 40 200 88 40 200 88 40 200 88 40 200 88 40 200 88 40 200 88 40 200 88 40 200 88 40 200 88 40 200 88 40 200 88 40 200 88 40 176 88 40 176 88 40 176 88 40 176 88 40 176 88 40 176 88 40 176 88 40 176 88 40 176 88 40 176 88 40 176 88 40 176 88 40 176 88 40 176 88 40 176 88 40 176 88 40 176 88 40 176 88 40 176 88 40 176 88 40 176 88 40 176 88 40 176 88 40 176 88 40 176 88 40 176 88 40 176 88 40 176 88 40 176 88 40 176 88 40 176 88 40 176 88 40 184 88 40 184 88 40 184 88 40 184 88 40 184 88 40 184 88 40 184 88 40 184 88 40 184 88 40 184 88 40 184 88 40 184 88 40 184 88 40 184 88 40 184 88 40 184 88 40 184 88 40 184 88 40 184 88 40 184 88 40 184 88 40 184 88 40 184 88 40 184 88 40 184 88 40 184 88 40 184 88 40 184 88 40 184 88 40 184 88 40 184 88 40 184 88 40 176 88 40 176 88 40 176 88 40 176 88 40 176 88 40 176 88 40 176 88 40 176 88 40 176 88 40 176 88 40 176 88 40 176 88 40 176 88 40 176 88 40 176 88 40 176 88 40 176 88 40 176 88 40 176 88 40 176 88 40 176 88 40 176 88 40 176 88 40 176 88 40 176 88 40 176 88 40 176 88 40 176 88 40 176 88 40 176 88 40 176 88 40 176 88 40
200 88 40 200 88 40 200 88 40 200 88 40 200 88 40 200 88 40 200 88 40 200 88 40 200 88 40 200 88 40 200 88 40 200 88 40 200 88 40 200 88 40 200 88 40 200 88 40 200 88 40 200 88 40 200 88 40 200 88 40 200 88 40 200 88 40 200 88 40 200 88 40 200 88 40 200 88 40 200 88 40 200 88 40 200 88 40 200 88 40 200 88 40 200 88 40 176 88 40 176 88 40 176 88 40 176 88 40 176 88 40 176 88 40 176 88 40 176 88 40 176 88 40 176 88 40 176 88 40 176 88 40 176 88 40 176 88 40 176 88 40 176 88 40 176 88 40 176 88 40 176 88 40 176 88 40 176 88 40 176 88 40 176 88 40 176 88 40 176 88 40 176 88 40 176 88 40 176 88 40 176 88 40 176 88 40 176 88 40 176 88 40 184 88 40 184 88 40 184 88 40 184 88 40 184 88 40 184 88 40 184 88 40 184 88 40 184 88 40 184 88 40 184 88 40 184 88 40 184 88 40 184 88 40 184 88 40 184 88 40 184 88 40 184 88 40 184 88 40 184 88 40 184 88 40 184 88 40 184 88 40 184 88 40 184 88 40 184 88 40 184 88 40 184 88 40 184 88 40 184 88 40 184 88 40 184 88 40 176 88 40 176 88 40 176 88 40 176 88 40 176 88 40 176 88 40 176 88 40 176 88 40 176 88 40 176 88 40 176 88 40 176 88 40 176 88 40 176 88 40 176 88 40 176 88 40 176 88 40 176 88 40 176 88 40 176 88 40 176 88 40 176 88 40 176 88 40 176 88 40 176 88 40 176 88 40 176 88 40 176 88 40 176 88 40 176 88 40 176 88 40 176 88 40
200 88 40 200 88 40 200 88 40 200 88 40 200 88 40 200 88 40 200 88 40 200 88 40 200 88 40 200 88 40 200 88 40 200 88 40 200 88 40 200 88 40 200 88 40 200 88 40 200 88 40 200 88 40 200 88 40 200 88 40 200 88 40 200 88 40 200 88 40 200 88 40 200 88 40 200 88 40 200 88 40 200 88 40 200 88 40 200 88 40 200 88 40 200 88 40 176 88 40 176 88 40 176 88 40 176 88 40 176 88 40 176 88 40 176 88 40 176 88 40 176 88 40 176 88 40 176 88 40 176 88 40 176 88 40 176 88 40 176 88 40 176 88 40 176 88 40 176 88 40 176 88 40 176 88 40 176 88 40 176 88 40 176 88 40 176 88 40 176 88 40 176 88 40 176 88 40 176 88 40 176 88 40 176 88 40 176 88 40 176 88 40 184 88 40 184 88 40 184 88 40 184 88 40 184 88 40 184 88 40 184 88 40 184 88 40 184 88 40 184 88 40 184 88 40 184 88 40 184 88 40 184 88 40 184 88 40 184 88 40 184 88 40 184 88 40 184 88 40 184 88 40 184 88 40 184 88 40 184 88 40 184 88 40 184 88 40 184 88 40 184 88 40 184 88 40 184 88 40 184 88 40 184 88 40 184 88 40 176 88 40 176 88 40 176 88 40 176 88 40 176 88 40 176 88 40 176 88 40 176 88 40 176 88 40 176 88 40 176 88 40 176 88 40 176 88 40 176 88 40 176 88 40 176 88 40 176 88 40 176 88 40 176 88 40 176 88 40 176 88 40 176 88 40 176 88 40 176 88 40 176 88 40 176 88 40 176 88 40 176 88 40 176 88 40 176 88 40 176 88 40 176 88 40
200 88 40 200 88 40 200 88 40 200 88 40 200 88 40 200 88 40 200 88 40 200 88 40 200 88 40 200 88 40 200 88 40 200 88 40 200 88 40 200 88 40 200 88 40 200 88 40 200 88 40 200 88 40 200 88 40 200 88 40 200 88 40 200 88 40 200 88 40 200 88 40 200 88 40 200 88 40 200 88 40 200 88 40 200 88 40 200 88 40 200 88 40 200 88 40 176 88 40 176 88 40 176 88 40 176 88 40 176 88 40 176 88 40 176 88 40 176 88 40 176 88 40 176 88 40 176 88 40 176 88 40 176 88 40 176 88 40 176 88 40 176 88 40 176 88 40 176 88 40 176 88 40 176 88 40 176 88 40 176 88 40 176 88 40 176 88 40 176 88 40 176 88 40 176 88 40 176 88 40 176 88 40 176 88 40 176 88 40 176 88 40 184 88 40 184 88 40 184 88 40 184 88 40 184 88 40 184 88 40 184 88 40 184 88 40 184 88 40 184 88 40 184 88 40 184 88 40 184 88 40 184 88 40 184 88 40 184 88 40 184 88 40 184 88 40 184 88 40 184 88 40 184 88 40 184 88 40 184 88 40 184 88 40 184 88 40 184 88 40 184 88 40 184 88 40 184 88 40 184 88 40 184 88 40 184 88 40 176 88 40 176 88 40 176 88 40 176 88 40 176 88 40 176 88 40 176 88 40 176 88 40 176 88 40 176 88 40 176 88 40 176 88 40 176 88 40 176 88 40 176 88 40 176 88 40 176 88 40 176 88 40 176 88 40 176 88 40 176 88 40 176 88 40 176 88 40 176 88 40 176 88 40 176 88 40 176 88 40 176 88 40 176 88 40 176 88 40 176 88 40 176 88 40
200 88 40 200 88 40 200 88 40 200 88 40 200 88 40 200 88 40 200 88 40 200 88 40 200 88 40 200 88 40 200 88 40 200 88 40 200 88 40 200 88 40 200 88 40 200 88 40 200 88 40 200 88 40 200 88 40 200 88 40 200 88 40 200 88 40 200 88 40 200 88 40 200 88 40 200 88 40 200 88 40 200 88 40 200 88 40 200 88 40 200 88 40 200 88 40 176 88 40 176 88 40 176 88 40 176 88 40 176 88 40 176 88 40 176 88 40 176 88 40 176 88 40 176 88 40 176 88 40 176 88 40 176 88 40 176 88 40 176 88 40 176 88 40 176 88 40 176 88 40 176 88 40 176 88 40 176 88 40 176 88 40 176 88 40 176 88 40 176 88 40 176 88 40 176 88 40 176 88 40 176 88 40 176 88 40 176 88 40 176 88 40 184 88 40 184 88 40 184 88 40 184 88 40 184 88 40 184 88 40 184 88 40 184 88 40 184 88 40 184 88 40 184 88 40 184 88 40 184 88 40 184 88 40 184 88 40 184 88 40 184 88 40 184 88 40 184 88 40 184 88 40 184 88 40 184 88 40 184 88 40 184 88 40 184 88 40 184 88 40 184 88 40 184 88 40 184 88 40 184 88 40 184 88 40 184 88 40 176 88 40 176 88 40 176 88 40 176 88 40 176 88 40 176 88 40 176 88 40 176 88 40 176 88 40 176 88 40 176 88 40 176 88 40 176 88 40 176 88 40 176 88 40 176 88 40 176 88 40 176 88 40 176 88 40 176 88 40 176 88 40 176 88 40 176 88 40 176 88 40 176 88 40 176 88 40 176 88 40 176 88 40 176 88 40 176 88 40 176 88 40 176 88 40
200 88 40 200 88 40 200 88 40 200 88 40 200 88 40 200 88 40 200 88 40 200 88 40 200 88 40 200 88 40 200 88 40 200 88 40 200 88 40 200 88 40 200 88 40 200 88 40 200 88 40 200 88 40 200 88 40 200 88 40 200 88 40 200 88 40 200 88 40 200 88 40 200 88 40 200 88 40 200 88 40 200 88 40 200 88 40 200 88 40 200 88 40 200 88 40 176 88 40 176 88 40 176 88 40 176 88 40 176 88 40 176 88 40 176 88 40 176 88 40 176 88 40 176 88 40 176 88 40 176 88 40 176 88 40 176 88 40 176 88 40 176 88 40 176 88 40 176 88 40 176 88 40 176 88 40 176 88 40 176 88 40 176 88 40 176 88 40 176 88 40 176 88 40 176 88 40 176 88 40 176 88 40 176 88 40 176 88 40 176 88 40 184 88 40 184 88 40 184 88 40 184 88 40 184 88 40 184 88 40 184 88 40 184 88 40 184 88 40 184 88 40 184 88 40 184 88 40 184 88 40 184 88 40 184 88 40 184 88 40 184 88 40 184 88 40 184 88 40 184 88 40 184 88 40 184 88 40 184 88 40 184 88 40 184 88 40 184 88 40 184 88 40 184 88 40 184 88 40 184 88 40 184 88 40 184 88 40 176 88 40 176 88 40 176 88 40 176 88 40 176 88 40 176 88 40 176 88 40 176 88 40 176 88 40 176 88 40 176 88 40 176 88 40 176 88 40 176 88 40 176 88 40 176 88 40 176 88 40 176 88 40 176 88 40 176 88 40 176 88 40 176 88 40 176 88 40 176 88 40 176 88 40 176 88 40 176 88 40 176 88 40 176 88 40 176 88 40 176 88 40 176 88 40
200 88 40 200 88 40 200 88 40 200 88 40 200 88 40 200 88 40 200 88 40 200 88 40 200 88 40 200 88 40 200 88 40 200 88 40 200 88 40 200 88 40 200 88 40 200 88 40 200 88 40 200 88 40 200 88 40 200 88 40 200 88 40 200 88 40 200 88 40 200 88 40 200 88 40 200 88 40 200 88 40 200 88 40 200 88 40 200 88 40 200 88 40 200 88 40 176 88 40 176 88 40 176 88 40 176 88 40 176 88 40 176 88 40 176 88 40 176 88 40 176 88 40 176 88 40 176 88 40 176 88 40 176 88 40 176 88 40 176 88 40 176 88 40 176 88 40 176 88 40 176 88 40 176 88 40 176 88 40 176 88 40 176 88 40 176 88 40 176 88 40 176 88 40 176 88 40 176 88 40 176 88 40 176 88 40 176 88 40 176 88 40 184 88 40 184 88 40 184 88 40 184 88 40 184 88 40 184 88 40 184 88 40 184 88 40 184 88 40 184 88 40 184 88 40 184 88 40 184 88 40 184 88 40 184 88 40 184 88 40 184 88 40 184 88 40 184 88 40 184 88 40 184 88 40 184 88 40 184 88 40 184 88 40 184 88 40 184 88 40 184 88 40 184 88 40 184 88 40 184 88 40 184 88 40 184 88 40 176 88 40 176 88 40 176 88 40 176 88 40 176 88 40 176 88 40 176 88 40 176 88 40 176 88 40 176 88 40 176 88 40 176 88 40 176 88 40 176 88 40 176 88 40 176 88 40 176 88 40 176 88 40 176 88 40 176 88 40 176 88 40 176 88 40 176 88 40 176 88 40 176 88 40 176 88 40 176 88 40 176 88 40 176 88 40 176 88 40 176 88 40 176 88 40
200 88 40 200 88 40 200 88 40 200 88 40 200 88 40 200 88 40 200 88 40 200 88 40 200 88 40 200 88 40 200 88 40 200 88 40 200 88 40 200 88 40 200 88 40 200 88 40 200 88 40 200 88 40 200 88 40 200 88 40 200 88 40 200 88 40 200 88 40 200 88 40 200 88 40 200 88 40 200 88 40 200 88 40 200 88 40 200 88 40 200 88 40 200 88 40 176 88 40 176 88 40 176 88 40 176 88 40 176 88 40 176 88 40 176 88 40 176 88 40 176 88 40 176 88 40 176 88 40 176 88 40 176 88 40 176 88 40 176 88 40 176 88 40 176 88 40 176 88 40 176 88 40 176 88 40 176 88 40 176 88 40 176 88 40 176 88 40 176 88 40 176 88 40 176 88 40 176 88 40 176 88 40 176 88 40 176 88 40 176 88 40 184 88 40 184 88 40 184 88 40 184 88 40 184 88 40 184 88 40 184 88 40 184 88 40 184 88 40 184 88 40 184 88 40 184 88 40 184 88 40 184 88 40 184 88 40 184 88 40 184 88 40 184 88 40 184 88 40 184 88 40 184 88 40 184 88 40 184 88 40 184 88 40 184 88 40 184 88 40 184 88 40 184 88 40 184 88 40 184 88 40 184 88 40 184 88 40 176 88 40 176 88 40 176 88 40 176 88 40 176 88 40 176 88 40 176 88 40 176 88 40 176 88 40 176 88 40 176 88 40 176 88 40 176 88 40 176 88 40 176 88 40 176 88 40 176 88 40 176 88 40 176 88 40 176 88 40 176 88 40 176 88 40 176 88 40 176 88 40 176 88 40 176 88 40 176 88 40 176 88 40 176 88 40 176 88 40 176 88 40 176 88 40
200 88 40 200 88 40 200 88 40 200 88 40 200 88 40 200 88 40 200 88 40 200 88 40 200 88 40 200 88 40 200 88 40 200 88 40 200 88 40 200 88 40 200 88 40 200 88 40 200 88 40 200 88 40 200 88 40 200 88 40 200 88 40 200 88 40 200 88 40 200 88 40 200 88 40 200 88 40 200 88 40 200 88 40 200 88 40 200 88 40 200 88 40 200 88 40 176 88 40 176 88 40 176 88 40 176 88 40 176 88 40 176 88 40 176 88 40 176 88 40 176 88 40 176 88 40 176 88 40 176 88 40 176 88 40 176 88 40 176 88 40 176 88 40 176 88 40 176 88 40 176 88 40 176 88 40 176 88 40 176 88 40 176 88 40 176 88 40 176 88 40 176 88 40 176 88 40 176 88 40 176 88 40 176 88 40 176 88 40 176 88 40 184 88 40 184 88 40 184 88 40 184 88 40 184 88 40 184 88 40 184 88 40 184 88 40 184 88 40 184 88 40 184 88 40 184 88 40 184 88 40 184 88 40 184 88 40 184 88 40 184 88 40 184 88 40 184 88 40 184 88 40 184 88 40 184 88 40 184 88 40 184 88 40 184 88 40 184 88 40 184 88 40 184 88 40 184 88 40 184 88 40 184 88 40 184 88 40 176 88 40 176 88 40 176 88 40 176 88 40 176 88 40 176 88 40 176 88 40 176 88 40 176 88 40 176 88 40 176 88 40 176 88 40 176 88 40 176 88 40 176 88 40 176 88 40 176 88 40 176 88 40 176 88 40 176 88 40 176 88 40 176 88 40 176 88 40 176 88 40 176 88 40 176 88 40 176 88 40 176 88 40 176 88 40 176 88 40 176 88 40 176 88 40
200 88 40 200 88 40 200 88 40 200 88 40 200 88 40 200 88 40 200 88 40 200 88 40 200 88 40 200 88 40 200 88 40 200 88 40 200 88 40 200 88 40 200 88 40 200 88 40 200 88 40 200 88 40 200 88 40 200 88 40 200 88 40 200 88 40 200 88 40 200 88 40 200 88 40 200 88 40 200 88 40 200 88 40 200 88 40 200 88 40 200 88 40 200 88 40 176 88 40 176 88 40 176 88 40 176 88 40 176 88 40 176 88 40 176 88 40 176 88 40 176 88 40 176 88 40 176 88 40 176 88 40 176 88 40 176 88 40 176 88 40 176 88 40 176 88 40 176 88 40 176 88 40 176 88 40 176 88 40 176 88 40 176 88 40 176 88 40 176 88 40 176 88 40 176 88 40 176 88 40 176 88 40 176 88 40 176 88 40 176 88 40 184 88 40 184 88 40 184 88 40 184 88 40 184 88 40 184 88 40 184 88 40 184 88 40 184 88 40 184 88 40 184 88 40 184 88 40 184 88 40 184 88 40 184 88 40 184 88 40 184 88 40 184 88 40 184 88 40 184 88 40 184 88 40 184 88 40 184 88 40 184 88 40 184 88 40 184 88 40 184 88 40 184 88 40 184 88 40 184 88 40 184 88 40 184 88 40 176 88 40 176 88 40 176 88 40 176 88 40 176 88 40 176 88 40 176 88 40 176 88 40 176 88 40 176 88 40 176 88 40 176 88 40 176 88 40 176 88 40 176 88 40 176 88 40 176 88 40 176 88 40 176 88 40 176 88 40 176 88 40 176 88 40 176 88 40 176 88 40 176 88 40 176 88 40 176 88 40 176 88 40 176 88 40 176 88 40 176 88 40 176 88 40
200 88 40 200 88 40 200 88 40 200 88 40 200 88 40 200 88 40 200 88 40 200 88 40 200 88 40 200 88 40 200 88 40 200 88 40 200 88 40 200 88 40 200 88 40 200 88 40 200 88 40 200 88 40 200 88 40 200 88 40 200 88 40 200 88 40 200 88 40 200 88 40 200 88 40 200 88 40 200 88 40 200 88 40 200 88 40 200 88 40 200 88 40 200 88 40 176 88 40 176 88 40 176 88 40 176 88 40 176 88 40 176 88 40 176 88 40 176 88 40 176 88 40 176 88 40 176 88 40 176 88 40 176 88 40 176 88 40 176 88 40 176 88 40 176 88 40 176 88 40 176 88 40 176 88 40 176 88 40 176 88 40 176 88 40 176 88 40 176 88 40 176 88 40 176 88 40 176 88 40 176 88 40 176 88 40 176 88 40 176 88 40 184 88 40 184 88 40 184 88 40 184 88 40 184 88 40 184 88 40 184 88 40 184 88 40 184 88 40 184 88 40 184 88 40 184 88 40 184 88 40 184 88 40 184 88 40 184 88 40 184 88 40 184 88 40 184 88 40 184 88 40 184 88 40 184 88 40 184 88 40 184 88 40 184 88 40 184 88 40 184 88 40 184 88 40 184 88 40 184 88 40 184 88 40 184 88 40 176 88 40 176 88 40 176 88 40 176 88 40 176 88 40 176 88 40 176 88 40 176 88 40 176 88 40 176 88 40 176 88 40 176 88 40 176 88 40 176 88 40 176 88 40 176 88 40 176 88 40 176 88 40 176 88 40 176 88 40 176 88 40 176 88 40 176 88 40 176 88 40 176 88 40 176 88 40 176 88 40 176 88 40 176 88 40 176 88 40 176 88 40 176 88 40
200 88 40 200 88 40 200 88 40 200 88 40 200 88 40 200 88 40 200 88 40 200 88 40 200 88 40 200 88 40 200 88 40 200 88 40 200 88 40 200 88 40 200 88 40 200 88 40 200 88 40 200 88 40 200 88 40 200 88 40 200 88 40 200 88 40 200 88 40 200 88 40 200 88 40 200 88 40 200 88 40 200 88 40 200 88 40 200 88 40 200 88 40 200 88 40 176 88 40 176 88 40 176 88 40 176 88 40 176 88 40 176 88 40 176 88 40 176 88 40 176 88 40 176 88 40 176 88 40 176 88 40 176 88 40 176 88 40 176 88 40 176 88 40 176 88 40 176 88 40 176 88 40 176 88 40 176 88 40 176 88 40 176 88 40 176 88 40 176 88 40 176 88 40 176 88 40 176 88 40 176 88 40 176 88 40 176 88 40 176 88 40 184 88 40 184 88 40 184 88 40 184 88 40 184 88 40 184 88 40 184 88 40 184 88 40 184 88 40 184 88 40 184 88 40 184 88 40 184 88 40 184 88 40 184 88 40 184 88 40 184 88 40 184 88 40 184 88 40 184 88 40 184 88 40 184 88 40 184 88 40 184 88 40 184 88 40 184 88 40 184 88 40 184 88 40 184 88 40 184 88 40 184 88 40 184 88 40 176 88 40 176 88 40 176 88 40 176 88 40 176 88 40 176 88 40 176 88 40 176 88 40 176 88 40 176 88 40 176 88 40 176 88 40 176 88 40 176 88 40 176 88 40 176 88 40 176 88 40 176 88 40 176 88 40 176 88 40 176 88 40 176 88 40 176 88 40 176 88 40 176 88 40 176 88 40 176 88 40 176 88 40 176 88 40 176 88 40 176 88 40 176 88 40
200 88 40 200 88 40 200 88 40 200 88 40 200 88 40 200 88 40 200 88 40 200 88 40 200 88 40 200 88 40 200 88 40 200 88 40 200 88 40 200 88 40 200 88 40 200 88 40 200 88 40 200 88 40 200 88 40 200 88 40 200 88 40 200 88 40 200 88 40 200 88 40 200 88 40 200 88 40 200 88 40 200 88 40 200 88 40 200 88 40 200 88 40 200 88 40 176 88 40 176 88 40 176 88 40 176 88 40 176 88 40 176 88 40 176 88 40 176 88 40 176 88 40 176 88 40 176 88 40 176 88 40 176 88 40 176 88 40 176 88 40 176 88 40 176 88 40 176 88 40 176 88 40 176 88 40 176 88 40 176 88 40 176 88 40 176 88 40 176 88 40 176 88 40 176 88 40 176 88 40 176 88 40 176 88 40 176 88 40 176 88 40 184 88 40 184 88 40 184 88 40 184 88 40 184 88 40 184 88 40 184 88 40 184 88 40 184 88 40 184 88 40 184 88 40 184 88 40 184 88 40 184 88 40 184 88 40 184 88 40 184 88 40 184 88 40 184 88 40 184 88 40 184 88 40 184 88 40 184 88 40 184 88 40 184 88 40 184 88 40 184 88 40 184 88 40 184 88 40 184 88 40 184 88 40 184 88 40 176 88 40 176 88 40 176 88 40 176 88 40 176 88 40 176 88 40 176 88 40 176 88 40 176 88 40 176 88 40 176 88 40 176 88 40 176 88 40 176 88 40 176 88 40 176 88 40 176 88 40 176 88 40 176 88 40 176 88 40 176 88 40 176 88 40 176 88 40 176 88 40 176 88 40 176 88 40 176 88 40 176 88 40 176 88 40 176 88 40 176 88 40 176 88 40
200 88 40 200 88 40 200 88 40 200 88 40 200 88 40 200 88 40 200 88 40 200 88 40 200 88 40 200 88 40 200 88 40 200 88 40 200 88 40 200 88 40 200 88 40 200 88 40 200 88 40 200 88 40 200 88 40 200 88 40 200 88 40 200 88 40 200 88 40 200 88 40 200 88 40 200 88 40 200 88 40 200 88 40 200 88 40 200 88 40 200 88 40 200 88 40 176 88 40 176 88 40 176 88 40 176 88 40 176 88 40 176 88 40 176 88 40 176 88 40 176 88 40 176 88 40 176 88 40 176 88 40 176 88 40 176 88 40 176 88 40 176 88 40 176 88 40 176 88 40 176 88 40 176 88 40 176 88 40 176 88 40 176 88 40 176 88 40 176 88 40 176 88 40 176 88 40 176 88 40 176 88 40 176 88 40 176 88 40 176 88 40 184 88 40 184 88 40 184 88 40 184 88 40 184 88 40 184 88 40 184 88 40 184 88 40 184 88 40 184 88 40 184 88 40 184 88 40 184 88 40 184 88 40 184 88 40 184 88 40 184 88 40 184 88 40 184 88 40 184 88 40 184 88 40 184 88 40 184 88 40 184 88 40 184 88 40 184 88 40 184 88 40 184 88 40 184 88 40 184 88 40 184 88 40 184 88 40 176 88 40 176 88 40 176 88 40 176 88 40 176 88 40 176 88 40 176 88 40 176 88 40 176 88 40 176 88 40 176 88 40 176 88 40 176 88 40 176 88 40 176 88 40 176 88 40 176 88 40 176 88 40 176 88 40 176 88 40 176 88 40 176 88 40 176 88 40 176 88 40 176 88 40 176 88 40 176 88 40 176 88 40 176 88 40 176 88 40 176 88 40 176 88 40
200 88 40 200 88 40 200 88 40 200 88 40 200 88 40 200 88 40 200 88 40 200 88 40 200 88 40 200 88 40 200 88 40 200 88 40 200 88 40 200 88 40 200 88 40 200 88 40 200 88 40 200 88 40 200 88 40 200 88 40 200 88 40 200 88 40 200 88 40 200 88 40 200 88 40 200 88 40 200 88 40 200 88 40 200 88 40 200 88 40 200 88 40 200 88 40 176 88 40 176 88 40 176 88 40 176 88 40 176 88 40 176 88 40 176 88 40 176 88 40 176 88 40 176 88 40 176 88 40 176 88 40 176 88 40 176 88 40 176 88 40 176 88 40 176 88 40 176 88 40 176 88 40 176 88 40 176 88 40 176 88 40 176 88 40 176 88 40 176 88 40 176 88 40 176 88 40 176 88 40 176 88 40 176 88 40 176 88 40 176 88 40 184 88 40 184 88 40 184 88 40 184 88 40 184 88 40 184 88 40 184 88 40 184 88 40 184 88 40 184 88 40 184 88 40 184 88 40 184 88 40 184 88 40 184 88 40 184 88 40 184 88 40 184 88 40 184 88 40 184 88 40 184 88 40 184 88 40 184 88 40 184 88 40 184 88 40 184 88 40 184 88 40 184 88 40 184 88 40 184 88 40 184 88 40 184 88 40 176 88 40 176 88 40 176 88 40 176 88 40 176 88 40 176 88 40 176 88 40 176 88 40 176 88 40 176 88 40 176 88 40 176 88 40 176 88 40 176 88 40 176 88 40 176 88 40 176 88 40 176 88 40 176 88 40 176 88 40 176 88 40 176 88 40 176 88 40 176 88 40 176 88 40 176 88 40 176 88 40 176 88 40 176 88 40 176 88 40 176 88 40 176 88 40
200 88 40 200 88 40 200 88 40 200 88 40 200 88 40 200 88 40 200 88 40 200 88 40 200 88 40 200 88 40 200 88 40 200 88 40 200 88 40 200 88 40 200 88 40 200 88 40 200 88 40 200 88 40 200 88 40 200 88 40 200 88 40 200 88 40 200 88 40 200 88 40 200 88 40 200 88 40 200 88 40 200 88 40 200 88 40 200 88 40 200 88 40 200 88 40 176 88 40 176 88 40 176 88 40 176 88 40 176 88 40 176 88 40 176 88 40 176 88 40 176 88 40 176 88 40 176 88 40 176 88 40 176 88 40 176 88 40 176 88 40 176 88 40 176 88 40 176 88 40 176 88 40 176 88 40 176 88 40 176 88 40 176 88 40 176 88 40 176 88 40 176 88 40 176 88 40 176 88 40 176 88 40 176 88 40 176 88 40 176 88 40 184 88 40 184 88 40 184 88 40 184 88 40 184 88 40 184 88 40 184 88 40 184 88 40 184 88 40 184 88 40 184 88 40 184 88 40 184 88 40 184 88 40 184 88 40 184 88 40 184 88 40 184 88 40 184 88 40 184 88 40 184 88 40 184 88 40 184 88 40 184 88 40 184 88 40 184 88 40 184 88 40 184 88 40 184 88 40 184 88 40 184 88 40 184 88 40 176 88 40 176 88 40 176 88 40 176 88 40 176 88 40 176 88 40 176 88 40 176 88 40 176 88 40 176 88 40 176 88 40 176 88 40 176 88 40 176 88 40 176 88 40 176 88 40 176 88 40 176 88 40 176 88 40 176 88 40 176 88 40 176 88 40 176 88 40 176 88 40 176 88 40 176 88 40 176 88 40 176 88 40 176 88 40 176 88 40 176 88 40 176 88 40
200 88 40 200 88 40 200 88 40 200 88 40 200 88 40 200 88 40 200 88 40 200 88 40 200 88 40 200 88 40 200 88 40 200 88 40 200 88 40 200 88 40 200 88 40 200 88 40 200 88 40 200 88 40 200 88 40 200 88 40 200 88 40 200 88 40 200 88 40 200 88 40 200 88 40 200 88 40 200 88 40 200 88 40 200 88 40 200 88 40 200 88 40 200 88 40 176 88 40 176 88 40 176 88 40 176 88 40 176 88 40 176 88 40 176 88 40 176 88 40 176 88 40 176 88 40 176 88 40 176 88 40 176 88 40 176 88 40 176 88 40 176 88 40 176 88 40 176 88 40 176 88 40 176 88 40 176 88 40 176 88 40 176 88 40 176 88 40 176 88 40 176 88 40 176 88 40 176 88 40 176 88 40 176 88 40 176 88 40 176 88 40 184 88 40 184 88 40 184 88 40 184 88 40 184 88 40 184 88 40 184 88 40 184 88 40 184 88 40 184 88 40 184 88 40 184 88 40 184 88 40 184 88 40 184 88 40 184 88 40 184 88 40 184 88 40 184 88 40 184 88 40 184 88 40 184 88 40 184 88 40 184 88 40 184 88 40 184 88 40 184 88 40 184 88 40 184 88 40 184 88 40 184 88 40 184 88 40 176 88 40 176 88 40 176 88 40 176 88 40 176 88 40 176 88 40 176 88 40 176 88 40 176 88 40 176 88 40 176 88 40 176 88 40 176 88 40 176 88 40 176 88 40 176 88 40 176 88 40 176 88 40 176 88 40 176 88 40 176 88 40 176 88 40 176 88 40 176 88 40 176 88 40 176 88 40 176 88 40 176 88 40 176 88 40 176 88 40 176 88 40 176 88 40
184 88 40 184 88 40 184 88 40 184 88 40 184 88 40 184 88 40 184 88 40 184 88 40 184 88 40 184 88 40 184 88 40 184 88 40 184 88 40 184 88 40 184 88 40 184 88 40 184 88 40 184 88 40 184 88 40 184 88 40 184 88 40 184 88 40 184 88 40 184 88 40 184 88 40 184 88 40 184 88 40 184 88 40 184 88 40 184 88 40 184 88 40 184 88 40 192 88 40 192 88 40 192 88 40 192 88 40 192 88 40 192 88 40 192 88 40 192 88 40 192 88 40 192 88 40 192 88 40 192 88 40 192 88 40 192 88 40 192 88 40 192 88 40 192 88 40 192 88 40 192 88 40 192 88 40 192 88 40 192 88 40 192 88 40 192 88 40 192 88 40 192 88 40 192 88 40 192 88 40 192 88 40 192 88 40 192 88 40 192 88 40 200 88 40 200 88 40 200 88 40 200 88 40 200 88 40 200 88 40 200 88 40 200 88 40 200 88 40 200 88 40 200 88 40 200 88 40 200 88 40 200 88 40 200 88 40 200 88 40 200 88 40 200 88 40 200 88 40 200 88 40 200 88 40 200 88 40 200 88 40 200 88 40 200 88 40 200 88 40 200 88 40 200 88 40 200 88 40 200 88 40 200 88 40 200 88 40 192 88 40 192 88 40 192 88 40 192 88 40 192 88 40 192 88 40 192 88 40 192 88 40 192 88 40 192 88 40 192 88 40 192 88 40 192 88 40 192 88 40 192 88 40 192 88 40 192 88 40 192 88 40 192 88 40 192 88 40 192 88 40 192 88 40 192 88 40 192 88 40 192 88 40 192 88 40 192 88 40 192 88 40 192 88 40 192 88 40 192 88 40 192 88 40
184 88 40 184 88 40 184 88 40 184 88 40 184 88 40 184 88 40 184 88 40 184 88 40 184 88 40 184 88 40 184 88 40 184 88 40 184 88 40 184 88 40 184 88 40 184 88 40 184 88 40 184 88 40 184 88 40 184 88 40 184 88 40 184 88 40 184 88 40 184 88 40 184 88 40 184 88 40 184 88 40 184 88 40 184 88 40 184 88 40 184 88 40 184 88 40 192 88 40 192 88 40 192 88 40 192 88 40 192 88 40 192 88 40 192 88 40 192 88 40 192 88 40 192 88 40 192 88 40 192 88 40 192 88 40 192 88 40 192 88 40 192 88 40 192 88 40 192 88 40 192 88 40 192 88 40 192 88 40 192 88 40 192 88 40 192 88 40 192 88 40 192 88 40 192 88 40 192 88 40 192 88 40 192 88 40 192 88 40 192 88 40 200 88 40 200 88 40 200 88 40 200 88 40 200 88 40 200 88 40 200 88 40 200 88 40 200 88 40 200 88 40 200 88 40 200 88 40 200 88 40 200 88 40 200 88 40 200 88 40 200 88 40 200 88 40 200 88 40 200 88 40 200 88 40 200 88 40 200 88 40 200 88 40 200 88 40 200 88 40 200 88 40 200 88 40 200 88 40 200 88 40 200 88 40 200 88 40 192 88 40 192 88 40 192 88 40 192 88 40 192 88 40 192 88 40 192 88 40 192 88 40 192 88 40 192 88 40 192 88 40 192 88 40 192 88 40 192 88 40 192 88 40 192 88 40 192 88 40 192 88 40 192 88 40 192 88 40 192 88 40 192 88 40 192 88 40 192 88 40 192 88 40 192 88 40 192 88 40 192 88 40 192 88 40 192 88 40 192 88 40 192 88 40
184 88 40 184 88 40 184 88 40 184 88 40 184 88 40 184 88 40 184 88 40 184 88 40 184 88 40 184 88 40 184 88 40 184 88 40 184 88 40 184 88 40 184 88 40 184 88 40 184 88 40 184 88 40 184 88 40 184 88 40 184 88 40 184 88 40 184 88 40 184 88 40 184 88 40 184 88 40 184 88 40 184 88 40 184 88 40 184 88 40 184 88 40 184 88 40 192 88 40 192 88 40 192 88 40 192 88 40 192 88 40 192 88 40 192 88 40 192 88 40 192 88 40 192 88 40 192 88 40 192 88 40 192 88 40 192 88 40 192 88 40 192 88 40 192 88 40 192 88 40 192 88 40 192 88 40 192 88 40 192 88 40 192 88 40 192 88 40 192 88 40 192 88 40 192 88 40 192 88 40 192 88 40 192 88 40 192 88 40 192 88 40 200 88 40 200 88 40 200 88 40 200 88 40 200 88 40 200 88 40 200 88 40 200 88 40 200 88 40 200 88 40 200 88 40 200 88 40 200 88 40 200 88 40 200 88 40 200 88 40 200 88 40 200 88 40 200 88 40 200 88 40 200 88 40 200 88 40 200 88 40 200 88 40 200 88 40 200 88 40 200 88 40 200 88 40 200 88 40 200 88 40 200 88 40 200 88 40 192 88 40 192 88 40 192 88 40 192 88 40 192 88 40 192 88 40 192 88 40 192 88 40 192 88 40 192 88 40 192 88 40 192 88 40 192 88 40 192 88 40 192 88 40 192 88 40 192 88 40 192 88 40 192 88 40 192 88 40 192 88 40 192 88 40 192 88 40 192 88 40 192 88 40 192 88 40 192 88 40 192 88 40 192 88 40 192 88 40 192 88 40 192 88 40
184 88 40 184 88 40 184 88 40 184 88 40 184 88 40 184 88 40 184 88 40 184 88 40 184 88 40 184 88 40 184 88 40 184 88 40 184 88 40 184 88 40 184 88 40 184 88 40 184 88 40 184 88 40 184 88 40 184 88 40 184 88 40 184 88 40 184 88 40 184 88 40 184 88 40 184 88 40 184 88 40 184 88 40 184 88 40 184 88 40 184 88 40 184 88 40 192 88 40 192 88 40 192 88 40 192 88 40 192 88 40 192 88 40 192 88 40 192 88 40 192 88 40 192 88 40 192 88 40 192 88 40 192 88 40 192 88 40 192 88 40 192 88 40 192 88 40 192 88 40 192 88 40 192 88 40 192 88 40 192 88 40 192 88 40 192 88 40 192 88 40 192 88 40 192 88 40 192 88 40 192 88 40 192 88 40 192 88 40 192 88 40 200 88 40 200 88 40 200 88 40 200 88 40 200 88 40 200 88 40 200 88 40 200 88 40 200 88 40 200 88 40 200 88 40 200 88 40 200 88 40 200 88 40 200 88 40 200 88 40 200 88 40 200 88 40 200 88 40 200 88 40 200 88 40 200 88 40 200 88 40 200 88 40 200 88 40 200 88 40 200 88 40 200 88 40 200 88 40 200 88 40 200 88 40 200 88 40 192 88 40 192 88 40 192 88 40 192 88 40 192 88 40 192 88 40 192 88 40 192 88 40 192 88 40 192 88 40 192 88 40 192 88 40 192 88 40 192 88 40 192 88 40 192 88 40 192 88 40 192 88 40 192 88 40 192 88 40 192 88 40 192 88 40 192 88 40 192 88 40 192 88 40 192 88 40 192 88 40 192 88 40 192 88 40 192 88 40 192 88 40 192 88 40
184 88 40 184 88 40 184 88 40 184 88 40 184 88 40 184 88 40 184 88 40 184 88 40 184 88 40 184 88 40 184 88 40 184 88 40 184 88 40 184 88 40 184 88 40 184 88 40 184 88 40 184 88 40 184 88 40 184 88 40 184 88 40 184 88 40 184 88 40 184 88 40 184 88 40 184 88 40 184 88 40 184 88 40 184 88 40 184 88 40 184 88 40 184 88 40 192 88 40 192 88 40 192 88 40 192 88 40 192 88 40 192 88 40 192 88 40 192 88 40 192 88 40 192 88 40 192 88 40 192 88 40 192 88 40 192 88 40 192 88 40 192 88 40 192 88 40 192 88 40 192 88 40 192 88 40 192 88 40 192 88 40 192 88 40 192 88 40 192 88 40 192 88 40 192 88 40 192 88 40 192 88 40 192 88 40 192 88 40 192 88 40 200 88 40 200 88 40 200 88 40 200 88 40 200 88 40 200 88 40 200 88 40 200 88 40 200 88 40 200 88 40 200 88 40 200 88 40 200 88 40 200 88 40 200 88 40 200 88 40 200 88 40 200 88 40 200 88 40 200 88 40 200 88 40 200 88 40 200 88 40 200 88 40 200 88 40 200 88 40 200 88 40 200 88 40 200 88 40 200 88 40 200 88 40 200 88 40 192 88 40 192 88 40 192 88 40 192 88 40 192 88 40 192 88 40 192 88 40 192 88 40 192 88 40 192 88 40 192 88 40 192 88 40 192 88 40 192 88 40 192 88 40 192 88 40 192 88 40 192 88 40 192 88 40 192 88 40 192 88 40 192 88 40 192 88 40 192 88 40 192 88 40 192 88 40 192 88 40 192 88 40 192 88 40 192 88 40 192 88 40 192 88 40
184 88 40 184 88 40 184 88 40 184 88 40 184 88 40 184 88 40 184 88 40 184 88 40 184 88 40 184 88 40 184 88 40 184 88 40 184 88 40 184 88 40 184 88 40 184 88 40 184 88 40 184 88 40 184 88 40 184 88 40 184 88 40 184 88 40 184 88 40 184 88 40 184 88 40 184 88 40 184 88 40 184 88 40 184 88 40 184 88 40 184 88 40 184 88 40 192 88 40 192 88 40 192 88 40 192 88 40 192 88 40 192 88 40 192 88 40 192 88 40 192 88 40 192 88 40 192 88 40 192 88 40 192 88 40 192 88 40 192 88 40 192 88 40 192 88 40 192 88 40 192 88 40 192 88 40 192 88 40 192 88 40 192 88 40 192 88 40 192 88 40 192 88 40 192 88 40 192 88 40 192 88 40 192 88 40 192 88 40 192 88 40 200 88 40 200 88 40 200 88 40 200 88 40 200 88 40 200 88 40 200 88 40 200 88 40 200 88 40 200 88 40 200 88 40 200 88 40 200 88 40 200 88 40 200 88 40 200 88 40 200 88 40 200 88 40 200 88 40 200 88 40 200 88 40 200 88 40 200 88 40 200 88 40 200 88 40 200 88 40 200 88 40 200 88 40 200 88 40 200 88 40 200 88 40 200 88 40 192 88 40 192 88 40 192 88 40 192 88 40 192 88 40 192 88 40 192 88 40 192 88 40 192 88 40 192 88 40 192 88 40 192 88 40 192 88 40 192 88 40 192 88 40 192 88 40 192 88 40 192 88 40 192 88 40 192 88 40 192 88 40 192 88 40 192 88 40 192 88 40 192 88 40 192 88 40 192 88 40 192 88 40 192 88 40 192 88 40 192 88 40 192 88 40
184 88 40 184 88 40 184 88 40 184 88 40 184 88 40 184 88 40 184 88 40 184 88 40 184 88 40 184 88 40 184 88 40 184 88 40 184 88 40 184 88 40 184 88 40 184 88 40 184 88 40 184 88 40 184 88 40 184 88 40 184 88 40 184 88 40 184 88 40 184 88 40 184 88 40 184 88 40 184 88 40 184 88 40 184 88 40 184 88 40 184 88 40 184 88 40 192 88 40 192 88 40 192 88 40 192 88 40 192 88 40 192 88 40 192 88 40 192 88 40 192 88 40 192 88 40 192 88 40 192 88 40 192 88 40 192 88 40 192 88 40 192 88 40 192 88 40 192 88 40 192 88 40 192 88 40 192 88 40 192 88 40 192 88 40 192 88 40 192 88 40 192 88 40 192 88 40 192 88 40 192 88 40 192 88 40 192 88 40 192 88 40 200 88 40 200 88 40 200 88 40 200 88 40 200 88 40 200 88 40 200 88 40 200 88 40 200 88 40 200 88 40 200 88 40 200 88 40 200 88 40 200 88 40 200 88 40 200 88 40 200 88 40 200 88 40 200 88 40 200 88 40 200 88 40 200 88 40 200 88 40 200 88 40 200 88 40 200 88 40 200 88 40 200 88 40 200 88 40 200 88 40 200 88 40 200 88 40 192 88 40 192 88 40 192 88 40 192 88 40 192 88 40 192 88 40 192 88 40 192 88 40 192 88 40 192 88 40 192 88 40 192 88 40 192 88 40 192 88 40 192 88 40 192 88 40 192 88 40 192 88 40 192 88 40 192 88 40 192 88 40 192 88 40 192 88 40 192 88 40 192 88 40 192 88 40 192 88 40 192 88 40 192 88 40 192 88 40 192 88 40 192 88 40
184 88 40 184 88 40 184 88 40 184 88 40 184 88 40 184 88 40 184 88 40 184 88 40 184 88 40 184 88 40 184 88 40 184 88 40 184 88 40 184 88 40 184 88 40 184 88 40 184 88 40 184 88 40 184 88 40 184 88 40 184 88 40 184 88 40 184 88 40 184 88 40 184 88 40 184 88 40 184 88 40 184 88 40 184 88 40 184 88 40 184 88 40 184 88 40 192 88 40 192 88 40 192 88 40 192 88 40 192 88 40 192 88 40 192 88 40 192 88 40 192 88 40 192 88 40 192 88 40 192 88 40 192 88 40 192 88 40 192 88 40 192 88 40 192 88 40 192 88 40 192 88 40 192 88 40 192 88 40 192 88 40 192 88 40 192 88 40 192 88 40 192 88 40 192 88 40 192 88 40 192 88 40 192 88 40 192 88 40 192 88 40 200 88 40 200 88 40 200 88 40 200 88 40 200 88 40 200 88 40 200 88 40 200 88 40 200 88 40 200 88 40 200 88 40 200 88 40 200 88 40 200 88 40 200 88 40 200 88 40 200 88 40 200 88 40 200 88 40 200 88 40 200 88 40 200 88 40 200 88 40 200 88 40 200 88 40 200 88 40 200 88 40 200 88 40 200 88 40 200 88 40 200 88 40 200 88 40 192 88 40 192 88 40 192 88 40 192 88 40 192 88 40 192 88 40 192 88 40 192 88 40 192 88 40 192 88 40 192 88 40 192 88 40 192 88 40 192 88 40 192 88 40 192 88 40 192 88 40 192 88 40 192 88 40 192 88 40 192 88 40 192 88 40 192 88 40 192 88 40 192 88 40 192 88 40 192 88 40 192 88 40 192 88 40 192 88 40 192 88 40 192 88 40
184 88 40 184 88 40 184 88 40 184 88 40 184 88 40 184 88 40 184 88 40 184 88 40 184 88 40 184 88 40 184 88 40 184 88 40 184 88 40 184 88 40 184 88 40 184 88 40 184 88 40 184 88 40 184 88 40 184 88 40 184 88 40 184 88 40 184 88 40 184 88 40 184 88 40 184 88 40 184 88 40 184 88 40 184 88 40 184 88 40 184 88 40 184 88 40 192 88 40 192 88 40 192 88 40 192 88 40 192 88 40 192 88 40 192 88 40 192 88 40 192 88 40 192 88 40 192 88 40 192 88 40 192 88 40 192 88 40 192 88 40 192 88 40 192 88 40 192 88 40 192 88 40 192 88 40 192 88 40 192 88 40 192 88 40 192 88 40 192 88 40 192 88 40 192 88 40 192 88 40 192 88 40 192 88 40 192 88 40 192 88 40 200 88 40 200 88 40 200 88 40 200 88 40 200 88 40 200 88 40 200 88 40 200 88 40 200 88 40 200 88 40 200 88 40 200 88 40 200 88 40 200 88 40 200 88 40 200 88 40 200 88 40 200 88 40 200 88 40 200 88 40 200 88 40 200 88 40 200 88 40 200 88 40 200 88 40 200 88 40 200 88 40 200 88 40 200 88 40 200 88 40 200 88 40 200 88 40 192 88 40 192 88 40 192 88 40 192 88 40 192 88 40 192 88 40 192 88 40 192 88 40 192 88 40 192 88 40 192 88 40 192 88 40 192 88 40 192 88 40 192 88 40 192 88 40 192 88 40 192 88 40 192 88 40 192 88 40 192 88 40 192 88 40 192 88 40 192 88 40 192 88 40 192 88 40 192 88 40 192 88 40 192 88 40 192 88 40 192 88 40 192 88 40
184 88 40 184 88 40 184 88 40 184 88 40 184 88 40 184 88 40 184 88 40 184 88 40 184 88 40 184 88 40 184 88 40 184 88 40 184 88 40 184 88 40 184 88 40 184 88 40 184 88 40 184 88 40 184 88 40 184 88 40 184 88 40 184 88 40 184 88 40 184 88 40 184 88 40 184 88 40 184 88 40 184 88 40 184 88 40 184 88 40 184 88 40 184 88 40 192 88 40 192 88 40 192 88 40 192 88 40 192 88 40 192 88 40 192 88 40 192 88 40 192 88 40 192 88 40 192 88 40 192 88 40 192 88 40 192 88 40 192 88 40 192 88 40 192 88 40 192 88 40 192 88 40 192 88 40 192 88 40 192 88 40 192 88 40 192 88 40 192 88 40 192 88 40 192 88 40 192 88 40 192 88 40 192 88 40 192 88 40 192 88 40 200 88 40 200 88 40 200 88 40 200 88 40 200 88 40 200 88 40 200 88 40 200 88 40 200 88 40 200 88 40 200 88 40 200 88 40 200 88 40 200 88 40 200 88 40 200 88 40 200 88 40 200 88 40 200 88 40 200 88 40 200 88 40 200 88 40 200 88 40 200 88 40 200 88 40 200 88 40 200 88 40 200 88 40 200 88 40 200 88 40 200 88 40 200 88 40 192 88 40 192 88 40 192 88 40 192 88 40 192 88 40 192 88 40 192 88 40 192 88 40 192 88 40 192 88 40 192 88 40 192 88 40 192 88 40 192 88 40 192 88 40 192 88 40 192 88 40 192 88 40 192 88 40 192 88 40 192 88 40 192 88 40 192 88 40 192 88 40 192 88 40 192 88 40 192 88 40 192 88 40 192 88 40 192 88 40 192 88 40 192 88 40
184 88 40 184 88 40 184 88 40 184 88 40 184 88 40 184 88 40 184 88 40 184 88 40 184 88 40 184 88 40 184 88 40 184 88 40 184 88 40 184 88 40 184 88 40 184 88 40 184 88 40 184 88 40 184 88 40 184 88 40 184 88 40 184 88 40 184 88 40 184 88 40 184 88 40 184 88 40 184 88 40 184 88 40 184 88 40 184 88 40 184 88 40 184 88 40 192 88 40 192 88 40 192 88 40 192 88 40 192 88 40 192 88 40 192 88 40 192 88 40 192 88 40 192 88 40 192 88 40 192 88 40 192 88 40 192 88 40 192 88 40 192 88 40 192 88 40 192 88 40 192 88 40 192 88 40 192 88 40 192 88 40 192 88 40 192 88 40 192 88 40 192 88 40 192 88 40 192 88 40 192 88 40 192 88 40 192 88 40 192 88 40 200 88 40 200 88 40 200 88 40 200 88 40 200 88 40 200 88 40 200 88 40 200 88 40 200 88 40 200 88 40 200 88 40 200 88 40 200 88 40 200 88 40 200 88 40 200 88 40 200 88 40 200 88 40 200 88 40 200 88 40 200 88 40 200 88 40 200 88 40 200 88 40 200 88 40 200 88 40 200 88 40 200 88 40 200 88 40 200 88 40 200 88 40 200 88 40 192 88 40 192 88 40 192 88 40 192 88 40 192 88 40 192 88 40 192 88 40 192 88 40 192 88 40 192 88 40 192 88 40 192 88 40 192 88 40 192 88 40 192 88 40 192 88 40 192 88 40 192 88 40 192 88 40 192 88 40 192 88 40 192 88 40 192 88 40 192 88 40 192 88 40 192 88 40 192 88 40 192 88 40 192 88 40 192 88 40 192 88 40 192 88 40
184 88 40 184 88 40 184 88 40 184 88 40 184 88 40 184 88 40 184 88 40 184 88 40 184 88 40 184 88 40 184 88 40 184 88 40 184 88 40 184 88 40 184 88 40 184 88 40 184 88 40 184 88 40 184 88 40 184 88 40 184 88 40 184 88 40 184 88 40 184 88 40 184 88 40 184 88 40 184 88 40 184 88 40 184 88 40 184 88 40 184 88 40 184 88 40 192 88 40 192 88 40 192 88 40 192 88 40 192 88 40 192 88 40 192 88 40 192 88 40 192 88 40 192 88 40 192 88 40 192 88 40 192 88 40 192 88 40 192 88 40 192 88 40 192 88 40 192 88 40 192 88 40 192 88 40 192 88 40 192 88 40 192 88 40 192 88 40 192 88 40 192 88 40 192 88 40 192 88 40 192 88 40 192 88 40 192 88 40 192 88 40 200 88 40 200 88 40 200 88 40 200 88 40 200 88 40 200 88 40 200 88 40 200 88 40 200 88 40 200 88 40 200 88 40 200 88 40 200 88 40 200 88 40 200 88 40 200 88 40 200 88 40 200 88 40 200 88 40 200 88 40 200 88 40 200 88 40 200 88 40 200 88 40 200 88 40 200 88 40 200 88 40 200 88 40 200 88 40 200 88 40 200 88 40 200 88 40 192 88 40 192 88 40 192 88 40 192 88 40 192 88 40 192 88 40 192 88 40 192 88 40 192 88 40 192 88 40 192 88 40 192 88 40 192 88 40 192 88 40 192 88 40 192 88 40 192 88 40 192 88 40 192 88 40 192 88 40 192 88 40 192 88 40 192 88 40 192 88 40 192 88 40 192 88 40 192 88 40 192 88 40 192 88 40 192 88 40 192 88 40 192 88 40
184 88 40 184 88 40 184 88 40 184 88 40 184 88 40 184 88 40 184 88 40 184 88 40 184 88 40 184 88 40 184 88 40 184 88 40 184 88 40 184 88 40 184 88 40 184 88 40 184 88 40 184 88 40 184 88 40 184 88 40 184 88 40 184 88 40 184 88 40 184 88 40 184 88 40 184 88 40 184 88 40 184 88 40 184 88 40 184 88 40 184 88 40 184 88 40 192 88 40 192 88 40 192 88 40 192 88 40 192 88 40 192 88 40 192 88 40 192 88 40 192 88 40 192 88 40 192 88 40 192 88 40 192 88 40 192 88 40 192 88 40 192 88 40 192 88 40 192 88 40 192 88 40 192 88 40 192 88 40 192 88 40 192 88 40 192 88 40 192 88 40 192 88 40 192 88 40 192 88 40 192 88 40 192 88 40 192 88 40 192 88 40 200 88 40 200 88 40 200 88 40 200 88 40 200 88 40 200 88 40 200 88 40 200 88 40 200 88 40 200 88 40 200 88 40 200 88 40 200 88 40 200 88 40 200 88 40 200 88 40 200 88 40 200 88 40 200 88 40 200 88 40 200 88 40 200 88 40 200 88 40 200 88 40 200 88 40 200 88 40 200 88 40 200 88 40 200 88 40 200 88 40 200 88 40 200 88 40 192 88 40 192 88 40 192 88 40 192 88 40 192 88 40 192 88 40 192 88 40 192 88 40 192 88 40 192 88 40 192 88 40 192 88 40 192 88 40 192 88 40 192 88 40 192 88 40 192 88 40 192 88 40 192 88 40 192 88 40 192 88 40 192 88 40 192 88 40 192 88 40 192 88 40 192 88 40 192 88 40 192 88 40 192 88 40 192 88 40 192 88 40 192 88 40
184 88 40 184 88 40 184 88 40 184 88 40 184 88 40 184 88 40 184 88 40 184 88 40 184 88 40 184 88 40 184 88 40 184 88 40 184 88 40 184 88 40 184 88 40 184 88 40 184 88 40 184 88 40 184 88 40 184 88 40 184 88 40 184 88 40 184 88 40 184 88 40 184 88 40 184 88 40 184 88 40 184 88 40 184 88 40 184 88 40 184 88 40 184 88 40 192 88 40 192 88 40 192 88 40 192 88 40 192 88 40 192 88 40 192 88 40 192 88 40 192 88 40 192 88 40 192 88 40 192 88 40 192 88 40 192 88 40 192 88 40 192 88 40 192 88 40 192 88 40 192 88 40 192 88 40 192 88 40 192 88 40 192 88 40 192 88 40 192 88 40 192 88 40 192 88 40 192 88 40 192 88 40 192 88 40 192 88 40 192 88 40 200 88 40 200 88 40 200 88 40 200 88 40 200 88 40 200 88 40 200 88 40 200 88 40 200 88 40 200 88 40 200 88 40 200 88 40 200 88 40 200 88 40 200 88 40 200 88 40 200 88 40 200 88 40 200 88 40 200 88 40 200 88 40 200 88 40 200 88 40 200 88 40 200 88 40 200 88 40 200 88 40 200 88 40 200 88 40 200 88 40 200 88 40 200 88 40 192 88 40 192 88 40 192 88 40 192 88 40 192 88 40 192 88 40 192 88 40 192 88 40 192 88 40 192 88 40 192 88 40 192 88 40 192 88 40 192 88 40 192 88 40 192 88 40 192 88 40 192 88 40 192 88 40 192 88 40 192 88 40 192 88 40 192 88 40 192 88 40 192 88 40 192 88 40 192 88 40 192 88 40 192 88 40 192 88 40 192 88 40 192 88 40
184 88 40 184 88 40 184 88 40 184 88 40 184 88 40 184 88 40 184 88 40 184 88 40 184 88 40 184 88 40 184 88 40 184 88 40 184 88 40 184 88 40 184 88 40 184 88 40 184 88 40 184 88 40 184 88 40 184 88 40 184 88 40 184 88 40 184 88 40 184 88 40 184 88 40 184 88 40 184 88 40 184 88 40 184 88 40 184 88 40 184 88 40 184 88 40 192 88 40 192 88 40 192 88 40 192 88 40 192 88 40 192 88 40 192 88 40 192 88 40 192 88 40 192 88 40 192 88 40 192 88 40 192 88 40 192 88 40 192 88 40 192 88 40 192 88 40 192 88 40 192 88 40 192 88 40 192 88 40 192 88 40 192 88 40 192 88 40 192 88 40 192 88 40 192 88 40 192 88 40 192 88 40 192 88 40 192 88 40 192 88 40 200 88 40 200 88 40 200 88 40 200 88 40 200 88 40 200 88 40 200 88 40 200 88 40 200 88 40 200 88 40 200 88 40 200 88 40 200 88 40 200 88 40 200 88 40 200 88 40 200 88 40 200 88 40 200 88 40 200 88 40 200 88 40 200 88 40 200 88 40 200 88 40 200 88 40 200 88 40 200 88 40 200 88 40 200 88 40 200 88 40 200 88 40 200 88 40 192 88 40 192 88 40 192 88 40 192 88 40 192 88 40 192 88 40 192 88 40 192 88 40 192 88 40 192 88 40 192 88 40 192 88 40 192 88 40 192 88 40 192 88 40 192 88 40 192 88 40 192 88 40 192 88 40 192 88 40 192 88 40 192 88 40 192 88 40 192 88 40 192 88 40 192 88 40 192 88 40 192 88 40 192 88 40 192 88 40 192 88 40 192 88 40
184 88 40 184 88 40 184 88 40 184 88 40 184 88 40 184 88 40 184 88 40 184 88 40 184 88 40 184 88 40 184 88 40 184 88 40 184 88 40 184 88 40 184 88 40 184 88 40 184 88 40 184 88 40 184 88 40 184 88 40 184 88 40 184 88 40 184 88 40 184 88 40 184 88 40 184 88 40 184 88 40 184 88 40 184 88 40 184 88 40 184 88 40 184 88 40 192 88 40 192 88 40 192 88 40 192 88 40 192 88 40 192 88 40 192 88 40 192 88 40 192 88 40 192 88 40 192 88 40 192 88 40 192 88 40 192 88 40 192 88 40 192 88 40 192 88 40 192 88 40 192 88 40 192 88 40 192 88 40 192 88 40 192 88 40 192 88 40 192 88 40 192 88 40 192 88 40 192 88 40 192 88 40 192 88 40 192 88 40 192 88 40 200 88 40 200 88 40 200 88 40 200 88 40 200 88 40 200 88 40 200 88 40 200 88 40 200 88 40 200 88 40 200 88 40 200 88 40 200 88 40 200 88 40 200 88 40 200 88 40 200 88 40 200 88 40 200 88 40 200 88 40 200 88 40 200 88 40 200 88 40 200 88 40 200 88 40 200 88 40 200 88 40 200 88 40 200 88 40 200 88 40 200 88 40 200 88 40 192 88 40 192 88 40 192 88 40 192 88 40 192 88 40 192 88 40 192 88 40 192 88 40 192 88 40 192 88 40 192 88 40 192 88 40 192 88 40 192 88 40 192 88 40 192 88 40 192 88 40 192 88 40 192 88 40 192 88 40 192 88 40 192 88 40 192 88 40 192 88 40 192 88 40 192 88 40 192 88 40 192 88 40 192 88 40 192 88 40 192 88 40 192 88 40
184 88 40 184 88 40 184 88 40 184 88 40 184 88 40 184 88 40 184 88 40 184 88 40 184 88 40 184 88 40 184 88 40 184 88 40 184 88 40 184 88 40 184 88 40 184 88 40 184 88 40 184 88 40 184 88 40 184 88 40 184 88 40 184 88 40 184 88 40 184 88 40 184 88 40 184 88 40 184 88 40 184 88 40 184 88 40 184 88 40 184 88 40 184 88 40 192 88 40 192 88 40 192 88 40 192 88 40 192 88 40 192 88 40 192 88 40 192 88 40 192 88 40 192 88 40 192 88 40 192 88 40 192 88 40 192 88 40 192 88 40 192 88 40 192 88 40 192 88 40 192 88 40 192 88 40 192 88 40 192 88 40 192 88 40 192 88 40 192 88 40 192 88 40 192 88 40 192 88 40 192 88 40 192 88 40 192 88 40 192 88 40 200 88 40 200 88 40 200 88 40 200 88 40 200 88 40 200 88 40 200 88 40 200 88 40 200 88 40 200 88 40 200 88 40 200 88 40 200 88 40 200 88 40 200 88 40 200 88 40 200 88 40 200 88 40 200 88 40 200 88 40 200 88 40 200 88 40 200 88 40 200 88 40 200 88 40 200 88 40 200 88 40 200 88 40 200 88 40 200 88 40 200 88 40 200 88 40 192 88 40 192 88 40 192 88 40 192 88 40 192 88 40 192 88 40 192 88 40 192 88 40 192 88 40 192 88 40 192 88 40 192 88 40 192 88 40 192 88 40 192 88 40 192 88 40 192 88 40 192 88 40 192 88 40 192 88 40 192 88 40 192 88 40 192 88 40 192 88 40 192 88 40 192 88 40 192 88 40 192 88 40 192 88 40 192 88 40 192 88 40 192 88 40
184 88 40 184 88 40 184 88 40 184 88 40 184 88 40 184 88 40 184 88 40 184 88 40 184 88 40 184 88 40 184 88 40 184 88 40 184 88 40 184 88 40 184 88 40 184 88 40 184 88 40 184 88 40 184 88 40 184 88 40 184 88 40 184 88 40 184 88 40 184 88 40 184 88 40 184 88 40 184 88 40 184 88 40 184 88 40 184 88 40 184 88 40 184 88 40 192 88 40 192 88 40 192 88 40 192 88 40 192 88 40 192 88 40 192 88 40 192 88 40 192 88 40 192 88 40 192 88 40 192 88 40 192 88 40 192 88 40 192 88 40 192 88 40 192 88 40 192 88 40 192 88 40 192 88 40 192 88 40 192 88 40 192 88 40 192 88 40 192 88 40 192 88 40 192 88 40 192 88 40 192 88 40 192 88 40 192 88 40 192 88 40 200 88 40 200 88 40 200 88 40 200 88 40 200 88 40 200 88 40 200 88 40 200 88 40 200 88 40 200 88 40 200 88 40 200 88 40 200 88 40 200 88 40 200 88 40 200 88 40 200 88 40 200 88 40 200 88 40 200 88 40 200 88 40 200 88 40 200 88 40 200 88 40 200 88 40 200 88 40 200 88 40 200 88 40 200 88 40 200 88 40 200 88 40 200 88 40 192 88 40 192 88 40 192 88 40 192 88 40 192 88 40 192 88 40 192 88 40 192 88 40 192 88 40 192 88 40 192 88 40 192 88 40 192 88 40 192 88 40 192 88 40 192 88 40 192 88 40 192 88 40 192 88 40 192 88 40 192 88 40 192 88 40 192 88 40 192 88 40 192 88 40 192 88 40 192 88 40 192 88 40 192 88 40 192 88 40 192 88 40 192 88 40
184 88 40 184 88 40 184 88 40 184 88 40 184 88 40 184 88 40 184 88 40 184 88 40 184 88 40 184 88 40 184 88 40 184 88 40 184 88 40 184 88 40 184 88 40 184 88 40 184 88 40 184 88 40 184 88 40 184 88 40 184 88 40 184 88 40 184 88 40 184 88 40 184 88 40 184 88 40 184 88 40 184 88 40 184 88 40 184 88 40 184 88 40 184 88 40 192 88 40 192 88 40 192 88 40 192 88 40 192 88 40 192 88 40 192 88 40 192 88 40 192 88 40 192 88 40 192 88 40 192 88 40 192 88 40 192 88 40 192 88 40 192 88 40 192 88 40 192 88 40 192 88 40 192 88 40 192 88 40 192 88 40 192 88 40 192 88 40 192 88 40 192 88 40 192 88 40 192 88 40 192 88 40 192 88 40 192 88 40 192 88 40 200 88 40 200 88 40 200 88 40 200 88 40 200 88 40 200 88 40 200 88 40 200 88 40 200 88 40 200 88 40 200 88 40 200 88 40 200 88 40 200 88 40 200 88 40 200 88 40 200 88 40 200 88 40 200 88 40 200 88 40 200 88 40 200 88 40 200 88 40 200 88 40 200 88 40 200 88 40 200 88 40 200 88 40 200 88 40 200 88 40 200 88 40 200 88 40 192 88 40 192 88 40 192 88 40 192 88 40 192 88 40 192 88 40 192 88 40 192 88 40 192 88 40 192 88 40 192 88 40 192 88 40 192 88 40 192 88 40 192 88 40 192 88 40 192 88 40 192 88 40 192 88 40 192 88 40 192 88 40 192 88 40 192 88 40 192 88 40 192 88 40 192 88 40 192 88 40 192 88 40 192 88 40 192 88 40 192 88 40 192 88 40
184 88 40 184 88 40 184 88 40 184 88 40 184 88 40 184 88 40 184 88 40 184 88 40 184 88 40 184 88 40 184 88 40 184 88 40 184 88 40 184 88 40 184 88 40 184 88 40 184 88 40 184 88 40 184 88 40 184 88 40 184 88 40 184 88 40 184 88 40 184 88 40 184 88 40 184 88 40 184 88 40 184 88 40 184 88 40 184 88 40 184 88 40 184 88 40 192 88 40 192 88 40 192 88 40 192 88 40 192 88 40 192 88 40 192 88 40 192 88 40 192 88 40 192 88 40 192 88 40 192 88 40 192 88 40 192 88 40 192 88 40 192 88 40 192 88 40 192 88 40 192 88 40 192 88 40 192 88 40 192 88 40 192 88 40 192 88 40 192 88 40 192 88 40 192 88 40 192 88 40 192 88 40 192 88 40 192 88 40 192 88 40 200 88 40 200 88 40 200 88 40 200 88 40 200 88 40 200 88 40 200 88 40 200 88 40 200 88 40 200 88 40 200 88 40 200 88 40 200 88 40 200 88 40 200 88 40 200 88 40 200 88 40 200 88 40 200 88 40 200 88 40 200 88 40 200 88 40 200 88 40 200 88 40 200 88 40 200 88 40 200 88 40 200 88 40 200 88 40 200 88 40 200 88 40 200 88 40 192 88 40 192 88 40 192 88 40 192 88 40 192 88 40 192 88 40 192 88 40 192 88 40 192 88 40 192 88 40 192 88 40 192 88 40 192 88 40 192 88 40 192 88 40 192 88 40 192 88 40 192 88 40 192 88 40 192 88 40 192 88 40 192 88 40 192 88 40 192 88 40 192 88 40 192 88 40 192 88 40 192 88 40 192 88 40 192 88 40 192 88 40 192 88 40
184 88 40 184 88 40 184 88 40 184 88 40 184 88 40 184 88 40 184 88 40 184 88 40 184 88 40 184 88 40 184 88 40 184 88 40 184 88 40 184 88 40 184 88 40 184 88 40 184 88 40 184 88 40 184 88 40 184 88 40 184 88 40 184 88 40 184 88 40 184 88 40 184 88 40 184 88 40 184 88 40 184 88 40 184 88 40 184 88 40 184 88 40 184 88 40 192 88 40 192 88 40 192 88 40 192 88 40 192 88 40 192 88 40 192 88 40 192 88 40 192 88 40 192 88 40 192 88 40 192 88 40 192 88 40 192 88 40 192 88 40 192 88 40 192 88 40 192 88 40 192 88 40 192 88 40 192 88 40 192 88 40 192 88 40 192 88 40 192 88 40 192 88 40 192 88 40 192 88 40 192 88 40 192 88 40 192 88 40 192 88 40 200 88 40 200 88 40 200 88 40 200 88 40 200 88 40 200 88 40 200 88 40 200 88 40 200 88 40 200 88 40 200 88 40 200 88 40 200 88 40 200 88 40 200 88 40 200 88 40 200 88 40 200 88 40 200 88 40 200 88 40 200 88 40 200 88 40 200 88 40 200 88 40 200 88 40 200 88 40 200 88 40 200 88 40 200 88 40 200 88 40 200 88 40 200 88 40 192 88 40 192 88 40 192 88 40 192 88 40 192 88 40 192 88 40 192 88 40 192 88 40 192 88 40 192 88 40 192 88 40 192 88 40 192 88 40 192 88 40 192 88 40 192 88 40 192 88 40 192 88 40 192 88 40 192 88 40 192 88 40 192 88 40 192 88 40 192 88 40 192 88 40 192 88 40 192 88 40 192 88 40 192 88 40 192 88 40 192 88 40 192 88 40
184 88 40 184 88 40 184 88 40 184 88 40 184 88 40 184 88 40 184 88 40 184 88 40 184 88 40 184 88 40 184 88 40 184 88 40 184 88 40 184 88 40 184 88 40 184 88 40 184 88 40 184 88 40 184 88 40 184 88 40 184 88 40 184 88 40 184 88 40 184 88 40 184 88 40 184 88 40 184 88 40 184 88 40 184 88 40 184 88 40 184 88 40 184 88 40 192 88 40 192 88 40 192 88 40 192 88 40 192 88 40 192 88 40 192 88 40 192 88 40 192 88 40 192 88 40 192 88 40 192 88 40 192 88 40 192 88 40 192 88 40 192 88 40 192 88 40 192 88 40 192 88 40 192 88 40 192 88 40 192 88 40 192 88 40 192 88 40 192 88 40 192 88 40 192 88 40 192 88 40 192 88 40 192 88 40 192 88 40 192 88 40 200 88 40 200 88 40 200 88 40 200 88 40 200 88 40 200 88 40 200 88 40 200 88 40 200 88 40 200 88 40 200 88 40 200 88 40 200 88 40 200 88 40 200 88 40 200 88 40 200 88 40 200 88 40 200 88 40 200 88 40 200 88 40 200 88 40 200 88 40 200 88 40 200 88 40 200 88 40 200 88 40 200 88 40 200 88 40 200 88 40 200 88 40 200 88 40 192 88 40 192 88 40 192 88 40 192 88 40 192 88 40 192 88 40 192 88 40 192 88 40 192 88 40 192 88 40 192 88 40 192 88 40 192 88 40 192 88 40 192 88 40 192 88 40 192 88 40 192 88 40 192 88 40 192 88 40 192 88 40 192 88 40 192 88 40 192 88 40 192 88 40 192 88 40 192 88 40 192 88 40 192 88 40 192 88 40 192 88 40 192 88 40
184 88 40 184 88 40 184 88 40 184 88 40 184 88 40 184 88 40 184 88 40 184 88 40 184 88 40 184 88 40 184 88 40 184 88 40 184 88 40 184 88 40 184 88 40 184 88 40 184 88 40 184 88 40 184 88 40 184 88 40 184 88 40 184 88 40 184 88 40 184 88 40 184 88 40 184 88 40 184 88 40 184 88 40 184 88 40 184 88 40 184 88 40 184 88 40 192 88 40 192 88 40 192 88 40 192 88 40 192 88 40 192 88 40 192 88 40 192 88 40 192 88 40 192 88 40 192 88 40 192 88 40 192 88 40 192 88 40 192 88 40 192 88 40 192 88 40 192 88 40 192 88 40 192 88 40 192 88 40 192 88 40 192 88 40 192 88 40 192 88 40 192 88 40 192 88 40 192 88 40 192 88 40 192 88 40 192 88 40 192 88 40 200 88 40 200 88 40 200 88 40 200 88 40 200 88 40 200 88 40 200 88 40 200 88 40 200 88 40 200 88 40 200 88 40 200 88 40 200 88 40 200 88 40 200 88 40 200 88 40 200 88 40 200 88 40 200 88 40 200 88 40 200 88 40 200 88 40 200 88 40 200 88 40 200 88 40 200 88 40 200 88 40 200 88 40 200 88 40 200 88 40 200 88 40 200 88 40 192 88 40 192 88 40 192 88 40 192 88 40 192 88 40 192 88 40 192 88 40 192 88 40 192 88 40 192 88 40 192 88 40 192 88 40 192 88 40 192 88 40 192 88 40 192 88 40 192 88 40 192 88 40 192 88 40 192 88 40 192 88 40 192 88 40 192 88 40 192 88 40 192 88 40 192 88 40 192 88 40 192 88 40 192 88 40 192 88 40 192 88 40 192 88 40
184 88 40 184 88 40 184 88 40 184 88 40 184 88 40 184 88 40 184 88 40 184 88 40 184 88 40 184 88 40 184 88 40 184 88 40 184 88 40 184 88 40 184 88 40 184 88 40 184 88 40 184 88 40 184 88 40 184 88 40 184 88 40 184 88 40 184 88 40 184 88 40 184 88 40 184 88 40 184 88 40 184 88 40 184 88 40 184 88 40 184 88 40 184 88 40 192 88 40 192 88 40 192 88 40 192 88 40 192 88 40 192 88 40 192 88 40 192 88 40 192 88 40 192 88 40 192 88 40 192 88 40 192 88 40 192 88 40 192 88 40 192 88 40 192 88 40 192 88 40 192 88 40 192 88 40 192 88 40 192 88 40 192 88 40 192 88 40 192 88 40 192 88 40 192 88 40 192 88 40 192 88 40 192 88 40 192 88 40 192 88 40 200 88 40 200 88 40 200 88 40 200 88 40 200 88 40 200 88 40 200 88 40 200 88 40 200 88 40 200 88 40 200 88 40 200 88 40 200 88 40 200 88 40 200 88 40 200 88 40 200 88 40 200 88 40 200 88 40 200 88 40 200 88 40 200 88 40 200 88 40 200 88 40 200 88 40 200 88 40 200 88 40 200 88 40 200 88 40 200 88 40 200 88 40 200 88 40 192 88 40 192 88 40 192 88 40 192 88 40 192 88 40 192 88 40 192 88 40 192 88 40 192 88 40 192 88 40 192 88 40 192 88 40 192 88 40 192 88 40 192 88 40 192 88 40 192 88 40 192 88 40 192 88 40 192 88 40 192 88 40 192 88 40 192 88 40 192 88 40 192 88 40 192 88 40 192 88 40 192 88 40 192 88 40 192 88 40 192 88 40 192 88 40
184 88 40 184 88 40 184 88 40 184 88 40 184 88 40 184 88 40 184 88 40 184 88 40 184 88 40 184 88 40 184 88 40 184 88 40 184 88 40 184 88 40 184 88 40 184 88 40 184 88 40 184 88 40 184 88 40 184 88 40 184 88 40 184 88 40 184 88 40 184 88 40 184 88 40 184 88 40 184 88 40 184 88 40 184 88 40 184 88 40 184 88 40 184 88 40 192 88 40 192 88 40 192 88 40 192 88 40 192 88 40 192 88 40 192 88 40 192 88 40 192 88 40 192 88 40 192 88 40 192 88 40 192 88 40 192 88 40 192 88 40 192 88 40 192 88 40 192 88 40 192 88 40 192 88 40 192 88 40 192 88 40 192 88 40 192 88 40 192 88 40 192 88 40 192 88 40 192 88 40 192 88 40 192 88 40 192 88 40 192 88 40 200 88 40 200 88 40 200 88 40 200 88 40 200 88 40 200 88 40 200 88 40 200 88 40 200 88 40 200 88 40 200 88 40 200 88 40 200 88 40 200 88 40 200 88 40 200 88 40 200 88 40 200 88 40 200 88 40 200 88 40 200 88 40 200 88 40 200 88 40 200 88 40 200 88 40 200 88 40 200 88 40 200 88 40 200 88 40 200 88 40 200 88 40 200 88 40 192 88 40 192 88 40 192 88 40 192 88 40 192 88 40 192 88 40 192 88 40 192 88 40 192 88 40 192 88 40 192 88 40 192 88 40 192 88 40 192 88 40 192 88 40 192 88 40 192 88 40 192 88 40 192 88 40 192 88 40 192 88 40 192 88 40 192 88 40 192 88 40 192 88 40 192 88 40 192 88 40 192 88 40 192 88 40 192 88 40 192 88 40 192 88 40
184 88 40 184 88 40 184 88 40 184 88 40 184 88 40 184 88 40 184 88 40 184 88 40 184 88 40 184 88 40 184 88 40 184 88 40 184 88 40 184 88 40 184 88 40 184 88 40 184 88 40 184 88 40 184 88 40 184 88 40 184 88 40 184 88 40 184 88 40 184 88 40 184 88 40 184 88 40 184 88 40 184 88 40 184 88 40 184 88 40 184 88 40 184 88 40 192 88 40 192 88 40 192 88 40 192 88 40 192 88 40 192 88 40 192 88 40 192 88 40 192 88 40 192 88 40 192 88 40 192 88 40 192 88 40 192 88 40 192 88 40 192 88 40 192 88 40 192 88 40 192 88 40 192 88 40 192 88 40 192 88 40 192 88 40 192 88 40 192 88 40 192 88 40 192 88 40 192 88 40 192 88 40 192 88 40 192 88 40 192 88 40 200 88 40 200 88 40 200 88 40 200 88 40 200 88 40 200 88 40 200 88 40 200 88 40 200 88 40 200 88 40 200 88 40 200 88 40 200 88 40 200 88 40 200 88 40 200 88 40 200 88 40 200 88 40 200 88 40 200 88 40 200 88 40 200 88 40 200 88 40 200 88 40 200 88 40 200 88 40 200 88 40 200 88 40 200 88 40 200 88 40 200 88 40 200 88 40 192 88 40 192 88 40 192 88 40 192 88 40 192 88 40 192 88 40 192 88 40 192 88 40 192 88 40 192 88 40 192 88 40 192 88 40 192 88 40 192 88 40 192 88 40 192 88 40 192 88 40 192 88 40 192 88 40 192 88 40 192 88 40 192 88 40 192 88 40 192 88 40 192 88 40 192 88 40 192 88 40 192 88 40 192 88 40 192 88 40 192 88 40 192 88 40
184 88 40 184 88 40 184 88 40 184 88 40 184 88 40 184 88 40 184 88 40 184 88 40 184 88 40 184 88 40 184 88 40 184 88 40 184 88 40 184 88 40 184 88 40 184 88 40 184 88 40 184 88 40 184 88 40 184 88 40 184 88 40 184 88 40 184 88 40 184 88 40 184 88 40 184 88 40 184 88 40 184 88 40 184 88 40 184 88 40 184 88 40 184 88 40 192 88 40 192 88 40 192 88 40 192 88 40 192 88 40 192 88 40 192 88 40 192 88 40 192 88 40 192 88 40 192 88 40 192 88 40 192 88 40 192 88 40 192 88 40 192 88 40 192 88 40 192 88 40 192 88 40 192 88 40 192 88 40 192 88 40 192 88 40 192 88 40 192 88 40 192 88 40 192 88 40 192 88 40 192 88 40 192 88 40 192 88 40 192 88 40 200 88 40 200 88 40 200 88 40 200 88 40 200 88 40 200 88 40 200 88 40 200 88 40 200 88 40 200 88 40 200 88 40 200 88 40 200 88 40 200 88 40 200 88 40 200 88 40 200 88 40 200 88 40 200 88 40 200 88 40 200 88 40 200 88 40 200 88 40 200 88 40 200 88 40 200 88 40 200 88 40 200 88 40 200 88 40 200 88 40 200 88 40 200 88 40 192 88 40 192 88 40 192 88 40 192 88 40 192 88 40 192 88 40 192 88 40 192 88 40 192 88 40 192 88 40 192 88 40 192 88 40 192 88 40 192 88 40 192 88 40 192 88 40 192 88 40 192 88 40 192 88 40 192 88 40 192 88 40 192 88 40 192 88 40 192 88 40 192 88 40 192 88 40 192 88 40 192 88 40 192 88 40 192 88 40 192 88 40 192 88 40
184 88 40 184 88 40 184 88 40 184 88 40 184 88 40 184 88 40 184 88 40 184 88 40 184 88 40 184 88 40 184 88 40 184 88 40 184 88 40 184 88 40 184 88 40 184 88 40 184 88 40 184 88 40 184 88 40 184 88 40 184 88 40 184 88 40 184 88 40 184 88 40 184 88 40 184 88 40 184 88 40 184 88 40 184 88 40 184 88 40 184 88 40 184 88 40 192 88 40 192 88 40 192 88 40 192 88 40 192 88 40 192 88 40 192 88 40 192 88 40 192 88 40 192 88 40 192 88 40 192 88 40 192 88 40 192 88 40 192 88 40 192 88 40 192 88 40 192 88 40 192 88 40 192 88 40 192 88 40 192 88 40 192 88 40 192 88 40 192 88 40 192 88 40 192 88 40 192 88 40 192 88 40 192 88 40 192 88 40 192 88 40 200 88 40 200 88 40 200 88 40 200 88 40 200 88 40 200 88 40 200 88 40 200 88 40 200 88 40 200 88 40 200 88 40 200 88 40 200 88 40 200 88 40 200 88 40 200 88 40 200 88 40 200 88 40 200 88 40 200 88 40 200 88 40 200 88 40 200 88 40 200 88 40 200 88 40 200 88 40 200 88 40 200 88 40 200 88 40 200 88 40 200 88 40 200 88 40 192 88 40 192 88 40 192 88 40 192 88 40 192 88 40 192 88 40 192 88 40 192 88 40 192 88 40 192 88 40 192 88 40 192 88 40 192 88 40 192 88 40 192 88 40 192 88 40 192 88 40 192 88 40 192 88 40 192 88 40 192 88 40 192 88 40 192 88 40 192 88 40 192 88 40 192 88 40 192 88 40 192 88 40 192 88 40 192 88 40 192 88 40 192 88 40
184 88 40 184 88 40 184 88 40 184 88 40 184 88 40 184 88 40 184 88 40 184 88 40 184 88 40 184 88 40 184 88 40 184 88 40 184 88 40 184 88 40 184 88 40 184 88 40 184 88 40 184 88 40 184 88 40 184 88 40 184 88 40 184 88 40 184 88 40 184 88 40 184 88 40 184 88 40 184 88 40 184 88 40 184 88 40 184 88 40 184 88 40 184 88 40 192 88 40 192 88 40 192 88 40 192 88 40 192 88 40 192 88 40 192 88 40 192 88 40 192 88 40 192 88 40 192 88 40 192 88 40 192 88 40 192 88 40 192 88 40 192 88 40 192 88 40 192 88 40 192 88 40 192 88 40 192 88 40 192 88 40 192 88 40 192 88 40 192 88 40 192 88 40 192 88 40 192 88 40 192 88 40 192 88 40 192 88 40 192 88 40 200 88 40 200 88 40 200 88 40 200 88 40 200 88 40 200 88 40 200 88 40 200 88 40 200 88 40 200 88 40 200 88 40 200 88 40 200 88 40 200 88 40 200 88 40 200 88 40 200 88 40 200 88 40 200 88 40 200 88 40 200 88 40 200 88 40 200 88 40 200 88 40 200 88 40 200 88 40 200 88 40 200 88 40 200 88 40 200 88 40 200 88 40 200 88 40 192 88 40 192 88 40 192 88 40 192 88 40 192 88 40 192 88 40 192 88 40 192 88 40 192 88 40 192 88 40 192 88 40 192 88 40 192 88 40 192 88 40 192 88 40 192 88 40 192 88 40 192 88 40 192 88 40 192 88 40 192 88 40 192 88 40 192 88 40 192 88 40 192 88 40 192 88 40 192 88 40 192 88 40 192 88 40 192 88 40 192 88 40 192 88 40
184 88 40 184 88 40 184 88 40 184 88 40 184 88 40 184 88 40 184 88 40 184 88 40 184 88 40 184 88 40 184 88 40 184 88 40 184 88 40 184 88 40 184 88 40 184 88 40 184 88 40 184 88 40 184 88 40 184 88 40 184 88 40 184 88 40 184 88 40 184 88 40 184 88 40 184 88 40 184 88 40 184 88 40 184 88 40 184 88 40 184 88 40 184 88 40 192 88 40 192 88 40 192 88 40 192 88 40 192 88 40 192 88 40 192 88 40 192 88 40 192 88 40 192 88 40 192 88 40 192 88 40 192 88 40 192 88 40 192 88 40 192 88 40 192 88 40 192 88 40 192 88 40 192 88 40 192 88 40 192 88 40 192 88 40 192 88 40 192 88 40 192 88 40 192 88 40 192 88 40 192 88 40 192 88 40 192 88 40 192 88 40 200 88 40 200 88 40 200 88 40 200 88 40 200 88 40 200 88 40 200 88 40 200 88 40 200 88 40 200 88 40 200 88 40 200 88 40 200 88 40 200 88 40 200 88 40 200 88 40 200 88 40 200 88 40 200 88 40 200 88 40 200 88 40 200 88 40 200 88 40 200 88 40 200 88 40 200 88 40 200 88 40 200 88 40 200 88 40 200 88 40 200 88 40 200 88 40 192 88 40 192 88 40 192 88 40 192 88 40 192 88 40 192 88 40 192 88 40 192 88 40 192 88 40 192 88 40 192 88 40 192 88 40 192 88 40 192 88 40 192 88 40 192 88 40 192 88 40 192 88 40 192 88 40 192 88 40 192 88 40 192 88 40 192 88 40 192 88 40 192 88 40 192 88 40 192 88 40 192 88 40 192 88 40 192 88 40 192 88 40 192 88 40
184 88 40 184 88 40 184 88 40 184 88 40 184 88 40 184 88 40 184 88 40 184 88 40 184 88 40 184 88 40 184 88 40 184 88 40 184 88 40 184 88 40 184 88 40 184 88 40 184 88 40 184 88 40 184 88 40 184 88 40 184 88 40 184 88 40 184 88 40 184 88 40 184 88 40 184 88 40 184 88 40 184 88 40 184 88 40 184 88 40 184 88 40 184 88 40 192 88 40 192 88 40 192 88 40 192 88 40 192 88 40 192 88 40 192 88 40 192 88 40 192 88 40 192 88 40 192 88 40 192 88 40 192 88 40 192 88 40 192 88 40 192 88 40 192 88 40 192 88 40 192 88 40 192 88 40 192 88 40 192 88 40 192 88 40 192 88 40 192 88 40 192 88 40 192 88 40 192 88 40 192 88 40 192 88 40 192 88 40 192 88 40 200 88 40 200 88 40 200 88 40 200 88 40 200 88 40 200 88 40 200 88 40 200 88 40 200 88 40 200 88 40 200 88 40 200 88 40 200 88 40 200 88 40 200 88 40 200 88 40 200 88 40 200 88 40 200 88 40 200 88 40 200 88 40 200 88 40 200 88 40 200 88 40 200 88 40 200 88 40 200 88 40 200 88 40 200 88 40 200 88 40 200 88 40 200 88 40 192 88 40 192 88 40 192 88 40 192 88 40 192 88 40 192 88 40 192 88 40 192 88 40 192 88 40 192 88 40 192 88 40 192 88 40 192 88 40 192 88 40 192 88 40 192 88 40 192 88 40 192 88 40 192 88 40 192 88 40 192 88 40 192 88 40 192 88 40 192 88 40 192 88 40 192 88 40 192 88 40 192 88 40 192 88 40 192 88 40 192 88 40 192 88 40
184 88 40 184 88 40 184 88 40 184 88 40 184 88 40 184 88 40 184 88 40 184 88 40 184 88 40 184 88 40 184 88 40 184 88 40 184 88 40 184 88 40 184 88 40 184 88 40 184 88 40 184 88 40 184 88 40 184 88 40 184 88 40 184 88 40 184 88 40 184 88 40 184 88 40 184 88 40 184 88 40 184 88 40 184 88 40 184 88 40 184 88 40 184 88 40 192 88 40 192 88 40 192 88 40 192 88 40 192 88 40 192 88 40 192 88 40 192 88 40 192 88 40 192 88 40 192 88 40 192 88 40 192 88 40 192 88 40 192 88 40 192 88 40 192 88 40 192 88 40 192 88 40 192 88 40 192 88 40 192 88 40 192 88 40 192 88 40 192 88 40 192 88 40 192 88 40 192 88 40 192 88 40 192 88 40 192 88 40 192 88 40 200 88 40 200 88 40 200 88 40 200 88 40 200 88 40 200 88 40 200 88 40 200 88 40 200 88 40 200 88 40 200 88 40 200 88 40 200 88 40 200 88 40 200 88 40 200 88 40 200 88 40 200 88 40 200 88 40 200 88 40 200 88 40 200 88 40 200 88 40 200 88 40 200 88 40 200 88 40 200 88 40 200 88 40 200 88 40 200 88 40 200 88 40 200 88 40 192 88 40 192 88 40 192 88 40 192 88 40 192 88 40 192 88 40 192 88 40 192 88 40 192 88 40 192 88 40 192 88 40 192 88 40 192 88 40 192 88 40 192 88 40 192 88 40 192 88 40 192 88 40 192 88 40 192 88 40 192 88 40 192 88 40 192 88 40 192 88 40 192 88 40 192 88 40 192 88 40 192 88 40 192 88 40 192 88 40 192 88 40 192 88 40
200 88 40 200 88 40 200 88 40 200 88 40 200 88 40 200 88 40 200 88 40 200 88 40 200 88 40 200 88 40 200 88 40 200 88 40 200 88 40 200 88 40 200 88 40 200 88 40 200 88 40 200 88 40 200 88 40 200 88 40 200 88 40 200 88 40 200 88 40 200 88 40 200 88 40 200 88 40 200 88 40 200 88 40 200 88 40 200 88 40 200 88 40 200 88 40 144 32 16 144 32 16 144 32 16 144 32 16 144 32 16 144 32 16 144 32 16 144 32 16 144 32 16 144 32 16 144 32 16 144 32 16 144 32 16 144 32 16 144 32 16 144 32 16 144 32 16 144 32 16 144 32 16 144 32 16 144 32 16 144 32 16 144 32 16 144 32 16 144 32 16 144 32 16 144 32 16 144 32 16 144 32 16 144 32 16 144 32 16 144 32 16 192 32 16 192 32 16 192 32 16 192 32 16 192 32 16 192 32 16 192 32 16 192 32 16 192 32 16 192 32 16 192 32 16 192 32 16 192 32 16 192 32 16 192 32 16 192 32 16 192 32 16 192 32 16 192 32 16 192 32 16 192 32 16 192 32 16 192 32 16 192 32 16 192 32 16 192 32 16 192 32 16 192 32 16 192 32 16 192 32 16 192 32 16 192 32 16 32 40 16 32 40 16 32 40 16 32 40 16 32 40 16 32 40 16 32 40 16 32 40 16 32 40 16 32 40 16 32 40 16 32 40 16 32 40 16 32 40 16 32 40 16 32 40 16 32 40 16 32 40 16 32 40 16 32 40 16 32 40 16 32 40 16 32 40 16 32 40 16 32 40 16 32 40 16 32 40 16 32 40 16 32 40 16 32 40 16 32 40 16 32 40 16
200 88 40 200 88 40 200 88 40 200 88 40 200 88 40 200 88 40 200 88 40 200 88 40 200 88 40 200 88 40 200 88 40 200 88 40 200 88 40 200 88 40 200 88 40 200 88 40 200 88 40 200 88 40 200 88 40 200 88 40 200 88 40 200 88 40 200 88 40 200 88 40 200 88 40 200 88 40 200 88 40 200 88 40 200 88 40 200 88 40 200 88 40 200 88 40 144 32 16 144 32 16 144 32 16 144 32 16 144 32 16 144 32 16 144 32 16 144 32 16 144 32 16 144 32 16 144 32 16 144 32 16 144 32 16 144 32 16 144 32 16 144 32 16 144 32 16 144 32 16 144 32 16 144 32 16 144 32 16 144 32 16 144 32 16 144 32 16 144 32 16 144 32 16 144 32 16 144 32 16 144 32 16 144 32 16 144 32 16 144 32 16 192 32 16 192 32 16 192 32 16 192 32 16 192 32 16 192 32 16 192 32 16 192 32 16 192 32 16 192 32 16 192 32 16 192 32 16 192 32 16 192 32 16 192 32 16 192 32 16 192 32 16 192 32 16 192 32 16 192 32 16 192 32 16 192 32 16 192 32 16 192 32 16 192 32 16 192 32 16 192 32 16 192 32 16 192 32 16 192 32 16 192 32 16 192 32 16 32 40 16 32 40 16 32 40 16 32 40 16 32 40 16 32 40 16 32 40 16 32 40 16 32 40 16 32 40 16 32 40 16 32 40 16 32 40 16 32 40 16 32 40 16 32 40 16 32 40 16 32 40 16 32 40 16 32 40 16 32 40 16 32 40 16 32 40 16 32 40 16 32 40 16 32 40 16 32 40 16 32 40 16 32 40 16 32 40 16 32 40 16 32 40 16
200 88 40 200 88 40 200 88 40 200 88 40 200 88 40 200 88 40 200 88 40 200 88 40 200 88 40 200 88 40 200 88 40 200 88 40 200 88 40 200 88 40 200 88 40 200 88 40 200 88 40 200 88 40 200 88 40 200 88 40 200 88 40 200 88 40 200 88 40 200 88 40 200 88 40 200 88 40 200 88 40 200 88 40 200 88 40 200 88 40 200 88 40 200 88 40 144 32 16 144 32 16 144 32 16 144 32 16 144 32 16 144 32 16 144 32 16 144 32 16 144 32 16 144 32 16 144 32 16 144 32 16 144 32 16 144 32 16 144 32 16 144 32 16 144 32 16 144 32 16 144 32 16 144 32 16 144 32 16 144 32 16 144 32 16 144 32 16 144 32 16 144 32 16 144 32 16 144 32 16 144 32 16 144 32 16 144 32 16 144 32 16 192 32 16 192 32 16 192 32 16 192 32 16 192 32 16 192 32 16 192 32 16 192 32 16 192 32 16 192 32 16 192 32 16 192 32 16 192 32 16 192 32 16 192 32 16 192 32 16 192 32 16 192 32 16 192 32 16 192 32 16 192 32 16 192 32 16 192 32 16 192 32 16 192 32 16 192 32 16 192 32 16 192 32 16 192 32 16 192 32 16 192 32 16 192 32 16 32 40 16 32 40 16 32 40 16 32 40 16 32 40 16 32 40 16 32 40 16 32 40 16 32 40 16 32 40 16 32 40 16 32 40 16 32 40 16 32 40 16 32 40 16 32 40 16 32 40 16 32 40 16 32 40 16 32 40 16 32 40 16 32 40 16 32 40 16 32 40 16 32 40 16 32 40 16 32 40 16 32 40 16 32 40 16 32 40 16 32 40 16 32 40 16
200 88 40 200 88 40 200 88 40 200 88 40 200 88 40 200 88 40 200 88 40 200 88 40 200 88 40 200 88 40 200 88 40 200 88 40 200 88 40 200 88 40 200 88 40 200 88 40 200 88 40 200 88 40 200 88 40 200 88 40 200 88 40 200 88 40 200 88 40 200 88 40 200 88 40 200 88 40 200 88 40 200 88 40 200 88 40 200 88 40 200 88 40 200 88 40 144 32 16 144 32 16 144 32 16 144 32 16 144 32 16 144 32 16 144 32 16 144 32 16 144 32 16 144 32 16 144 32 16 144 32 16 144 32 16 144 32 16 144 32 16 144 32 16 144 32 16 144 32 16 144 32 16 144 32 16 144 32 16 144 32 16 144 32 16 144 32 16 144 32 16 144 32 16 144 32 16 144 32 16 144 32 16 144 32 16 144 32 16 144 32 16 192 32 16 192 32 16 192 32 16 192 32 16 192 32 16 192 32 16 192 32 16 192 32 16 192 32 16 192 32 16 192 32 16 192 32 16 192 32 16 192 32 16 192 32 16 192 32 16 192 32 16 192 32 16 192 32 16 192 32 16 192 32 16 192 32 16 192 32 16 192 32 16 192 32 16 192 32 16 192 32 16 192 32 16 192 32 16 192 32 16 192 32 16 192 32 16 32 40 16 32 40 16 32 40 16 32 40 16 32 40 16 32 40 16 32 40 16 32 40 16 32 40 16 32 40 16 32 40 16 32 40 16 32 40 16 32 40 16 32 40 16 32 40 16 32 40 16 32 40 16 32 40 16 32 40 16 32 40 16 32 40 16 32 40 16 32 40 16 32 40 16 32 40 16 32 40 16 32 40 16 32 40 16 32 40 16 32 40 16 32 40 16
200 88 40 200 88 40 200 88 40 200 88 40 200 88 40 200 88 40 200 88 40 200 88 40 200 88 40 200 88 40 200 88 40 200 88 40 200 88 40 200 88 40 200 88 40 200 88 40 200 88 40 200 88 40 200 88 40 200 88 40 200 88 40 200 88 40 200 88 40 200 88 40 200 88 40 200 88 40 200 88 40 200 88 40 200 88 40 200 88 40 200 88 40 200 88 40 144 32 16 144 32 16 144 32 16 144 32 16 144 32 16 144 32 16 144 32 16 144 32 16 144 32 16 144 32 16 144 32 16 144 32 16 144 32 16 144 32 16 144 32 16 144 32 16 144 32 16 144 32 16 144 32 16 144 32 16 144 32 16 144 32 16 144 32 16 144 32 16 144 32 16 144 32 16 144 32 16 144 32 16 144 32 16 144 32 16 144 32 16 144 32 16 192 32 16 192 32 16 192 32 16 192 32 16 192 32 16 192 32 16 192 32 16 192 32 16 192 32 16 192 32 16 192 32 16 192 32 16 192 32 16 192 32 16 192 32 16 192 32 16 192 32 16 192 32 16 192 32 16 192 32 16 192 32 16 192 32 16 192 32 16 192 32 16 192 32 16 192 32 16 192 32 16 192 32 16 192 32 16 192 32 16 192 32 16 192 32 16 32 40 16 32 40 16 32 40 16 32 40 16 32 40 16 32 40 16 32 40 16 32 40 16 32 40 16 32 40 16 32 40 16 32 40 16 32 40 16 32 40 16 32 40 16 32 40 16 32 40 16 32 40 16 32 40 16 32 40 16 32 40 16 32 40 16 32 40 16 32 40 16 32 40 16 32 40 16 32 40 16 32 40 16 32 40 16 32 40 16 32 40 16 32 40 16
200 88 40 200 88 40 200 88 40 200 88 40 200 88 40 200 88 40 200 88 40 200 88 40 200 88 40 200 88 40 200 88 40 200 88 40 200 88 40 200 88 40 200 88 40 200 88 40 200 88 40 200 88 40 200 88 40 200 88 40 200 88 40 200 88 40 200 88 40 200 88 40 200 88 40 200 88 40 200 88 40 200 88 40 200 88 40 200 88 40 200 88 40 200 88 40 144 32 16 144 32 16 144 32 16 144 32 16 144 32 16 144 32 16 144 32 16 144 32 16 144 32 16 144 32 16 144 32 16 144 32 16 144 32 16 144 32 16 144 32 16 144 32 16 144 32 16 144 32 16 144 32 16 144 32 16 144 32 16 144 32 16 144 32 16 144 32 16 144 32 16 144 32 16 144 32 16 144 32 16 144 32 16 144 32 16 144 32 16 144 32 16 192 32 16 192 32 16 192 32 16 192 32 16 192 32 16 192 32 16 192 32 16 192 32 16 192 32 16 192 32 16 192 32 16 192 32 16 192 32 16 192 32 16 192 32 16 192 32 16 192 32 16 192 32 16 192 32 16 192 32 16 192 32 16 192 32 16 192 32 16 192 32 16 192 32 16 192 32 16 192 32 16 192 32 16 192 32 16 192 32 16 192 32 16 192 32 16 32 40 16 32 40 16 32 40 16 32 40 16 32 40 16 32 40 16 32 40 16 32 40 16 32 40 16 32 40 16 32 40 16 32 40 16 32 40 16 32 40 16 32 40 16 32 40 16 32 40 16 32 40 16 32 40 16 32 40 16 32 40 16 32 40 16 32 40 16 32 40 16 32 40 16 32 40 16 32 40 16 32 40 16 32 40 16 32 40 16 32 40 16 32 40 16
200 88 40 200 88 40 200 88 40 200 88 40 200 88 40 200 88 40 200 88 40 200 88 40 200 88 40 200 88 40 200 88 40 200 88 40 200 88 40 200 88 40 200 88 40 200 88 40 200 88 40 200 88 40 200 88 40 200 88 40 200 88 40 200 88 40 200 88 40 200 88 40 200 88 40 200 88 40 200 88 40 200 88 40 200 88 40 200 88 40 200 88 40 200 88 40 144 32 16 144 32 16 144 32 16 144 32 16 144 32 16 144 32 16 144 32 16 144 32 16 144 32 16 144 32 16 144 32 16 144 32 16 144 32 16 144 32 16 144 32 16 144 32 16 144 32 16 144 32 16 144 32 16 144 32 16 144 32 16 144 32 16 144 32 16 144 32 16 144 32 16 144 32 16 144 32 16 144 32 16 144 32 16 144 32 16 144 32 16 144 32 16 192 32 16 192 32 16 192 32 16 192 32 16 192 32 16 192 32 16 192 32 16 192 32 16 192 32 16 192 32 16 192 32 16 192 32 16 192 32 16 192 32 16 192 32 16 192 32 16 192 32 16 192 32 16 192 32 16 192 32 16 192 32 16 192 32 16 192 32 16 192 32 16 192 32 16 192 32 16 192 32 16 192 32 16 192 32 16 192 32 16 192 32 16 192 32 16 32 40 16 32 40 16 32 40 16 32 40 16 32 40 16 32 40 16 32 40 16 32 40 16 32 40 16 32 40 16 32 40 16 32 40 16 32 40 16 32 40 16 32 40 16 32 40 16 32 40 16 32 40 16 32 40 16 32 40 16 32 40 16 32 40 16 32 40 16 32 40 16 32 40 16 32 40 16 32 40 16 32 40 16 32 40 16 32 40 16 32 40 16 32 40 16
200 88 40 200 88 40 200 88 40 200 88 40 200 88 40 200 88 40 200 88 40 200 88 40 200 88 40 200 88 40 200 88 40 200 88 40 200 88 40 200 88 40 200 88 40 200 88 40 200 88 40 200 88 40 200 88 40 200 88 40 200 88 40 200 88 40 200 88 40 200 88 40 200 88 40 200 88 40 200 88 40 200 88 40 200 88 40 200 88 40 200 88 40 200 88 40 144 32 16 144 32 16 144 32 16 144 32 16 144 32 16 144 32 16 144 32 16 144 32 16 144 32 16 144 32 16 144 32 16 144 32 16 144 32 16 144 32 16 144 32 16 144 32 16 144 32 16 144 32 16 144 32 16 144 32 16 144 32 16 144 32 16 144 32 16 144 32 16 144 32 16 144 32 16 144 32 16 144 32 16 144 32 16 144 32 16 144 32 16 144 32 16 192 32 16 192 32 16 192 32 16 192 32 16 192 32 16 192 32 16 192 32 16 192 32 16 192 32 16 192 32 16 192 32 16 192 32 16 192 32 16 192 32 16 192 32 16 192 32 16 192 32 16 192 32 16 192 32 16 192 32 16 192 32 16 192 32 16 192 32 16 192 32 16 192 32 16 192 32 16 192 32 16 192 32 16 192 32 16 192 32 16 192 32 16 192 32 16 32 40 16 32 40 16 32 40 16 32 40 16 32 40 16 32 40 16 32 40 16 32 40 16 32 40 16 32 40 16 32 40 16 32 40 16 32 40 16 32 40 16 32 40 16 32 40 16 32 40 16 32 40 16 32 40 16 32 40 16 32 40 16 32 40 16 32 40 16 32 40 16 32 40 16 32 40 16 32 40 16 32 40 16 32 40 16 32 40 16 32 40 16 32 40 16
200 88 40 200 88 40 200 88 40 200 88 40 200 88 40 200 88 40 200 88 40 200 88 40 200 88 40 200 88 40 200 88 40 200 88 40 200 88 40 200 88 40 200 88 40 200 88 40 200 88 40 200 88 40 200 88 40 200 88 40 200 88 40 200 88 40 200 88 40 200 88 40 200 88 40 200 88 40 200 88 40 200 88 40 200 88 40 200 88 40 200 88 40 200 88 40 144 32 16 144 32 16 144 32 16 144 32 16 144 32 16 144 32 16 144 32 16 144 32 16 144 32 16 144 32 16 144 32 16 144 32 16 144 32 16 144 32 16 144 32 16 144 32 16 144 32 16 144 32 16 144 32 16 144 32 16 144 32 16 144 32 16 144 32 16 144 32 16 144 32 16 144 32 16 144 32 16 144 32 16 144 32 16 144 32 16 144 32 16 144 32 16 192 32 16 192 32 16 192 32 16 192 32 16 192 32 16 192 32 16 192 32 16 192 32 16 192 32 16 192 32 16 192 32 16 192 32 16 192 32 16 192 32 16 192 32 16 192 32 16 192 32 16 192 32 16 192 32 16 192 32 16 192 32 16 192 32 16 192 32 16 192 32 16 192 32 16 192 32 16 192 32 16 192 32 16 192 32 16 192 32 16 192 32 16 192 32 16 32 40 16 32 40 16 32 40 16 32 40 16 32 40 16 32 40 16 32 40 16 32 40 16 32 40 16 32 40 16 32 40 16 32 40 16 32 40 16 32 40 16 32 40 16 32 40 16 32 40 16 32 40 16 32 40 16 32 40 16 32 40 16 32 40 16 32 40 16 32 40 16 32 40 16 32 40 16 32 40 16 32 40 16 32 40 16 32 40 16 32 40 16 32 40 16
200 88 40 200 88 40 200 88 40 200 88 40 200 88 40 200 88 40 200 88 40 200 88 40 200 88 40 200 88 40 200 88 40 200 88 40 200 88 40 200 88 40 200 88 40 200 88 40 200 88 40 200 88 40 200 88 40 200 88 40 200 88 40 200 88 40 200 88 40 200 88 40 200 88 40 200 88 40 200 88 40 200 88 40 200 88 40 200 88 40 200 88 40 200 88 40 144 32 16 144 32 16 144 32 16 144 32 16 144 32 16 144 32 16 144 32 16 144 32 16 144 32 16 144 32 16 144 32 16 144 32 16 144 32 16 144 32 16 144 32 16 144 32 16 144 32 16 144 32 16 144 32 16 144 32 16 144 32 16 144 32 16 144 32 16 144 32 16 144 32 16 144 32 16 144 32 16 144 32 16 144 32 16 144 32 16 144 32 16 144 32 16 192 32 16 192 32 16 192 32 16 192 32 16 192 32 16 192 32 16 192 32 16 192 32 16 192 32 16 192 32 16 192 32 16 192 32 16 192 32 16 192 32 16 192 32 16 192 32 16 192 32 16 192 32 16 192 32 16 192 32 16 192 32 16 192 32 16 192 32 16 192 32 16 192 32 16 192 32 16 192 32 16 192 32 16 192 32 16 192 32 16 192 32 16 192 32 16 32 40 16 32 40 16 32 40 16 32 40 16 32 40 16 32 40 16 32 40 16 32 40 16 32 40 16 32 40 16 32 40 16 32 40 16 32 40 16 32 40 16 32 40 16 32 40 16 32 40 16 32 40 16 32 40 16 32 40 16 32 40 16 32 40 16 32 40 16 32 40 16 32 40 16 32 40 16 32 40 16 32 40 16 32 40 16 32 40 16 32 40 16 32 40 16
200 88 40 200 88 40 200 88 40 200 88 40 200 88 40 200 88 40 200 88 40 200 88 40 200 88 40 200 88 40 200 88 40 200 88 40 200 88 40 200 88 40 200 88 40 200 88 40 200 88 40 200 88 40 200 88 40 200 88 40 200 88 40 200 88 40 200 88 40 200 88 40 200 88 40 200 88 40 200 88 40 200 88 40 200 88 40 200 88 40 200 88 40 200 88 40 144 32 16 144 32 16 144 32 16 144 32 16 144 32 16 144 32 16 144 32 16 144 32 16 144 32 16 144 32 16 144 32 16 144 32 16 144 32 16 144 32 16 144 32 16 144 32 16 144 32 16 144 32 16 144 32 16 144 32 16 144 32 16 144 32 16 144 32 16 144 32 16 144 32 16 144 32 16 144 32 16 144 32 16 144 32 16 144 32 16 144 32 16 144 32 16 192 32 16 192 32 16 192 32 16 192 32 16 192 32 16 192 32 16 192 32 16 192 32 16 192 32 16 192 32 16 192 32 16 192 32 16 192 32 16 192 32 16 192 32 16 192 32 16 192 32 16 192 32 16 192 32 16 192 32 16 192 32 16 192 32 16 192 32 16 192 32 16 192 32 16 192 32 16 192 32 16 192 32 16 192 32 16 192 32 16 192 32 16 192 32 16 32 40 16 32 40 16 32 40 16 32 40 16 32 40 16 32 40 16 32 40 16 32 40 16 32 40 16 32 40 16 32 40 16 32 40 16 32 40 16 32 40 16 32 40 16 32 40 16 32 40 16 32 40 16 32 40 16 32 40 16 32 40 16 32 40 16 32 40 16 32 40 16 32 40 16 32 40 16 32 40 16 32 40 16 32 40 16 32 40 16 32 40 16 32 40 16
200 88 40 200 88 40 200 88 40 200 88 40 200 88 40 200 88 40 200 88 40 200 88 40 200 88 40 200 88 40 200 88 40 200 88 40 200 88 40 200 88 40 200 88 40 200 88 40 200 88 40 200 88 40 200 88 40 200 88 40 200 88 40 200 88 40 200 88 40 200 88 40 200 88 40 200 88 40 200 88 40 200 88 40 200 88 40 200 88 40 200 88 40 200 88 40 144 32 16 144 32 16 144 32 16 144 32 16 144 32 16 144 32 16 144 32 16 144 32 16 144 32 16 144 32 16 144 32 16 144 32 16 144 32 16 144 32 16 144 32 16 144 32 16 144 32 16 144 32 16 144 32 16 144 32 16 144 32 16 144 32 16 144 32 16 144 32 16 144 32 16 144 32 16 144 32 16 144 32 16 144 32 16 144 32 16 144 32 16 144 32 16 192 32 16 192 32 16 192 32 16 192 32 16 192 32 16 192 32 16 192 32 16 192 32 16 192 32 16 192 32 16 192 32 16 192 32 16 192 32 16 192 32 16 192 32 16 192 32 16 192 32 16 192 32 16 192 32 16 192 32 16 192 32 16 192 32 16 192 32 16 192 32 16 192 32 16 192 32 16 192 32 16 192 32 16 192 32 16 192 32 16 192 32 16 192 32 16 32 40 16 32 40 16 32 40 16 32 40 16 32 40 16 32 40 16 32 40 16 32 40 16 32 40 16 32 40 16 32 40 16 32 40 16 32 40 16 32 40 16 32 40 16 32 40 16 32 40 16 32 40 16 32 40 16 32 40 16 32 40 16 32 40 16 32 40 16 32 40 16 32 40 16 32 40 16 32 40 16 32 40 16 32 40 16 32 40 16 32 40 16 32 40 16
200 88 40 200 88 40 200 88 40 200 88 40 200 88 40 200 88 40 200 88 40 200 88 40 200 88 40 200 88 40 200 88 40 200 88 40 200 88 40 200 88 40 200 88 40 200 88 40 200 88 40 200 88 40 200 88 40 200 88 40 200 88 40 200 88 40 200 88 40 200 88 40 200 88 40 200 88 40 200 88 40 200 88 40 200 88 40 200 88 40 200 88 40 200 88 40 144 32 16 144 32 16 144 32 16 144 32 16 144 32 16 144 32 16 144 32 16 144 32 16 144 32 16 144 32 16 144 32 16 144 32 16 144 32 16 144 32 16 144 32 16 144 32 16 144 32 16 144 32 16 144 32 16 144 32 16 144 32 16 144 32 16 144 32 16 144 32 16 144 32 16 144 32 16 144 32 16 144 32 16 144 32 16 144 32 16 144 32 16 144 32 16 192 32 16 192 32 16 192 32 16 192 32 16 192 32 16 192 32 16 192 32 16 192 32 16 192 32 16 192 32 16 192 32 16 192 32 16 192 32 16 192 32 16 192 32 16 192 32 16 192 32 16 192 32 16 192 32 16 192 32 16 192 32 16 192 32 16 192 32 16 192 32 16 192 32 16 192 32 16 192 32 16 192 32 16 192 32 16 192 32 16 192 32 16 192 32 16 32 40 16 32 40 16 32 40 16 32 40 16 32 40 16 32 40 16 32 40 16 32 40 16 32 40 16 32 40 16 32 40 16 32 40 16 32 40 16 32 40 16 32 40 16 32 40 16 32 40 16 32 40 16 32 40 16 32 40 16 32 40 16 32 40 16 32 40 16 32 40 16 32 40 16 32 40 16 32 40 16 32 40 16 32 40 16 32 40 16 32 40 16 32 40 16
200 88 40 200 88 40 200 88 40 200 88 40 200 88 40 200 88 40 200 88 40 200 88 40 200 88 40 200 88 40 200 88 40 200 88 40 200 88 40 200 88 40 200 88 40 200 88 40 200 88 40 200 88 40 200 88 40 200 88 40 200 88 40 200 88 40 200 88 40 200 88 40 200 88 40 200 88 40 200 88 40 200 88 40 200 88 40 200 88 40 200 88 40 200 88 40 144 32 16 144 32 16 144 32 16 144 32 16 144 32 16 144 32 16 144 32 16 144 32 16 144 32 16 144 32 16 144 32 16 144 32 16 144 32 16 144 32 16 144 32 16 144 32 16 144 32 16 144 32 16 144 32 16 144 32 16 144 32 16 144 32 16 144 32 16 144 32 16 144 32 16 144 32 16 144 32 16 144 32 16 144 32 16 144 32 16 144 32 16 144 32 16 192 32 16 192 32 16 192 32 16 192 32 16 192 32 16 192 32 16 192 32 16 192 32 16 192 32 16 192 32 16 192 32 16 192 32 16 192 32 16 192 32 16 192 32 16 192 32 16 192 32 16 192 32 16 192 32 16 192 32 16 192 32 16 192 32 16 192 32 16 192 32 16 192 32 16 192 32 16 192 32 16 192 32 16 192 32 16 192 32 16 192 32 16 192 32 16 32 40 16 32 40 16 32 40 16 32 40 16 32 40 16 32 40 16 32 40 16 32 40 16 32 40 16 32 40 16 32 40 16 32 40 16 32 40 16 32 40 16 32 40 16 32 40 16 32 40 16 32 40 16 32 40 16 32 40 16 32 40 16 32 40 16 32 40 16 32 40 16 32 40 16 32 40 16 32 40 16 32 40 16 32 40 16 32 40 16 32 40 16 32 40 16
200 88 40 200 88 40 200 88 40 200 88 40 200 88 40 200 88 40 200 88 40 200 88 40 200 88 40 200 88 40 200 88 40 200 88 40 200 88 40 200 88 40 200 88 40 200 88 40 200 88 40 200 88 40 200 88 40 200 88 40 200 88 40 200 88 40 200 88 40 200 88 40 200 88 40 200 88 40 200 88 40 200 88 40 200 88 40 200 88 40 200 88 40 200 88 40 144 32 16 144 32 16 144 32 16 144 32 16 144 32 16 144 32 16 144 32 16 144 32 16 144 32 16 144 32 16 144 32 16 144 32 16 144 32 16 144 32 16 144 32 16 144 32 16 144 32 16 144 32 16 144 32 16 144 32 16 144 32 16 144 32 16 144 32 16 144 32 16 144 32 16 144 32 16 144 32 16 144 32 16 144 32 16 144 32 16 144 32 16 144 32 16 192 32 16 192 32 16 192 32 16 192 32 16 192 32 16 192 32 16 192 32 16 192 32 16 192 32 16 192 32 16 192 32 16 192 32 16 192 32 16 192 32 16 192 32 16 192 32 16 192 32 16 192 32 16 192 32 16 192 32 16 192 32 16 192 32 16 192 32 16 192 32 16 192 32 16 192 32 16 192 32 16 192 32 16 192 32 16 192 32 16 192 32 16 192 32 16 32 40 16 32 40 16 32 40 16 32 40 16 32 40 16 32 40 16 32 40 16 32 40 16 32 40 16 32 40 16 32 40 16 32 40 16 32 40 16 32 40 16 32 40 16 32 40 16 32 40 16 32 40 16 32 40 16 32 40 16 32 40 16 32 40 16 32 40 16 32 40 16 32 40 16 32 40 16 32 40 16 32 40 16 32 40 16 32 40 16 32 40 16 32 40 16
200 88 40 200 88 40 200 88 40 200 88 40 200 88 40 200 88 40 200 88 40 200 88 40 200 88 40 200 88 40 200 88 40 200 88 40 200 88 40 200 88 40 200 88 40 200 88 40 200 88 40 200 88 40 200 88 40 200 88 40 200 88 40 200 88 40 200 88 40 200 88 40 200 88 40 200 88 40 200 88 40 200 88 40 200 88 40 200 88 40 200 88 40 200 88 40 144 32 16 144 32 16 144 32 16 144 32 16 144 32 16 144 32 16 144 32 16 144 32 16 144 32 16 144 32 16 144 32 16 144 32 16 144 32 16 144 32 16 144 32 16 144 32 16 144 32 16 144 32 16 144 32 16 144 32 16 144 32 16 144 32 16 144 32 16 144 32 16 144 32 16 144 32 16 144 32 16 144 32 16 144 32 16 144 32 16 144 32 16 144 32 16 192 32 16 192 32 16 192 32 16 192 32 16 192 32 16 192 32 16 192 32 16 192 32 16 192 32 16 192 32 16 192 32 16 192 32 16 192 32 16 192 32 16 192 32 16 192 32 16 192 32 16 192 32 16 192 32 16 192 32 16 192 32 16 192 32 16 192 32 16 192 32 16 192 32 16 192 32 16 192 32 16 192 32 16 192 32 16 192 32 16 192 32 16 192 32 16 32 40 16 32 40 16 32 40 16 32 40 16 32 40 16 32 40 16 32 40 16 32 40 16 32 40 16 32 40 16 32 40 16 32 40 16 32 40 16 32 40 16 32 40 16 32 40 16 32 40 16 32 40 16 32 40 16 32 40 16 32 40 16 32 40 16 32 40 16 32 40 16 32 40 16 32 40 16 32 40 16 32 40 16 32 40 16 32 40 16 32 40 16 32 40 16
200 88 40 200 88 40 200 88 40 200 88 40 200 88 40 200 88 40 200 88 40 200 88 40 200 88 40 200 88 40 200 88 40 200 88 40 200 88 40 200 88 40 200 88 40 200 88 40 200 88 40 200 88 40 200 88 40 200 88 40 200 88 40 200 88 40 200 88 40 200 88 40 200 88 40 200 88 40 200 88 40 200 88 40 200 88 40 200 88 40 200 88 40 200 88 40 144 32 16 144 32 16 144 32 16 144 32 16 144 32 16 144 32 16 144 32 16 144 32 16 144 32 16 144 32 16 144 32 16 144 32 16 144 32 16 144 32 16 144 32 16 144 32 16 144 32 16 144 32 16 144 32 16 144 32 16 144 32 16 144 32 16 144 32 16 144 32 16 144 32 16 144 32 16 144 32 16 144 32 16 144 32 16 144 32 16 144 32 16 144 32 16 192 32 16 192 32 16 192 32 16 192 32 16 192 32 16 192 32 16 192 32 16 192 32 16 192 32 16 192 32 16 192 32 16 192 32 16 192 32 16 192 32 16 192 32 16 192 32 16 192 32 16 192 32 16 192 32 16 192 32 16 192 32 16 192 32 16 192 32 16 192 32 16 192 32 16 192 32 16 192 32 16 192 32 16 192 32 16 192 32 16 192 32 16 192 32 16 32 40 16 32 40 16 32 40 16 32 40 16 32 40 16 32 40 16 32 40 16 32 40 16 32 40 16 32 40 16 32 40 16 32 40 16 32 40 16 32 40 16 32 40 16 32 40 16 32 40 16 32 40 16 32 40 16 32 40 16 32 40 16 32 40 16 32 40 16 32 40 16 32 40 16 32 40 16 32 40 16 32 40 16 32 40 16 32 40 16 32 40 16 32 40 16
200 88 40 200 88 40 200 88 40 200 88 40 200 88 40 200 88 40 200 88 40 200 88 40 200 88 40 200 88 40 200 88 40 200 88 40 200 88 40 200 88 40 200 88 40 200 88 40 200 88 40 200 88 40 200 88 40 200 88 40 200 88 40 200 88 40 200 88 40 200 88 40 200 88 40 200 88 40 200 88 40 200 88 40 200 88 40 200 88 40 200 88 40 200 88 40 144 32 16 144 32 16 144 32 16 144 32 16 144 32 16 144 32 16 144 32 16 144 32 16 144 32 16 144 32 16 144 32 16 144 32 16 144 32 16 144 32 16 144 32 16 144 32 16 144 32 16 144 32 16 144 32 16 144 32 16 144 32 16 144 32 16 144 32 16 144 32 16 144 32 16 144 32 16 144 32 16 144 32 16 144 32 16 144 32 16 144 32 16 144 32 16 192 32 16 192 32 16 192 32 16 192 32 16 192 32 16 192 32 16 192 32 16 192 32 16 192 32 16 192 32 16 192 32 16 192 32 16 192 32 16 192 32 16 192 32 16 192 32 16 192 32 16 192 32 16 192 32 16 192 32 16 192 32 16 192 32 16 192 32 16 192 32 16 192 32 16 192 32 16 192 32 16 192 32 16 192 32 16 192 32 16 192 32 16 192 32 16 32 40 16 32 40 16 32 40 16 32 40 16 32 40 16 32 40 16 32 40 16 32 40 16 32 40 16 32 40 16 32 40 16 32 40 16 32 40 16 32 40 16 32 40 16 32 40 16 32 40 16 32 40 16 32 40 16 32 40 16 32 40 16 32 40 16 32 40 16 32 40 16 32 40 16 32 40 16 32 40 16 32 40 16 32 40 16 32 40 16 32 40 16 32 40 16
200 88 40 200 88 40 200 88 40 200 88 40 200 88 40 200 88 40 200 88 40 200 88 40 200 88 40 200 88 40 200 88 40 200 88 40 200 88 40 200 88 40 200 88 40 200 88 40 200 88 40 200 88 40 200 88 40 200 88 40 200 88 40 200 88 40 200 88 40 200 88 40 200 88 40 200 88 40 200 88 40 200 88 40 200 88 40 200 88 40 200 88 40 200 88 40 144 32 16 144 32 16 144 32 16 144 32 16 144 32 16 144 32 16 144 32 16 144 32 16 144 32 16 144 32 16 144 32 16 144 32 16 144 32 16 144 32 16 144 32 16 144 32 16 144 32 16 144 32 16 144 32 16 144 32 16 144 32 16 144 32 16 144 32 16 144 32 16 144 32 16 144 32 16 144 32 16 144 32 16 144 32 16 144 32 16 144 32 16 144 32 16 192 32 16 192 32 16 192 32 16 192 32 16 192 32 16 192 32 16 192 32 16 192 32 16 192 32 16 192 32 16 192 32 16 192 32 16 192 32 16 192 32 16 192 32 16 192 32 16 192 32 16 192 32 16 192 32 16 192 32 16 192 32 16 192 32 16 192 32 16 192 32 16 192 32 16 192 32 16 192 32 16 192 32 16 192 32 16 192 32 16 192 32 16 192 32 16 32 40 16 32 40 16 32 40 16 32 40 16 32 40 16 32 40 16 32 40 16 32 40 16 32 40 16 32 40 16 32 40 16 32 40 16 32 40 16 32 40 16 32 40 16 32 40 16 32 40 16 32 40 16 32 40 16 32 40 16 32 40 16 32 40 16 32 40 16 32 40 16 32 40 16 32 40 16 32 40 16 32 40 16 32 40 16 32 40 16 32 40 16 32 40 16
200 88 40 200 88 40 200 88 40 200 88 40 200 88 40 200 88 40 200 88 40 200 88 40 200 88 40 200 88 40 200 88 40 200 88 40 200 88 40 200 88 40 200 88 40 200 88 40 200 88 40 200 88 40 200 88 40 200 88 40 200 88 40 200 88 40 200 88 40 200 88 40 200 88 40 200 88 40 200 88 40 200 88 40 200 88 40 200 88 40 200 88 40 200 88 40 144 32 16 144 32 16 144 32 16 144 32 16 144 32 16 144 32 16 144 32 16 144 32 16 144 32 16 144 32 16 144 32 16 144 32 16 144 32 16 144 32 16 144 32 16 144 32 16 144 32 16 144 32 16 144 32 16 144 32 16 144 32 16 144 32 16 144 32 16 144 32 16 144 32 16 144 32 16 144 32 16 144 32 16 144 32 16 144 32 16 144 32 16 144 32 16 192 32 16 192 32 16 192 32 16 192 32 16 192 32 16 192 32 16 192 32 16 192 32 16 192 32 16 192 32 16 192 32 16 192 32 16 192 32 16 192 32 16 192 32 16 192 32 16 192 32 16 192 32 16 192 32 16 192 32 16 192 32 16 192 32 16 192 32 16 192 32 16 192 32 16 192 32 16 192 32 16 192 32 16 192 32 16 192 32 16 192 32 16 192 32 16 32 40 16 32 40 16 32 40 16 32 40 16 32 40 16 32 40 16 32 40 16 32 40 16 32 40 16 32 40 16 32 40 16 32 40 16 32 40 16 32 40 16 32 40 16 32 40 16 32 40 16 32 40 16 32 40 16 32 40 16 32 40 16 32 40 16 32 40 16 32 40 16 32 40 16 32 40 16 32 40 16 32 40 16 32 40 16 32 40 16 32 40 16 32 40 16
200 88 40 200 88 40 200 88 40 200 88 40 200 88 40 200 88 40 200 88 40 200 88 40 200 88 40 200 88 40 200 88 40 200 88 40 200 88 40 200 88 40 200 88 40 200 88 40 200 88 40 200 88 40 200 88 40 200 88 40 200 88 40 200 88 40 200 88 40 200 88 40 200 88 40 200 88 40 200 88 40 200 88 40 200 88 40 200 88 40 200 88 40 200 88 40 144 32 16 144 32 16 144 32 16 144 32 16 144 32 16 144 32 16 144 32 16 144 32 16 144 32 16 144 32 16 144 32 16 144 32 16 144 32 16 144 32 16 144 32 16 144 32 16 144 32 16 144 32 16 144 32 16 144 32 16 144 32 16 144 32 16 144 32 16 144 32 16 144 32 16 144 32 16 144 32 16 144 32 16 144 32 16 144 32 16 144 32 16 144 32 16 192 32 16 192 32 16 192 32 16 192 32 16 192 32 16 192 32 16 192 32 16 192 32 16 192 32 16 192 32 16 192 32 16 192 32 16 192 32 16 192 32 16 192 32 16 192 32 16 192 32 16 192 32 16 192 32 16 192 32 16 192 32 16 192 32 16 192 32 16 192 32 16 192 32 16 192 32 16 192 32 16 192 32 16 192 32 16 192 32 16 192 32 16 192 32 16 32 40 16 32 40 16 32 40 16 32 40 16 32 40 16 32 40 16 32 40 16 32 40 16 32 40 16 32 40 16 32 40 16 32 40 16 32 40 16 32 40 16 32 40 16 32 40 16 32 40 16 32 40 16 32 40 16 32 40 16 32 40 16 32 40 16 32 40 16 32 40 16 32 40 16 32 40 16 32 40 16 32 40 16 32 40 16 32 40 16 32 40 16 32 40 16
200 88 40 200 88 40 200 88 40 200 88 40 200 88 40 200 88 40 200 88 40 200 88 40 200 88 40 200 88 40 200 88 40 200 88 40 200 88 40 200 88 40 200 88 40 200 88 40 200 88 40 200 88 40 200 88 40 200 88 40 200 88 40 200 88 40 200 88 40 200 88 40 200 88 40 200 88 40 200 88 40 200 88 40 200 88 40 200 88 40 200 88 40 200 88 40 144 32 16 144 32 16 144 32 16 144 32 16 144 32 16 144 32 16 144 32 16 144 32 16 144 32 16 144 32 16 144 32 16 144 32 16 144 32 16 144 32 16 144 32 16 144 32 16 144 32 16 144 32 16 144 32 16 144 32 16 144 32 16 144 32 16 144 32 16 144 32 16 144 32 16 144 32 16 144 32 16 144 32 16 144 32 16 144 32 16 144 32 16 144 32 16 192 32 16 192 32 16 192 32 16 192 32 16 192 32 16 192 32 16 192 32 16 192 32 16 192 32 16 192 32 16 192 32 16 192 32 16 192 32 16 192 32 16 192 32 16 192 32 16 192 32 16 192 32 16 192 32 16 192 32 16 192 32 16 192 32 16 192 32 16 192 32 16 192 32 16 192 32 16 192 32 16 192 32 16 192 32 16 192 32 16 192 32 16 192 32 16 32 40 16 32 40 16 32 40 16 32 40 16 32 40 16 32 40 16 32 40 16 32 40 16 32 40 16 32 40 16 32 40 16 32 40 16 32 40 16 32 40 16 32 40 16 32 40 16 32 40 16 32 40 16 32 40 16 32 40 16 32 40 16 32 40 16 32 40 16 32 40 16 32 40 16 32 40 16 32 40 16 32 40 16 32 40 16 32 40 16 32 40 16 32 40 16
200 88 40 200 88 40 200 88 40 200 88 40 200 88 40 200 88 40 200 88 40 200 88 40 200 88 40 200 88 40 200 88 40 200 88 40 200 88 40 200 88 40 200 88 40 200 88 40 200 88 40 200 88 40 200 88 40 200 88 40 200 88 40 200 88 40 200 88 40 200 88 40 200 88 40 200 88 40 200 88 40 200 88 40 200 88 40 200 88 40 200 88 40 200 88 40 144 32 16 144 32 16 144 32 16 144 32 16 144 32 16 144 32 16 144 32 16 144 32 16 144 32 16 144 32 16 144 32 16 144 32 16 144 32 16 144 32 16 144 32 16 144 32 16 144 32 16 144 32 16 144 32 16 144 32 16 144 32 16 144 32 16 144 32 16 144 32 16 144 32 16 144 32 16 144 32 16 144 32 16 144 32 16 144 32 16 144 32 16 144 32 16 192 32 16 192 32 16 192 32 16 192 32 16 192 32 16 192 32 16 192 32 16 192 32 16 192 32 16 192 32 16 192 32 16 192 32 16 192 32 16 192 32 16 192 32 16 192 32 16 192 32 16 192 32 16 192 32 16 192 32 16 192 32 16 192 32 16 192 32 16 192 32 16 192 32 16 192 32 16 192 32 16 192 32 16 192 32 16 192 32 16 192 32 16 192 32 16 32 40 16 32 40 16 32 40 16 32 40 16 32 40 16 32 40 16 32 40 16 32 40 16 32 40 16 32 40 16 32 40 16 32 40 16 32 40 16 32 40 16 32 40 16 32 40 16 32 40 16 32 40 16 32 40 16 32 40 16 32 40 16 32 40 16 32 40 16 32 40 16 32 40 16 32 40 16 32 40 16 32 40 16 32 40 16 32 40 16 32 40 16 32 40 16
200 88 40 200 88 40 200 88 40 200 88 40 200 88 40 200 88 40 200 88 40 200 88 40 200 88 40 200 88 40 200 88 40 200 88 40 200 88 40 200 88 40 200 88 40 200 88 40 200 88 40 200 88 40 200 88 40 200 88 40 200 88 40 200 88 40 200 88 40 200 88 40 200 88 40 200 88 40 200 88 40 200 88 40 200 88 40 200 88 40 200 88 40 200 88 40 144 32 16 144 32 16 144 32 16 144 32 16 144 32 16 144 32 16 144 32 16 144 32 16 144 32 16 144 32 16 144 32 16 144 32 16 144 32 16 144 32 16 144 32 16 144 32 16 144 32 16 144 32 16 144 32 16 144 32 16 144 32 16 144 32 16 144 32 16 144 32 16 144 32 16 144 32 16 144 32 16 144 32 16 144 32 16 144 32 16 144 32 16 144 32 16 192 32 16 192 32 16 192 32 16 192 32 16 192 32 16 192 32 16 192 32 16 192 32 16 192 32 16 192 32 16 192 32 16 192 32 16 192 32 16 192 32 16 192 32 16 192 32 16 192 32 16 192 32 16 192 32 16 192 32 16 192 32 16 192 32 16 192 32 16 192 32 16 192 32 16 192 32 16 192 32 16 192 32 16 192 32 16 192 32 16 192 32 16 192 32 16 32 40 16 32 40 16 32 40 16 32 40 16 32 40 16 32 40 16 32 40 16 32 40 16 32 40 16 32 40 16 32 40 16 32 40 16 32 40 16 32 40 16 32 40 16 32 40 16 32 40 16 32 40 16 32 40 16 32 40 16 32 40 16 32 40 16 32 40 16 32 40 16 32 40 16 32 40 16 32 40 16 32 40 16 32 40 16 32 40 16 32 40 16 32 40 16
200 88 40 200 88 40 200 88 40 200 88 40 200 88 40 200 88 40 200 88 40 200 88 40 200 88 40 200 88 40 200 88 40 200 88 40 200 88 40 200 88 40 200 88 40 200 88 40 200 88 40 200 88 40 200 88 40 200 88 40 200 88 40 200 88 40 200 88 40 200 88 40 200 88 40 200 88 40 200 88 40 200 88 40 200 88 40 200 88 40 200 88 40 200 88 40 144 32 16 144 32 16 144 32 16 144 32 16 144 32 16 144 32 16 144 32 16 144 32 16 144 32 16 144 32 16 144 32 16 144 32 16 144 32 16 144 32 16 144 32 16 144 32 16 144 32 16 144 32 16 144 32 16 144 32 16 144 32 16 144 32 16 144 32 16 144 32 16 144 32 16 144 32 16 144 32 16 144 32 16 144 32 16 144 32 16 144 32 16 144 32 16 192 32 16 192 32 16 192 32 16 192 32 16 192 32 16 192 32 16 192 32 16 192 32 16 192 32 16 192 32 16 192 32 16 192 32 16 192 32 16 192 32 16 192 32 16 192 32 16 192 32 16 192 32 16 192 32 16 192 32 16 192 32 16 192 32 16 192 32 16 192 32 16 192 32 16 192 32 16 192 32 16 192 32 16 192 32 16 192 32 16 192 32 16 192 32 16 32 40 16 32 40 16 32 40 16 32 40 16 32 40 16 32 40 16 32 40 16 32 40 16 32 40 16 32 40 16 32 40 16 32 40 16 32 40 16 32 40 16 32 40 16 32 40 16 32 40 16 32 40 16 32 40 16 32 40 16 32 40 16 32 40 16 32 40 16 32 40 16 32 40 16 32 40 16 32 40 16 32 40 16 32 40 16 32 40 16 32 40 16 32 40 16
200 88 40 200 88 40 200 88 40 200 88 40 200 88 40 200 88 40 200 88 40 200 88 40 200 88 40 200 88 40 200 88 40 200 88 40 200 88 40 200 88 40 200 88 40 200 88 40 200 88 40 200 88 40 200 88 40 200 88 40 200 88 40 200 88 40 200 88 40 200 88 40 200 88 40 200 88 40 200 88 40 200 88 40 200 88 40 200 88 40 200 88 40 200 88 40 144 32 16 144 32 16 144 32 16 144 32 16 144 32 16 144 32 16 144 32 16 144 32 16 144 32 16 144 32 16 144 32 16 144 32 16 144 32 16 144 32 16 144 32 16 144 32 16 144 32 16 144 32 16 144 32 16 144 32 16 144 32 16 144 32 16 144 32 16 144 32 16 144 32 16 144 32 16 144 32 16 144 32 16 144 32 16 144 32 16 144 32 16 144 32 16 192 32 16 192 32 16 192 32 16 192 32 16 192 32 16 192 32 16 192 32 16 192 32 16 192 32 16 192 32 16 192 32 16 192 32 16 192 32 16 192 32 16 192 32 16 192 32 16 192 32 16 192 32 16 192 32 16 192 32 16 192 32 16 192 32 16 192 32 16 192 32 16 192 32 16 192 32 16 192 32 16 192 32 16 192 32 16 192 32 16 192 32 16 192 32 16 32 40 16 32 40 16 32 40 16 32 40 16 32 40 16 32 40 16 32 40 16 32 40 16 32 40 16 32 40 16 32 40 16 32 40 16 32 40 16 32 40 16 32 40 16 32 40 16 32 40 16 32 40 16 32 40 16 32 40 16 32 40 16 32 40 16 32 40 16 32 40 16 32 40 16 32 40 16 32 40 16 32 40 16 32 40 16 32 40 16 32 40 16 32 40 16
200 88 40 200 88 40 200 88 40 200 88 40 200 88 40 200 88 40 200 88 40 200 88 40 200 88 40 200 88 40 200 88 40 200 88 40 200 88 40 200 88 40 200 88 40 200 88 40 200 88 40 200 88 40 200 88 40 200 88 40 200 88 40 200 88 40 200 88 40 200 88 40 200 88 40 200 88 40 200 88 40 200 88 40 200 88 40 200 88 40 200 88 40 200 88 40 144 32 16 144 32 16 144 32 16 144 32 16 144 32 16 144 32 16 144 32 16 144 32 16 144 32 16 144 32 16 144 32 16 144 32 16 144 32 16 144 32 16 144 32 16 144 32 16 144 32 16 144 32 16 144 32 16 144 32 16 144 32 16 144 32 16 144 32 16 144 32 16 144 32 16 144 32 16 144 32 16 144 32 16 144 32 16 144 32 16 144 32 16 144 32 16 192 32 16 192 32 16 192 32 16 192 32 16 192 32 16 192 32 16 192 32 16 192 32 16 192 32 16 192 32 16 192 32 16 192 32 16 192 32 16 192 32 16 192 32 16 192 32 16 192 32 16 192 32 16 192 32 16 192 32 16 192 32 16 192 32 16 192 32 16 192 32 16 192 32 16 192 32 16 192 32 16 192 32 16 192 32 16 192 32 16 192 32 16 192 32 16 32 40 16 32 40 16 32 40 16 32 40 16 32 40 16 32 40 16 32 40 16 32 40 16 32 40 16 32 40 16 32 40 16 32 40 16 32 40 16 32 40 16 32 40 16 32 40 16 32 40 16 32 40 16 32 40 16 32 40 16 32 40 16 32 40 16 32 40 16 32 40 16 32 40 16 32 40 16 32 40 16 32 40 16 32 40 16 32 40 16 32 40 16 32 40 16
200 88 40 200 88 40 200 88 40 200 88 40 200 88 40 200 88 40 200 88 40 200 88 40 200 88 40 200 88 40 200 88 40 200 88 40 200 88 40 200 88 40 200 88 40 200 88 40 200 88 40 200 88 40 200 88 40 200 88 40 200 88 40 200 88 40 200 88 40 200 88 40 200 88 40 200 88 40 200 88 40 200 88 40 200 88 40 200 88 40 200 88 40 200 88 40 144 32 16 144 32 16 144 32 16 144 32 16 144 32 16 144 32 16 144 32 16 144 32 16 144 32 16 144 32 16 144 32 16 144 32 16 144 32 16 144 32 16 144 32 16 144 32 16 144 32 16 144 32 16 144 32 16 144 32 16 144 32 16 144 32 16 144 32 16 144 32 16 144 32 16 144 32 16 144 32 16 144 32 16 144 32 16 144 32 16 144 32 16 144 32 16 192 32 16 192 32 16 192 32 16 192 32 16 192 32 16 192 32 16 192 32 16 192 32 16 192 32 16 192 32 16 192 32 16 192 32 16 192 32 16 192 32 16 192 32 16 192 32 16 192 32 16 192 32 16 192 32 16 192 32 16 192 32 16 192 32 16 192 32 16 192 32 16 192 32 16 192 32 16 192 32 16 192 32 16 192 32 16 192 32 16 192 32 16 192 32 16 32 40 16 32 40 16 32 40 16 32 40 16 32 40 16 32 40 16 32 40 16 32 40 16 32 40 16 32 40 16 32 40 16 32 40 16 32 40 16 32 40 16 32 40 16 32 40 16 32 40 16 32 40 16 32 40 16 32 40 16 32 40 16 32 40 16 32 40 16 32 40 16 32 40 16 32 40 16 32 40 16 32 40 16 32 40 16 32 40 16 32 40 16 32 40 16
200 88 40 200 88 40 200 88 40 200 88 40 200 88 40 200 88 40 200 88 40 200 88 40 200 88 40 200 88 40 200 88 40 200 88 40 200 88 40 200 88 40 200 88 40 200 88 40 200 88 40 200 88 40 200 88 40 200 88 40 200 88 40 200 88 40 200 88 40 200 88 40 200 88 40 200 88 40 200 88 40 200 88 40 200 88 40 200 88 40 200 88 40 200 88 40 144 32 16 144 32 16 144 32 16 144 32 16 144 32 16 144 32 16 144 32 16 144 32 16 144 32 16 144 32 16 144 32 16 144 32 16 144 32 16 144 32 16 144 32 16 144 32 16 144 32 16 144 32 16 144 32 16 144 32 16 144 32 16 144 32 16 144 32 16 144 32 16 144 32 16 144 32 16 144 32 16 144 32 16 144 32 16 144 32 16 144 32 16 144 32 16 192 32 16 192 32 16 192 32 16 192 32 16 192 32 16 192 32 16 192 32 16 192 32 16 192 32 16 192 32 16 192 32 16 192 32 16 192 32 16 192 32 16 192 32 16 192 32 16 192 32 16 192 32 16 192 32 16 192 32 16 192 32 16 192 32 16 192 32 16 192 32 16 192 32 16 192 32 16 192 32 16 192 32 16 192 32 16 192 32 16 192 32 16 192 32 16 32 40 16 32 40 16 32 40 16 32 40 16 32 40 16 32 40 16 32 40 16 32 40 16 32 40 16 32 40 16 32 40 16 32 40 16 32 40 16 32 40 16 32 40 16 32 40 16 32 40 16 32 40 16 32 40 16 32 40 16 32 40 16 32 40 16 32 40 16 32 40 16 32 40 16 32 40 16 32 40 16 32 40 16 32 40 16 32 40 16 32 40 16 32 40 16
200 88 40 200 88 40 200 88 40 200 88 40 200 88 40 200 88 40 200 88 40 200 88 40 200 88 40 200 88 40 200 88 40 200 88 40 200 88 40 200 88 40 200 88 40 200 88 40 200 88 40 200 88 40 200 88 40 200 88 40 200 88 40 200 88 40 200 88 40 200 88 40 200 88 40 200 88 40 200 88 40 200 88 40 200 88 40 200 88 40 200 88 40 200 88 40 144 32 16 144 32 16 144 32 16 144 32 16 144 32 16 144 32 16 144 32 16 144 32 16 144 32 16 144 32 16 144 32 16 144 32 16 144 32 16 144 32 16 144 32 16 144 32 16 144 32 16 144 32 16 144 32 16 144 32 16 144 32 16 144 32 16 144 32 16 144 32 16 144 32 16 144 32 16 144 32 16 144 32 16 144 32 16 144 32 16 144 32 16 144 32 16 192 32 16 192 32 16 192 32 16 192 32 16 192 32 16 192 32 16 192 32 16 192 32 16 192 32 16 192 32 16 192 32 16 192 32 16 192 32 16 192 32 16 192 32 16 192 32 16 192 32 16 192 32 16 192 32 16 192 32 16 192 32 16 192 32 16 192 32 16 192 32 16 192 32 16 192 32 16 192 32 16 192 32 16 192 32 16 192 32 16 192 32 16 192 32 16 32 40 16 32 40 16 32 40 16 32 40 16 32 40 16 32 40 16 32 40 16 32 40 16 32 40 16 32 40 16 32 40 16 32 40 16 32 40 16 32 40 16 32 40 16 32 40 16 32 40 16 32 40 16 32 40 16 32 40 16 32 40 16 32 40 16 32 40 16 32 40 16 32 40 16 32 40 16 32 40 16 32 40 16 32 40 16 32 40 16 32 40 16 32 40 16
200 88 40 200 88 40 200 88 40 200 88 40 200 88 40 200 88 40 200 88 40 200 88 40 200 88 40 200 88 40 200 88 40 200 88 40 200 88 40 200 88 40 200 88 40 200 88 40 200 88 40 200 88 40 200 88 40 200 88 40 200 88 40 200 88 40 200 88 40 200 88 40 200 88 40 200 88 40 200 88 40 200 88 40 200 88 40 200 88 40 200 88 40 200 88 40 144 32 16 144 32 16 144 32 16 144 32 16 144 32 16 144 32 16 144 32 16 144 32 16 144 32 16 144 32 16 144 32 16 144 32 16 144 32 16 144 32 16 144 32 16 144 32 16 144 32 16 144 32 16 144 32 16 144 32 16 144 32 16 144 32 16 144 32 16 144 32 16 144 32 16 144 32 16 144 32 16 144 32 16 144 32 16 144 32 16 144 32 16 144 32 16 192 32 16 192 32 16 192 32 16 192 32 16 192 32 16 192 32 16 192 32 16 192 32 16 192 32 16 192 32 16 192 32 16 192 32 16 192 32 16 192 32 16 192 32 16 192 32 16 192 32 16 192 32 16 192 32 16 192 32 16 192 32 16 192 32 16 192 32 16 192 32 16 192 32 16 192 32 16 192 32 16 192 32 16 192 32 16 192 32 16 192 32 16 192 32 16 32 40 16 32 40 16 32 40 16 32 40 16 32 40 16 32 40 16 32 40 16 32 40 16 32 40 16 32 40 16 32 40 16 32 40 16 32 40 16 32 40 16 32 40 16 32 40 16 32 40 16 32 40 16 32 40 16 32 40 16 32 40 16 32 40 16 32 40 16 32 40 16 32 40 16 32 40 16 32 40 16 32 40 16 32 40 16 32 40 16 32 40 16 32 40 16
200 88 40 200 88 40 200 88 40 200 88 40 200 88 40 200 88 40 200 88 40 200 88 40 200 88 40 200 88 40 200 88 40 200 88 40 200 88 40 200 88 40 200 88 40 200 88 40 200 88 40 200 88 40 200 88 40 200 88 40 200 88 40 200 88 40 200 88 40 200 88 40 200 88 40 200 88 40 200 88 40 200 88 40 200 88 40 200 88 40 200 88 40 200 88 40 144 32 16 144 32 16 144 32 16 144 32 16 144 32 16 144 32 16 144 32 16 144 32 16 144 32 16 144 32 16 144 32 16 144 32 16 144 32 16 144 32 16 144 32 16 144 32 16 144 32 16 144 32 16 144 32 16 144 32 16 144 32 16 144 32 16 144 32 16 144 32 16 144 32 16 144 32 16 144 32 16 144 32 16 144 32 16 144 32 16 144 32 16 144 32 16 192 32 16 192 32 16 192 32 16 192 32 16 192 32 16 192 32 16 192 32 16 192 32 16 192 32 16 192 32 16 192 32 16 192 32 16 192 32 16 192 32 16 192 32 16 192 32 16 192 32 16 192 32 16 192 32 16 192 32 16 192 32 16 192 32 16 192 32 16 192 32 16 192 32 16 192 32 16 192 32 16 192 32 16 192 32 16 192 32 16 192 32 16 192 32 16 32 40 16 32 40 16 32 40 16 32 40 16 32 40 16 32 40 16 32 40 16 32 40 16 32 40 16 32 40 16 32 40 16 32 40 16 32 40 16 32 40 16 32 40 16 32 40 16 32 40 16 32 40 16 32 40 16 32 40 16 32 40 16 32 40 16 32 40 16 32 40 16 32 40 16 32 40 16 32 40 16 32 40 16 32 40 16 32 40 16 32 40 16 32 40 16