P3
128 128
255
48 48 56 48 48 56 48 48 56 48 48 56 48 48 56 48 48 56 48 48 56 48 48 56 48 48 56 48 48 56 48 48 56 48 48 56 48 48 56 48 48 56 48 48 56 48 48 56 48 48 56 48 48 56 48 48 56 48 48 56 48 48 56 48 48 56 48 48 56 48 48 56 48 48 56 48 48 56 48 48 56 48 48 56 48 48 56 48 48 56 48 48 56 48 48 56 48 48 56 48 48 56 48 48 56 48 48 56 48 48 56 48 48 56 48 48 56 48 48 56 48 48 56 48 48 56 48 48 56 48 48 56 48 48 56 48 48 56 48 48 56 48 48 56 48 48 56 48 48 56 48 48 56 48 48 56 48 48 56 48 48 56 48 48 56 48 48 56 48 48 56 48 48 56 48 48 56 48 48 56 48 48 56 48 48 56 48 48 56 48 48 56 48 48 56 48 48 56 48 48 56 48 48 56 48 48 56 48 48 56 48 48 56 48 48 56 48 48 56 48 48 56 48 48 56 48 48 56 48 48 56 48 48 56 48 48 56 48 48 56 48 48 56 48 48 56 48 48 56 48 48 56 48 48 56 48 48 56 48 48 56 48 48 56 48 48 56 48 48 56 48 48 56 48 48 56 48 48 56 48 48 56 48 48 56 48 48 56 48 48 56 48 48 56 48 48 56 48 48 56 48 48 56 48 48 56 48 48 56 48 48 56 48 48 56 48 48 56 48 48 56 48 48 56 48 48 56 48 48 56 48 48 56 48 48 56 48 48 56 48 48 56 48 48 56 48 48 56 48 48 56 48 48 56 48 48 56 48 48 56 48 48 56 48 48 56 48 48 56 48 48 56 48 48 56 48 48 56 48 48 56 48 48 56
48 48 56 48 48 56 48 48 56 48 48 56 48 48 56 48 48 56 48 48 56 48 48 56 48 48 56 48 48 56 48 48 56 48 48 56 48 48 56 48 48 56 48 48 56 48 48 56 48 48 56 48 48 56 48 48 56 48 48 56 48 48 56 48 48 56 48 48 56 48 48 56 48 48 56 48 48 56 48 48 56 48 48 56 48 48 56 48 48 56 48 48 56 48 48 56 48 48 56 48 48 56 48 48 56 48 48 56 48 48 56 48 48 56 48 48 56 48 48 56 48 48 56 48 48 56 48 48 56 48 48 56 48 48 56 48 48 56 48 48 56 48 48 56 48 48 56 48 48 56 48 48 56 48 48 56 48 48 56 48 48 56 48 48 56 48 48 56 48 48 56 48 48 56 48 48 56 48 48 56 48 48 56 48 48 56 48 48 56 48 48 56 48 48 56 48 48 56 48 48 56 48 48 56 48 48 56 48 48 56 48 48 56 48 48 56 48 48 56 48 48 56 48 48 56 48 48 56 48 48 56 48 48 56 48 48 56 48 48 56 48 48 56 48 48 56 48 48 56 48 48 56 48 48 56 48 48 56 48 48 56 48 48 56 48 48 56 48 48 56 48 48 56 48 48 56 48 48 56 48 48 56 48 48 56 48 48 56 48 48 56 48 48 56 48 48 56 48 48 56 48 48 56 48 48 56 48 48 56 48 48 56 48 48 56 48 48 56 48 48 56 48 48 56 48 48 56 48 48 56 48 48 56 48 48 56 48 48 56 48 48 56 48 48 56 48 48 56 48 48 56 48 48 56 48 48 56 48 48 56 48 48 56 48 48 56 48 48 56 48 48 56 48 48 56 48 48 56 48 48 56 48 48 56
48 48 56 48 48 56 48 48 56 48 48 56 48 48 56 48 48 56 48 48 56 48 48 56 48 48 56 48 48 56 48 48 56 48 48 56 48 48 56 48 48 56 48 48 56 48 48 56 48 48 56 48 48 56 48 48 56 48 48 56 48 48 56 48 48 56 48 48 56 48 48 56 48 48 56 48 48 56 48 48 56 48 48 56 48 48 56 48 48 56 48 48 56 48 48 56 48 48 56 48 48 56 48 48 56 48 48 56 48 48 56 48 48 56 48 48 56 48 48 56 48 48 56 48 48 56 48 48 56 48 48 56 48 48 56 48 48 56 48 48 56 48 48 56 48 48 56 48 48 56 48 48 56 48 48 56 48 48 56 48 48 56 48 48 56 48 48 56 48 48 56 48 48 56 48 48 56 48 48 56 48 48 56 48 48 56 48 48 56 48 48 56 48 48 56 48 48 56 48 48 56 48 48 56 48 48 56 48 48 56 48 48 56 48 48 56 48 48 56 48 48 56 48 48 56 48 48 56 48 48 56 48 48 56 48 48 56 48 48 56 48 48 56 48 48 56 48 48 56 48 48 56 48 48 56 48 48 56 48 48 56 48 48 56 48 48 56 48 48 56 48 48 56 48 48 56 48 48 56 48 48 56 48 48 56 48 48 56 48 48 56 48 48 56 48 48 56 48 48 56 48 48 56 48 48 56 48 48 56 48 48 56 48 48 56 48 48 56 48 48 56 48 48 56 48 48 56 48 48 56 48 48 56 48 48 56 48 48 56 48 48 56 48 48 56 48 48 56 48 48 56 48 48 56 48 48 56 48 48 56 48 48 56 48 48 56 48 48 56 48 48 56 48 48 56 48 48 56 48 48 56 48 48 56
48 48 56 48 48 56 48 48 56 48 48 56 48 48 56 48 48 56 48 48 56 48 48 56 48 48 56 48 48 56 48 48 56 48 48 56 48 48 56 48 48 56 48 48 56 48 48 56 48 48 56 48 48 56 48 48 56 48 48 56 48 48 56 48 48 56 48 48 56 48 48 56 48 48 56 48 48 56 48 48 56 48 48 56 48 48 56 48 48 56 48 48 56 48 48 56 48 48 56 48 48 56 48 48 56 48 48 56 48 48 56 48 48 56 48 48 56 48 48 56 48 48 56 48 48 56 48 48 56 48 48 56 48 48 56 48 48 56 48 48 56 48 48 56 48 48 56 48 48 56 48 48 56 48 48 56 48 48 56 48 48 56 48 48 56 48 48 56 48 48 56 48 48 56 48 48 56 48 48 56 48 48 56 48 48 56 48 48 56 48 48 56 48 48 56 48 48 56 48 48 56 48 48 56 48 48 56 48 48 56 48 48 56 48 48 56 48 48 56 48 48 56 48 48 56 48 48 56 48 48 56 48 48 56 48 48 56 48 48 56 48 48 56 48 48 56 48 48 56 48 48 56 48 48 56 48 48 56 48 48 56 48 48 56 48 48 56 48 48 56 48 48 56 48 48 56 48 48 56 48 48 56 48 48 56 48 48 56 48 48 56 48 48 56 48 48 56 48 48 56 48 48 56 48 48 56 48 48 56 48 48 56 48 48 56 48 48 56 48 48 56 48 48 56 48 48 56 48 48 56 48 48 56 48 48 56 48 48 56 48 48 56 48 48 56 48 48 56 48 48 56 48 48 56 48 48 56 48 48 56 48 48 56 48 48 56 48 48 56 48 48 56 48 48 56 48 48 56 48 48 56 48 48 56
48 48 56 48 48 56 48 48 56 48 48 56 48 48 56 48 48 56 48 48 56 48 48 56 48 48 56 48 48 56 48 48 56 48 48 56 48 48 56 48 48 56 48 48 56 48 48 56 48 48 56 48 48 56 48 48 56 48 48 56 48 48 56 48 48 56 48 48 56 48 48 56 48 48 56 48 48 56 48 48 56 48 48 56 48 48 56 48 48 56 48 48 56 48 48 56 48 48 56 48 48 56 48 48 56 48 48 56 48 48 56 48 48 56 48 48 56 48 48 56 48 48 56 48 48 56 48 48 56 48 48 56 48 48 56 48 48 56 48 48 56 48 48 56 48 48 56 48 48 56 48 48 56 48 48 56 48 48 56 48 48 56 48 48 56 48 48 56 48 48 56 48 48 56 48 48 56 48 48 56 48 48 56 48 48 56 48 48 56 48 48 56 48 48 56 48 48 56 48 48 56 48 48 56 48 48 56 48 48 56 48 48 56 48 48 56 48 48 56 48 48 56 48 48 56 48 48 56 48 48 56 48 48 56 48 48 56 48 48 56 48 48 56 48 48 56 48 48 56 48 48 56 48 48 56 48 48 56 48 48 56 48 48 56 48 48 56 48 48 56 48 48 56 48 48 56 48 48 56 48 48 56 48 48 56 48 48 56 48 48 56 48 48 56 48 48 56 48 48 56 48 48 56 48 48 56 48 48 56 48 48 56 48 48 56 48 48 56 48 48 56 48 48 56 48 48 56 48 48 56 48 48 56 48 48 56 48 48 56 48 48 56 48 48 56 48 48 56 48 48 56 48 48 56 48 48 56 48 48 56 48 48 56 48 48 56 48 48 56 48 48 56 48 48 56 48 48 56 48 48 56 48 48 56
48 48 56 48 48 56 48 48 56 48 48 56 48 48 56 48 48 56 48 48 56 48 48 56 48 48 56 48 48 56 48 48 56 48 48 56 48 48 56 48 48 56 48 48 56 48 48 56 48 48 56 48 48 56 48 48 56 48 48 56 48 48 56 48 48 56 48 48 56 48 48 56 48 48 56 48 48 56 48 48 56 48 48 56 48 48 56 48 48 56 48 48 56 48 48 56 48 48 56 48 48 56 48 48 56 48 48 56 48 48 56 48 48 56 48 48 56 48 48 56 48 48 56 48 48 56 48 48 56 48 48 56 48 48 56 48 48 56 48 48 56 48 48 56 48 48 56 48 48 56 48 48 56 48 48 56 48 48 56 48 48 56 48 48 56 48 48 56 48 48 56 48 48 56 48 48 56 48 48 56 48 48 56 48 48 56 48 48 56 48 48 56 48 48 56 48 48 56 48 48 56 48 48 56 48 48 56 48 48 56 48 48 56 48 48 56 48 48 56 48 48 56 48 48 56 48 48 56 48 48 56 48 48 56 48 48 56 48 48 56 48 48 56 48 48 56 48 48 56 48 48 56 48 48 56 48 48 56 48 48 56 48 48 56 48 48 56 48 48 56 48 48 56 48 48 56 48 48 56 48 48 56 48 48 56 48 48 56 48 48 56 48 48 56 48 48 56 48 48 56 48 48 56 48 48 56 48 48 56 48 48 56 48 48 56 48 48 56 48 48 56 48 48 56 48 48 56 48 48 56 48 48 56 48 48 56 48 48 56 48 48 56 48 48 56 48 48 56 48 48 56 48 48 56 48 48 56 48 48 56 48 48 56 48 48 56 48 48 56 48 48 56 48 48 56 48 48 56 48 48 56 48 48 56
48 48 56 48 48 56 48 48 56 48 48 56 48 48 56 48 48 56 48 48 56 48 48 56 48 48 56 48 48 56 48 48 56 48 48 56 48 48 56 48 48 56 48 48 56 48 48 56 48 48 56 48 48 56 48 48 56 48 48 56 48 48 56 48 48 56 48 48 56 48 48 56 48 48 56 48 48 56 48 48 56 48 48 56 48 48 56 48 48 56 48 48 56 48 48 56 48 48 56 48 48 56 48 48 56 48 48 56 48 48 56 48 48 56 48 48 56 48 48 56 48 48 56 48 48 56 48 48 56 48 48 56 48 48 56 48 48 56 48 48 56 48 48 56 48 48 56 48 48 56 48 48 56 48 48 56 48 48 56 48 48 56 48 48 56 48 48 56 48 48 56 48 48 56 48 48 56 48 48 56 48 48 56 48 48 56 48 48 56 48 48 56 48 48 56 48 48 56 48 48 56 48 48 56 48 48 56 48 48 56 48 48 56 48 48 56 48 48 56 48 48 56 48 48 56 48 48 56 48 48 56 48 48 56 48 48 56 48 48 56 48 48 56 48 48 56 48 48 56 48 48 56 48 48 56 48 48 56 48 48 56 48 48 56 48 48 56 48 48 56 48 48 56 48 48 56 48 48 56 48 48 56 48 48 56 48 48 56 48 48 56 48 48 56 48 48 56 48 48 56 48 48 56 48 48 56 48 48 56 48 48 56 48 48 56 48 48 56 48 48 56 48 48 56 48 48 56 48 48 56 48 48 56 48 48 56 48 48 56 48 48 56 48 48 56 48 48 56 48 48 56 48 48 56 48 48 56 48 48 56 48 48 56 48 48 56 48 48 56 48 48 56 48 48 56 48 48 56 48 48 56 48 48 56
48 48 56 48 48 56 48 48 56 48 48 56 48 48 56 48 48 56 48 48 56 48 48 56 48 48 56 48 48 56 48 48 56 48 48 56 48 48 56 48 48 56 48 48 56 48 48 56 48 48 56 48 48 56 48 48 56 48 48 56 48 48 56 48 48 56 48 48 56 48 48 56 48 48 56 48 48 56 48 48 56 48 48 56 48 48 56 48 48 56 48 48 56 48 48 56 48 48 56 48 48 56 48 48 56 48 48 56 48 48 56 48 48 56 48 48 56 48 48 56 48 48 56 48 48 56 48 48 56 48 48 56 48 48 56 48 48 56 48 48 56 48 48 56 48 48 56 48 48 56 48 48 56 48 48 56 48 48 56 48 48 56 48 48 56 48 48 56 48 48 56 48 48 56 48 48 56 48 48 56 48 48 56 48 48 56 48 48 56 48 48 56 48 48 56 48 48 56 48 48 56 48 48 56 48 48 56 48 48 56 48 48 56 48 48 56 48 48 56 48 48 56 48 48 56 48 48 56 48 48 56 48 48 56 48 48 56 48 48 56 48 48 56 48 48 56 48 48 56 48 48 56 48 48 56 48 48 56 48 48 56 48 48 56 48 48 56 48 48 56 48 48 56 48 48 56 48 48 56 48 48 56 48 48 56 48 48 56 48 48 56 48 48 56 48 48 56 48 48 56 48 48 56 48 48 56 48 48 56 48 48 56 48 48 56 48 48 56 48 48 56 48 48 56 48 48 56 48 48 56 48 48 56 48 48 56 48 48 56 48 48 56 48 48 56 48 48 56 48 48 56 48 48 56 48 48 56 48 48 56 48 48 56 48 48 56 48 48 56 48 48 56 48 48 56 48 48 56 48 48 56 48 48 56
48 48 56 48 48 56 48 48 56 48 48 56 48 48 56 48 48 56 48 48 56 48 48 56 48 48 56 48 48 56 48 48 56 48 48 56 48 48 56 48 48 56 48 48 56 48 48 56 48 48 56 48 48 56 48 48 56 48 48 56 48 48 56 48 48 56 48 48 56 48 48 56 48 48 56 48 48 56 48 48 56 48 48 56 48 48 56 48 48 56 48 48 56 48 48 56 48 48 56 48 48 56 48 48 56 48 48 56 48 48 56 48 48 56 48 48 56 48 48 56 48 48 56 48 48 56 48 48 56 48 48 56 48 48 56 48 48 56 48 48 56 48 48 56 48 48 56 48 48 56 48 48 56 48 48 56 48 48 56 48 48 56 48 48 56 48 48 56 48 48 56 48 48 56 48 48 56 48 48 56 48 48 56 48 48 56 48 48 56 48 48 56 48 48 56 48 48 56 48 48 56 48 48 56 48 48 56 48 48 56 48 48 56 48 48 56 48 48 56 48 48 56 48 48 56 48 48 56 48 48 56 48 48 56 48 48 56 48 48 56 48 48 56 48 48 56 48 48 56 48 48 56 48 48 56 48 48 56 48 48 56 48 48 56 48 48 56 48 48 56 48 48 56 48 48 56 48 48 56 48 48 56 48 48 56 48 48 56 48 48 56 48 48 56 48 48 56 48 48 56 48 48 56 48 48 56 48 48 56 48 48 56 48 48 56 48 48 56 48 48 56 48 48 56 48 48 56 48 48 56 48 48 56 48 48 56 48 48 56 48 48 56 48 48 56 48 48 56 48 48 56 48 48 56 48 48 56 48 48 56 48 48 56 48 48 56 48 48 56 48 48 56 48 48 56 48 48 56 48 48 56 48 48 56
48 48 56 48 48 56 48 48 56 48 48 56 48 48 56 48 48 56 48 48 56 48 48 56 48 48 56 48 48 56 48 48 56 48 48 56 48 48 56 48 48 56 48 48 56 48 48 56 48 48 56 48 48 56 48 48 56 48 48 56 48 48 56 48 48 56 48 48 56 48 48 56 48 48 56 48 48 56 48 48 56 48 48 56 48 48 56 48 48 56 48 48 56 48 48 56 48 48 56 48 48 56 48 48 56 48 48 56 48 48 56 48 48 56 48 48 56 48 48 56 48 48 56 48 48 56 48 48 56 48 48 56 48 48 56 48 48 56 48 48 56 48 48 56 48 48 56 48 48 56 48 48 56 48 48 56 48 48 56 48 48 56 48 48 56 48 48 56 48 48 56 48 48 56 48 48 56 48 48 56 48 48 56 48 48 56 48 48 56 48 48 56 48 48 56 48 48 56 48 48 56 48 48 56 48 48 56 48 48 56 48 48 56 48 48 56 48 48 56 48 48 56 48 48 56 48 48 56 48 48 56 48 48 56 48 48 56 48 48 56 48 48 56 48 48 56 48 48 56 48 48 56 48 48 56 48 48 56 48 48 56 48 48 56 48 48 56 48 48 56 48 48 56 48 48 56 48 48 56 48 48 56 48 48 56 48 48 56 48 48 56 48 48 56 48 48 56 48 48 56 48 48 56 48 48 56 48 48 56 48 48 56 48 48 56 48 48 56 48 48 56 48 48 56 48 48 56 48 48 56 48 48 56 48 48 56 48 48 56 48 48 56 48 48 56 48 48 56 48 48 56 48 48 56 48 48 56 48 48 56 48 48 56 48 48 56 48 48 56 48 48 56 48 48 56 48 48 56 48 48 56 48 48 56
48 48 56 48 48 56 48 48 56 48 48 56 48 48 56 48 48 56 48 48 56 48 48 56 48 48 56 48 48 56 48 48 56 48 48 56 48 48 56 48 48 56 48 48 56 48 48 56 48 48 56 48 48 56 48 48 56 48 48 56 48 48 56 48 48 56 48 48 56 48 48 56 48 48 56 48 48 56 48 48 56 48 48 56 48 48 56 48 48 56 48 48 56 48 48 56 48 48 56 48 48 56 48 48 56 48 48 56 48 48 56 48 48 56 48 48 56 48 48 56 48 48 56 48 48 56 48 48 56 48 48 56 48 48 56 48 48 56 48 48 56 48 48 56 48 48 56 48 48 56 48 48 56 48 48 56 48 48 56 48 48 56 48 48 56 48 48 56 48 48 56 48 48 56 48 48 56 48 48 56 48 48 56 48 48 56 48 48 56 48 48 56 48 48 56 48 48 56 48 48 56 48 48 56 48 48 56 48 48 56 48 48 56 48 48 56 48 48 56 48 48 56 48 48 56 48 48 56 48 48 56 48 48 56 48 48 56 48 48 56 48 48 56 48 48 56 48 48 56 48 48 56 48 48 56 48 48 56 48 48 56 48 48 56 48 48 56 48 48 56 48 48 56 48 48 56 48 48 56 48 48 56 48 48 56 48 48 56 48 48 56 48 48 56 48 48 56 48 48 56 48 48 56 48 48 56 48 48 56 48 48 56 48 48 56 48 48 56 48 48 56 48 48 56 48 48 56 48 48 56 48 48 56 48 48 56 48 48 56 48 48 56 48 48 56 48 48 56 48 48 56 48 48 56 48 48 56 48 48 56 48 48 56 48 48 56 48 48 56 48 48 56 48 48 56 48 48 56 48 48 56 48 48 56
48 48 56 48 48 56 48 48 56 48 48 56 48 48 56 48 48 56 48 48 56 48 48 56 48 48 56 48 48 56 48 48 56 48 48 56 48 48 56 48 48 56 48 48 56 48 48 56 48 48 56 48 48 56 48 48 56 48 48 56 48 48 56 48 48 56 48 48 56 48 48 56 48 48 56 48 48 56 48 48 56 48 48 56 48 48 56 48 48 56 48 48 56 48 48 56 48 48 56 48 48 56 48 48 56 48 48 56 48 48 56 48 48 56 48 48 56 48 48 56 48 48 56 48 48 56 48 48 56 48 48 56 48 48 56 48 48 56 48 48 56 48 48 56 48 48 56 48 48 56 48 48 56 48 48 56 48 48 56 48 48 56 48 48 56 48 48 56 48 48 56 48 48 56 48 48 56 48 48 56 48 48 56 48 48 56 48 48 56 48 48 56 48 48 56 48 48 56 48 48 56 48 48 56 48 48 56 48 48 56 48 48 56 48 48 56 48 48 56 48 48 56 48 48 56 48 48 56 48 48 56 48 48 56 48 48 56 48 48 56 48 48 56 48 48 56 48 48 56 48 48 56 48 48 56 48 48 56 48 48 56 48 48 56 48 48 56 48 48 56 48 48 56 48 48 56 48 48 56 48 48 56 48 48 56 48 48 56 48 48 56 48 48 56 48 48 56 48 48 56 48 48 56 48 48 56 48 48 56 48 48 56 48 48 56 48 48 56 48 48 56 48 48 56 48 48 56 48 48 56 48 48 56 48 48 56 48 48 56 48 48 56 48 48 56 48 48 56 48 48 56 48 48 56 48 48 56 48 48 56 48 48 56 48 48 56 48 48 56 48 48 56 48 48 56 48 48 56 48 48 56 48 48 56
48 48 56 48 48 56 48 48 56 48 48 56 48 48 56 48 48 56 48 48 56 48 48 56 48 48 56 48 48 56 48 48 56 48 48 56 48 48 56 48 48 56 48 48 56 48 48 56 48 48 56 48 48 56 48 48 56 48 48 56 48 48 56 48 48 56 48 48 56 48 48 56 48 48 56 48 48 56 48 48 56 48 48 56 48 48 56 48 48 56 48 48 56 48 48 56 48 48 56 48 48 56 48 48 56 48 48 56 48 48 56 48 48 56 48 48 56 48 48 56 48 48 56 48 48 56 48 48 56 48 48 56 48 48 56 48 48 56 48 48 56 48 48 56 48 48 56 48 48 56 48 48 56 48 48 56 48 48 56 48 48 56 48 48 56 48 48 56 48 48 56 48 48 56 48 48 56 48 48 56 48 48 56 48 48 56 48 48 56 48 48 56 48 48 56 48 48 56 48 48 56 48 48 56 48 48 56 48 48 56 48 48 56 48 48 56 48 48 56 48 48 56 48 48 56 48 48 56 48 48 56 48 48 56 48 48 56 48 48 56 48 48 56 48 48 56 48 48 56 48 48 56 48 48 56 48 48 56 48 48 56 48 48 56 48 48 56 48 48 56 48 48 56 48 48 56 48 48 56 48 48 56 48 48 56 48 48 56 48 48 56 48 48 56 48 48 56 48 48 56 48 48 56 48 48 56 48 48 56 48 48 56 48 48 56 48 48 56 48 48 56 48 48 56 48 48 56 48 48 56 48 48 56 48 48 56 48 48 56 48 48 56 48 48 56 48 48 56 48 48 56 48 48 56 48 48 56 48 48 56 48 48 56 48 48 56 48 48 56 48 48 56 48 48 56 48 48 56 48 48 56 48 48 56
48 48 56 48 48 56 48 48 56 48 48 56 48 48 56 48 48 56 48 48 56 48 48 56 48 48 56 48 48 56 48 48 56 48 48 56 48 48 56 48 48 56 48 48 56 48 48 56 48 48 56 48 48 56 48 48 56 48 48 56 48 48 56 48 48 56 48 48 56 48 48 56 48 48 56 48 48 56 48 48 56 48 48 56 48 48 56 48 48 56 48 48 56 48 48 56 48 48 56 48 48 56 48 48 56 48 48 56 48 48 56 48 48 56 48 48 56 48 48 56 48 48 56 48 48 56 48 48 56 48 48 56 48 48 56 48 48 56 48 48 56 48 48 56 48 48 56 48 48 56 48 48 56 48 48 56 48 48 56 48 48 56 48 48 56 48 48 56 48 48 56 48 48 56 48 48 56 48 48 56 48 48 56 48 48 56 48 48 56 48 48 56 48 48 56 48 48 56 48 48 56 48 48 56 48 48 56 48 48 56 48 48 56 48 48 56 48 48 56 48 48 56 48 48 56 48 48 56 48 48 56 48 48 56 48 48 56 48 48 56 48 48 56 48 48 56 48 48 56 48 48 56 48 48 56 48 48 56 48 48 56 48 48 56 48 48 56 48 48 56 48 48 56 48 48 56 48 48 56 48 48 56 48 48 56 48 48 56 48 48 56 48 48 56 48 48 56 48 48 56 48 48 56 48 48 56 48 48 56 48 48 56 48 48 56 48 48 56 48 48 56 48 48 56 48 48 56 48 48 56 48 48 56 48 48 56 48 48 56 48 48 56 48 48 56 48 48 56 48 48 56 48 48 56 48 48 56 48 48 56 48 48 56 48 48 56 48 48 56 48 48 56 48 48 56 48 48 56 48 48 56 48 48 56
48 48 56 48 48 56 48 48 56 48 48 56 48 48 56 48 48 56 48 48 56 48 48 56 48 48 56 48 48 56 48 48 56 48 48 56 48 48 56 48 48 56 48 48 56 48 48 56 48 48 56 48 48 56 48 48 56 48 48 56 48 48 56 48 48 56 48 48 56 48 48 56 48 48 56 48 48 56 48 48 56 48 48 56 48 48 56 48 48 56 48 48 56 48 48 56 48 48 56 48 48 56 48 48 56 48 48 56 48 48 56 48 48 56 48 48 56 48 48 56 48 48 56 48 48 56 48 48 56 48 48 56 48 48 56 48 48 56 48 48 56 48 48 56 48 48 56 48 48 56 48 48 56 48 48 56 48 48 56 48 48 56 48 48 56 48 48 56 48 48 56 48 48 56 48 48 56 48 48 56 48 48 56 48 48 56 48 48 56 48 48 56 48 48 56 48 48 56 48 48 56 48 48 56 48 48 56 48 48 56 48 48 56 48 48 56 48 48 56 48 48 56 48 48 56 48 48 56 48 48 56 48 48 56 48 48 56 48 48 56 48 48 56 48 48 56 48 48 56 48 48 56 48 48 56 48 48 56 48 48 56 48 48 56 48 48 56 48 48 56 48 48 56 48 48 56 48 48 56 48 48 56 48 48 56 48 48 56 48 48 56 48 48 56 48 48 56 48 48 56 48 48 56 48 48 56 48 48 56 48 48 56 48 48 56 48 48 56 48 48 56 48 48 56 48 48 56 48 48 56 48 48 56 48 48 56 48 48 56 48 48 56 48 48 56 48 48 56 48 48 56 48 48 56 48 48 56 48 48 56 48 48 56 48 48 56 48 48 56 48 48 56 48 48 56 48 48 56 48 48 56 48 48 56
48 48 56 48 48 56 48 48 56 48 48 56 48 48 56 48 48 56 48 48 56 48 48 56 48 48 56 48 48 56 48 48 56 48 48 56 48 48 56 48 48 56 48 48 56 48 48 56 48 48 56 48 48 56 48 48 56 48 48 56 48 48 56 48 48 56 48 48 56 48 48 56 48 48 56 48 48 56 48 48 56 48 48 56 48 48 56 48 48 56 48 48 56 48 48 56 48 48 56 48 48 56 48 48 56 48 48 56 48 48 56 48 48 56 48 48 56 48 48 56 48 48 56 48 48 56 48 48 56 48 48 56 48 48 56 48 48 56 48 48 56 48 48 56 48 48 56 48 48 56 48 48 56 48 48 56 48 48 56 48 48 56 48 48 56 48 48 56 48 48 56 48 48 56 48 48 56 48 48 56 48 48 56 48 48 56 48 48 56 48 48 56 48 48 56 48 48 56 48 48 56 48 48 56 48 48 56 48 48 56 48 48 56 48 48 56 48 48 56 48 48 56 48 48 56 48 48 56 48 48 56 48 48 56 48 48 56 48 48 56 48 48 56 48 48 56 48 48 56 48 48 56 48 48 56 48 48 56 48 48 56 48 48 56 48 48 56 48 48 56 48 48 56 48 48 56 48 48 56 48 48 56 48 48 56 48 48 56 48 48 56 48 48 56 48 48 56 48 48 56 48 48 56 48 48 56 48 48 56 48 48 56 48 48 56 48 48 56 48 48 56 48 48 56 48 48 56 48 48 56 48 48 56 48 48 56 48 48 56 48 48 56 48 48 56 48 48 56 48 48 56 48 48 56 48 48 56 48 48 56 48 48 56 48 48 56 48 48 56 48 48 56 48 48 56 48 48 56 48 48 56 48 48 56
48 48 56 48 48 56 48 48 56 48 48 56 48 48 56 48 48 56 48 48 56 48 48 56 48 48 56 48 48 56 48 48 56 48 48 56 48 48 56 48 48 56 48 48 56 48 48 56 48 48 56 48 48 56 48 48 56 48 48 56 48 48 56 48 48 56 48 48 56 48 48 56 48 48 56 48 48 56 48 48 56 48 48 56 48 48 56 48 48 56 48 48 56 48 48 56 48 48 56 48 48 56 48 48 56 48 48 56 48 48 56 48 48 56 48 48 56 48 48 56 48 48 56 48 48 56 48 48 56 48 48 56 48 48 56 48 48 56 48 48 56 48 48 56 48 48 56 48 48 56 48 48 56 48 48 56 48 48 56 48 48 56 48 48 56 48 48 56 48 48 56 48 48 56 48 48 56 48 48 56 48 48 56 48 48 56 48 48 56 48 48 56 48 48 56 48 48 56 48 48 56 48 48 56 48 48 56 48 48 56 48 48 56 48 48 56 48 48 56 48 48 56 48 48 56 48 48 56 48 48 56 48 48 56 48 48 56 48 48 56 48 48 56 48 48 56 48 48 56 48 48 56 48 48 56 48 48 56 48 48 56 48 48 56 48 48 56 48 48 56 48 48 56 48 48 56 48 48 56 48 48 56 48 48 56 48 48 56 48 48 56 48 48 56 48 48 56 48 48 56 48 48 56 48 48 56 48 48 56 48 48 56 48 48 56 48 48 56 48 48 56 48 48 56 48 48 56 48 48 56 48 48 56 48 48 56 48 48 56 48 48 56 48 48 56 48 48 56 48 48 56 48 48 56 48 48 56 48 48 56 48 48 56 48 48 56 48 48 56 48 48 56 48 48 56 48 48 56 48 48 56 48 48 56
48 48 56 48 48 56 48 48 56 48 48 56 48 48 56 48 48 56 48 48 56 48 48 56 48 48 56 48 48 56 48 48 56 48 48 56 48 48 56 48 48 56 48 48 56 48 48 56 48 48 56 48 48 56 48 48 56 48 48 56 48 48 56 48 48 56 48 48 56 48 48 56 48 48 56 48 48 56 48 48 56 48 48 56 48 48 56 48 48 56 48 48 56 48 48 56 48 48 56 48 48 56 48 48 56 48 48 56 48 48 56 48 48 56 48 48 56 48 48 56 48 48 56 48 48 56 48 48 56 48 48 56 48 48 56 48 48 56 48 48 56 48 48 56 48 48 56 48 48 56 48 48 56 48 48 56 48 48 56 48 48 56 48 48 56 48 48 56 48 48 56 48 48 56 48 48 56 48 48 56 48 48 56 48 48 56 48 48 56 48 48 56 48 48 56 48 48 56 48 48 56 48 48 56 48 48 56 48 48 56 48 48 56 48 48 56 48 48 56 48 48 56 48 48 56 48 48 56 48 48 56 48 48 56 48 48 56 48 48 56 48 48 56 48 48 56 48 48 56 48 48 56 48 48 56 48 48 56 48 48 56 48 48 56 48 48 56 48 48 56 48 48 56 48 48 56 48 48 56 48 48 56 48 48 56 48 48 56 48 48 56 48 48 56 48 48 56 48 48 56 48 48 56 48 48 56 48 48 56 48 48 56 48 48 56 48 48 56 48 48 56 48 48 56 48 48 56 48 48 56 48 48 56 48 48 56 48 48 56 48 48 56 48 48 56 48 48 56 48 48 56 48 48 56 48 48 56 48 48 56 48 48 56 48 48 56 48 48 56 48 48 56 48 48 56 48 48 56 48 48 56 48 48 56
48 48 56 48 48 56 48 48 56 48 48 56 48 48 56 48 48 56 48 48 56 48 48 56 48 48 56 48 48 56 48 48 56 48 48 56 48 48 56 48 48 56 48 48 56 48 48 56 48 48 56 48 48 56 48 48 56 48 48 56 48 48 56 48 48 56 48 48 56 48 48 56 48 48 56 48 48 56 48 48 56 48 48 56 48 48 56 48 48 56 48 48 56 48 48 56 48 48 56 48 48 56 48 48 56 48 48 56 48 48 56 48 48 56 48 48 56 48 48 56 48 48 56 48 48 56 48 48 56 48 48 56 48 48 56 48 48 56 48 48 56 48 48 56 48 48 56 48 48 56 48 48 56 48 48 56 48 48 56 48 48 56 48 48 56 48 48 56 48 48 56 48 48 56 48 48 56 48 48 56 48 48 56 48 48 56 48 48 56 48 48 56 48 48 56 48 48 56 48 48 56 48 48 56 48 48 56 48 48 56 48 48 56 48 48 56 48 48 56 48 48 56 48 48 56 48 48 56 48 48 56 48 48 56 48 48 56 48 48 56 48 48 56 48 48 56 48 48 56 48 48 56 48 48 56 48 48 56 48 48 56 48 48 56 48 48 56 48 48 56 48 48 56 48 48 56 48 48 56 48 48 56 48 48 56 48 48 56 48 48 56 48 48 56 48 48 56 48 48 56 48 48 56 48 48 56 48 48 56 48 48 56 48 48 56 48 48 56 48 48 56 48 48 56 48 48 56 48 48 56 48 48 56 48 48 56 48 48 56 48 48 56 48 48 56 48 48 56 48 48 56 48 48 56 48 48 56 48 48 56 48 48 56 48 48 56 48 48 56 48 48 56 48 48 56 48 48 56 48 48 56 48 48 56
48 48 56 48 48 56 48 48 56 48 48 56 48 48 56 48 48 56 48 48 56 48 48 56 48 48 56 48 48 56 48 48 56 48 48 56 48 48 56 48 48 56 48 48 56 48 48 56 48 48 56 48 48 56 48 48 56 48 48 56 48 48 56 48 48 56 48 48 56 48 48 56 48 48 56 48 48 56 48 48 56 48 48 56 48 48 56 48 48 56 48 48 56 48 48 56 48 48 56 48 48 56 48 48 56 48 48 56 48 48 56 48 48 56 48 48 56 48 48 56 48 48 56 48 48 56 48 48 56 48 48 56 48 48 56 48 48 56 48 48 56 48 48 56 48 48 56 48 48 56 48 48 56 48 48 56 48 48 56 48 48 56 48 48 56 48 48 56 48 48 56 48 48 56 48 48 56 48 48 56 48 48 56 48 48 56 48 48 56 48 48 56 48 48 56 48 48 56 48 48 56 48 48 56 48 48 56 48 48 56 48 48 56 48 48 56 48 48 56 48 48 56 48 48 56 48 48 56 48 48 56 48 48 56 48 48 56 48 48 56 48 48 56 48 48 56 48 48 56 48 48 56 48 48 56 48 48 56 48 48 56 48 48 56 48 48 56 48 48 56 48 48 56 48 48 56 48 48 56 48 48 56 48 48 56 48 48 56 48 48 56 48 48 56 48 48 56 48 48 56 48 48 56 48 48 56 48 48 56 48 48 56 48 48 56 48 48 56 48 48 56 48 48 56 48 48 56 48 48 56 48 48 56 48 48 56 48 48 56 48 48 56 48 48 56 48 48 56 48 48 56 48 48 56 48 48 56 48 48 56 48 48 56 48 48 56 48 48 56 48 48 56 48 48 56 48 48 56 48 48 56 48 48 56
48 48 56 48 48 56 48 48 56 48 48 56 48 48 56 48 48 56 48 48 56 48 48 56 48 48 56 48 48 56 48 48 56 48 48 56 48 48 56 48 48 56 48 48 56 48 48 56 48 48 56 48 48 56 48 48 56 48 48 56 48 48 56 48 48 56 48 48 56 48 48 56 48 48 56 48 48 56 48 48 56 48 48 56 48 48 56 48 48 56 48 48 56 48 48 56 48 48 56 48 48 56 48 48 56 48 48 56 48 48 56 48 48 56 48 48 56 48 48 56 48 48 56 48 48 56 48 48 56 48 48 56 48 48 56 48 48 56 48 48 56 48 48 56 48 48 56 48 48 56 48 48 56 48 48 56 48 48 56 48 48 56 48 48 56 48 48 56 48 48 56 48 48 56 48 48 56 48 48 56 48 48 56 48 48 56 48 48 56 48 48 56 48 48 56 48 48 56 48 48 56 48 48 56 48 48 56 48 48 56 48 48 56 48 48 56 48 48 56 48 48 56 48 48 56 48 48 56 48 48 56 48 48 56 48 48 56 48 48 56 48 48 56 48 48 56 48 48 56 48 48 56 48 48 56 48 48 56 48 48 56 48 48 56 48 48 56 48 48 56 48 48 56 48 48 56 48 48 56 48 48 56 48 48 56 48 48 56 48 48 56 48 48 56 48 48 56 48 48 56 48 48 56 48 48 56 48 48 56 48 48 56 48 48 56 48 48 56 48 48 56 48 48 56 48 48 56 48 48 56 48 48 56 48 48 56 48 48 56 48 48 56 48 48 56 48 48 56 48 48 56 48 48 56 48 48 56 48 48 56 48 48 56 48 48 56 48 48 56 48 48 56 48 48 56 48 48 56 48 48 56 48 48 56
48 48 56 48 48 56 48 48 56 48 48 56 48 48 56 48 48 56 48 48 56 48 48 56 48 48 56 48 48 56 48 48 56 48 48 56 48 48 56 48 48 56 48 48 56 48 48 56 48 48 56 48 48 56 48 48 56 48 48 56 48 48 56 48 48 56 48 48 56 48 48 56 48 48 56 48 48 56 48 48 56 48 48 56 48 48 56 48 48 56 48 48 56 48 48 56 48 48 56 48 48 56 48 48 56 48 48 56 48 48 56 48 48 56 48 48 56 48 48 56 48 48 56 48 48 56 48 48 56 48 48 56 48 48 56 48 48 56 48 48 56 48 48 56 48 48 56 48 48 56 48 48 56 48 48 56 48 48 56 48 48 56 48 48 56 48 48 56 48 48 56 48 48 56 48 48 56 48 48 56 48 48 56 48 48 56 48 48 56 48 48 56 48 48 56 48 48 56 48 48 56 48 48 56 48 48 56 48 48 56 48 48 56 48 48 56 48 48 56 48 48 56 48 48 56 48 48 56 48 48 56 48 48 56 48 48 56 48 48 56 48 48 56 48 48 56 48 48 56 48 48 56 48 48 56 48 48 56 48 48 56 48 48 56 48 48 56 48 48 56 48 48 56 48 48 56 48 48 56 48 48 56 48 48 56 48 48 56 48 48 56 48 48 56 48 48 56 48 48 56 48 48 56 48 48 56 48 48 56 48 48 56 48 48 56 48 48 56 48 48 56 48 48 56 48 48 56 48 48 56 48 48 56 48 48 56 48 48 56 48 48 56 48 48 56 48 48 56 48 48 56 48 48 56 48 48 56 48 48 56 48 48 56 48 48 56 48 48 56 48 48 56 48 48 56 48 48 56 48 48 56 48 48 56
48 48 56 48 48 56 48 48 56 48 48 56 48 48 56 48 48 56 48 48 56 48 48 56 48 48 56 48 48 56 48 48 56 48 48 56 48 48 56 48 48 56 48 48 56 48 48 56 48 48 56 48 48 56 48 48 56 48 48 56 48 48 56 48 48 56 48 48 56 48 48 56 48 48 56 48 48 56 48 48 56 48 48 56 48 48 56 48 48 56 48 48 56 48 48 56 48 48 56 48 48 56 48 48 56 48 48 56 48 48 56 48 48 56 48 48 56 48 48 56 48 48 56 48 48 56 48 48 56 48 48 56 48 48 56 48 48 56 48 48 56 48 48 56 48 48 56 48 48 56 48 48 56 48 48 56 48 48 56 48 48 56 48 48 56 48 48 56 48 48 56 48 48 56 48 48 56 48 48 56 48 48 56 48 48 56 48 48 56 48 48 56 48 48 56 48 48 56 48 48 56 48 48 56 48 48 56 48 48 56 48 48 56 48 48 56 48 48 56 48 48 56 48 48 56 48 48 56 48 48 56 48 48 56 48 48 56 48 48 56 48 48 56 48 48 56 48 48 56 48 48 56 48 48 56 48 48 56 48 48 56 48 48 56 48 48 56 48 48 56 48 48 56 48 48 56 48 48 56 48 48 56 48 48 56 48 48 56 48 48 56 48 48 56 48 48 56 48 48 56 48 48 56 48 48 56 48 48 56 48 48 56 48 48 56 48 48 56 48 48 56 48 48 56 48 48 56 48 48 56 48 48 56 48 48 56 48 48 56 48 48 56 48 48 56 48 48 56 48 48 56 48 48 56 48 48 56 48 48 56 48 48 56 48 48 56 48 48 56 48 48 56 48 48 56 48 48 56 48 48 56 48 48 56
48 48 56 48 48 56 48 48 56 48 48 56 48 48 56 48 48 56 48 48 56 48 48 56 48 48 56 48 48 56 48 48 56 48 48 56 48 48 56 48 48 56 48 48 56 48 48 56 48 48 56 48 48 56 48 48 56 48 48 56 48 48 56 48 48 56 48 48 56 48 48 56 48 48 56 48 48 56 48 48 56 48 48 56 48 48 56 48 48 56 48 48 56 48 48 56 48 48 56 48 48 56 48 48 56 48 48 56 48 48 56 48 48 56 48 48 56 48 48 56 48 48 56 48 48 56 48 48 56 48 48 56 48 48 56 48 48 56 48 48 56 48 48 56 48 48 56 48 48 56 48 48 56 48 48 56 48 48 56 48 48 56 48 48 56 48 48 56 48 48 56 48 48 56 48 48 56 48 48 56 48 48 56 48 48 56 48 48 56 48 48 56 48 48 56 48 48 56 48 48 56 48 48 56 48 48 56 48 48 56 48 48 56 48 48 56 48 48 56 48 48 56 48 48 56 48 48 56 48 48 56 48 48 56 48 48 56 48 48 56 48 48 56 48 48 56 48 48 56 48 48 56 48 48 56 48 48 56 48 48 56 48 48 56 48 48 56 48 48 56 48 48 56 48 48 56 48 48 56 48 48 56 48 48 56 48 48 56 48 48 56 48 48 56 48 48 56 48 48 56 48 48 56 48 48 56 48 48 56 48 48 56 48 48 56 48 48 56 48 48 56 48 48 56 48 48 56 48 48 56 48 48 56 48 48 56 48 48 56 48 48 56 48 48 56 48 48 56 48 48 56 48 48 56 48 48 56 48 48 56 48 48 56 48 48 56 48 48 56 48 48 56 48 48 56 48 48 56 48 48 56 48 48 56
48 48 56 48 48 56 48 48 56 48 48 56 48 48 56 48 48 56 48 48 56 48 48 56 48 48 56 48 48 56 48 48 56 48 48 56 48 48 56 48 48 56 48 48 56 48 48 56 48 48 56 48 48 56 48 48 56 48 48 56 48 48 56 48 48 56 48 48 56 48 48 56 48 48 56 48 48 56 48 48 56 48 48 56 48 48 56 48 48 56 48 48 56 48 48 56 48 48 56 48 48 56 48 48 56 48 48 56 48 48 56 48 48 56 48 48 56 48 48 56 48 48 56 48 48 56 48 48 56 48 48 56 48 48 56 48 48 56 48 48 56 48 48 56 48 48 56 48 48 56 48 48 56 48 48 56 48 48 56 48 48 56 48 48 56 48 48 56 48 48 56 48 48 56 48 48 56 48 48 56 48 48 56 48 48 56 48 48 56 48 48 56 48 48 56 48 48 56 48 48 56 48 48 56 48 48 56 48 48 56 48 48 56 48 48 56 48 48 56 48 48 56 48 48 56 48 48 56 48 48 56 48 48 56 48 48 56 48 48 56 48 48 56 48 48 56 48 48 56 48 48 56 48 48 56 48 48 56 48 48 56 48 48 56 48 48 56 48 48 56 48 48 56 48 48 56 48 48 56 48 48 56 48 48 56 48 48 56 48 48 56 48 48 56 48 48 56 48 48 56 48 48 56 48 48 56 48 48 56 48 48 56 48 48 56 48 48 56 48 48 56 48 48 56 48 48 56 48 48 56 48 48 56 48 48 56 48 48 56 48 48 56 48 48 56 48 48 56 48 48 56 48 48 56 48 48 56 48 48 56 48 48 56 48 48 56 48 48 56 48 48 56 48 48 56 48 48 56 48 48 56 48 48 56
48 48 56 48 48 56 48 48 56 48 48 56 48 48 56 48 48 56 48 48 56 48 48 56 48 48 56 48 48 56 48 48 56 48 48 56 48 48 56 48 48 56 48 48 56 48 48 56 48 48 56 48 48 56 48 48 56 48 48 56 48 48 56 48 48 56 48 48 56 48 48 56 48 48 56 48 48 56 48 48 56 48 48 56 48 48 56 48 48 56 48 48 56 48 48 56 48 48 56 48 48 56 48 48 56 48 48 56 48 48 56 48 48 56 48 48 56 48 48 56 48 48 56 48 48 56 48 48 56 48 48 56 48 48 56 48 48 56 48 48 56 48 48 56 48 48 56 48 48 56 48 48 56 48 48 56 48 48 56 48 48 56 48 48 56 48 48 56 48 48 56 48 48 56 48 48 56 48 48 56 48 48 56 48 48 56 48 48 56 48 48 56 48 48 56 48 48 56 48 48 56 48 48 56 48 48 56 48 48 56 48 48 56 48 48 56 48 48 56 48 48 56 48 48 56 48 48 56 48 48 56 48 48 56 48 48 56 48 48 56 48 48 56 48 48 56 48 48 56 48 48 56 48 48 56 48 48 56 48 48 56 48 48 56 48 48 56 48 48 56 48 48 56 48 48 56 48 48 56 48 48 56 48 48 56 48 48 56 48 48 56 48 48 56 48 48 56 48 48 56 48 48 56 48 48 56 48 48 56 48 48 56 48 48 56 48 48 56 48 48 56 48 48 56 48 48 56 48 48 56 48 48 56 48 48 56 48 48 56 48 48 56 48 48 56 48 48 56 48 48 56 48 48 56 48 48 56 48 48 56 48 48 56 48 48 56 48 48 56 48 48 56 48 48 56 48 48 56 48 48 56 48 48 56
48 48 56 48 48 56 48 48 56 48 48 56 48 48 56 48 48 56 48 48 56 48 48 56 48 48 56 48 48 56 48 48 56 48 48 56 48 48 56 48 48 56 48 48 56 48 48 56 48 48 56 48 48 56 48 48 56 48 48 56 48 48 56 48 48 56 48 48 56 48 48 56 48 48 56 48 48 56 48 48 56 48 48 56 48 48 56 48 48 56 48 48 56 48 48 56 48 48 56 48 48 56 48 48 56 48 48 56 48 48 56 48 48 56 48 48 56 48 48 56 48 48 56 48 48 56 48 48 56 48 48 56 48 48 56 48 48 56 48 48 56 48 48 56 48 48 56 48 48 56 48 48 56 48 48 56 48 48 56 48 48 56 48 48 56 48 48 56 48 48 56 48 48 56 48 48 56 48 48 56 48 48 56 48 48 56 48 48 56 48 48 56 48 48 56 48 48 56 48 48 56 48 48 56 48 48 56 48 48 56 48 48 56 48 48 56 48 48 56 48 48 56 48 48 56 48 48 56 48 48 56 48 48 56 48 48 56 48 48 56 48 48 56 48 48 56 48 48 56 48 48 56 48 48 56 48 48 56 48 48 56 48 48 56 48 48 56 48 48 56 48 48 56 48 48 56 48 48 56 48 48 56 48 48 56 48 48 56 48 48 56 48 48 56 48 48 56 48 48 56 48 48 56 48 48 56 48 48 56 48 48 56 48 48 56 48 48 56 48 48 56 48 48 56 48 48 56 48 48 56 48 48 56 48 48 56 48 48 56 48 48 56 48 48 56 48 48 56 48 48 56 48 48 56 48 48 56 48 48 56 48 48 56 48 48 56 48 48 56 48 48 56 48 48 56 48 48 56 48 48 56 48 48 56
48 48 56 48 48 56 48 48 56 48 48 56 48 48 56 48 48 56 48 48 56 48 48 56 48 48 56 48 48 56 48 48 56 48 48 56 48 48 56 48 48 56 48 48 56 48 48 56 48 48 56 48 48 56 48 48 56 48 48 56 48 48 56 48 48 56 48 48 56 48 48 56 48 48 56 48 48 56 48 48 56 48 48 56 48 48 56 48 48 56 48 48 56 48 48 56 48 48 56 48 48 56 48 48 56 48 48 56 48 48 56 48 48 56 48 48 56 48 48 56 48 48 56 48 48 56 48 48 56 48 48 56 48 48 56 48 48 56 48 48 56 48 48 56 48 48 56 48 48 56 48 48 56 48 48 56 48 48 56 48 48 56 48 48 56 48 48 56 48 48 56 48 48 56 48 48 56 48 48 56 48 48 56 48 48 56 48 48 56 48 48 56 48 48 56 48 48 56 48 48 56 48 48 56 48 48 56 48 48 56 48 48 56 48 48 56 48 48 56 48 48 56 48 48 56 48 48 56 48 48 56 48 48 56 48 48 56 48 48 56 48 48 56 48 48 56 48 48 56 48 48 56 48 48 56 48 48 56 48 48 56 48 48 56 48 48 56 48 48 56 48 48 56 48 48 56 48 48 56 48 48 56 48 48 56 48 48 56 48 48 56 48 48 56 48 48 56 48 48 56 48 48 56 48 48 56 48 48 56 48 48 56 48 48 56 48 48 56 48 48 56 48 48 56 48 48 56 48 48 56 48 48 56 48 48 56 48 48 56 48 48 56 48 48 56 48 48 56 48 48 56 48 48 56 48 48 56 48 48 56 48 48 56 48 48 56 48 48 56 48 48 56 48 48 56 48 48 56 48 48 56 48 48 56
48 48 56 48 48 56 48 48 56 48 48 56 48 48 56 48 48 56 48 48 56 48 48 56 48 48 56 48 48 56 48 48 56 48 48 56 48 48 56 48 48 56 48 48 56 48 48 56 48 48 56 48 48 56 48 48 56 48 48 56 48 48 56 48 48 56 48 48 56 48 48 56 48 48 56 48 48 56 48 48 56 48 48 56 48 48 56 48 48 56 48 48 56 48 48 56 48 48 56 48 48 56 48 48 56 48 48 56 48 48 56 48 48 56 48 48 56 48 48 56 48 48 56 48 48 56 48 48 56 48 48 56 48 48 56 48 48 56 48 48 56 48 48 56 48 48 56 48 48 56 48 48 56 48 48 56 48 48 56 48 48 56 48 48 56 48 48 56 48 48 56 48 48 56 48 48 56 48 48 56 48 48 56 48 48 56 48 48 56 48 48 56 48 48 56 48 48 56 48 48 56 48 48 56 48 48 56 48 48 56 48 48 56 48 48 56 48 48 56 48 48 56 48 48 56 48 48 56 48 48 56 48 48 56 48 48 56 48 48 56 48 48 56 48 48 56 48 48 56 48 48 56 48 48 56 48 48 56 48 48 56 48 48 56 48 48 56 48 48 56 48 48 56 48 48 56 48 48 56 48 48 56 48 48 56 48 48 56 48 48 56 48 48 56 48 48 56 48 48 56 48 48 56 48 48 56 48 48 56 48 48 56 48 48 56 48 48 56 48 48 56 48 48 56 48 48 56 48 48 56 48 48 56 48 48 56 48 48 56 48 48 56 48 48 56 48 48 56 48 48 56 48 48 56 48 48 56 48 48 56 48 48 56 48 48 56 48 48 56 48 48 56 48 48 56 48 48 56 48 48 56 48 48 56
48 48 56 48 48 56 48 48 56 48 48 56 48 48 56 48 48 56 48 48 56 48 48 56 48 48 56 48 48 56 48 48 56 48 48 56 48 48 56 48 48 56 48 48 56 48 48 56 48 48 56 48 48 56 48 48 56 48 48 56 48 48 56 48 48 56 48 48 56 48 48 56 48 48 56 48 48 56 48 48 56 48 48 56 48 48 56 48 48 56 48 48 56 48 48 56 48 48 56 48 48 56 48 48 56 48 48 56 48 48 56 48 48 56 48 48 56 48 48 56 48 48 56 48 48 56 48 48 56 48 48 56 48 48 56 48 48 56 48 48 56 48 48 56 48 48 56 48 48 56 48 48 56 48 48 56 48 48 56 48 48 56 48 48 56 48 48 56 48 48 56 48 48 56 48 48 56 48 48 56 48 48 56 48 48 56 48 48 56 48 48 56 48 48 56 48 48 56 48 48 56 48 48 56 48 48 56 48 48 56 48 48 56 48 48 56 48 48 56 48 48 56 48 48 56 48 48 56 48 48 56 48 48 56 48 48 56 48 48 56 48 48 56 48 48 56 48 48 56 48 48 56 48 48 56 48 48 56 48 48 56 48 48 56 48 48 56 48 48 56 48 48 56 48 48 56 48 48 56 48 48 56 48 48 56 48 48 56 48 48 56 48 48 56 48 48 56 48 48 56 48 48 56 48 48 56 48 48 56 48 48 56 48 48 56 48 48 56 48 48 56 48 48 56 48 48 56 48 48 56 48 48 56 48 48 56 48 48 56 48 48 56 48 48 56 48 48 56 48 48 56 48 48 56 48 48 56 48 48 56 48 48 56 48 48 56 48 48 56 48 48 56 48 48 56 48 48 56 48 48 56 48 48 56
48 48 56 48 48 56 48 48 56 48 48 56 48 48 56 48 48 56 48 48 56 48 48 56 48 48 56 48 48 56 48 48 56 48 48 56 48 48 56 48 48 56 48 48 56 48 48 56 48 48 56 48 48 56 48 48 56 48 48 56 48 48 56 48 48 56 48 48 56 48 48 56 48 48 56 48 48 56 48 48 56 48 48 56 48 48 56 48 48 56 48 48 56 48 48 56 48 48 56 48 48 56 48 48 56 48 48 56 48 48 56 48 48 56 48 48 56 48 48 56 48 48 56 48 48 56 48 48 56 48 48 56 48 48 56 48 48 56 48 48 56 48 48 56 48 48 56 48 48 56 48 48 56 48 48 56 48 48 56 48 48 56 48 48 56 48 48 56 48 48 56 48 48 56 48 48 56 48 48 56 48 48 56 48 48 56 48 48 56 48 48 56 48 48 56 48 48 56 48 48 56 48 48 56 48 48 56 48 48 56 48 48 56 48 48 56 48 48 56 48 48 56 48 48 56 48 48 56 48 48 56 48 48 56 48 48 56 48 48 56 48 48 56 48 48 56 48 48 56 48 48 56 48 48 56 48 48 56 48 48 56 48 48 56 48 48 56 48 48 56 48 48 56 48 48 56 48 48 56 48 48 56 48 48 56 48 48 56 48 48 56 48 48 56 48 48 56 48 48 56 48 48 56 48 48 56 48 48 56 48 48 56 48 48 56 48 48 56 48 48 56 48 48 56 48 48 56 48 48 56 48 48 56 48 48 56 48 48 56 48 48 56 48 48 56 48 48 56 48 48 56 48 48 56 48 48 56 48 48 56 48 48 56 48 48 56 48 48 56 48 48 56 48 48 56 48 48 56 48 48 56 48 48 56
48 48 56 48 48 56 48 48 56 48 48 56 48 48 56 48 48 56 48 48 56 48 48 56 48 48 56 48 48 56 48 48 56 48 48 56 48 48 56 48 48 56 48 48 56 48 48 56 48 48 56 48 48 56 48 48 56 48 48 56 48 48 56 48 48 56 48 48 56 48 48 56 48 48 56 48 48 56 48 48 56 48 48 56 48 48 56 48 48 56 48 48 56 48 48 56 48 48 56 48 48 56 48 48 56 48 48 56 48 48 56 48 48 56 48 48 56 48 48 56 48 48 56 48 48 56 48 48 56 48 48 56 48 48 56 48 48 56 48 48 56 48 48 56 48 48 56 48 48 56 48 48 56 48 48 56 48 48 56 48 48 56 48 48 56 48 48 56 48 48 56 48 48 56 48 48 56 48 48 56 48 48 56 48 48 56 48 48 56 48 48 56 48 48 56 48 48 56 48 48 56 48 48 56 48 48 56 48 48 56 48 48 56 48 48 56 48 48 56 48 48 56 48 48 56 48 48 56 48 48 56 48 48 56 48 48 56 48 48 56 48 48 56 48 48 56 48 48 56 48 48 56 48 48 56 48 48 56 48 48 56 48 48 56 48 48 56 48 48 56 48 48 56 48 48 56 48 48 56 48 48 56 48 48 56 48 48 56 48 48 56 48 48 56 48 48 56 48 48 56 48 48 56 48 48 56 48 48 56 48 48 56 48 48 56 48 48 56 48 48 56 48 48 56 48 48 56 48 48 56 48 48 56 48 48 56 48 48 56 48 48 56 48 48 56 48 48 56 48 48 56 48 48 56 48 48 56 48 48 56 48 48 56 48 48 56 48 48 56 48 48 56 48 48 56 48 48 56 48 48 56 48 48 56
48 48 56 48 48 56 48 48 56 48 48 56 48 48 56 48 48 56 48 48 56 48 48 56 48 48 56 48 48 56 48 48 56 48 48 56 48 48 56 48 48 56 48 48 56 48 48 56 48 48 56 48 48 56 48 48 56 48 48 56 48 48 56 48 48 56 48 48 56 48 48 56 48 48 56 48 48 56 48 48 56 48 48 56 48 48 56 48 48 56 48 48 56 48 48 56 48 48 56 48 48 56 48 48 56 48 48 56 48 48 56 48 48 56 48 48 56 48 48 56 48 48 56 48 48 56 48 48 56 48 48 56 48 48 56 48 48 56 48 48 56 48 48 56 48 48 56 48 48 56 48 48 56 48 48 56 48 48 56 48 48 56 48 48 56 48 48 56 48 48 56 48 48 56 48 48 56 48 48 56 48 48 56 48 48 56 48 48 56 48 48 56 48 48 56 48 48 56 48 48 56 48 48 56 48 48 56 48 48 56 48 48 56 48 48 56 48 48 56 48 48 56 48 48 56 48 48 56 48 48 56 48 48 56 48 48 56 48 48 56 48 48 56 48 48 56 48 48 56 48 48 56 48 48 56 48 48 56 48 48 56 48 48 56 48 48 56 48 48 56 48 48 56 48 48 56 48 48 56 48 48 56 48 48 56 48 48 56 48 48 56 48 48 56 48 48 56 48 48 56 48 48 56 48 48 56 48 48 56 48 48 56 48 48 56 48 48 56 48 48 56 48 48 56 48 48 56 48 48 56 48 48 56 48 48 56 48 48 56 48 48 56 48 48 56 48 48 56 48 48 56 48 48 56 48 48 56 48 48 56 48 48 56 48 48 56 48 48 56 48 48 56 48 48 56 48 48 56 48 48 56 48 48 56
48 48 56 48 48 56 48 48 56 48 48 56 48 48 56 48 48 56 48 48 56 48 48 56 48 48 56 48 48 56 48 48 56 48 48 56 48 48 56 48 48 56 48 48 56 48 48 56 48 48 56 48 48 56 48 48 56 48 48 56 48 48 56 48 48 56 48 48 56 48 48 56 48 48 56 48 48 56 48 48 56 48 48 56 48 48 56 48 48 56 48 48 56 48 48 56 48 48 56 48 48 56 48 48 56 48 48 56 48 48 56 48 48 56 48 48 56 48 48 56 48 48 56 48 48 56 48 48 56 48 48 56 48 48 56 48 48 56 48 48 56 48 48 56 48 48 56 48 48 56 48 48 56 48 48 56 48 48 56 48 48 56 48 48 56 48 48 56 48 48 56 48 48 56 48 48 56 48 48 56 48 48 56 48 48 56 48 48 56 48 48 56 48 48 56 48 48 56 48 48 56 48 48 56 48 48 56 48 48 56 48 48 56 48 48 56 48 48 56 48 48 56 48 48 56 48 48 56 48 48 56 48 48 56 48 48 56 48 48 56 48 48 56 48 48 56 48 48 56 48 48 56 48 48 56 48 48 56 48 48 56 48 48 56 48 48 56 48 48 56 48 48 56 48 48 56 48 48 56 48 48 56 48 48 56 48 48 56 48 48 56 48 48 56 48 48 56 48 48 56 48 48 56 48 48 56 48 48 56 48 48 56 48 48 56 48 48 56 48 48 56 48 48 56 48 48 56 48 48 56 48 48 56 48 48 56 48 48 56 48 48 56 48 48 56 48 48 56 48 48 56 48 48 56 48 48 56 48 48 56 48 48 56 48 48 56 48 48 56 48 48 56 48 48 56 48 48 56 48 48 56 48 48 56
48 48 56 48 48 56 48 48 56 48 48 56 48 48 56 48 48 56 48 48 56 48 48 56 48 48 56 48 48 56 48 48 56 48 48 56 48 48 56 48 48 56 48 48 56 48 48 56 48 48 56 48 48 56 48 48 56 48 48 56 48 48 56 48 48 56 48 48 56 48 48 56 48 48 56 48 48 56 48 48 56 48 48 56 48 48 56 48 48 56 48 48 56 48 48 56 48 48 56 48 48 56 48 48 56 48 48 56 48 48 56 48 48 56 48 48 56 48 48 56 48 48 56 48 48 56 48 48 56 48 48 56 48 48 56 48 48 56 48 48 56 48 48 56 48 48 56 48 48 56 48 48 56 48 48 56 48 48 56 48 48 56 48 48 56 48 48 56 48 48 56 48 48 56 48 48 56 48 48 56 48 48 56 48 48 56 48 48 56 48 48 56 48 48 56 48 48 56 48 48 56 48 48 56 48 48 56 48 48 56 48 48 56 48 48 56 48 48 56 48 48 56 48 48 56 48 48 56 48 48 56 48 48 56 48 48 56 48 48 56 48 48 56 48 48 56 48 48 56 48 48 56 48 48 56 48 48 56 48 48 56 48 48 56 48 48 56 48 48 56 48 48 56 48 48 56 48 48 56 48 48 56 48 48 56 48 48 56 48 48 56 48 48 56 48 48 56 48 48 56 48 48 56 48 48 56 48 48 56 48 48 56 48 48 56 48 48 56 48 48 56 48 48 56 48 48 56 48 48 56 48 48 56 48 48 56 48 48 56 48 48 56 48 48 56 48 48 56 48 48 56 48 48 56 48 48 56 48 48 56 48 48 56 48 48 56 48 48 56 48 48 56 48 48 56 48 48 56 48 48 56 48 48 56
48 48 56 48 48 56 48 48 56 48 48 56 48 48 56 48 48 56 48 48 56 48 48 56 48 48 56 48 48 56 48 48 56 48 48 56 48 48 56 48 48 56 48 48 56 48 48 56 48 48 56 48 48 56 48 48 56 48 48 56 48 48 56 48 48 56 48 48 56 48 48 56 48 48 56 48 48 56 48 48 56 48 48 56 48 48 56 48 48 56 48 48 56 48 48 56 48 48 56 48 48 56 48 48 56 48 48 56 48 48 56 48 48 56 48 48 56 48 48 56 48 48 56 48 48 56 48 48 56 48 48 56 48 48 56 48 48 56 48 48 56 48 48 56 48 48 56 48 48 56 48 48 56 48 48 56 48 48 56 48 48 56 48 48 56 48 48 56 48 48 56 48 48 56 48 48 56 48 48 56 48 48 56 48 48 56 48 48 56 48 48 56 48 48 56 48 48 56 48 48 56 48 48 56 48 48 56 48 48 56 48 48 56 48 48 56 48 48 56 48 48 56 48 48 56 48 48 56 48 48 56 48 48 56 48 48 56 48 48 56 48 48 56 48 48 56 48 48 56 48 48 56 48 48 56 48 48 56 48 48 56 48 48 56 48 48 56 48 48 56 48 48 56 48 48 56 48 48 56 48 48 56 48 48 56 48 48 56 48 48 56 48 48 56 48 48 56 48 48 56 48 48 56 48 48 56 48 48 56 48 48 56 48 48 56 48 48 56 48 48 56 48 48 56 48 48 56 48 48 56 48 48 56 48 48 56 48 48 56 48 48 56 48 48 56 48 48 56 48 48 56 48 48 56 48 48 56 48 48 56 48 48 56 48 48 56 48 48 56 48 48 56 48 48 56 48 48 56 48 48 56 48 48 56
48 48 56 48 48 56 48 48 56 48 48 56 48 48 56 48 48 56 48 48 56 48 48 56 48 48 56 48 48 56 48 48 56 48 48 56 48 48 56 48 48 56 48 48 56 48 48 56 48 48 56 48 48 56 48 48 56 48 48 56 48 48 56 48 48 56 48 48 56 48 48 56 48 48 56 48 48 56 48 48 56 48 48 56 48 48 56 48 48 56 48 48 56 48 48 56 48 48 56 48 48 56 48 48 56 48 48 56 48 48 56 48 48 56 48 48 56 48 48 56 48 48 56 48 48 56 48 48 56 48 48 56 48 48 56 48 48 56 48 48 56 48 48 56 48 48 56 48 48 56 48 48 56 48 48 56 48 48 56 48 48 56 48 48 56 48 48 56 48 48 56 48 48 56 48 48 56 48 48 56 48 48 56 48 48 56 48 48 56 48 48 56 48 48 56 48 48 56 48 48 56 48 48 56 48 48 56 48 48 56 48 48 56 48 48 56 48 48 56 48 48 56 48 48 56 48 48 56 48 48 56 48 48 56 48 48 56 48 48 56 48 48 56 48 48 56 48 48 56 48 48 56 48 48 56 48 48 56 48 48 56 48 48 56 48 48 56 48 48 56 48 48 56 48 48 56 48 48 56 48 48 56 48 48 56 48 48 56 48 48 56 48 48 56 48 48 56 48 48 56 48 48 56 48 48 56 48 48 56 48 48 56 48 48 56 48 48 56 48 48 56 48 48 56 48 48 56 48 48 56 48 48 56 48 48 56 48 48 56 48 48 56 48 48 56 48 48 56 48 48 56 48 48 56 48 48 56 48 48 56 48 48 56 48 48 56 48 48 56 48 48 56 48 48 56 48 48 56 48 48 56 48 48 56
48 48 56 48 48 56 48 48 56 48 48 56 48 48 56 48 48 56 48 48 56 48 48 56 48 48 56 48 48 56 48 48 56 48 48 56 48 48 56 48 48 56 48 48 56 48 48 56 48 48 56 48 48 56 48 48 56 48 48 56 48 48 56 48 48 56 48 48 56 48 48 56 48 48 56 48 48 56 48 48 56 48 48 56 48 48 56 48 48 56 48 48 56 48 48 56 48 48 56 48 48 56 48 48 56 48 48 56 48 48 56 48 48 56 48 48 56 48 48 56 48 48 56 48 48 56 48 48 56 48 48 56 48 48 56 48 48 56 48 48 56 48 48 56 48 48 56 48 48 56 48 48 56 48 48 56 48 48 56 48 48 56 48 48 56 48 48 56 48 48 56 48 48 56 48 48 56 48 48 56 48 48 56 48 48 56 48 48 56 48 48 56 48 48 56 48 48 56 48 48 56 48 48 56 48 48 56 48 48 56 48 48 56 48 48 56 48 48 56 48 48 56 48 48 56 48 48 56 48 48 56 48 48 56 48 48 56 48 48 56 48 48 56 48 48 56 48 48 56 48 48 56 48 48 56 48 48 56 48 48 56 48 48 56 48 48 56 48 48 56 48 48 56 48 48 56 48 48 56 48 48 56 48 48 56 48 48 56 48 48 56 48 48 56 48 48 56 48 48 56 48 48 56 48 48 56 48 48 56 48 48 56 48 48 56 48 48 56 48 48 56 48 48 56 48 48 56 48 48 56 48 48 56 48 48 56 48 48 56 48 48 56 48 48 56 48 48 56 48 48 56 48 48 56 48 48 56 48 48 56 48 48 56 48 48 56 48 48 56 48 48 56 48 48 56 48 48 56 48 48 56 48 48 56
48 48 56 48 48 56 48 48 56 48 48 56 48 48 56 48 48 56 48 48 56 48 48 56 48 48 56 48 48 56 48 48 56 48 48 56 48 48 56 48 48 56 48 48 56 48 48 56 48 48 56 48 48 56 48 48 56 48 48 56 48 48 56 48 48 56 48 48 56 48 48 56 48 48 56 48 48 56 48 48 56 48 48 56 48 48 56 48 48 56 48 48 56 48 48 56 48 48 56 48 48 56 48 48 56 48 48 56 48 48 56 48 48 56 48 48 56 48 48 56 48 48 56 48 48 56 48 48 56 48 48 56 48 48 56 48 48 56 48 48 56 48 48 56 48 48 56 48 48 56 48 48 56 48 48 56 48 48 56 48 48 56 48 48 56 48 48 56 48 48 56 48 48 56 48 48 56 48 48 56 48 48 56 48 48 56 48 48 56 48 48 56 48 48 56 48 48 56 48 48 56 48 48 56 48 48 56 48 48 56 48 48 56 48 48 56 48 48 56 48 48 56 48 48 56 48 48 56 48 48 56 48 48 56 48 48 56 48 48 56 48 48 56 48 48 56 48 48 56 48 48 56 48 48 56 48 48 56 48 48 56 48 48 56 48 48 56 48 48 56 48 48 56 48 48 56 48 48 56 48 48 56 48 48 56 48 48 56 48 48 56 48 48 56 48 48 56 48 48 56 48 48 56 48 48 56 48 48 56 48 48 56 48 48 56 48 48 56 48 48 56 48 48 56 48 48 56 48 48 56 48 48 56 48 48 56 48 48 56 48 48 56 48 48 56 48 48 56 48 48 56 48 48 56 48 48 56 48 48 56 48 48 56 48 48 56 48 48 56 48 48 56 48 48 56 48 48 56 48 48 56 48 48 56
48 48 56 48 48 56 48 48 56 48 48 56 48 48 56 48 48 56 48 48 56 48 48 56 48 48 56 48 48 56 48 48 56 48 48 56 48 48 56 48 48 56 48 48 56 48 48 56 48 48 56 48 48 56 48 48 56 48 48 56 48 48 56 48 48 56 48 48 56 48 48 56 48 48 56 48 48 56 48 48 56 48 48 56 48 48 56 48 48 56 48 48 56 48 48 56 48 48 56 48 48 56 48 48 56 48 48 56 48 48 56 48 48 56 48 48 56 48 48 56 48 48 56 48 48 56 48 48 56 48 48 56 48 48 56 48 48 56 48 48 56 48 48 56 48 48 56 48 48 56 48 48 56 48 48 56 48 48 56 48 48 56 48 48 56 48 48 56 48 48 56 48 48 56 48 48 56 48 48 56 48 48 56 48 48 56 48 48 56 48 48 56 48 48 56 48 48 56 48 48 56 48 48 56 48 48 56 48 48 56 48 48 56 48 48 56 48 48 56 48 48 56 48 48 56 48 48 56 48 48 56 48 48 56 48 48 56 48 48 56 48 48 56 48 48 56 48 48 56 48 48 56 48 48 56 48 48 56 48 48 56 48 48 56 48 48 56 48 48 56 48 48 56 48 48 56 48 48 56 48 48 56 48 48 56 48 48 56 48 48 56 48 48 56 48 48 56 48 48 56 48 48 56 48 48 56 48 48 56 48 48 56 48 48 56 48 48 56 48 48 56 48 48 56 48 48 56 48 48 56 48 48 56 48 48 56 48 48 56 48 48 56 48 48 56 48 48 56 48 48 56 48 48 56 48 48 56 48 48 56 48 48 56 48 48 56 48 48 56 48 48 56 48 48 56 48 48 56 48 48 56 48 48 56
48 48 56 48 48 56 48 48 56 48 48 56 48 48 56 48 48 56 48 48 56 48 48 56 48 48 56 48 48 56 48 48 56 48 48 56 48 48 56 48 48 56 48 48 56 48 48 56 48 48 56 48 48 56 48 48 56 48 48 56 48 48 56 48 48 56 48 48 56 48 48 56 48 48 56 48 48 56 48 48 56 48 48 56 48 48 56 48 48 56 48 48 56 48 48 56 48 48 56 48 48 56 48 48 56 48 48 56 48 48 56 48 48 56 48 48 56 48 48 56 48 48 56 48 48 56 48 48 56 48 48 56 48 48 56 48 48 56 48 48 56 48 48 56 48 48 56 48 48 56 48 48 56 48 48 56 48 48 56 48 48 56 48 48 56 48 48 56 48 48 56 48 48 56 48 48 56 48 48 56 48 48 56 48 48 56 48 48 56 48 48 56 48 48 56 48 48 56 48 48 56 48 48 56 48 48 56 48 48 56 48 48 56 48 48 56 48 48 56 48 48 56 48 48 56 48 48 56 48 48 56 48 48 56 48 48 56 48 48 56 48 48 56 48 48 56 48 48 56 48 48 56 48 48 56 48 48 56 48 48 56 48 48 56 48 48 56 48 48 56 48 48 56 48 48 56 48 48 56 48 48 56 48 48 56 48 48 56 48 48 56 48 48 56 48 48 56 48 48 56 48 48 56 48 48 56 48 48 56 48 48 56 48 48 56 48 48 56 48 48 56 48 48 56 48 48 56 48 48 56 48 48 56 48 48 56 48 48 56 48 48 56 48 48 56 48 48 56 48 48 56 48 48 56 48 48 56 48 48 56 48 48 56 48 48 56 48 48 56 48 48 56 48 48 56 48 48 56 48 48 56 48 48 56
48 48 56 48 48 56 48 48 56 48 48 56 48 48 56 48 48 56 48 48 56 48 48 56 48 48 56 48 48 56 48 48 56 48 48 56 48 48 56 48 48 56 48 48 56 48 48 56 48 48 56 48 48 56 48 48 56 48 48 56 48 48 56 48 48 56 48 48 56 48 48 56 48 48 56 48 48 56 48 48 56 48 48 56 48 48 56 48 48 56 48 48 56 48 48 56 48 48 56 48 48 56 48 48 56 48 48 56 48 48 56 48 48 56 48 48 56 48 48 56 48 48 56 48 48 56 48 48 56 48 48 56 48 48 56 48 48 56 48 48 56 48 48 56 48 48 56 48 48 56 48 48 56 48 48 56 48 48 56 48 48 56 48 48 56 48 48 56 48 48 56 48 48 56 48 48 56 48 48 56 48 48 56 48 48 56 48 48 56 48 48 56 48 48 56 48 48 56 48 48 56 48 48 56 48 48 56 48 48 56 48 48 56 48 48 56 48 48 56 48 48 56 48 48 56 48 48 56 48 48 56 48 48 56 48 48 56 48 48 56 48 48 56 48 48 56 48 48 56 48 48 56 48 48 56 48 48 56 48 48 56 48 48 56 48 48 56 48 48 56 48 48 56 48 48 56 48 48 56 48 48 56 48 48 56 48 48 56 48 48 56 48 48 56 48 48 56 48 48 56 48 48 56 48 48 56 48 48 56 48 48 56 48 48 56 48 48 56 48 48 56 48 48 56 48 48 56 48 48 56 48 48 56 48 48 56 48 48 56 48 48 56 48 48 56 48 48 56 48 48 56 48 48 56 48 48 56 48 48 56 48 48 56 48 48 56 48 48 56 48 48 56 48 48 56 48 48 56 48 48 56 48 48 56
48 48 56 48 48 56 48 48 56 48 48 56 48 48 56 48 48 56 48 48 56 48 48 56 48 48 56 48 48 56 48 48 56 48 48 56 48 48 56 48 48 56 48 48 56 48 48 56 48 48 56 48 48 56 48 48 56 48 48 56 48 48 56 48 48 56 48 48 56 48 48 56 48 48 56 48 48 56 48 48 56 48 48 56 48 48 56 48 48 56 48 48 56 48 48 56 48 48 56 48 48 56 48 48 56 48 48 56 48 48 56 48 48 56 48 48 56 48 48 56 48 48 56 48 48 56 48 48 56 48 48 56 48 48 56 48 48 56 48 48 56 48 48 56 48 48 56 48 48 56 48 48 56 48 48 56 48 48 56 48 48 56 48 48 56 48 48 56 48 48 56 48 48 56 48 48 56 48 48 56 48 48 56 48 48 56 48 48 56 48 48 56 48 48 56 48 48 56 48 48 56 48 48 56 48 48 56 48 48 56 48 48 56 48 48 56 48 48 56 48 48 56 48 48 56 48 48 56 48 48 56 48 48 56 48 48 56 48 48 56 48 48 56 48 48 56 48 48 56 48 48 56 48 48 56 48 48 56 48 48 56 48 48 56 48 48 56 48 48 56 48 48 56 48 48 56 48 48 56 48 48 56 48 48 56 48 48 56 48 48 56 48 48 56 48 48 56 48 48 56 48 48 56 48 48 56 48 48 56 48 48 56 48 48 56 48 48 56 48 48 56 48 48 56 48 48 56 48 48 56 48 48 56 48 48 56 48 48 56 48 48 56 48 48 56 48 48 56 48 48 56 48 48 56 48 48 56 48 48 56 48 48 56 48 48 56 48 48 56 48 48 56 48 48 56 48 48 56 48 48 56 48 48 56
48 48 56 48 48 56 48 48 56 48 48 56 48 48 56 48 48 56 48 48 56 48 48 56 48 48 56 48 48 56 48 48 56 48 48 56 48 48 56 48 48 56 48 48 56 48 48 56 48 48 56 48 48 56 48 48 56 48 48 56 48 48 56 48 48 56 48 48 56 48 48 56 48 48 56 48 48 56 48 48 56 48 48 56 48 48 56 48 48 56 48 48 56 48 48 56 48 48 56 48 48 56 48 48 56 48 48 56 48 48 56 48 48 56 48 48 56 48 48 56 48 48 56 48 48 56 48 48 56 48 48 56 48 48 56 48 48 56 48 48 56 48 48 56 48 48 56 48 48 56 48 48 56 48 48 56 48 48 56 48 48 56 48 48 56 48 48 56 48 48 56 48 48 56 48 48 56 48 48 56 48 48 56 48 48 56 48 48 56 48 48 56 48 48 56 48 48 56 48 48 56 48 48 56 48 48 56 48 48 56 48 48 56 48 48 56 48 48 56 48 48 56 48 48 56 48 48 56 48 48 56 48 48 56 48 48 56 48 48 56 48 48 56 48 48 56 48 48 56 48 48 56 48 48 56 48 48 56 48 48 56 48 48 56 48 48 56 48 48 56 48 48 56 48 48 56 48 48 56 48 48 56 48 48 56 48 48 56 48 48 56 48 48 56 48 48 56 48 48 56 48 48 56 48 48 56 48 48 56 48 48 56 48 48 56 48 48 56 48 48 56 48 48 56 48 48 56 48 48 56 48 48 56 48 48 56 48 48 56 48 48 56 48 48 56 48 48 56 48 48 56 48 48 56 48 48 56 48 48 56 48 48 56 48 48 56 48 48 56 48 48 56 48 48 56 48 48 56 48 48 56 48 48 56
48 48 56 48 48 56 48 48 56 48 48 56 48 48 56 48 48 56 48 48 56 48 48 56 48 48 56 48 48 56 48 48 56 48 48 56 48 48 56 48 48 56 48 48 56 48 48 56 48 48 56 48 48 56 48 48 56 48 48 56 48 48 56 48 48 56 48 48 56 48 48 56 48 48 56 48 48 56 48 48 56 48 48 56 48 48 56 48 48 56 48 48 56 48 48 56 48 48 56 48 48 56 48 48 56 48 48 56 48 48 56 48 48 56 48 48 56 48 48 56 48 48 56 48 48 56 48 48 56 48 48 56 48 48 56 48 48 56 48 48 56 48 48 56 48 48 56 48 48 56 48 48 56 48 48 56 48 48 56 48 48 56 48 48 56 48 48 56 48 48 56 48 48 56 48 48 56 48 48 56 48 48 56 48 48 56 48 48 56 48 48 56 48 48 56 48 48 56 48 48 56 48 48 56 48 48 56 48 48 56 48 48 56 48 48 56 48 48 56 48 48 56 48 48 56 48 48 56 48 48 56 48 48 56 48 48 56 48 48 56 48 48 56 48 48 56 48 48 56 48 48 56 48 48 56 48 48 56 48 48 56 48 48 56 48 48 56 48 48 56 48 48 56 48 48 56 48 48 56 48 48 56 48 48 56 48 48 56 48 48 56 48 48 56 48 48 56 48 48 56 48 48 56 48 48 56 48 48 56 48 48 56 48 48 56 48 48 56 48 48 56 48 48 56 48 48 56 48 48 56 48 48 56 48 48 56 48 48 56 48 48 56 48 48 56 48 48 56 48 48 56 48 48 56 48 48 56 48 48 56 48 48 56 48 48 56 48 48 56 48 48 56 48 48 56 48 48 56 48 48 56 48 48 56
48 48 56 48 48 56 48 48 56 48 48 56 48 48 56 48 48 56 48 48 56 48 48 56 48 48 56 48 48 56 48 48 56 48 48 56 48 48 56 48 48 56 48 48 56 48 48 56 48 48 56 48 48 56 48 48 56 48 48 56 48 48 56 48 48 56 48 48 56 48 48 56 48 48 56 48 48 56 48 48 56 48 48 56 48 48 56 48 48 56 48 48 56 48 48 56 48 48 56 48 48 56 48 48 56 48 48 56 48 48 56 48 48 56 48 48 56 48 48 56 48 48 56 48 48 56 48 48 56 48 48 56 48 48 56 48 48 56 48 48 56 48 48 56 48 48 56 48 48 56 48 48 56 48 48 56 48 48 56 48 48 56 48 48 56 48 48 56 48 48 56 48 48 56 48 48 56 48 48 56 48 48 56 48 48 56 48 48 56 48 48 56 48 48 56 48 48 56 48 48 56 48 48 56 48 48 56 48 48 56 48 48 56 48 48 56 48 48 56 48 48 56 48 48 56 48 48 56 48 48 56 48 48 56 48 48 56 48 48 56 48 48 56 48 48 56 48 48 56 48 48 56 48 48 56 48 48 56 48 48 56 48 48 56 48 48 56 48 48 56 48 48 56 48 48 56 48 48 56 48 48 56 48 48 56 48 48 56 48 48 56 48 48 56 48 48 56 48 48 56 48 48 56 48 48 56 48 48 56 48 48 56 48 48 56 48 48 56 48 48 56 48 48 56 48 48 56 48 48 56 48 48 56 48 48 56 48 48 56 48 48 56 48 48 56 48 48 56 48 48 56 48 48 56 48 48 56 48 48 56 48 48 56 48 48 56 48 48 56 48 48 56 48 48 56 48 48 56 48 48 56 48 48 56
48 48 56 48 48 56 48 48 56 48 48 56 48 48 56 48 48 56 48 48 56 48 48 56 48 48 56 48 48 56 48 48 56 48 48 56 48 48 56 48 48 56 48 48 56 48 48 56 48 48 56 48 48 56 48 48 56 48 48 56 48 48 56 48 48 56 48 48 56 48 48 56 48 48 56 48 48 56 48 48 56 48 48 56 48 48 56 48 48 56 48 48 56 48 48 56 48 48 56 48 48 56 48 48 56 48 48 56 48 48 56 48 48 56 48 48 56 48 48 56 48 48 56 48 48 56 48 48 56 48 48 56 48 48 56 48 48 56 48 48 56 48 48 56 48 48 56 48 48 56 48 48 56 48 48 56 48 48 56 48 48 56 48 48 56 48 48 56 48 48 56 48 48 56 48 48 56 48 48 56 48 48 56 48 48 56 48 48 56 48 48 56 48 48 56 48 48 56 48 48 56 48 48 56 48 48 56 48 48 56 48 48 56 48 48 56 48 48 56 48 48 56 48 48 56 48 48 56 48 48 56 48 48 56 48 48 56 48 48 56 48 48 56 48 48 56 48 48 56 48 48 56 48 48 56 48 48 56 48 48 56 48 48 56 48 48 56 48 48 56 48 48 56 48 48 56 48 48 56 48 48 56 48 48 56 48 48 56 48 48 56 48 48 56 48 48 56 48 48 56 48 48 56 48 48 56 48 48 56 48 48 56 48 48 56 48 48 56 48 48 56 48 48 56 48 48 56 48 48 56 48 48 56 48 48 56 48 48 56 48 48 56 48 48 56 48 48 56 48 48 56 48 48 56 48 48 56 48 48 56 48 48 56 48 48 56 48 48 56 48 48 56 48 48 56 48 48 56 48 48 56 48 48 56
48 48 56 48 48 56 48 48 56 48 48 56 48 48 56 48 48 56 48 48 56 48 48 56 48 48 56 48 48 56 48 48 56 48 48 56 48 48 56 48 48 56 48 48 56 48 48 56 48 48 56 48 48 56 48 48 56 48 48 56 48 48 56 48 48 56 48 48 56 48 48 56 48 48 56 48 48 56 48 48 56 48 48 56 48 48 56 48 48 56 48 48 56 48 48 56 48 48 56 48 48 56 48 48 56 48 48 56 48 48 56 48 48 56 48 48 56 48 48 56 48 48 56 48 48 56 48 48 56 48 48 56 48 48 56 48 48 56 48 48 56 48 48 56 48 48 56 48 48 56 48 48 56 48 48 56 48 48 56 48 48 56 48 48 56 48 48 56 48 48 56 48 48 56 48 48 56 48 48 56 48 48 56 48 48 56 48 48 56 48 48 56 48 48 56 48 48 56 48 48 56 48 48 56 48 48 56 48 48 56 48 48 56 48 48 56 48 48 56 48 48 56 48 48 56 48 48 56 48 48 56 48 48 56 48 48 56 48 48 56 48 48 56 48 48 56 48 48 56 48 48 56 48 48 56 48 48 56 48 48 56 48 48 56 48 48 56 48 48 56 48 48 56 48 48 56 48 48 56 48 48 56 48 48 56 48 48 56 48 48 56 48 48 56 48 48 56 48 48 56 48 48 56 48 48 56 48 48 56 48 48 56 48 48 56 48 48 56 48 48 56 48 48 56 48 48 56 48 48 56 48 48 56 48 48 56 48 48 56 48 48 56 48 48 56 48 48 56 48 48 56 48 48 56 48 48 56 48 48 56 48 48 56 48 48 56 48 48 56 48 48 56 48 48 56 48 48 56 48 48 56 48 48 56
48 48 56 48 48 56 48 48 56 48 48 56 48 48 56 48 48 56 48 48 56 48 48 56 48 48 56 48 48 56 48 48 56 48 48 56 48 48 56 48 48 56 48 48 56 48 48 56 48 48 56 48 48 56 48 48 56 48 48 56 48 48 56 48 48 56 48 48 56 48 48 56 48 48 56 48 48 56 48 48 56 48 48 56 48 48 56 48 48 56 48 48 56 48 48 56 48 48 56 48 48 56 48 48 56 48 48 56 48 48 56 48 48 56 48 48 56 48 48 56 48 48 56 48 48 56 48 48 56 48 48 56 48 48 56 48 48 56 48 48 56 48 48 56 48 48 56 48 48 56 48 48 56 48 48 56 48 48 56 48 48 56 48 48 56 48 48 56 48 48 56 48 48 56 48 48 56 48 48 56 48 48 56 48 48 56 48 48 56 48 48 56 48 48 56 48 48 56 48 48 56 48 48 56 48 48 56 48 48 56 48 48 56 48 48 56 48 48 56 48 48 56 48 48 56 48 48 56 48 48 56 48 48 56 48 48 56 48 48 56 48 48 56 48 48 56 48 48 56 48 48 56 48 48 56 48 48 56 48 48 56 48 48 56 48 48 56 48 48 56 48 48 56 48 48 56 48 48 56 48 48 56 48 48 56 48 48 56 48 48 56 48 48 56 48 48 56 48 48 56 48 48 56 48 48 56 48 48 56 48 48 56 48 48 56 48 48 56 48 48 56 48 48 56 48 48 56 48 48 56 48 48 56 48 48 56 48 48 56 48 48 56 48 48 56 48 48 56 48 48 56 48 48 56 48 48 56 48 48 56 48 48 56 48 48 56 48 48 56 48 48 56 48 48 56 48 48 56 48 48 56 48 48 56
48 48 56 48 48 56 48 48 56 48 48 56 48 48 56 48 48 56 48 48 56 48 48 56 48 48 56 48 48 56 48 48 56 48 48 56 48 48 56 48 48 56 48 48 56 48 48 56 48 48 56 48 48 56 48 48 56 48 48 56 48 48 56 48 48 56 48 48 56 48 48 56 48 48 56 48 48 56 48 48 56 48 48 56 48 48 56 48 48 56 48 48 56 48 48 56 48 48 56 48 48 56 48 48 56 48 48 56 48 48 56 48 48 56 48 48 56 48 48 56 48 48 56 48 48 56 48 48 56 48 48 56 48 48 56 48 48 56 48 48 56 48 48 56 48 48 56 48 48 56 48 48 56 48 48 56 48 48 56 48 48 56 48 48 56 48 48 56 48 48 56 48 48 56 48 48 56 48 48 56 48 48 56 48 48 56 48 48 56 48 48 56 48 48 56 48 48 56 48 48 56 48 48 56 48 48 56 48 48 56 48 48 56 48 48 56 48 48 56 48 48 56 48 48 56 48 48 56 48 48 56 48 48 56 48 48 56 48 48 56 48 48 56 48 48 56 48 48 56 48 48 56 48 48 56 48 48 56 48 48 56 48 48 56 48 48 56 48 48 56 48 48 56 48 48 56 48 48 56 48 48 56 48 48 56 48 48 56 48 48 56 48 48 56 48 48 56 48 48 56 48 48 56 48 48 56 48 48 56 48 48 56 48 48 56 48 48 56 48 48 56 48 48 56 48 48 56 48 48 56 48 48 56 48 48 56 48 48 56 48 48 56 48 48 56 48 48 56 48 48 56 48 48 56 48 48 56 48 48 56 48 48 56 48 48 56 48 48 56 48 48 56 48 48 56 48 48 56 48 48 56 48 48 56
48 48 56 48 48 56 48 48 56 48 48 56 48 48 56 48 48 56 48 48 56 48 48 56 48 48 56 48 48 56 48 48 56 48 48 56 48 48 56 48 48 56 48 48 56 48 48 56 48 48 56 48 48 56 48 48 56 48 48 56 48 48 56 48 48 56 48 48 56 48 48 56 48 48 56 48 48 56 48 48 56 48 48 56 48 48 56 48 48 56 48 48 56 48 48 56 48 48 56 48 48 56 48 48 56 48 48 56 48 48 56 48 48 56 48 48 56 48 48 56 48 48 56 48 48 56 48 48 56 48 48 56 48 48 56 48 48 56 48 48 56 48 48 56 48 48 56 48 48 56 48 48 56 48 48 56 48 48 56 48 48 56 48 48 56 48 48 56 48 48 56 48 48 56 48 48 56 48 48 56 48 48 56 48 48 56 48 48 56 48 48 56 48 48 56 48 48 56 48 48 56 48 48 56 48 48 56 48 48 56 48 48 56 48 48 56 48 48 56 48 48 56 48 48 56 48 48 56 48 48 56 48 48 56 48 48 56 48 48 56 48 48 56 48 48 56 48 48 56 48 48 56 48 48 56 48 48 56 48 48 56 48 48 56 48 48 56 48 48 56 48 48 56 48 48 56 48 48 56 48 48 56 48 48 56 48 48 56 48 48 56 48 48 56 48 48 56 48 48 56 48 48 56 48 48 56 48 48 56 48 48 56 48 48 56 48 48 56 48 48 56 48 48 56 48 48 56 48 48 56 48 48 56 48 48 56 48 48 56 48 48 56 48 48 56 48 48 56 48 48 56 48 48 56 48 48 56 48 48 56 48 48 56 48 48 56 48 48 56 48 48 56 48 48 56 48 48 56 48 48 56 48 48 56
48 48 56 48 48 56 48 48 56 48 48 56 48 48 56 48 48 56 48 48 56 48 48 56 48 48 56 48 48 56 48 48 56 48 48 56 48 48 56 48 48 56 48 48 56 48 48 56 48 48 56 48 48 56 48 48 56 48 48 56 48 48 56 48 48 56 48 48 56 48 48 56 48 48 56 48 48 56 48 48 56 48 48 56 48 48 56 48 48 56 48 48 56 48 48 56 48 48 56 48 48 56 48 48 56 48 48 56 48 48 56 48 48 56 48 48 56 48 48 56 48 48 56 48 48 56 48 48 56 48 48 56 48 48 56 48 48 56 48 48 56 48 48 56 48 48 56 48 48 56 48 48 56 48 48 56 48 48 56 48 48 56 48 48 56 48 48 56 48 48 56 48 48 56 48 48 56 48 48 56 48 48 56 48 48 56 48 48 56 48 48 56 48 48 56 48 48 56 48 48 56 48 48 56 48 48 56 48 48 56 48 48 56 48 48 56 48 48 56 48 48 56 48 48 56 48 48 56 48 48 56 48 48 56 48 48 56 48 48 56 48 48 56 48 48 56 48 48 56 48 48 56 48 48 56 48 48 56 48 48 56 48 48 56 48 48 56 48 48 56 48 48 56 48 48 56 48 48 56 48 48 56 48 48 56 48 48 56 48 48 56 48 48 56 48 48 56 48 48 56 48 48 56 48 48 56 48 48 56 48 48 56 48 48 56 48 48 56 48 48 56 48 48 56 48 48 56 48 48 56 48 48 56 48 48 56 48 48 56 48 48 56 48 48 56 48 48 56 48 48 56 48 48 56 48 48 56 48 48 56 48 48 56 48 48 56 48 48 56 48 48 56 48 48 56 48 48 56 48 48 56 48 48 56
48 48 56 48 48 56 48 48 56 48 48 56 48 48 56 48 48 56 48 48 56 48 48 56 48 48 56 48 48 56 48 48 56 48 48 56 48 48 56 48 48 56 48 48 56 48 48 56 48 48 56 48 48 56 48 48 56 48 48 56 48 48 56 48 48 56 48 48 56 48 48 56 48 48 56 48 48 56 48 48 56 48 48 56 48 48 56 48 48 56 48 48 56 48 48 56 48 48 56 48 48 56 48 48 56 48 48 56 48 48 56 48 48 56 48 48 56 48 48 56 48 48 56 48 48 56 48 48 56 48 48 56 48 48 56 48 48 56 48 48 56 48 48 56 48 48 56 48 48 56 48 48 56 48 48 56 48 48 56 48 48 56 48 48 56 48 48 56 48 48 56 48 48 56 48 48 56 48 48 56 48 48 56 48 48 56 48 48 56 48 48 56 48 48 56 48 48 56 48 48 56 48 48 56 48 48 56 48 48 56 48 48 56 48 48 56 48 48 56 48 48 56 48 48 56 48 48 56 48 48 56 48 48 56 48 48 56 48 48 56 48 48 56 48 48 56 48 48 56 48 48 56 48 48 56 48 48 56 48 48 56 48 48 56 48 48 56 48 48 56 48 48 56 48 48 56 48 48 56 48 48 56 48 48 56 48 48 56 48 48 56 48 48 56 48 48 56 48 48 56 48 48 56 48 48 56 48 48 56 48 48 56 48 48 56 48 48 56 48 48 56 48 48 56 48 48 56 48 48 56 48 48 56 48 48 56 48 48 56 48 48 56 48 48 56 48 48 56 48 48 56 48 48 56 48 48 56 48 48 56 48 48 56 48 48 56 48 48 56 48 48 56 48 48 56 48 48 56 48 48 56 48 48 56
48 48 56 48 48 56 48 48 56 48 48 56 48 48 56 48 48 56 48 48 56 48 48 56 48 48 56 48 48 56 48 48 56 48 48 56 48 48 56 48 48 56 48 48 56 48 48 56 48 48 56 48 48 56 48 48 56 48 48 56 48 48 56 48 48 56 48 48 56 48 48 56 48 48 56 48 48 56 48 48 56 48 48 56 48 48 56 48 48 56 48 48 56 48 48 56 48 48 56 48 48 56 48 48 56 48 48 56 48 48 56 48 48 56 48 48 56 48 48 56 48 48 56 48 48 56 48 48 56 48 48 56 48 48 56 48 48 56 48 48 56 48 48 56 48 48 56 48 48 56 48 48 56 48 48 56 48 48 56 48 48 56 48 48 56 48 48 56 48 48 56 48 48 56 48 48 56 48 48 56 48 48 56 48 48 56 48 48 56 48 48 56 48 48 56 48 48 56 48 48 56 48 48 56 48 48 56 48 48 56 48 48 56 48 48 56 48 48 56 48 48 56 48 48 56 48 48 56 48 48 56 48 48 56 48 48 56 48 48 56 48 48 56 48 48 56 48 48 56 48 48 56 48 48 56 48 48 56 48 48 56 48 48 56 48 48 56 48 48 56 48 48 56 48 48 56 48 48 56 48 48 56 48 48 56 48 48 56 48 48 56 48 48 56 48 48 56 48 48 56 48 48 56 48 48 56 48 48 56 48 48 56 48 48 56 48 48 56 48 48 56 48 48 56 48 48 56 48 48 56 48 48 56 48 48 56 48 48 56 48 48 56 48 48 56 48 48 56 48 48 56 48 48 56 48 48 56 48 48 56 48 48 56 48 48 56 48 48 56 48 48 56 48 48 56 48 48 56 48 48 56 48 48 56
48 48 56 48 48 56 48 48 56 48 48 56 48 48 56 48 48 56 48 48 56 48 48 56 48 48 56 48 48 56 48 48 56 48 48 56 48 48 56 48 48 56 48 48 56 48 48 56 48 48 56 48 48 56 48 48 56 48 48 56 48 48 56 48 48 56 48 48 56 48 48 56 48 48 56 48 48 56 48 48 56 48 48 56 48 48 56 48 48 56 48 48 56 48 48 56 48 48 56 48 48 56 48 48 56 48 48 56 48 48 56 48 48 56 48 48 56 48 48 56 48 48 56 48 48 56 48 48 56 48 48 56 48 48 56 48 48 56 48 48 56 48 48 56 48 48 56 48 48 56 48 48 56 48 48 56 48 48 56 48 48 56 48 48 56 48 48 56 48 48 56 48 48 56 48 48 56 48 48 56 48 48 56 48 48 56 48 48 56 48 48 56 48 48 56 48 48 56 48 48 56 48 48 56 48 48 56 48 48 56 48 48 56 48 48 56 48 48 56 48 48 56 48 48 56 48 48 56 48 48 56 48 48 56 48 48 56 48 48 56 48 48 56 48 48 56 48 48 56 48 48 56 48 48 56 48 48 56 48 48 56 48 48 56 48 48 56 48 48 56 48 48 56 48 48 56 48 48 56 48 48 56 48 48 56 48 48 56 48 48 56 48 48 56 48 48 56 48 48 56 48 48 56 48 48 56 48 48 56 48 48 56 48 48 56 48 48 56 48 48 56 48 48 56 48 48 56 48 48 56 48 48 56 48 48 56 48 48 56 48 48 56 48 48 56 48 48 56 48 48 56 48 48 56 48 48 56 48 48 56 48 48 56 48 48 56 48 48 56 48 48 56 48 48 56 48 48 56 48 48 56 48 48 56
48 48 56 48 48 56 48 48 56 48 48 56 48 48 56 48 48 56 48 48 56 48 48 56 48 48 56 48 48 56 48 48 56 48 48 56 48 48 56 48 48 56 48 48 56 48 48 56 48 48 56 48 48 56 48 48 56 48 48 56 48 48 56 48 48 56 48 48 56 48 48 56 48 48 56 48 48 56 48 48 56 48 48 56 48 48 56 48 48 56 48 48 56 48 48 56 48 48 56 48 48 56 48 48 56 48 48 56 48 48 56 48 48 56 48 48 56 48 48 56 48 48 56 48 48 56 48 48 56 48 48 56 48 48 56 48 48 56 48 48 56 48 48 56 48 48 56 48 48 56 48 48 56 48 48 56 48 48 56 48 48 56 48 48 56 48 48 56 48 48 56 48 48 56 48 48 56 48 48 56 48 48 56 48 48 56 48 48 56 48 48 56 48 48 56 48 48 56 48 48 56 48 48 56 48 48 56 48 48 56 48 48 56 48 48 56 48 48 56 48 48 56 48 48 56 48 48 56 48 48 56 48 48 56 48 48 56 48 48 56 48 48 56 48 48 56 48 48 56 48 48 56 48 48 56 48 48 56 48 48 56 48 48 56 48 48 56 48 48 56 48 48 56 48 48 56 48 48 56 48 48 56 48 48 56 48 48 56 48 48 56 48 48 56 48 48 56 48 48 56 48 48 56 48 48 56 48 48 56 48 48 56 48 48 56 48 48 56 48 48 56 48 48 56 48 48 56 48 48 56 48 48 56 48 48 56 48 48 56 48 48 56 48 48 56 48 48 56 48 48 56 48 48 56 48 48 56 48 48 56 48 48 56 48 48 56 48 48 56 48 48 56 48 48 56 48 48 56 48 48 56 48 48 56
48 48 56 48 48 56 48 48 56 48 48 56 48 48 56 48 48 56 48 48 56 48 48 56 48 48 56 48 48 56 48 48 56 48 48 56 48 48 56 48 48 56 48 48 56 48 48 56 48 48 56 48 48 56 48 48 56 48 48 56 48 48 56 48 48 56 48 48 56 48 48 56 48 48 56 48 48 56 48 48 56 48 48 56 48 48 56 48 48 56 48 48 56 48 48 56 48 48 56 48 48 56 48 48 56 48 48 56 48 48 56 48 48 56 48 48 56 48 48 56 48 48 56 48 48 56 48 48 56 48 48 56 48 48 56 48 48 56 48 48 56 48 48 56 48 48 56 48 48 56 48 48 56 48 48 56 48 48 56 48 48 56 48 48 56 48 48 56 48 48 56 48 48 56 48 48 56 48 48 56 48 48 56 48 48 56 48 48 56 48 48 56 48 48 56 48 48 56 48 48 56 48 48 56 48 48 56 48 48 56 48 48 56 48 48 56 48 48 56 48 48 56 48 48 56 48 48 56 48 48 56 48 48 56 48 48 56 48 48 56 48 48 56 48 48 56 48 48 56 48 48 56 48 48 56 48 48 56 48 48 56 48 48 56 48 48 56 48 48 56 48 48 56 48 48 56 48 48 56 48 48 56 48 48 56 48 48 56 48 48 56 48 48 56 48 48 56 48 48 56 48 48 56 48 48 56 48 48 56 48 48 56 48 48 56 48 48 56 48 48 56 48 48 56 48 48 56 48 48 56 48 48 56 48 48 56 48 48 56 48 48 56 48 48 56 48 48 56 48 48 56 48 48 56 48 48 56 48 48 56 48 48 56 48 48 56 48 48 56 48 48 56 48 48 56 48 48 56 48 48 56 48 48 56
48 48 56 48 48 56 48 48 56 48 48 56 48 48 56 48 48 56 48 48 56 48 48 56 48 48 56 48 48 56 48 48 56 48 48 56 48 48 56 48 48 56 48 48 56 48 48 56 48 48 56 48 48 56 48 48 56 48 48 56 48 48 56 48 48 56 48 48 56 48 48 56 48 48 56 48 48 56 48 48 56 48 48 56 48 48 56 48 48 56 48 48 56 48 48 56 48 48 56 48 48 56 48 48 56 48 48 56 48 48 56 48 48 56 48 48 56 48 48 56 48 48 56 48 48 56 48 48 56 48 48 56 48 48 56 48 48 56 48 48 56 48 48 56 48 48 56 48 48 56 48 48 56 48 48 56 48 48 56 48 48 56 48 48 56 48 48 56 48 48 56 48 48 56 48 48 56 48 48 56 48 48 56 48 48 56 48 48 56 48 48 56 48 48 56 48 48 56 48 48 56 48 48 56 48 48 56 48 48 56 48 48 56 48 48 56 48 48 56 48 48 56 48 48 56 48 48 56 48 48 56 48 48 56 48 48 56 48 48 56 48 48 56 48 48 56 48 48 56 48 48 56 48 48 56 48 48 56 48 48 56 48 48 56 48 48 56 48 48 56 48 48 56 48 48 56 48 48 56 48 48 56 48 48 56 48 48 56 48 48 56 48 48 56 48 48 56 48 48 56 48 48 56 48 48 56 48 48 56 48 48 56 48 48 56 48 48 56 48 48 56 48 48 56 48 48 56 48 48 56 48 48 56 48 48 56 48 48 56 48 48 56 48 48 56 48 48 56 48 48 56 48 48 56 48 48 56 48 48 56 48 48 56 48 48 56 48 48 56 48 48 56 48 48 56 48 48 56 48 48 56 48 48 56
48 48 56 48 48 56 48 48 56 48 48 56 48 48 56 48 48 56 48 48 56 48 48 56 48 48 56 48 48 56 48 48 56 48 48 56 48 48 56 48 48 56 48 48 56 48 48 56 48 48 56 48 48 56 48 48 56 48 48 56 48 48 56 48 48 56 48 48 56 48 48 56 48 48 56 48 48 56 48 48 56 48 48 56 48 48 56 48 48 56 48 48 56 48 48 56 48 48 56 48 48 56 48 48 56 48 48 56 48 48 56 48 48 56 48 48 56 48 48 56 48 48 56 48 48 56 48 48 56 48 48 56 48 48 56 48 48 56 48 48 56 48 48 56 48 48 56 48 48 56 48 48 56 48 48 56 48 48 56 48 48 56 48 48 56 48 48 56 48 48 56 48 48 56 48 48 56 48 48 56 48 48 56 48 48 56 48 48 56 48 48 56 48 48 56 48 48 56 48 48 56 48 48 56 48 48 56 48 48 56 48 48 56 48 48 56 48 48 56 48 48 56 48 48 56 48 48 56 48 48 56 48 48 56 48 48 56 48 48 56 48 48 56 48 48 56 48 48 56 48 48 56 48 48 56 48 48 56 48 48 56 48 48 56 48 48 56 48 48 56 48 48 56 48 48 56 48 48 56 48 48 56 48 48 56 48 48 56 48 48 56 48 48 56 48 48 56 48 48 56 48 48 56 48 48 56 48 48 56 48 48 56 48 48 56 48 48 56 48 48 56 48 48 56 48 48 56 48 48 56 48 48 56 48 48 56 48 48 56 48 48 56 48 48 56 48 48 56 48 48 56 48 48 56 48 48 56 48 48 56 48 48 56 48 48 56 48 48 56 48 48 56 48 48 56 48 48 56 48 48 56 48 48 56
48 48 56 48 48 56 48 48 56 48 48 56 48 48 56 48 48 56 48 48 56 48 48 56 48 48 56 48 48 56 48 48 56 48 48 56 48 48 56 48 48 56 48 48 56 48 48 56 48 48 56 48 48 56 48 48 56 48 48 56 48 48 56 48 48 56 48 48 56 48 48 56 48 48 56 48 48 56 48 48 56 48 48 56 48 48 56 48 48 56 48 48 56 48 48 56 48 48 56 48 48 56 48 48 56 48 48 56 48 48 56 48 48 56 48 48 56 48 48 56 48 48 56 48 48 56 48 48 56 48 48 56 48 48 56 48 48 56 48 48 56 48 48 56 48 48 56 48 48 56 48 48 56 48 48 56 48 48 56 48 48 56 48 48 56 48 48 56 48 48 56 48 48 56 48 48 56 48 48 56 48 48 56 48 48 56 48 48 56 48 48 56 48 48 56 48 48 56 48 48 56 48 48 56 48 48 56 48 48 56 48 48 56 48 48 56 48 48 56 48 48 56 48 48 56 48 48 56 48 48 56 48 48 56 48 48 56 48 48 56 48 48 56 48 48 56 48 48 56 48 48 56 48 48 56 48 48 56 48 48 56 48 48 56 48 48 56 48 48 56 48 48 56 48 48 56 48 48 56 48 48 56 48 48 56 48 48 56 48 48 56 48 48 56 48 48 56 48 48 56 48 48 56 48 48 56 48 48 56 48 48 56 48 48 56 48 48 56 48 48 56 48 48 56 48 48 56 48 48 56 48 48 56 48 48 56 48 48 56 48 48 56 48 48 56 48 48 56 48 48 56 48 48 56 48 48 56 48 48 56 48 48 56 48 48 56 48 48 56 48 48 56 48 48 56 48 48 56 48 48 56 48 48 56
48 48 56 48 48 56 48 48 56 48 48 56 48 48 56 48 48 56 48 48 56 48 48 56 48 48 56 48 48 56 48 48 56 48 48 56 48 48 56 48 48 56 48 48 56 48 48 56 48 48 56 48 48 56 48 48 56 48 48 56 48 48 56 48 48 56 48 48 56 48 48 56 48 48 56 48 48 56 48 48 56 48 48 56 48 48 56 48 48 56 48 48 56 48 48 56 48 48 56 48 48 56 48 48 56 48 48 56 48 48 56 48 48 56 48 48 56 48 48 56 48 48 56 48 48 56 48 48 56 48 48 56 48 48 56 48 48 56 48 48 56 48 48 56 48 48 56 48 48 56 48 48 56 48 48 56 48 48 56 48 48 56 48 48 56 48 48 56 48 48 56 48 48 56 48 48 56 48 48 56 48 48 56 48 48 56 48 48 56 48 48 56 48 48 56 48 48 56 48 48 56 48 48 56 48 48 56 48 48 56 48 48 56 48 48 56 48 48 56 48 48 56 48 48 56 48 48 56 48 48 56 48 48 56 48 48 56 48 48 56 48 48 56 48 48 56 48 48 56 48 48 56 48 48 56 48 48 56 48 48 56 48 48 56 48 48 56 48 48 56 48 48 56 48 48 56 48 48 56 48 48 56 48 48 56 48 48 56 48 48 56 48 48 56 48 48 56 48 48 56 48 48 56 48 48 56 48 48 56 48 48 56 48 48 56 48 48 56 48 48 56 48 48 56 48 48 56 48 48 56 48 48 56 48 48 56 48 48 56 48 48 56 48 48 56 48 48 56 48 48 56 48 48 56 48 48 56 48 48 56 48 48 56 48 48 56 48 48 56 48 48 56 48 48 56 48 48 56 48 48 56 48 48 56
48 48 56 48 48 56 48 48 56 48 48 56 48 48 56 48 48 56 48 48 56 48 48 56 48 48 56 48 48 56 48 48 56 48 48 56 48 48 56 48 48 56 48 48 56 48 48 56 48 48 56 48 48 56 48 48 56 48 48 56 48 48 56 48 48 56 48 48 56 48 48 56 48 48 56 48 48 56 48 48 56 48 48 56 48 48 56 48 48 56 48 48 56 48 48 56 48 48 56 48 48 56 48 48 56 48 48 56 48 48 56 48 48 56 48 48 56 48 48 56 48 48 56 48 48 56 48 48 56 48 48 56 48 48 56 48 48 56 48 48 56 48 48 56 48 48 56 48 48 56 48 48 56 48 48 56 48 48 56 48 48 56 48 48 56 48 48 56 48 48 56 48 48 56 48 48 56 48 48 56 48 48 56 48 48 56 48 48 56 48 48 56 48 48 56 48 48 56 48 48 56 48 48 56 48 48 56 48 48 56 48 48 56 48 48 56 48 48 56 48 48 56 48 48 56 48 48 56 48 48 56 48 48 56 48 48 56 48 48 56 48 48 56 48 48 56 48 48 56 48 48 56 48 48 56 48 48 56 48 48 56 48 48 56 48 48 56 48 48 56 48 48 56 48 48 56 48 48 56 48 48 56 48 48 56 48 48 56 48 48 56 48 48 56 48 48 56 48 48 56 48 48 56 48 48 56 48 48 56 48 48 56 48 48 56 48 48 56 48 48 56 48 48 56 48 48 56 48 48 56 48 48 56 48 48 56 48 48 56 48 48 56 48 48 56 48 48 56 48 48 56 48 48 56 48 48 56 48 48 56 48 48 56 48 48 56 48 48 56 48 48 56 48 48 56 48 48 56 48 48 56 48 48 56
48 48 56 48 48 56 48 48 56 48 48 56 48 48 56 48 48 56 48 48 56 48 48 56 48 48 56 48 48 56 48 48 56 48 48 56 48 48 56 48 48 56 48 48 56 48 48 56 48 48 56 48 48 56 48 48 56 48 48 56 48 48 56 48 48 56 48 48 56 48 48 56 48 48 56 48 48 56 48 48 56 48 48 56 48 48 56 48 48 56 48 48 56 48 48 56 48 48 56 48 48 56 48 48 56 48 48 56 48 48 56 48 48 56 48 48 56 48 48 56 48 48 56 48 48 56 48 48 56 48 48 56 48 48 56 48 48 56 48 48 56 48 48 56 48 48 56 48 48 56 48 48 56 48 48 56 48 48 56 48 48 56 48 48 56 48 48 56 48 48 56 48 48 56 48 48 56 48 48 56 48 48 56 48 48 56 48 48 56 48 48 56 48 48 56 48 48 56 48 48 56 48 48 56 48 48 56 48 48 56 48 48 56 48 48 56 48 48 56 48 48 56 48 48 56 48 48 56 48 48 56 48 48 56 48 48 56 48 48 56 48 48 56 48 48 56 48 48 56 48 48 56 48 48 56 48 48 56 48 48 56 48 48 56 48 48 56 48 48 56 48 48 56 48 48 56 48 48 56 48 48 56 48 48 56 48 48 56 48 48 56 48 48 56 48 48 56 48 48 56 48 48 56 48 48 56 48 48 56 48 48 56 48 48 56 48 48 56 48 48 56 48 48 56 48 48 56 48 48 56 48 48 56 48 48 56 48 48 56 48 48 56 48 48 56 48 48 56 48 48 56 48 48 56 48 48 56 48 48 56 48 48 56 48 48 56 48 48 56 48 48 56 48 48 56 48 48 56 48 48 56 48 48 56
48 48 56 48 48 56 48 48 56 48 48 56 48 48 56 48 48 56 48 48 56 48 48 56 48 48 56 48 48 56 48 48 56 48 48 56 48 48 56 48 48 56 48 48 56 48 48 56 48 48 56 48 48 56 48 48 56 48 48 56 48 48 56 48 48 56 48 48 56 48 48 56 48 48 56 48 48 56 48 48 56 48 48 56 48 48 56 48 48 56 48 48 56 48 48 56 48 48 56 48 48 56 48 48 56 48 48 56 48 48 56 48 48 56 48 48 56 48 48 56 48 48 56 48 48 56 48 48 56 48 48 56 48 48 56 48 48 56 48 48 56 48 48 56 48 48 56 48 48 56 48 48 56 48 48 56 48 48 56 48 48 56 48 48 56 48 48 56 48 48 56 48 48 56 48 48 56 48 48 56 48 48 56 48 48 56 48 48 56 48 48 56 48 48 56 48 48 56 48 48 56 48 48 56 48 48 56 48 48 56 48 48 56 48 48 56 48 48 56 48 48 56 48 48 56 48 48 56 48 48 56 48 48 56 48 48 56 48 48 56 48 48 56 48 48 56 48 48 56 48 48 56 48 48 56 48 48 56 48 48 56 48 48 56 48 48 56 48 48 56 48 48 56 48 48 56 48 48 56 48 48 56 48 48 56 48 48 56 48 48 56 48 48 56 48 48 56 48 48 56 48 48 56 48 48 56 48 48 56 48 48 56 48 48 56 48 48 56 48 48 56 48 48 56 48 48 56 48 48 56 48 48 56 48 48 56 48 48 56 48 48 56 48 48 56 48 48 56 48 48 56 48 48 56 48 48 56 48 48 56 48 48 56 48 48 56 48 48 56 48 48 56 48 48 56 48 48 56 48 48 56 48 48 56
48 48 56 48 48 56 48 48 56 48 48 56 48 48 56 48 48 56 48 48 56 48 48 56 48 48 56 48 48 56 48 48 56 48 48 56 48 48 56 48 48 56 48 48 56 48 48 56 48 48 56 48 48 56 48 48 56 48 48 56 48 48 56 48 48 56 48 48 56 48 48 56 48 48 56 48 48 56 48 48 56 48 48 56 48 48 56 48 48 56 48 48 56 48 48 56 48 48 56 48 48 56 48 48 56 48 48 56 48 48 56 48 48 56 48 48 56 48 48 56 48 48 56 48 48 56 48 48 56 48 48 56 48 48 56 48 48 56 48 48 56 48 48 56 48 48 56 48 48 56 48 48 56 48 48 56 48 48 56 48 48 56 48 48 56 48 48 56 48 48 56 48 48 56 48 48 56 48 48 56 48 48 56 48 48 56 48 48 56 48 48 56 48 48 56 48 48 56 48 48 56 48 48 56 48 48 56 48 48 56 48 48 56 48 48 56 48 48 56 48 48 56 48 48 56 48 48 56 48 48 56 48 48 56 48 48 56 48 48 56 48 48 56 48 48 56 48 48 56 48 48 56 48 48 56 48 48 56 48 48 56 48 48 56 48 48 56 48 48 56 48 48 56 48 48 56 48 48 56 48 48 56 48 48 56 48 48 56 48 48 56 48 48 56 48 48 56 48 48 56 48 48 56 48 48 56 48 48 56 48 48 56 48 48 56 48 48 56 48 48 56 48 48 56 48 48 56 48 48 56 48 48 56 48 48 56 48 48 56 48 48 56 48 48 56 48 48 56 48 48 56 48 48 56 48 48 56 48 48 56 48 48 56 48 48 56 48 48 56 48 48 56 48 48 56 48 48 56 48 48 56 48 48 56
48 48 56 48 48 56 48 48 56 48 48 56 48 48 56 48 48 56 48 48 56 48 48 56 48 48 56 48 48 56 48 48 56 48 48 56 48 48 56 48 48 56 48 48 56 48 48 56 48 48 56 48 48 56 48 48 56 48 48 56 48 48 56 48 48 56 48 48 56 48 48 56 48 48 56 48 48 56 48 48 56 48 48 56 48 48 56 48 48 56 48 48 56 48 48 56 48 48 56 48 48 56 48 48 56 48 48 56 48 48 56 48 48 56 48 48 56 48 48 56 48 48 56 48 48 56 48 48 56 48 48 56 48 48 56 48 48 56 48 48 56 48 48 56 48 48 56 48 48 56 48 48 56 48 48 56 48 48 56 48 48 56 48 48 56 48 48 56 48 48 56 48 48 56 48 48 56 48 48 56 48 48 56 48 48 56 48 48 56 48 48 56 48 48 56 48 48 56 48 48 56 48 48 56 48 48 56 48 48 56 48 48 56 48 48 56 48 48 56 48 48 56 48 48 56 48 48 56 48 48 56 48 48 56 48 48 56 48 48 56 48 48 56 48 48 56 48 48 56 48 48 56 48 48 56 48 48 56 48 48 56 48 48 56 48 48 56 48 48 56 48 48 56 48 48 56 48 48 56 48 48 56 48 48 56 48 48 56 48 48 56 48 48 56 48 48 56 48 48 56 48 48 56 48 48 56 48 48 56 48 48 56 48 48 56 48 48 56 48 48 56 48 48 56 48 48 56 48 48 56 48 48 56 48 48 56 48 48 56 48 48 56 48 48 56 48 48 56 48 48 56 48 48 56 48 48 56 48 48 56 48 48 56 48 48 56 48 48 56 48 48 56 48 48 56 48 48 56 48 48 56 48 48 56
48 48 56 48 48 56 48 48 56 48 48 56 48 48 56 48 48 56 48 48 56 48 48 56 48 48 56 48 48 56 48 48 56 48 48 56 48 48 56 48 48 56 48 48 56 48 48 56 48 48 56 48 48 56 48 48 56 48 48 56 48 48 56 48 48 56 48 48 56 48 48 56 48 48 56 48 48 56 48 48 56 48 48 56 48 48 56 48 48 56 48 48 56 48 48 56 48 48 56 48 48 56 48 48 56 48 48 56 48 48 56 48 48 56 48 48 56 48 48 56 48 48 56 48 48 56 48 48 56 48 48 56 48 48 56 48 48 56 48 48 56 48 48 56 48 48 56 48 48 56 48 48 56 48 48 56 48 48 56 48 48 56 48 48 56 48 48 56 48 48 56 48 48 56 48 48 56 48 48 56 48 48 56 48 48 56 48 48 56 48 48 56 48 48 56 48 48 56 48 48 56 48 48 56 48 48 56 48 48 56 48 48 56 48 48 56 48 48 56 48 48 56 48 48 56 48 48 56 48 48 56 48 48 56 48 48 56 48 48 56 48 48 56 48 48 56 48 48 56 48 48 56 48 48 56 48 48 56 48 48 56 48 48 56 48 48 56 48 48 56 48 48 56 48 48 56 48 48 56 48 48 56 48 48 56 48 48 56 48 48 56 48 48 56 48 48 56 48 48 56 48 48 56 48 48 56 48 48 56 48 48 56 48 48 56 48 48 56 48 48 56 48 48 56 48 48 56 48 48 56 48 48 56 48 48 56 48 48 56 48 48 56 48 48 56 48 48 56 48 48 56 48 48 56 48 48 56 48 48 56 48 48 56 48 48 56 48 48 56 48 48 56 48 48 56 48 48 56 48 48 56 48 48 56
48 48 56 48 48 56 48 48 56 48 48 56 48 48 56 48 48 56 48 48 56 48 48 56 48 48 56 48 48 56 48 48 56 48 48 56 48 48 56 48 48 56 48 48 56 48 48 56 48 48 56 48 48 56 48 48 56 48 48 56 48 48 56 48 48 56 48 48 56 48 48 56 48 48 56 48 48 56 48 48 56 48 48 56 48 48 56 48 48 56 48 48 56 48 48 56 48 48 56 48 48 56 48 48 56 48 48 56 48 48 56 48 48 56 48 48 56 48 48 56 48 48 56 48 48 56 48 48 56 48 48 56 48 48 56 48 48 56 48 48 56 48 48 56 48 48 56 48 48 56 48 48 56 48 48 56 48 48 56 48 48 56 48 48 56 48 48 56 48 48 56 48 48 56 48 48 56 48 48 56 48 48 56 48 48 56 48 48 56 48 48 56 48 48 56 48 48 56 48 48 56 48 48 56 48 48 56 48 48 56 48 48 56 48 48 56 48 48 56 48 48 56 48 48 56 48 48 56 48 48 56 48 48 56 48 48 56 48 48 56 48 48 56 48 48 56 48 48 56 48 48 56 48 48 56 48 48 56 48 48 56 48 48 56 48 48 56 48 48 56 48 48 56 48 48 56 48 48 56 48 48 56 48 48 56 48 48 56 48 48 56 48 48 56 48 48 56 48 48 56 48 48 56 48 48 56 48 48 56 48 48 56 48 48 56 48 48 56 48 48 56 48 48 56 48 48 56 48 48 56 48 48 56 48 48 56 48 48 56 48 48 56 48 48 56 48 48 56 48 48 56 48 48 56 48 48 56 48 48 56 48 48 56 48 48 56 48 48 56 48 48 56 48 48 56 48 48 56 48 48 56 48 48 56
48 48 56 48 48 56 48 48 56 48 48 56 48 48 56 48 48 56 48 48 56 48 48 56 48 48 56 48 48 56 48 48 56 48 48 56 48 48 56 48 48 56 48 48 56 48 48 56 48 48 56 48 48 56 48 48 56 48 48 56 48 48 56 48 48 56 48 48 56 48 48 56 48 48 56 48 48 56 48 48 56 48 48 56 48 48 56 48 48 56 48 48 56 48 48 56 48 48 56 48 48 56 48 48 56 48 48 56 48 48 56 48 48 56 48 48 56 48 48 56 48 48 56 48 48 56 48 48 56 48 48 56 48 48 56 48 48 56 48 48 56 48 48 56 48 48 56 48 48 56 48 48 56 48 48 56 48 48 56 48 48 56 48 48 56 48 48 56 48 48 56 48 48 56 48 48 56 48 48 56 48 48 56 48 48 56 48 48 56 48 48 56 48 48 56 48 48 56 48 48 56 48 48 56 48 48 56 48 48 56 48 48 56 48 48 56 48 48 56 48 48 56 48 48 56 48 48 56 48 48 56 48 48 56 48 48 56 48 48 56 48 48 56 48 48 56 48 48 56 48 48 56 48 48 56 48 48 56 48 48 56 48 48 56 48 48 56 48 48 56 48 48 56 48 48 56 48 48 56 48 48 56 48 48 56 48 48 56 48 48 56 48 48 56 48 48 56 48 48 56 48 48 56 48 48 56 48 48 56 48 48 56 48 48 56 48 48 56 48 48 56 48 48 56 48 48 56 48 48 56 48 48 56 48 48 56 48 48 56 48 48 56 48 48 56 48 48 56 48 48 56 48 48 56 48 48 56 48 48 56 48 48 56 48 48 56 48 48 56 48 48 56 48 48 56 48 48 56 48 48 56 48 48 56
48 48 56 48 48 56 48 48 56 48 48 56 48 48 56 48 48 56 48 48 56 48 48 56 48 48 56 48 48 56 48 48 56 48 48 56 48 48 56 48 48 56 48 48 56 48 48 56 48 48 56 48 48 56 48 48 56 48 48 56 48 48 56 48 48 56 48 48 56 48 48 56 48 48 56 48 48 56 48 48 56 48 48 56 48 48 56 48 48 56 48 48 56 48 48 56 48 48 56 48 48 56 48 48 56 48 48 56 48 48 56 48 48 56 48 48 56 48 48 56 48 48 56 48 48 56 48 48 56 48 48 56 48 48 56 48 48 56 48 48 56 48 48 56 48 48 56 48 48 56 48 48 56 48 48 56 48 48 56 48 48 56 48 48 56 48 48 56 48 48 56 48 48 56 48 48 56 48 48 56 48 48 56 48 48 56 48 48 56 48 48 56 48 48 56 48 48 56 48 48 56 48 48 56 48 48 56 48 48 56 48 48 56 48 48 56 48 48 56 48 48 56 48 48 56 48 48 56 48 48 56 48 48 56 48 48 56 48 48 56 48 48 56 48 48 56 48 48 56 48 48 56 48 48 56 48 48 56 48 48 56 48 48 56 48 48 56 48 48 56 48 48 56 48 48 56 48 48 56 48 48 56 48 48 56 48 48 56 48 48 56 48 48 56 48 48 56 48 48 56 48 48 56 48 48 56 48 48 56 48 48 56 48 48 56 48 48 56 48 48 56 48 48 56 48 48 56 48 48 56 48 48 56 48 48 56 48 48 56 48 48 56 48 48 56 48 48 56 48 48 56 48 48 56 48 48 56 48 48 56 48 48 56 48 48 56 48 48 56 48 48 56 48 48 56 48 48 56 48 48 56 48 48 56
48 48 56 48 48 56 48 48 56 48 48 56 48 48 56 48 48 56 48 48 56 48 48 56 48 48 56 48 48 56 48 48 56 48 48 56 48 48 56 48 48 56 48 48 56 48 48 56 48 48 56 48 48 56 48 48 56 48 48 56 48 48 56 48 48 56 48 48 56 48 48 56 48 48 56 48 48 56 48 48 56 48 48 56 48 48 56 48 48 56 48 48 56 48 48 56 48 48 56 48 48 56 48 48 56 48 48 56 48 48 56 48 48 56 48 48 56 48 48 56 48 48 56 48 48 56 48 48 56 48 48 56 48 48 56 48 48 56 48 48 56 48 48 56 48 48 56 48 48 56 48 48 56 48 48 56 48 48 56 48 48 56 48 48 56 48 48 56 48 48 56 48 48 56 48 48 56 48 48 56 48 48 56 48 48 56 48 48 56 48 48 56 48 48 56 48 48 56 48 48 56 48 48 56 48 48 56 48 48 56 48 48 56 48 48 56 48 48 56 48 48 56 48 48 56 48 48 56 48 48 56 48 48 56 48 48 56 48 48 56 48 48 56 48 48 56 48 48 56 48 48 56 48 48 56 48 48 56 48 48 56 48 48 56 48 48 56 48 48 56 48 48 56 48 48 56 48 48 56 48 48 56 48 48 56 48 48 56 48 48 56 48 48 56 48 48 56 48 48 56 48 48 56 48 48 56 48 48 56 48 48 56 48 48 56 48 48 56 48 48 56 48 48 56 48 48 56 48 48 56 48 48 56 48 48 56 48 48 56 48 48 56 48 48 56 48 48 56 48 48 56 48 48 56 48 48 56 48 48 56 48 48 56 48 48 56 48 48 56 48 48 56 48 48 56 48 48 56 48 48 56 48 48 56
48 48 56 48 48 56 48 48 56 48 48 56 48 48 56 48 48 56 48 48 56 48 48 56 48 48 56 48 48 56 48 48 56 48 48 56 48 48 56 48 48 56 48 48 56 48 48 56 48 48 56 48 48 56 48 48 56 48 48 56 48 48 56 48 48 56 48 48 56 48 48 56 48 48 56 48 48 56 48 48 56 48 48 56 48 48 56 48 48 56 48 48 56 48 48 56 48 48 56 48 48 56 48 48 56 48 48 56 48 48 56 48 48 56 48 48 56 48 48 56 48 48 56 48 48 56 48 48 56 48 48 56 48 48 56 48 48 56 48 48 56 48 48 56 48 48 56 48 48 56 48 48 56 48 48 56 48 48 56 48 48 56 48 48 56 48 48 56 48 48 56 48 48 56 48 48 56 48 48 56 48 48 56 48 48 56 48 48 56 48 48 56 48 48 56 48 48 56 48 48 56 48 48 56 48 48 56 48 48 56 48 48 56 48 48 56 48 48 56 48 48 56 48 48 56 48 48 56 48 48 56 48 48 56 48 48 56 48 48 56 48 48 56 48 48 56 48 48 56 48 48 56 48 48 56 48 48 56 48 48 56 48 48 56 48 48 56 48 48 56 48 48 56 48 48 56 48 48 56 48 48 56 48 48 56 48 48 56 48 48 56 48 48 56 48 48 56 48 48 56 48 48 56 48 48 56 48 48 56 48 48 56 48 48 56 48 48 56 48 48 56 48 48 56 48 48 56 48 48 56 48 48 56 48 48 56 48 48 56 48 48 56 48 48 56 48 48 56 48 48 56 48 48 56 48 48 56 48 48 56 48 48 56 48 48 56 48 48 56 48 48 56 48 48 56 48 48 56 48 48 56 48 48 56
48 48 56 48 48 56 48 48 56 48 48 56 48 48 56 48 48 56 48 48 56 48 48 56 48 48 56 48 48 56 48 48 56 48 48 56 48 48 56 48 48 56 48 48 56 48 48 56 48 48 56 48 48 56 48 48 56 48 48 56 48 48 56 48 48 56 48 48 56 48 48 56 48 48 56 48 48 56 48 48 56 48 48 56 48 48 56 48 48 56 48 48 56 48 48 56 48 48 56 48 48 56 48 48 56 48 48 56 48 48 56 48 48 56 48 48 56 48 48 56 48 48 56 48 48 56 48 48 56 48 48 56 48 48 56 48 48 56 48 48 56 48 48 56 48 48 56 48 48 56 48 48 56 48 48 56 48 48 56 48 48 56 48 48 56 48 48 56 48 48 56 48 48 56 48 48 56 48 48 56 48 48 56 48 48 56 48 48 56 48 48 56 48 48 56 48 48 56 48 48 56 48 48 56 48 48 56 48 48 56 48 48 56 48 48 56 48 48 56 48 48 56 48 48 56 48 48 56 48 48 56 48 48 56 48 48 56 48 48 56 48 48 56 48 48 56 48 48 56 48 48 56 48 48 56 48 48 56 48 48 56 48 48 56 48 48 56 48 48 56 48 48 56 48 48 56 48 48 56 48 48 56 48 48 56 48 48 56 48 48 56 48 48 56 48 48 56 48 48 56 48 48 56 48 48 56 48 48 56 48 48 56 48 48 56 48 48 56 48 48 56 48 48 56 48 48 56 48 48 56 48 48 56 48 48 56 48 48 56 48 48 56 48 48 56 48 48 56 48 48 56 48 48 56 48 48 56 48 48 56 48 48 56 48 48 56 48 48 56 48 48 56 48 48 56 48 48 56 48 48 56 48 48 56
48 48 56 48 48 56 48 48 56 48 48 56 48 48 56 48 48 56 48 48 56 48 48 56 48 48 56 48 48 56 48 48 56 48 48 56 48 48 56 48 48 56 48 48 56 48 48 56 48 48 56 48 48 56 48 48 56 48 48 56 48 48 56 48 48 56 48 48 56 48 48 56 48 48 56 48 48 56 48 48 56 48 48 56 48 48 56 48 48 56 48 48 56 48 48 56 48 48 56 48 48 56 48 48 56 48 48 56 48 48 56 48 48 56 48 48 56 48 48 56 48 48 56 48 48 56 48 48 56 48 48 56 48 48 56 48 48 56 48 48 56 48 48 56 48 48 56 48 48 56 48 48 56 48 48 56 48 48 56 48 48 56 48 48 56 48 48 56 48 48 56 48 48 56 48 48 56 48 48 56 48 48 56 48 48 56 48 48 56 48 48 56 48 48 56 48 48 56 48 48 56 48 48 56 48 48 56 48 48 56 48 48 56 48 48 56 48 48 56 48 48 56 48 48 56 48 48 56 48 48 56 48 48 56 48 48 56 48 48 56 48 48 56 48 48 56 48 48 56 48 48 56 48 48 56 48 48 56 48 48 56 48 48 56 48 48 56 48 48 56 48 48 56 48 48 56 48 48 56 48 48 56 48 48 56 48 48 56 48 48 56 48 48 56 48 48 56 48 48 56 48 48 56 48 48 56 48 48 56 48 48 56 48 48 56 48 48 56 48 48 56 48 48 56 48 48 56 48 48 56 48 48 56 48 48 56 48 48 56 48 48 56 48 48 56 48 48 56 48 48 56 48 48 56 48 48 56 48 48 56 48 48 56 48 48 56 48 48 56 48 48 56 48 48 56 48 48 56 48 48 56 48 48 56
48 48 56 48 48 56 48 48 56 48 48 56 48 48 56 48 48 56 48 48 56 48 48 56 48 48 56 48 48 56 48 48 56 48 48 56 48 48 56 48 48 56 48 48 56 48 48 56 48 48 56 48 48 56 48 48 56 48 48 56 48 48 56 48 48 56 48 48 56 48 48 56 48 48 56 48 48 56 48 48 56 48 48 56 48 48 56 48 48 56 48 48 56 48 48 56 48 48 56 48 48 56 48 48 56 48 48 56 48 48 56 48 48 56 48 48 56 48 48 56 48 48 56 48 48 56 48 48 56 48 48 56 48 48 56 48 48 56 48 48 56 48 48 56 48 48 56 48 48 56 48 48 56 48 48 56 48 48 56 48 48 56 48 48 56 48 48 56 48 48 56 48 48 56 48 48 56 48 48 56 48 48 56 48 48 56 48 48 56 48 48 56 48 48 56 48 48 56 48 48 56 48 48 56 48 48 56 48 48 56 48 48 56 48 48 56 48 48 56 48 48 56 48 48 56 48 48 56 48 48 56 48 48 56 48 48 56 48 48 56 48 48 56 48 48 56 48 48 56 48 48 56 48 48 56 48 48 56 48 48 56 48 48 56 48 48 56 48 48 56 48 48 56 48 48 56 48 48 56 48 48 56 48 48 56 48 48 56 48 48 56 48 48 56 48 48 56 48 48 56 48 48 56 48 48 56 48 48 56 48 48 56 48 48 56 48 48 56 48 48 56 48 48 56 48 48 56 48 48 56 48 48 56 48 48 56 48 48 56 48 48 56 48 48 56 48 48 56 48 48 56 48 48 56 48 48 56 48 48 56 48 48 56 48 48 56 48 48 56 48 48 56 48 48 56 48 48 56 48 48 56 48 48 56
48 48 56 48 48 56 48 48 56 48 48 56 48 48 56 48 48 56 48 48 56 48 48 56 48 48 56 48 48 56 48 48 56 48 48 56 48 48 56 48 48 56 48 48 56 48 48 56 48 48 56 48 48 56 48 48 56 48 48 56 48 48 56 48 48 56 48 48 56 48 48 56 48 48 56 48 48 56 48 48 56 48 48 56 48 48 56 48 48 56 48 48 56 48 48 56 48 48 56 48 48 56 48 48 56 48 48 56 48 48 56 48 48 56 48 48 56 48 48 56 48 48 56 48 48 56 48 48 56 48 48 56 48 48 56 48 48 56 48 48 56 48 48 56 48 48 56 48 48 56 48 48 56 48 48 56 48 48 56 48 48 56 48 48 56 48 48 56 48 48 56 48 48 56 48 48 56 48 48 56 48 48 56 48 48 56 48 48 56 48 48 56 48 48 56 48 48 56 48 48 56 48 48 56 48 48 56 48 48 56 48 48 56 48 48 56 48 48 56 48 48 56 48 48 56 48 48 56 48 48 56 48 48 56 48 48 56 48 48 56 48 48 56 48 48 56 48 48 56 48 48 56 48 48 56 48 48 56 48 48 56 48 48 56 48 48 56 48 48 56 48 48 56 48 48 56 48 48 56 48 48 56 48 48 56 48 48 56 48 48 56 48 48 56 48 48 56 48 48 56 48 48 56 48 48 56 48 48 56 48 48 56 48 48 56 48 48 56 48 48 56 48 48 56 48 48 56 48 48 56 48 48 56 48 48 56 48 48 56 48 48 56 48 48 56 48 48 56 48 48 56 48 48 56 48 48 56 48 48 56 48 48 56 48 48 56 48 48 56 48 48 56 48 48 56 48 48 56 48 48 56 48 48 56
48 48 56 48 48 56 48 48 56 48 48 56 48 48 56 48 48 56 48 48 56 48 48 56 48 48 56 48 48 56 48 48 56 48 48 56 48 48 56 48 48 56 48 48 56 48 48 56 48 48 56 48 48 56 48 48 56 48 48 56 48 48 56 48 48 56 48 48 56 48 48 56 48 48 56 48 48 56 48 48 56 48 48 56 48 48 56 48 48 56 48 48 56 48 48 56 48 48 56 48 48 56 48 48 56 48 48 56 48 48 56 48 48 56 48 48 56 48 48 56 48 48 56 48 48 56 48 48 56 48 48 56 48 48 56 48 48 56 48 48 56 48 48 56 48 48 56 48 48 56 48 48 56 48 48 56 48 48 56 48 48 56 48 48 56 48 48 56 48 48 56 48 48 56 48 48 56 48 48 56 48 48 56 48 48 56 48 48 56 48 48 56 48 48 56 48 48 56 48 48 56 48 48 56 48 48 56 48 48 56 48 48 56 48 48 56 48 48 56 48 48 56 48 48 56 48 48 56 48 48 56 48 48 56 48 48 56 48 48 56 48 48 56 48 48 56 48 48 56 48 48 56 48 48 56 48 48 56 48 48 56 48 48 56 48 48 56 48 48 56 48 48 56 48 48 56 48 48 56 48 48 56 48 48 56 48 48 56 48 48 56 48 48 56 48 48 56 48 48 56 48 48 56 48 48 56 48 48 56 48 48 56 48 48 56 48 48 56 48 48 56 48 48 56 48 48 56 48 48 56 48 48 56 48 48 56 48 48 56 48 48 56 48 48 56 48 48 56 48 48 56 48 48 56 48 48 56 48 48 56 48 48 56 48 48 56 48 48 56 48 48 56 48 48 56 48 48 56 48 48 56 48 48 56
48 48 56 48 48 56 48 48 56 48 48 56 48 48 56 48 48 56 48 48 56 48 48 56 48 48 56 48 48 56 48 48 56 48 48 56 48 48 56 48 48 56 48 48 56 48 48 56 48 48 56 48 48 56 48 48 56 48 48 56 48 48 56 48 48 56 48 48 56 48 48 56 48 48 56 48 48 56 48 48 56 48 48 56 48 48 56 48 48 56 48 48 56 48 48 56 48 48 56 48 48 56 48 48 56 48 48 56 48 48 56 48 48 56 48 48 56 48 48 56 48 48 56 48 48 56 48 48 56 48 48 56 48 48 56 48 48 56 48 48 56 48 48 56 48 48 56 48 48 56 48 48 56 48 48 56 48 48 56 48 48 56 48 48 56 48 48 56 48 48 56 48 48 56 48 48 56 48 48 56 48 48 56 48 48 56 48 48 56 48 48 56 48 48 56 48 48 56 48 48 56 48 48 56 48 48 56 48 48 56 48 48 56 48 48 56 48 48 56 48 48 56 48 48 56 48 48 56 48 48 56 48 48 56 48 48 56 48 48 56 48 48 56 48 48 56 48 48 56 48 48 56 48 48 56 48 48 56 48 48 56 48 48 56 48 48 56 48 48 56 48 48 56 48 48 56 48 48 56 48 48 56 48 48 56 48 48 56 48 48 56 48 48 56 48 48 56 48 48 56 48 48 56 48 48 56 48 48 56 48 48 56 48 48 56 48 48 56 48 48 56 48 48 56 48 48 56 48 48 56 48 48 56 48 48 56 48 48 56 48 48 56 48 48 56 48 48 56 48 48 56 48 48 56 48 48 56 48 48 56 48 48 56 48 48 56 48 48 56 48 48 56 48 48 56 48 48 56 48 48 56 48 48 56
48 48 56 48 48 56 48 48 56 48 48 56 48 48 56 48 48 56 48 48 56 48 48 56 48 48 56 48 48 56 48 48 56 48 48 56 48 48 56 48 48 56 48 48 56 48 48 56 48 48 56 48 48 56 48 48 56 48 48 56 48 48 56 48 48 56 48 48 56 48 48 56 48 48 56 48 48 56 48 48 56 48 48 56 48 48 56 48 48 56 48 48 56 48 48 56 48 48 56 48 48 56 48 48 56 48 48 56 48 48 56 48 48 56 48 48 56 48 48 56 48 48 56 48 48 56 48 48 56 48 48 56 48 48 56 48 48 56 48 48 56 48 48 56 48 48 56 48 48 56 48 48 56 48 48 56 48 48 56 48 48 56 48 48 56 48 48 56 48 48 56 48 48 56 48 48 56 48 48 56 48 48 56 48 48 56 48 48 56 48 48 56 48 48 56 48 48 56 48 48 56 48 48 56 48 48 56 48 48 56 48 48 56 48 48 56 48 48 56 48 48 56 48 48 56 48 48 56 48 48 56 48 48 56 48 48 56 48 48 56 48 48 56 48 48 56 48 48 56 48 48 56 48 48 56 48 48 56 48 48 56 48 48 56 48 48 56 48 48 56 48 48 56 48 48 56 48 48 56 48 48 56 48 48 56 48 48 56 48 48 56 48 48 56 48 48 56 48 48 56 48 48 56 48 48 56 48 48 56 48 48 56 48 48 56 48 48 56 48 48 56 48 48 56 48 48 56 48 48 56 48 48 56 48 48 56 48 48 56 48 48 56 48 48 56 48 48 56 48 48 56 48 48 56 48 48 56 48 48 56 48 48 56 48 48 56 48 48 56 48 48 56 48 48 56 48 48 56 48 48 56 48 48 56
48 48 56 48 48 56 48 48 56 48 48 56 48 48 56 48 48 56 48 48 56 48 48 56 48 48 56 48 48 56 48 48 56 48 48 56 48 48 56 48 48 56 48 48 56 48 48 56 48 48 56 48 48 56 48 48 56 48 48 56 48 48 56 48 48 56 48 48 56 48 48 56 48 48 56 48 48 56 48 48 56 48 48 56 48 48 56 48 48 56 48 48 56 48 48 56 48 48 56 48 48 56 48 48 56 48 48 56 48 48 56 48 48 56 48 48 56 48 48 56 48 48 56 48 48 56 48 48 56 48 48 56 48 48 56 48 48 56 48 48 56 48 48 56 48 48 56 48 48 56 48 48 56 48 48 56 48 48 56 48 48 56 48 48 56 48 48 56 48 48 56 48 48 56 48 48 56 48 48 56 48 48 56 48 48 56 48 48 56 48 48 56 48 48 56 48 48 56 48 48 56 48 48 56 48 48 56 48 48 56 48 48 56 48 48 56 48 48 56 48 48 56 48 48 56 48 48 56 48 48 56 48 48 56 48 48 56 48 48 56 48 48 56 48 48 56 48 48 56 48 48 56 48 48 56 48 48 56 48 48 56 48 48 56 48 48 56 48 48 56 48 48 56 48 48 56 48 48 56 48 48 56 48 48 56 48 48 56 48 48 56 48 48 56 48 48 56 48 48 56 48 48 56 48 48 56 48 48 56 48 48 56 48 48 56 48 48 56 48 48 56 48 48 56 48 48 56 48 48 56 48 48 56 48 48 56 48 48 56 48 48 56 48 48 56 48 48 56 48 48 56 48 48 56 48 48 56 48 48 56 48 48 56 48 48 56 48 48 56 48 48 56 48 48 56 48 48 56 48 48 56 48 48 56
48 48 56 48 48 56 48 48 56 48 48 56 48 48 56 48 48 56 48 48 56 48 48 56 48 48 56 48 48 56 48 48 56 48 48 56 48 48 56 48 48 56 48 48 56 48 48 56 48 48 56 48 48 56 48 48 56 48 48 56 48 48 56 48 48 56 48 48 56 48 48 56 48 48 56 48 48 56 48 48 56 48 48 56 48 48 56 48 48 56 48 48 56 48 48 56 48 48 56 48 48 56 48 48 56 48 48 56 48 48 56 48 48 56 48 48 56 48 48 56 48 48 56 48 48 56 48 48 56 48 48 56 48 48 56 48 48 56 48 48 56 48 48 56 48 48 56 48 48 56 48 48 56 48 48 56 48 48 56 48 48 56 48 48 56 48 48 56 48 48 56 48 48 56 48 48 56 48 48 56 48 48 56 48 48 56 48 48 56 48 48 56 48 48 56 48 48 56 48 48 56 48 48 56 48 48 56 48 48 56 48 48 56 48 48 56 48 48 56 48 48 56 48 48 56 48 48 56 48 48 56 48 48 56 48 48 56 48 48 56 48 48 56 48 48 56 48 48 56 48 48 56 48 48 56 48 48 56 48 48 56 48 48 56 48 48 56 48 48 56 48 48 56 48 48 56 48 48 56 48 48 56 48 48 56 48 48 56 48 48 56 48 48 56 48 48 56 48 48 56 48 48 56 48 48 56 48 48 56 48 48 56 48 48 56 48 48 56 48 48 56 48 48 56 48 48 56 48 48 56 48 48 56 48 48 56 48 48 56 48 48 56 48 48 56 48 48 56 48 48 56 48 48 56 48 48 56 48 48 56 48 48 56 48 48 56 48 48 56 48 48 56 48 48 56 48 48 56 48 48 56 48 48 56
48 48 56 48 48 56 48 48 56 48 48 56 48 48 56 48 48 56 48 48 56 48 48 56 48 48 56 48 48 56 48 48 56 48 48 56 48 48 56 48 48 56 48 48 56 48 48 56 48 48 56 48 48 56 48 48 56 48 48 56 48 48 56 48 48 56 48 48 56 48 48 56 48 48 56 48 48 56 48 48 56 48 48 56 48 48 56 48 48 56 48 48 56 48 48 56 48 48 56 48 48 56 48 48 56 48 48 56 48 48 56 48 48 56 48 48 56 48 48 56 48 48 56 48 48 56 48 48 56 48 48 56 48 48 56 48 48 56 48 48 56 48 48 56 48 48 56 48 48 56 48 48 56 48 48 56 48 48 56 48 48 56 48 48 56 48 48 56 48 48 56 48 48 56 48 48 56 48 48 56 48 48 56 48 48 56 48 48 56 48 48 56 48 48 56 48 48 56 48 48 56 48 48 56 48 48 56 48 48 56 48 48 56 48 48 56 48 48 56 48 48 56 48 48 56 48 48 56 48 48 56 48 48 56 48 48 56 48 48 56 48 48 56 48 48 56 48 48 56 48 48 56 48 48 56 48 48 56 48 48 56 48 48 56 48 48 56 48 48 56 48 48 56 48 48 56 48 48 56 48 48 56 48 48 56 48 48 56 48 48 56 48 48 56 48 48 56 48 48 56 48 48 56 48 48 56 48 48 56 48 48 56 48 48 56 48 48 56 48 48 56 48 48 56 48 48 56 48 48 56 48 48 56 48 48 56 48 48 56 48 48 56 48 48 56 48 48 56 48 48 56 48 48 56 48 48 56 48 48 56 48 48 56 48 48 56 48 48 56 48 48 56 48 48 56 48 48 56 48 48 56 48 48 56
48 48 56 48 48 56 48 48 56 48 48 56 48 48 56 48 48 56 48 48 56 48 48 56 48 48 56 48 48 56 48 48 56 48 48 56 48 48 56 48 48 56 48 48 56 48 48 56 48 48 56 48 48 56 48 48 56 48 48 56 48 48 56 48 48 56 48 48 56 48 48 56 48 48 56 48 48 56 48 48 56 48 48 56 48 48 56 48 48 56 48 48 56 48 48 56 48 48 56 48 48 56 48 48 56 48 48 56 48 48 56 48 48 56 48 48 56 48 48 56 48 48 56 48 48 56 48 48 56 48 48 56 48 48 56 48 48 56 48 48 56 48 48 56 48 48 56 48 48 56 48 48 56 48 48 56 48 48 56 48 48 56 48 48 56 48 48 56 48 48 56 48 48 56 48 48 56 48 48 56 48 48 56 48 48 56 48 48 56 48 48 56 48 48 56 48 48 56 48 48 56 48 48 56 48 48 56 48 48 56 48 48 56 48 48 56 48 48 56 48 48 56 48 48 56 48 48 56 48 48 56 48 48 56 48 48 56 48 48 56 48 48 56 48 48 56 48 48 56 48 48 56 48 48 56 48 48 56 48 48 56 48 48 56 48 48 56 48 48 56 48 48 56 48 48 56 48 48 56 48 48 56 48 48 56 48 48 56 48 48 56 48 48 56 48 48 56 48 48 56 48 48 56 48 48 56 48 48 56 48 48 56 48 48 56 48 48 56 48 48 56 48 48 56 48 48 56 48 48 56 48 48 56 48 48 56 48 48 56 48 48 56 48 48 56 48 48 56 48 48 56 48 48 56 48 48 56 48 48 56 48 48 56 48 48 56 48 48 56 48 48 56 48 48 56 48 48 56 48 48 56 48 48 56
48 48 56 48 48 56 48 48 56 48 48 56 48 48 56 48 48 56 48 48 56 48 48 56 48 48 56 48 48 56 48 48 56 48 48 56 48 48 56 48 48 56 48 48 56 48 48 56 48 48 56 48 48 56 48 48 56 48 48 56 48 48 56 48 48 56 48 48 56 48 48 56 48 48 56 48 48 56 48 48 56 48 48 56 48 48 56 48 48 56 48 48 56 48 48 56 48 48 56 48 48 56 48 48 56 48 48 56 48 48 56 48 48 56 48 48 56 48 48 56 48 48 56 48 48 56 48 48 56 48 48 56 48 48 56 48 48 56 48 48 56 48 48 56 48 48 56 48 48 56 48 48 56 48 48 56 48 48 56 48 48 56 48 48 56 48 48 56 48 48 56 48 48 56 48 48 56 48 48 56 48 48 56 48 48 56 48 48 56 48 48 56 48 48 56 48 48 56 48 48 56 48 48 56 48 48 56 48 48 56 48 48 56 48 48 56 48 48 56 48 48 56 48 48 56 48 48 56 48 48 56 48 48 56 48 48 56 48 48 56 48 48 56 48 48 56 48 48 56 48 48 56 48 48 56 48 48 56 48 48 56 48 48 56 48 48 56 48 48 56 48 48 56 48 48 56 48 48 56 48 48 56 48 48 56 48 48 56 48 48 56 48 48 56 48 48 56 48 48 56 48 48 56 48 48 56 48 48 56 48 48 56 48 48 56 48 48 56 48 48 56 48 48 56 48 48 56 48 48 56 48 48 56 48 48 56 48 48 56 48 48 56 48 48 56 48 48 56 48 48 56 48 48 56 48 48 56 48 48 56 48 48 56 48 48 56 48 48 56 48 48 56 48 48 56 48 48 56 48 48 56 48 48 56
48 48 56 48 48 56 48 48 56 48 48 56 48 48 56 48 48 56 48 48 56 48 48 56 48 48 56 48 48 56 48 48 56 48 48 56 48 48 56 48 48 56 48 48 56 48 48 56 48 48 56 48 48 56 48 48 56 48 48 56 48 48 56 48 48 56 48 48 56 48 48 56 48 48 56 48 48 56 48 48 56 48 48 56 48 48 56 48 48 56 48 48 56 48 48 56 48 48 56 48 48 56 48 48 56 48 48 56 48 48 56 48 48 56 48 48 56 48 48 56 48 48 56 48 48 56 48 48 56 48 48 56 48 48 56 48 48 56 48 48 56 48 48 56 48 48 56 48 48 56 48 48 56 48 48 56 48 48 56 48 48 56 48 48 56 48 48 56 48 48 56 48 48 56 48 48 56 48 48 56 48 48 56 48 48 56 48 48 56 48 48 56 48 48 56 48 48 56 48 48 56 48 48 56 48 48 56 48 48 56 48 48 56 48 48 56 48 48 56 48 48 56 48 48 56 48 48 56 48 48 56 48 48 56 48 48 56 48 48 56 48 48 56 48 48 56 48 48 56 48 48 56 48 48 56 48 48 56 48 48 56 48 48 56 48 48 56 48 48 56 48 48 56 48 48 56 48 48 56 48 48 56 48 48 56 48 48 56 48 48 56 48 48 56 48 48 56 48 48 56 48 48 56 48 48 56 48 48 56 48 48 56 48 48 56 48 48 56 48 48 56 48 48 56 48 48 56 48 48 56 48 48 56 48 48 56 48 48 56 48 48 56 48 48 56 48 48 56 48 48 56 48 48 56 48 48 56 48 48 56 48 48 56 48 48 56 48 48 56 48 48 56 48 48 56 48 48 56 48 48 56 48 48 56
48 48 56 48 48 56 48 48 56 48 48 56 48 48 56 48 48 56 48 48 56 48 48 56 48 48 56 48 48 56 48 48 56 48 48 56 48 48 56 48 48 56 48 48 56 48 48 56 48 48 56 48 48 56 48 48 56 48 48 56 48 48 56 48 48 56 48 48 56 48 48 56 48 48 56 48 48 56 48 48 56 48 48 56 48 48 56 48 48 56 48 48 56 48 48 56 48 48 56 48 48 56 48 48 56 48 48 56 48 48 56 48 48 56 48 48 56 48 48 56 48 48 56 48 48 56 48 48 56 48 48 56 48 48 56 48 48 56 48 48 56 48 48 56 48 48 56 48 48 56 48 48 56 48 48 56 48 48 56 48 48 56 48 48 56 48 48 56 48 48 56 48 48 56 48 48 56 48 48 56 48 48 56 48 48 56 48 48 56 48 48 56 48 48 56 48 48 56 48 48 56 48 48 56 48 48 56 48 48 56 48 48 56 48 48 56 48 48 56 48 48 56 48 48 56 48 48 56 48 48 56 48 48 56 48 48 56 48 48 56 48 48 56 48 48 56 48 48 56 48 48 56 48 48 56 48 48 56 48 48 56 48 48 56 48 48 56 48 48 56 48 48 56 48 48 56 48 48 56 48 48 56 48 48 56 48 48 56 48 48 56 48 48 56 48 48 56 48 48 56 48 48 56 48 48 56 48 48 56 48 48 56 48 48 56 48 48 56 48 48 56 48 48 56 48 48 56 48 48 56 48 48 56 48 48 56 48 48 56 48 48 56 48 48 56 48 48 56 48 48 56 48 48 56 48 48 56 48 48 56 48 48 56 48 48 56 48 48 56 48 48 56 48 48 56 48 48 56 48 48 56 48 48 56
48 48 56 48 48 56 48 48 56 48 48 56 48 48 56 48 48 56 48 48 56 48 48 56 48 48 56 48 48 56 48 48 56 48 48 56 48 48 56 48 48 56 48 48 56 48 48 56 48 48 56 48 48 56 48 48 56 48 48 56 48 48 56 48 48 56 48 48 56 48 48 56 48 48 56 48 48 56 48 48 56 48 48 56 48 48 56 48 48 56 48 48 56 48 48 56 48 48 56 48 48 56 48 48 56 48 48 56 48 48 56 48 48 56 48 48 56 48 48 56 48 48 56 48 48 56 48 48 56 48 48 56 48 48 56 48 48 56 48 48 56 48 48 56 48 48 56 48 48 56 48 48 56 48 48 56 48 48 56 48 48 56 48 48 56 48 48 56 48 48 56 48 48 56 48 48 56 48 48 56 48 48 56 48 48 56 48 48 56 48 48 56 48 48 56 48 48 56 48 48 56 48 48 56 48 48 56 48 48 56 48 48 56 48 48 56 48 48 56 48 48 56 48 48 56 48 48 56 48 48 56 48 48 56 48 48 56 48 48 56 48 48 56 48 48 56 48 48 56 48 48 56 48 48 56 48 48 56 48 48 56 48 48 56 48 48 56 48 48 56 48 48 56 48 48 56 48 48 56 48 48 56 48 48 56 48 48 56 48 48 56 48 48 56 48 48 56 48 48 56 48 48 56 48 48 56 48 48 56 48 48 56 48 48 56 48 48 56 48 48 56 48 48 56 48 48 56 48 48 56 48 48 56 48 48 56 48 48 56 48 48 56 48 48 56 48 48 56 48 48 56 48 48 56 48 48 56 48 48 56 48 48 56 48 48 56 48 48 56 48 48 56 48 48 56 48 48 56 48 48 56 48 48 56
48 48 56 48 48 56 48 48 56 48 48 56 48 48 56 48 48 56 48 48 56 48 48 56 48 48 56 48 48 56 48 48 56 48 48 56 48 48 56 48 48 56 48 48 56 48 48 56 48 48 56 48 48 56 48 48 56 48 48 56 48 48 56 48 48 56 48 48 56 48 48 56 48 48 56 48 48 56 48 48 56 48 48 56 48 48 56 48 48 56 48 48 56 48 48 56 48 48 56 48 48 56 48 48 56 48 48 56 48 48 56 48 48 56 48 48 56 48 48 56 48 48 56 48 48 56 48 48 56 48 48 56 48 48 56 48 48 56 48 48 56 48 48 56 48 48 56 48 48 56 48 48 56 48 48 56 48 48 56 48 48 56 48 48 56 48 48 56 48 48 56 48 48 56 48 48 56 48 48 56 48 48 56 48 48 56 48 48 56 48 48 56 48 48 56 48 48 56 48 48 56 48 48 56 48 48 56 48 48 56 48 48 56 48 48 56 48 48 56 48 48 56 48 48 56 48 48 56 48 48 56 48 48 56 48 48 56 48 48 56 48 48 56 48 48 56 48 48 56 48 48 56 48 48 56 48 48 56 48 48 56 48 48 56 48 48 56 48 48 56 48 48 56 48 48 56 48 48 56 48 48 56 48 48 56 48 48 56 48 48 56 48 48 56 48 48 56 48 48 56 48 48 56 48 48 56 48 48 56 48 48 56 48 48 56 48 48 56 48 48 56 48 48 56 48 48 56 48 48 56 48 48 56 48 48 56 48 48 56 48 48 56 48 48 56 48 48 56 48 48 56 48 48 56 48 48 56 48 48 56 48 48 56 48 48 56 48 48 56 48 48 56 48 48 56 48 48 56 48 48 56 48 48 56
48 48 56 48 48 56 48 48 56 48 48 56 48 48 56 48 48 56 48 48 56 48 48 56 48 48 56 48 48 56 48 48 56 48 48 56 48 48 56 48 48 56 48 48 56 48 48 56 48 48 56 48 48 56 48 48 56 48 48 56 48 48 56 48 48 56 48 48 56 48 48 56 48 48 56 48 48 56 48 48 56 48 48 56 48 48 56 48 48 56 48 48 56 48 48 56 48 48 56 48 48 56 48 48 56 48 48 56 48 48 56 48 48 56 48 48 56 48 48 56 48 48 56 48 48 56 48 48 56 48 48 56 48 48 56 48 48 56 48 48 56 48 48 56 48 48 56 48 48 56 48 48 56 48 48 56 48 48 56 48 48 56 48 48 56 48 48 56 48 48 56 48 48 56 48 48 56 48 48 56 48 48 56 48 48 56 48 48 56 48 48 56 48 48 56 48 48 56 48 48 56 48 48 56 48 48 56 48 48 56 48 48 56 48 48 56 48 48 56 48 48 56 48 48 56 48 48 56 48 48 56 48 48 56 48 48 56 48 48 56 48 48 56 48 48 56 48 48 56 48 48 56 48 48 56 48 48 56 48 48 56 48 48 56 48 48 56 48 48 56 48 48 56 48 48 56 48 48 56 48 48 56 48 48 56 48 48 56 48 48 56 48 48 56 48 48 56 48 48 56 48 48 56 48 48 56 48 48 56 48 48 56 48 48 56 48 48 56 48 48 56 48 48 56 48 48 56 48 48 56 48 48 56 48 48 56 48 48 56 48 48 56 48 48 56 48 48 56 48 48 56 48 48 56 48 48 56 48 48 56 48 48 56 48 48 56 48 48 56 48 48 56 48 48 56 48 48 56 48 48 56 48 48 56
48 48 56 48 48 56 48 48 56 48 48 56 48 48 56 48 48 56 48 48 56 48 48 56 48 48 56 48 48 56 48 48 56 48 48 56 48 48 56 48 48 56 48 48 56 48 48 56 48 48 56 48 48 56 48 48 56 48 48 56 48 48 56 48 48 56 48 48 56 48 48 56 48 48 56 48 48 56 48 48 56 48 48 56 48 48 56 48 48 56 48 48 56 48 48 56 48 48 56 48 48 56 48 48 56 48 48 56 48 48 56 48 48 56 48 48 56 48 48 56 48 48 56 48 48 56 48 48 56 48 48 56 48 48 56 48 48 56 48 48 56 48 48 56 48 48 56 48 48 56 48 48 56 48 48 56 48 48 56 48 48 56 48 48 56 48 48 56 48 48 56 48 48 56 48 48 56 48 48 56 48 48 56 48 48 56 48 48 56 48 48 56 48 48 56 48 48 56 48 48 56 48 48 56 48 48 56 48 48 56 48 48 56 48 48 56 48 48 56 48 48 56 48 48 56 48 48 56 48 48 56 48 48 56 48 48 56 48 48 56 48 48 56 48 48 56 48 48 56 48 48 56 48 48 56 48 48 56 48 48 56 48 48 56 48 48 56 48 48 56 48 48 56 48 48 56 48 48 56 48 48 56 48 48 56 48 48 56 48 48 56 48 48 56 48 48 56 48 48 56 48 48 56 48 48 56 48 48 56 48 48 56 48 48 56 48 48 56 48 48 56 48 48 56 48 48 56 48 48 56 48 48 56 48 48 56 48 48 56 48 48 56 48 48 56 48 48 56 48 48 56 48 48 56 48 48 56 48 48 56 48 48 56 48 48 56 48 48 56 48 48 56 48 48 56 48 48 56 48 48 56 48 48 56
48 48 56 48 48 56 48 48 56 48 48 56 48 48 56 48 48 56 48 48 56 48 48 56 48 48 56 48 48 56 48 48 56 48 48 56 48 48 56 48 48 56 48 48 56 48 48 56 48 48 56 48 48 56 48 48 56 48 48 56 48 48 56 48 48 56 48 48 56 48 48 56 48 48 56 48 48 56 48 48 56 48 48 56 48 48 56 48 48 56 48 48 56 48 48 56 48 48 56 48 48 56 48 48 56 48 48 56 48 48 56 48 48 56 48 48 56 48 48 56 48 48 56 48 48 56 48 48 56 48 48 56 48 48 56 48 48 56 48 48 56 48 48 56 48 48 56 48 48 56 48 48 56 48 48 56 48 48 56 48 48 56 48 48 56 48 48 56 48 48 56 48 48 56 48 48 56 48 48 56 48 48 56 48 48 56 48 48 56 48 48 56 48 48 56 48 48 56 48 48 56 48 48 56 48 48 56 48 48 56 48 48 56 48 48 56 48 48 56 48 48 56 48 48 56 48 48 56 48 48 56 48 48 56 48 48 56 48 48 56 48 48 56 48 48 56 48 48 56 48 48 56 48 48 56 48 48 56 48 48 56 48 48 56 48 48 56 48 48 56 48 48 56 48 48 56 48 48 56 48 48 56 48 48 56 48 48 56 48 48 56 48 48 56 48 48 56 48 48 56 48 48 56 48 48 56 48 48 56 48 48 56 48 48 56 48 48 56 48 48 56 48 48 56 48 48 56 48 48 56 48 48 56 48 48 56 48 48 56 48 48 56 48 48 56 48 48 56 48 48 56 48 48 56 48 48 56 48 48 56 48 48 56 48 48 56 48 48 56 48 48 56 48 48 56 48 48 56 48 48 56 48 48 56
48 48 56 48 48 56 48 48 56 48 48 56 48 48 56 48 48 56 48 48 56 48 48 56 48 48 56 48 48 56 48 48 56 48 48 56 48 48 56 48 48 56 48 48 56 48 48 56 48 48 56 48 48 56 48 48 56 48 48 56 48 48 56 48 48 56 48 48 56 48 48 56 48 48 56 48 48 56 48 48 56 48 48 56 48 48 56 48 48 56 48 48 56 48 48 56 48 48 56 48 48 56 48 48 56 48 48 56 48 48 56 48 48 56 48 48 56 48 48 56 48 48 56 48 48 56 48 48 56 48 48 56 48 48 56 48 48 56 48 48 56 48 48 56 48 48 56 48 48 56 48 48 56 48 48 56 48 48 56 48 48 56 48 48 56 48 48 56 48 48 56 48 48 56 48 48 56 48 48 56 48 48 56 48 48 56 48 48 56 48 48 56 48 48 56 48 48 56 48 48 56 48 48 56 48 48 56 48 48 56 48 48 56 48 48 56 48 48 56 48 48 56 48 48 56 48 48 56 48 48 56 48 48 56 48 48 56 48 48 56 48 48 56 48 48 56 48 48 56 48 48 56 48 48 56 48 48 56 48 48 56 48 48 56 48 48 56 48 48 56 48 48 56 48 48 56 48 48 56 48 48 56 48 48 56 48 48 56 48 48 56 48 48 56 48 48 56 48 48 56 48 48 56 48 48 56 48 48 56 48 48 56 48 48 56 48 48 56 48 48 56 48 48 56 48 48 56 48 48 56 48 48 56 48 48 56 48 48 56 48 48 56 48 48 56 48 48 56 48 48 56 48 48 56 48 48 56 48 48 56 48 48 56 48 48 56 48 48 56 48 48 56 48 48 56 48 48 56 48 48 56 48 48 56
48 48 56 48 48 56 48 48 56 48 48 56 48 48 56 48 48 56 48 48 56 48 48 56 48 48 56 48 48 56 48 48 56 48 48 56 48 48 56 48 48 56 48 48 56 48 48 56 48 48 56 48 48 56 48 48 56 48 48 56 48 48 56 48 48 56 48 48 56 48 48 56 48 48 56 48 48 56 48 48 56 48 48 56 48 48 56 48 48 56 48 48 56 48 48 56 48 48 56 48 48 56 48 48 56 48 48 56 48 48 56 48 48 56 48 48 56 48 48 56 48 48 56 48 48 56 48 48 56 48 48 56 48 48 56 48 48 56 48 48 56 48 48 56 48 48 56 48 48 56 48 48 56 48 48 56 48 48 56 48 48 56 48 48 56 48 48 56 48 48 56 48 48 56 48 48 56 48 48 56 48 48 56 48 48 56 48 48 56 48 48 56 48 48 56 48 48 56 48 48 56 48 48 56 48 48 56 48 48 56 48 48 56 48 48 56 48 48 56 48 48 56 48 48 56 48 48 56 48 48 56 48 48 56 48 48 56 48 48 56 48 48 56 48 48 56 48 48 56 48 48 56 48 48 56 48 48 56 48 48 56 48 48 56 48 48 56 48 48 56 48 48 56 48 48 56 48 48 56 48 48 56 48 48 56 48 48 56 48 48 56 48 48 56 48 48 56 48 48 56 48 48 56 48 48 56 48 48 56 48 48 56 48 48 56 48 48 56 48 48 56 48 48 56 48 48 56 48 48 56 48 48 56 48 48 56 48 48 56 48 48 56 48 48 56 48 48 56 48 48 56 48 48 56 48 48 56 48 48 56 48 48 56 48 48 56 48 48 56 48 48 56 48 48 56 48 48 56 48 48 56 48 48 56
48 48 56 48 48 56 48 48 56 48 48 56 48 48 56 48 48 56 48 48 56 48 48 56 48 48 56 48 48 56 48 48 56 48 48 56 48 48 56 48 48 56 48 48 56 48 48 56 48 48 56 48 48 56 48 48 56 48 48 56 48 48 56 48 48 56 48 48 56 48 48 56 48 48 56 48 48 56 48 48 56 48 48 56 48 48 56 48 48 56 48 48 56 48 48 56 48 48 56 48 48 56 48 48 56 48 48 56 48 48 56 48 48 56 48 48 56 48 48 56 48 48 56 48 48 56 48 48 56 48 48 56 48 48 56 48 48 56 48 48 56 48 48 56 48 48 56 48 48 56 48 48 56 48 48 56 48 48 56 48 48 56 48 48 56 48 48 56 48 48 56 48 48 56 48 48 56 48 48 56 48 48 56 48 48 56 48 48 56 48 48 56 48 48 56 48 48 56 48 48 56 48 48 56 48 48 56 48 48 56 48 48 56 48 48 56 48 48 56 48 48 56 48 48 56 48 48 56 48 48 56 48 48 56 48 48 56 48 48 56 48 48 56 48 48 56 48 48 56 48 48 56 48 48 56 48 48 56 48 48 56 48 48 56 48 48 56 48 48 56 48 48 56 48 48 56 48 48 56 48 48 56 48 48 56 48 48 56 48 48 56 48 48 56 48 48 56 48 48 56 48 48 56 48 48 56 48 48 56 48 48 56 48 48 56 48 48 56 48 48 56 48 48 56 48 48 56 48 48 56 48 48 56 48 48 56 48 48 56 48 48 56 48 48 56 48 48 56 48 48 56 48 48 56 48 48 56 48 48 56 48 48 56 48 48 56 48 48 56 48 48 56 48 48 56 48 48 56 48 48 56 48 48 56
48 48 56 48 48 56 48 48 56 48 48 56 48 48 56 48 48 56 48 48 56 48 48 56 48 48 56 48 48 56 48 48 56 48 48 56 48 48 56 48 48 56 48 48 56 48 48 56 48 48 56 48 48 56 48 48 56 48 48 56 48 48 56 48 48 56 48 48 56 48 48 56 48 48 56 48 48 56 48 48 56 48 48 56 48 48 56 48 48 56 48 48 56 48 48 56 48 48 56 48 48 56 48 48 56 48 48 56 48 48 56 48 48 56 48 48 56 48 48 56 48 48 56 48 48 56 48 48 56 48 48 56 48 48 56 48 48 56 48 48 56 48 48 56 48 48 56 48 48 56 48 48 56 48 48 56 48 48 56 48 48 56 48 48 56 48 48 56 48 48 56 48 48 56 48 48 56 48 48 56 48 48 56 48 48 56 48 48 56 48 48 56 48 48 56 48 48 56 48 48 56 48 48 56 48 48 56 48 48 56 48 48 56 48 48 56 48 48 56 48 48 56 48 48 56 48 48 56 48 48 56 48 48 56 48 48 56 48 48 56 48 48 56 48 48 56 48 48 56 48 48 56 48 48 56 48 48 56 48 48 56 48 48 56 48 48 56 48 48 56 48 48 56 48 48 56 48 48 56 48 48 56 48 48 56 48 48 56 48 48 56 48 48 56 48 48 56 48 48 56 48 48 56 48 48 56 48 48 56 48 48 56 48 48 56 48 48 56 48 48 56 48 48 56 48 48 56 48 48 56 48 48 56 48 48 56 48 48 56 48 48 56 48 48 56 48 48 56 48 48 56 48 48 56 48 48 56 48 48 56 48 48 56 48 48 56 48 48 56 48 48 56 48 48 56 48 48 56 48 48 56 48 48 56
48 48 56 48 48 56 48 48 56 48 48 56 48 48 56 48 48 56 48 48 56 48 48 56 48 48 56 48 48 56 48 48 56 48 48 56 48 48 56 48 48 56 48 48 56 48 48 56 48 48 56 48 48 56 48 48 56 48 48 56 48 48 56 48 48 56 48 48 56 48 48 56 48 48 56 48 48 56 48 48 56 48 48 56 48 48 56 48 48 56 48 48 56 48 48 56 48 48 56 48 48 56 48 48 56 48 48 56 48 48 56 48 48 56 48 48 56 48 48 56 48 48 56 48 48 56 48 48 56 48 48 56 48 48 56 48 48 56 48 48 56 48 48 56 48 48 56 48 48 56 48 48 56 48 48 56 48 48 56 48 48 56 48 48 56 48 48 56 48 48 56 48 48 56 48 48 56 48 48 56 48 48 56 48 48 56 48 48 56 48 48 56 48 48 56 48 48 56 48 48 56 48 48 56 48 48 56 48 48 56 48 48 56 48 48 56 48 48 56 48 48 56 48 48 56 48 48 56 48 48 56 48 48 56 48 48 56 48 48 56 48 48 56 48 48 56 48 48 56 48 48 56 48 48 56 48 48 56 48 48 56 48 48 56 48 48 56 48 48 56 48 48 56 48 48 56 48 48 56 48 48 56 48 48 56 48 48 56 48 48 56 48 48 56 48 48 56 48 48 56 48 48 56 48 48 56 48 48 56 48 48 56 48 48 56 48 48 56 48 48 56 48 48 56 48 48 56 48 48 56 48 48 56 48 48 56 48 48 56 48 48 56 48 48 56 48 48 56 48 48 56 48 48 56 48 48 56 48 48 56 48 48 56 48 48 56 48 48 56 48 48 56 48 48 56 48 48 56 48 48 56 48 48 56
48 48 56 48 48 56 48 48 56 48 48 56 48 48 56 48 48 56 48 48 56 48 48 56 48 48 56 48 48 56 48 48 56 48 48 56 48 48 56 48 48 56 48 48 56 48 48 56 48 48 56 48 48 56 48 48 56 48 48 56 48 48 56 48 48 56 48 48 56 48 48 56 48 48 56 48 48 56 48 48 56 48 48 56 48 48 56 48 48 56 48 48 56 48 48 56 152 88 16 152 88 16 152 88 16 152 88 16 152 88 16 152 88 16 152 88 16 152 88 16 152 88 16 152 88 16 152 88 16 152 88 16 152 88 16 152 88 16 152 88 16 152 88 16 152 88 16 152 88 16 152 88 16 152 88 16 152 88 16 152 88 16 152 88 16 152 88 16 152 88 16 152 88 16 152 88 16 152 88 16 152 88 16 152 88 16 152 88 16 152 88 16 0 40 80 0 40 80 0 40 80 0 40 80 0 40 80 0 40 80 0 40 80 0 40 80 0 40 80 0 40 80 0 40 80 0 40 80 0 40 80 0 40 80 0 40 80 0 40 80 0 40 80 0 40 80 0 40 80 0 40 80 0 40 80 0 40 80 0 40 80 0 40 80 0 40 80 0 40 80 0 40 80 0 40 80 0 40 80 0 40 80 0 40 80 0 40 80 8 40 80 8 40 80 8 40 80 8 40 80 8 40 80 8 40 80 8 40 80 8 40 80 8 40 80 8 40 80 8 40 80 8 40 80 8 40 80 8 40 80 8 40 80 8 40 80 8 40 80 8 40 80 8 40 80 8 40 80 8 40 80 8 40 80 8 40 80 8 40 80 8 40 80 8 40 80 8 40 80 8 40 80 8 40 80 8 40 80 8 40 80 8 40 80
48 48 56 48 48 56 48 48 56 48 48 56 48 48 56 48 48 56 48 48 56 48 48 56 48 48 56 48 48 56 48 48 56 48 48 56 48 48 56 48 48 56 48 48 56 48 48 56 48 48 56 48 48 56 48 48 56 48 48 56 48 48 56 48 48 56 48 48 56 48 48 56 48 48 56 48 48 56 48 48 56 48 48 56 48 48 56 48 48 56 48 48 56 48 48 56 152 88 16 152 88 16 152 88 16 152 88 16 152 88 16 152 88 16 152 88 16 152 88 16 152 88 16 152 88 16 152 88 16 152 88 16 152 88 16 152 88 16 152 88 16 152 88 16 152 88 16 152 88 16 152 88 16 152 88 16 152 88 16 152 88 16 152 88 16 152 88 16 152 88 16 152 88 16 152 88 16 152 88 16 152 88 16 152 88 16 152 88 16 152 88 16 0 40 80 0 40 80 0 40 80 0 40 80 0 40 80 0 40 80 0 40 80 0 40 80 0 40 80 0 40 80 0 40 80 0 40 80 0 40 80 0 40 80 0 40 80 0 40 80 0 40 80 0 40 80 0 40 80 0 40 80 0 40 80 0 40 80 0 40 80 0 40 80 0 40 80 0 40 80 0 40 80 0 40 80 0 40 80 0 40 80 0 40 80 0 40 80 8 40 80 8 40 80 8 40 80 8 40 80 8 40 80 8 40 80 8 40 80 8 40 80 8 40 80 8 40 80 8 40 80 8 40 80 8 40 80 8 40 80 8 40 80 8 40 80 8 40 80 8 40 80 8 40 80 8 40 80 8 40 80 8 40 80 8 40 80 8 40 80 8 40 80 8 40 80 8 40 80 8 40 80 8 40 80 8 40 80 8 40 80 8 40 80
48 48 56 48 48 56 48 48 56 48 48 56 48 48 56 48 48 56 48 48 56 48 48 56 48 48 56 48 48 56 48 48 56 48 48 56 48 48 56 48 48 56 48 48 56 48 48 56 48 48 56 48 48 56 48 48 56 48 48 56 48 48 56 48 48 56 48 48 56 48 48 56 48 48 56 48 48 56 48 48 56 48 48 56 48 48 56 48 48 56 48 48 56 48 48 56 152 88 16 152 88 16 152 88 16 152 88 16 152 88 16 152 88 16 152 88 16 152 88 16 152 88 16 152 88 16 152 88 16 152 88 16 152 88 16 152 88 16 152 88 16 152 88 16 152 88 16 152 88 16 152 88 16 152 88 16 152 88 16 152 88 16 152 88 16 152 88 16 152 88 16 152 88 16 152 88 16 152 88 16 152 88 16 152 88 16 152 88 16 152 88 16 0 40 80 0 40 80 0 40 80 0 40 80 0 40 80 0 40 80 0 40 80 0 40 80 0 40 80 0 40 80 0 40 80 0 40 80 0 40 80 0 40 80 0 40 80 0 40 80 0 40 80 0 40 80 0 40 80 0 40 80 0 40 80 0 40 80 0 40 80 0 40 80 0 40 80 0 40 80 0 40 80 0 40 80 0 40 80 0 40 80 0 40 80 0 40 80 8 40 80 8 40 80 8 40 80 8 40 80 8 40 80 8 40 80 8 40 80 8 40 80 8 40 80 8 40 80 8 40 80 8 40 80 8 40 80 8 40 80 8 40 80 8 40 80 8 40 80 8 40 80 8 40 80 8 40 80 8 40 80 8 40 80 8 40 80 8 40 80 8 40 80 8 40 80 8 40 80 8 40 80 8 40 80 8 40 80 8 40 80 8 40 80
48 48 56 48 48 56 48 48 56 48 48 56 48 48 56 48 48 56 48 48 56 48 48 56 48 48 56 48 48 56 48 48 56 48 48 56 48 48 56 48 48 56 48 48 56 48 48 56 48 48 56 48 48 56 48 48 56 48 48 56 48 48 56 48 48 56 48 48 56 48 48 56 48 48 56 48 48 56 48 48 56 48 48 56 48 48 56 48 48 56 48 48 56 48 48 56 152 88 16 152 88 16 152 88 16 152 88 16 152 88 16 152 88 16 152 88 16 152 88 16 152 88 16 152 88 16 152 88 16 152 88 16 152 88 16 152 88 16 152 88 16 152 88 16 152 88 16 152 88 16 152 88 16 152 88 16 152 88 16 152 88 16 152 88 16 152 88 16 152 88 16 152 88 16 152 88 16 152 88 16 152 88 16 152 88 16 152 88 16 152 88 16 0 40 80 0 40 80 0 40 80 0 40 80 0 40 80 0 40 80 0 40 80 0 40 80 0 40 80 0 40 80 0 40 80 0 40 80 0 40 80 0 40 80 0 40 80 0 40 80 0 40 80 0 40 80 0 40 80 0 40 80 0 40 80 0 40 80 0 40 80 0 40 80 0 40 80 0 40 80 0 40 80 0 40 80 0 40 80 0 40 80 0 40 80 0 40 80 8 40 80 8 40 80 8 40 80 8 40 80 8 40 80 8 40 80 8 40 80 8 40 80 8 40 80 8 40 80 8 40 80 8 40 80 8 40 80 8 40 80 8 40 80 8 40 80 8 40 80 8 40 80 8 40 80 8 40 80 8 40 80 8 40 80 8 40 80 8 40 80 8 40 80 8 40 80 8 40 80 8 40 80 8 40 80 8 40 80 8 40 80 8 40 80
48 48 56 48 48 56 48 48 56 48 48 56 48 48 56 48 48 56 48 48 56 48 48 56 48 48 56 48 48 56 48 48 56 48 48 56 48 48 56 48 48 56 48 48 56 48 48 56 48 48 56 48 48 56 48 48 56 48 48 56 48 48 56 48 48 56 48 48 56 48 48 56 48 48 56 48 48 56 48 48 56 48 48 56 48 48 56 48 48 56 48 48 56 48 48 56 152 88 16 152 88 16 152 88 16 152 88 16 152 88 16 152 88 16 152 88 16 152 88 16 152 88 16 152 88 16 152 88 16 152 88 16 152 88 16 152 88 16 152 88 16 152 88 16 152 88 16 152 88 16 152 88 16 152 88 16 152 88 16 152 88 16 152 88 16 152 88 16 152 88 16 152 88 16 152 88 16 152 88 16 152 88 16 152 88 16 152 88 16 152 88 16 0 40 80 0 40 80 0 40 80 0 40 80 0 40 80 0 40 80 0 40 80 0 40 80 0 40 80 0 40 80 0 40 80 0 40 80 0 40 80 0 40 80 0 40 80 0 40 80 0 40 80 0 40 80 0 40 80 0 40 80 0 40 80 0 40 80 0 40 80 0 40 80 0 40 80 0 40 80 0 40 80 0 40 80 0 40 80 0 40 80 0 40 80 0 40 80 8 40 80 8 40 80 8 40 80 8 40 80 8 40 80 8 40 80 8 40 80 8 40 80 8 40 80 8 40 80 8 40 80 8 40 80 8 40 80 8 40 80 8 40 80 8 40 80 8 40 80 8 40 80 8 40 80 8 40 80 8 40 80 8 40 80 8 40 80 8 40 80 8 40 80 8 40 80 8 40 80 8 40 80 8 40 80 8 40 80 8 40 80 8 40 80
48 48 56 48 48 56 48 48 56 48 48 56 48 48 56 48 48 56 48 48 56 48 48 56 48 48 56 48 48 56 48 48 56 48 48 56 48 48 56 48 48 56 48 48 56 48 48 56 48 48 56 48 48 56 48 48 56 48 48 56 48 48 56 48 48 56 48 48 56 48 48 56 48 48 56 48 48 56 48 48 56 48 48 56 48 48 56 48 48 56 48 48 56 48 48 56 152 88 16 152 88 16 152 88 16 152 88 16 152 88 16 152 88 16 152 88 16 152 88 16 152 88 16 152 88 16 152 88 16 152 88 16 152 88 16 152 88 16 152 88 16 152 88 16 152 88 16 152 88 16 152 88 16 152 88 16 152 88 16 152 88 16 152 88 16 152 88 16 152 88 16 152 88 16 152 88 16 152 88 16 152 88 16 152 88 16 152 88 16 152 88 16 0 40 80 0 40 80 0 40 80 0 40 80 0 40 80 0 40 80 0 40 80 0 40 80 0 40 80 0 40 80 0 40 80 0 40 80 0 40 80 0 40 80 0 40 80 0 40 80 0 40 80 0 40 80 0 40 80 0 40 80 0 40 80 0 40 80 0 40 80 0 40 80 0 40 80 0 40 80 0 40 80 0 40 80 0 40 80 0 40 80 0 40 80 0 40 80 8 40 80 8 40 80 8 40 80 8 40 80 8 40 80 8 40 80 8 40 80 8 40 80 8 40 80 8 40 80 8 40 80 8 40 80 8 40 80 8 40 80 8 40 80 8 40 80 8 40 80 8 40 80 8 40 80 8 40 80 8 40 80 8 40 80 8 40 80 8 40 80 8 40 80 8 40 80 8 40 80 8 40 80 8 40 80 8 40 80 8 40 80 8 40 80
48 48 56 48 48 56 48 48 56 48 48 56 48 48 56 48 48 56 48 48 56 48 48 56 48 48 56 48 48 56 48 48 56 48 48 56 48 48 56 48 48 56 48 48 56 48 48 56 48 48 56 48 48 56 48 48 56 48 48 56 48 48 56 48 48 56 48 48 56 48 48 56 48 48 56 48 48 56 48 48 56 48 48 56 48 48 56 48 48 56 48 48 56 48 48 56 152 88 16 152 88 16 152 88 16 152 88 16 152 88 16 152 88 16 152 88 16 152 88 16 152 88 16 152 88 16 152 88 16 152 88 16 152 88 16 152 88 16 152 88 16 152 88 16 152 88 16 152 88 16 152 88 16 152 88 16 152 88 16 152 88 16 152 88 16 152 88 16 152 88 16 152 88 16 152 88 16 152 88 16 152 88 16 152 88 16 152 88 16 152 88 16 0 40 80 0 40 80 0 40 80 0 40 80 0 40 80 0 40 80 0 40 80 0 40 80 0 40 80 0 40 80 0 40 80 0 40 80 0 40 80 0 40 80 0 40 80 0 40 80 0 40 80 0 40 80 0 40 80 0 40 80 0 40 80 0 40 80 0 40 80 0 40 80 0 40 80 0 40 80 0 40 80 0 40 80 0 40 80 0 40 80 0 40 80 0 40 80 8 40 80 8 40 80 8 40 80 8 40 80 8 40 80 8 40 80 8 40 80 8 40 80 8 40 80 8 40 80 8 40 80 8 40 80 8 40 80 8 40 80 8 40 80 8 40 80 8 40 80 8 40 80 8 40 80 8 40 80 8 40 80 8 40 80 8 40 80 8 40 80 8 40 80 8 40 80 8 40 80 8 40 80 8 40 80 8 40 80 8 40 80 8 40 80
48 48 56 48 48 56 48 48 56 48 48 56 48 48 56 48 48 56 48 48 56 48 48 56 48 48 56 48 48 56 48 48 56 48 48 56 48 48 56 48 48 56 48 48 56 48 48 56 48 48 56 48 48 56 48 48 56 48 48 56 48 48 56 48 48 56 48 48 56 48 48 56 48 48 56 48 48 56 48 48 56 48 48 56 48 48 56 48 48 56 48 48 56 48 48 56 152 88 16 152 88 16 152 88 16 152 88 16 152 88 16 152 88 16 152 88 16 152 88 16 152 88 16 152 88 16 152 88 16 152 88 16 152 88 16 152 88 16 152 88 16 152 88 16 152 88 16 152 88 16 152 88 16 152 88 16 152 88 16 152 88 16 152 88 16 152 88 16 152 88 16 152 88 16 152 88 16 152 88 16 152 88 16 152 88 16 152 88 16 152 88 16 0 40 80 0 40 80 0 40 80 0 40 80 0 40 80 0 40 80 0 40 80 0 40 80 0 40 80 0 40 80 0 40 80 0 40 80 0 40 80 0 40 80 0 40 80 0 40 80 0 40 80 0 40 80 0 40 80 0 40 80 0 40 80 0 40 80 0 40 80 0 40 80 0 40 80 0 40 80 0 40 80 0 40 80 0 40 80 0 40 80 0 40 80 0 40 80 8 40 80 8 40 80 8 40 80 8 40 80 8 40 80 8 40 80 8 40 80 8 40 80 8 40 80 8 40 80 8 40 80 8 40 80 8 40 80 8 40 80 8 40 80 8 40 80 8 40 80 8 40 80 8 40 80 8 40 80 8 40 80 8 40 80 8 40 80 8 40 80 8 40 80 8 40 80 8 40 80 8 40 80 8 40 80 8 40 80 8 40 80 8 40 80
48 48 56 48 48 56 48 48 56 48 48 56 48 48 56 48 48 56 48 48 56 48 48 56 48 48 56 48 48 56 48 48 56 48 48 56 48 48 56 48 48 56 48 48 56 48 48 56 48 48 56 48 48 56 48 48 56 48 48 56 48 48 56 48 48 56 48 48 56 48 48 56 48 48 56 48 48 56 48 48 56 48 48 56 48 48 56 48 48 56 48 48 56 48 48 56 152 88 16 152 88 16 152 88 16 152 88 16 152 88 16 152 88 16 152 88 16 152 88 16 152 88 16 152 88 16 152 88 16 152 88 16 152 88 16 152 88 16 152 88 16 152 88 16 152 88 16 152 88 16 152 88 16 152 88 16 152 88 16 152 88 16 152 88 16 152 88 16 152 88 16 152 88 16 152 88 16 152 88 16 152 88 16 152 88 16 152 88 16 152 88 16 0 40 80 0 40 80 0 40 80 0 40 80 0 40 80 0 40 80 0 40 80 0 40 80 0 40 80 0 40 80 0 40 80 0 40 80 0 40 80 0 40 80 0 40 80 0 40 80 0 40 80 0 40 80 0 40 80 0 40 80 0 40 80 0 40 80 0 40 80 0 40 80 0 40 80 0 40 80 0 40 80 0 40 80 0 40 80 0 40 80 0 40 80 0 40 80 8 40 80 8 40 80 8 40 80 8 40 80 8 40 80 8 40 80 8 40 80 8 40 80 8 40 80 8 40 80 8 40 80 8 40 80 8 40 80 8 40 80 8 40 80 8 40 80 8 40 80 8 40 80 8 40 80 8 40 80 8 40 80 8 40 80 8 40 80 8 40 80 8 40 80 8 40 80 8 40 80 8 40 80 8 40 80 8 40 80 8 40 80 8 40 80
48 48 56 48 48 56 48 48 56 48 48 56 48 48 56 48 48 56 48 48 56 48 48 56 48 48 56 48 48 56 48 48 56 48 48 56 48 48 56 48 48 56 48 48 56 48 48 56 48 48 56 48 48 56 48 48 56 48 48 56 48 48 56 48 48 56 48 48 56 48 48 56 48 48 56 48 48 56 48 48 56 48 48 56 48 48 56 48 48 56 48 48 56 48 48 56 152 88 16 152 88 16 152 88 16 152 88 16 152 88 16 152 88 16 152 88 16 152 88 16 152 88 16 152 88 16 152 88 16 152 88 16 152 88 16 152 88 16 152 88 16 152 88 16 152 88 16 152 88 16 152 88 16 152 88 16 152 88 16 152 88 16 152 88 16 152 88 16 152 88 16 152 88 16 152 88 16 152 88 16 152 88 16 152 88 16 152 88 16 152 88 16 0 40 80 0 40 80 0 40 80 0 40 80 0 40 80 0 40 80 0 40 80 0 40 80 0 40 80 0 40 80 0 40 80 0 40 80 0 40 80 0 40 80 0 40 80 0 40 80 0 40 80 0 40 80 0 40 80 0 40 80 0 40 80 0 40 80 0 40 80 0 40 80 0 40 80 0 40 80 0 40 80 0 40 80 0 40 80 0 40 80 0 40 80 0 40 80 8 40 80 8 40 80 8 40 80 8 40 80 8 40 80 8 40 80 8 40 80 8 40 80 8 40 80 8 40 80 8 40 80 8 40 80 8 40 80 8 40 80 8 40 80 8 40 80 8 40 80 8 40 80 8 40 80 8 40 80 8 40 80 8 40 80 8 40 80 8 40 80 8 40 80 8 40 80 8 40 80 8 40 80 8 40 80 8 40 80 8 40 80 8 40 80
48 48 56 48 48 56 48 48 56 48 48 56 48 48 56 48 48 56 48 48 56 48 48 56 48 48 56 48 48 56 48 48 56 48 48 56 48 48 56 48 48 56 48 48 56 48 48 56 48 48 56 48 48 56 48 48 56 48 48 56 48 48 56 48 48 56 48 48 56 48 48 56 48 48 56 48 48 56 48 48 56 48 48 56 48 48 56 48 48 56 48 48 56 48 48 56 152 88 16 152 88 16 152 88 16 152 88 16 152 88 16 152 88 16 152 88 16 152 88 16 152 88 16 152 88 16 152 88 16 152 88 16 152 88 16 152 88 16 152 88 16 152 88 16 152 88 16 152 88 16 152 88 16 152 88 16 152 88 16 152 88 16 152 88 16 152 88 16 152 88 16 152 88 16 152 88 16 152 88 16 152 88 16 152 88 16 152 88 16 152 88 16 0 40 80 0 40 80 0 40 80 0 40 80 0 40 80 0 40 80 0 40 80 0 40 80 0 40 80 0 40 80 0 40 80 0 40 80 0 40 80 0 40 80 0 40 80 0 40 80 0 40 80 0 40 80 0 40 80 0 40 80 0 40 80 0 40 80 0 40 80 0 40 80 0 40 80 0 40 80 0 40 80 0 40 80 0 40 80 0 40 80 0 40 80 0 40 80 8 40 80 8 40 80 8 40 80 8 40 80 8 40 80 8 40 80 8 40 80 8 40 80 8 40 80 8 40 80 8 40 80 8 40 80 8 40 80 8 40 80 8 40 80 8 40 80 8 40 80 8 40 80 8 40 80 8 40 80 8 40 80 8 40 80 8 40 80 8 40 80 8 40 80 8 40 80 8 40 80 8 40 80 8 40 80 8 40 80 8 40 80 8 40 80
48 48 56 48 48 56 48 48 56 48 48 56 48 48 56 48 48 56 48 48 56 48 48 56 48 48 56 48 48 56 48 48 56 48 48 56 48 48 56 48 48 56 48 48 56 48 48 56 48 48 56 48 48 56 48 48 56 48 48 56 48 48 56 48 48 56 48 48 56 48 48 56 48 48 56 48 48 56 48 48 56 48 48 56 48 48 56 48 48 56 48 48 56 48 48 56 152 88 16 152 88 16 152 88 16 152 88 16 152 88 16 152 88 16 152 88 16 152 88 16 152 88 16 152 88 16 152 88 16 152 88 16 152 88 16 152 88 16 152 88 16 152 88 16 152 88 16 152 88 16 152 88 16 152 88 16 152 88 16 152 88 16 152 88 16 152 88 16 152 88 16 152 88 16 152 88 16 152 88 16 152 88 16 152 88 16 152 88 16 152 88 16 0 40 80 0 40 80 0 40 80 0 40 80 0 40 80 0 40 80 0 40 80 0 40 80 0 40 80 0 40 80 0 40 80 0 40 80 0 40 80 0 40 80 0 40 80 0 40 80 0 40 80 0 40 80 0 40 80 0 40 80 0 40 80 0 40 80 0 40 80 0 40 80 0 40 80 0 40 80 0 40 80 0 40 80 0 40 80 0 40 80 0 40 80 0 40 80 8 40 80 8 40 80 8 40 80 8 40 80 8 40 80 8 40 80 8 40 80 8 40 80 8 40 80 8 40 80 8 40 80 8 40 80 8 40 80 8 40 80 8 40 80 8 40 80 8 40 80 8 40 80 8 40 80 8 40 80 8 40 80 8 40 80 8 40 80 8 40 80 8 40 80 8 40 80 8 40 80 8 40 80 8 40 80 8 40 80 8 40 80 8 40 80
48 48 56 48 48 56 48 48 56 48 48 56 48 48 56 48 48 56 48 48 56 48 48 56 48 48 56 48 48 56 48 48 56 48 48 56 48 48 56 48 48 56 48 48 56 48 48 56 48 48 56 48 48 56 48 48 56 48 48 56 48 48 56 48 48 56 48 48 56 48 48 56 48 48 56 48 48 56 48 48 56 48 48 56 48 48 56 48 48 56 48 48 56 48 48 56 152 88 16 152 88 16 152 88 16 152 88 16 152 88 16 152 88 16 152 88 16 152 88 16 152 88 16 152 88 16 152 88 16 152 88 16 152 88 16 152 88 16 152 88 16 152 88 16 152 88 16 152 88 16 152 88 16 152 88 16 152 88 16 152 88 16 152 88 16 152 88 16 152 88 16 152 88 16 152 88 16 152 88 16 152 88 16 152 88 16 152 88 16 152 88 16 0 40 80 0 40 80 0 40 80 0 40 80 0 40 80 0 40 80 0 40 80 0 40 80 0 40 80 0 40 80 0 40 80 0 40 80 0 40 80 0 40 80 0 40 80 0 40 80 0 40 80 0 40 80 0 40 80 0 40 80 0 40 80 0 40 80 0 40 80 0 40 80 0 40 80 0 40 80 0 40 80 0 40 80 0 40 80 0 40 80 0 40 80 0 40 80 8 40 80 8 40 80 8 40 80 8 40 80 8 40 80 8 40 80 8 40 80 8 40 80 8 40 80 8 40 80 8 40 80 8 40 80 8 40 80 8 40 80 8 40 80 8 40 80 8 40 80 8 40 80 8 40 80 8 40 80 8 40 80 8 40 80 8 40 80 8 40 80 8 40 80 8 40 80 8 40 80 8 40 80 8 40 80 8 40 80 8 40 80 8 40 80
48 48 56 48 48 56 48 48 56 48 48 56 48 48 56 48 48 56 48 48 56 48 48 56 48 48 56 48 48 56 48 48 56 48 48 56 48 48 56 48 48 56 48 48 56 48 48 56 48 48 56 48 48 56 48 48 56 48 48 56 48 48 56 48 48 56 48 48 56 48 48 56 48 48 56 48 48 56 48 48 56 48 48 56 48 48 56 48 48 56 48 48 56 48 48 56 152 88 16 152 88 16 152 88 16 152 88 16 152 88 16 152 88 16 152 88 16 152 88 16 152 88 16 152 88 16 152 88 16 152 88 16 152 88 16 152 88 16 152 88 16 152 88 16 152 88 16 152 88 16 152 88 16 152 88 16 152 88 16 152 88 16 152 88 16 152 88 16 152 88 16 152 88 16 152 88 16 152 88 16 152 88 16 152 88 16 152 88 16 152 88 16 0 40 80 0 40 80 0 40 80 0 40 80 0 40 80 0 40 80 0 40 80 0 40 80 0 40 80 0 40 80 0 40 80 0 40 80 0 40 80 0 40 80 0 40 80 0 40 80 0 40 80 0 40 80 0 40 80 0 40 80 0 40 80 0 40 80 0 40 80 0 40 80 0 40 80 0 40 80 0 40 80 0 40 80 0 40 80 0 40 80 0 40 80 0 40 80 8 40 80 8 40 80 8 40 80 8 40 80 8 40 80 8 40 80 8 40 80 8 40 80 8 40 80 8 40 80 8 40 80 8 40 80 8 40 80 8 40 80 8 40 80 8 40 80 8 40 80 8 40 80 8 40 80 8 40 80 8 40 80 8 40 80 8 40 80 8 40 80 8 40 80 8 40 80 8 40 80 8 40 80 8 40 80 8 40 80 8 40 80 8 40 80
48 48 56 48 48 56 48 48 56 48 48 56 48 48 56 48 48 56 48 48 56 48 48 56 48 48 56 48 48 56 48 48 56 48 48 56 48 48 56 48 48 56 48 48 56 48 48 56 48 48 56 48 48 56 48 48 56 48 48 56 48 48 56 48 48 56 48 48 56 48 48 56 48 48 56 48 48 56 48 48 56 48 48 56 48 48 56 48 48 56 48 48 56 48 48 56 152 88 16 152 88 16 152 88 16 152 88 16 152 88 16 152 88 16 152 88 16 152 88 16 152 88 16 152 88 16 152 88 16 152 88 16 152 88 16 152 88 16 152 88 16 152 88 16 152 88 16 152 88 16 152 88 16 152 88 16 152 88 16 152 88 16 152 88 16 152 88 16 152 88 16 152 88 16 152 88 16 152 88 16 152 88 16 152 88 16 152 88 16 152 88 16 0 40 80 0 40 80 0 40 80 0 40 80 0 40 80 0 40 80 0 40 80 0 40 80 0 40 80 0 40 80 0 40 80 0 40 80 0 40 80 0 40 80 0 40 80 0 40 80 0 40 80 0 40 80 0 40 80 0 40 80 0 40 80 0 40 80 0 40 80 0 40 80 0 40 80 0 40 80 0 40 80 0 40 80 0 40 80 0 40 80 0 40 80 0 40 80 8 40 80 8 40 80 8 40 80 8 40 80 8 40 80 8 40 80 8 40 80 8 40 80 8 40 80 8 40 80 8 40 80 8 40 80 8 40 80 8 40 80 8 40 80 8 40 80 8 40 80 8 40 80 8 40 80 8 40 80 8 40 80 8 40 80 8 40 80 8 40 80 8 40 80 8 40 80 8 40 80 8 40 80 8 40 80 8 40 80 8 40 80 8 40 80
48 48 56 48 48 56 48 48 56 48 48 56 48 48 56 48 48 56 48 48 56 48 48 56 48 48 56 48 48 56 48 48 56 48 48 56 48 48 56 48 48 56 48 48 56 48 48 56 48 48 56 48 48 56 48 48 56 48 48 56 48 48 56 48 48 56 48 48 56 48 48 56 48 48 56 48 48 56 48 48 56 48 48 56 48 48 56 48 48 56 48 48 56 48 48 56 152 88 16 152 88 16 152 88 16 152 88 16 152 88 16 152 88 16 152 88 16 152 88 16 152 88 16 152 88 16 152 88 16 152 88 16 152 88 16 152 88 16 152 88 16 152 88 16 152 88 16 152 88 16 152 88 16 152 88 16 152 88 16 152 88 16 152 88 16 152 88 16 152 88 16 152 88 16 152 88 16 152 88 16 152 88 16 152 88 16 152 88 16 152 88 16 0 40 80 0 40 80 0 40 80 0 40 80 0 40 80 0 40 80 0 40 80 0 40 80 0 40 80 0 40 80 0 40 80 0 40 80 0 40 80 0 40 80 0 40 80 0 40 80 0 40 80 0 40 80 0 40 80 0 40 80 0 40 80 0 40 80 0 40 80 0 40 80 0 40 80 0 40 80 0 40 80 0 40 80 0 40 80 0 40 80 0 40 80 0 40 80 8 40 80 8 40 80 8 40 80 8 40 80 8 40 80 8 40 80 8 40 80 8 40 80 8 40 80 8 40 80 8 40 80 8 40 80 8 40 80 8 40 80 8 40 80 8 40 80 8 40 80 8 40 80 8 40 80 8 40 80 8 40 80 8 40 80 8 40 80 8 40 80 8 40 80 8 40 80 8 40 80 8 40 80 8 40 80 8 40 80 8 40 80 8 40 80
48 48 56 48 48 56 48 48 56 48 48 56 48 48 56 48 48 56 48 48 56 48 48 56 48 48 56 48 48 56 48 48 56 48 48 56 48 48 56 48 48 56 48 48 56 48 48 56 48 48 56 48 48 56 48 48 56 48 48 56 48 48 56 48 48 56 48 48 56 48 48 56 48 48 56 48 48 56 48 48 56 48 48 56 48 48 56 48 48 56 48 48 56 48 48 56 152 88 16 152 88 16 152 88 16 152 88 16 152 88 16 152 88 16 152 88 16 152 88 16 152 88 16 152 88 16 152 88 16 152 88 16 152 88 16 152 88 16 152 88 16 152 88 16 152 88 16 152 88 16 152 88 16 152 88 16 152 88 16 152 88 16 152 88 16 152 88 16 152 88 16 152 88 16 152 88 16 152 88 16 152 88 16 152 88 16 152 88 16 152 88 16 0 40 80 0 40 80 0 40 80 0 40 80 0 40 80 0 40 80 0 40 80 0 40 80 0 40 80 0 40 80 0 40 80 0 40 80 0 40 80 0 40 80 0 40 80 0 40 80 0 40 80 0 40 80 0 40 80 0 40 80 0 40 80 0 40 80 0 40 80 0 40 80 0 40 80 0 40 80 0 40 80 0 40 80 0 40 80 0 40 80 0 40 80 0 40 80 8 40 80 8 40 80 8 40 80 8 40 80 8 40 80 8 40 80 8 40 80 8 40 80 8 40 80 8 40 80 8 40 80 8 40 80 8 40 80 8 40 80 8 40 80 8 40 80 8 40 80 8 40 80 8 40 80 8 40 80 8 40 80 8 40 80 8 40 80 8 40 80 8 40 80 8 40 80 8 40 80 8 40 80 8 40 80 8 40 80 8 40 80 8 40 80
48 48 56 48 48 56 48 48 56 48 48 56 48 48 56 48 48 56 48 48 56 48 48 56 48 48 56 48 48 56 48 48 56 48 48 56 48 48 56 48 48 56 48 48 56 48 48 56 48 48 56 48 48 56 48 48 56 48 48 56 48 48 56 48 48 56 48 48 56 48 48 56 48 48 56 48 48 56 48 48 56 48 48 56 48 48 56 48 48 56 48 48 56 48 48 56 152 88 16 152 88 16 152 88 16 152 88 16 152 88 16 152 88 16 152 88 16 152 88 16 152 88 16 152 88 16 152 88 16 152 88 16 152 88 16 152 88 16 152 88 16 152 88 16 152 88 16 152 88 16 152 88 16 152 88 16 152 88 16 152 88 16 152 88 16 152 88 16 152 88 16 152 88 16 152 88 16 152 88 16 152 88 16 152 88 16 152 88 16 152 88 16 0 40 80 0 40 80 0 40 80 0 40 80 0 40 80 0 40 80 0 40 80 0 40 80 0 40 80 0 40 80 0 40 80 0 40 80 0 40 80 0 40 80 0 40 80 0 40 80 0 40 80 0 40 80 0 40 80 0 40 80 0 40 80 0 40 80 0 40 80 0 40 80 0 40 80 0 40 80 0 40 80 0 40 80 0 40 80 0 40 80 0 40 80 0 40 80 8 40 80 8 40 80 8 40 80 8 40 80 8 40 80 8 40 80 8 40 80 8 40 80 8 40 80 8 40 80 8 40 80 8 40 80 8 40 80 8 40 80 8 40 80 8 40 80 8 40 80 8 40 80 8 40 80 8 40 80 8 40 80 8 40 80 8 40 80 8 40 80 8 40 80 8 40 80 8 40 80 8 40 80 8 40 80 8 40 80 8 40 80 8 40 80
48 48 56 48 48 56 48 48 56 48 48 56 48 48 56 48 48 56 48 48 56 48 48 56 48 48 56 48 48 56 48 48 56 48 48 56 48 48 56 48 48 56 48 48 56 48 48 56 48 48 56 48 48 56 48 48 56 48 48 56 48 48 56 48 48 56 48 48 56 48 48 56 48 48 56 48 48 56 48 48 56 48 48 56 48 48 56 48 48 56 48 48 56 48 48 56 152 88 16 152 88 16 152 88 16 152 88 16 152 88 16 152 88 16 152 88 16 152 88 16 152 88 16 152 88 16 152 88 16 152 88 16 152 88 16 152 88 16 152 88 16 152 88 16 152 88 16 152 88 16 152 88 16 152 88 16 152 88 16 152 88 16 152 88 16 152 88 16 152 88 16 152 88 16 152 88 16 152 88 16 152 88 16 152 88 16 152 88 16 152 88 16 0 40 80 0 40 80 0 40 80 0 40 80 0 40 80 0 40 80 0 40 80 0 40 80 0 40 80 0 40 80 0 40 80 0 40 80 0 40 80 0 40 80 0 40 80 0 40 80 0 40 80 0 40 80 0 40 80 0 40 80 0 40 80 0 40 80 0 40 80 0 40 80 0 40 80 0 40 80 0 40 80 0 40 80 0 40 80 0 40 80 0 40 80 0 40 80 8 40 80 8 40 80 8 40 80 8 40 80 8 40 80 8 40 80 8 40 80 8 40 80 8 40 80 8 40 80 8 40 80 8 40 80 8 40 80 8 40 80 8 40 80 8 40 80 8 40 80 8 40 80 8 40 80 8 40 80 8 40 80 8 40 80 8 40 80 8 40 80 8 40 80 8 40 80 8 40 80 8 40 80 8 40 80 8 40 80 8 40 80 8 40 80
48 48 56 48 48 56 48 48 56 48 48 56 48 48 56 48 48 56 48 48 56 48 48 56 48 48 56 48 48 56 48 48 56 48 48 56 48 48 56 48 48 56 48 48 56 48 48 56 48 48 56 48 48 56 48 48 56 48 48 56 48 48 56 48 48 56 48 48 56 48 48 56 48 48 56 48 48 56 48 48 56 48 48 56 48 48 56 48 48 56 48 48 56 48 48 56 152 88 16 152 88 16 152 88 16 152 88 16 152 88 16 152 88 16 152 88 16 152 88 16 152 88 16 152 88 16 152 88 16 152 88 16 152 88 16 152 88 16 152 88 16 152 88 16 152 88 16 152 88 16 152 88 16 152 88 16 152 88 16 152 88 16 152 88 16 152 88 16 152 88 16 152 88 16 152 88 16 152 88 16 152 88 16 152 88 16 152 88 16 152 88 16 0 40 80 0 40 80 0 40 80 0 40 80 0 40 80 0 40 80 0 40 80 0 40 80 0 40 80 0 40 80 0 40 80 0 40 80 0 40 80 0 40 80 0 40 80 0 40 80 0 40 80 0 40 80 0 40 80 0 40 80 0 40 80 0 40 80 0 40 80 0 40 80 0 40 80 0 40 80 0 40 80 0 40 80 0 40 80 0 40 80 0 40 80 0 40 80 8 40 80 8 40 80 8 40 80 8 40 80 8 40 80 8 40 80 8 40 80 8 40 80 8 40 80 8 40 80 8 40 80 8 40 80 8 40 80 8 40 80 8 40 80 8 40 80 8 40 80 8 40 80 8 40 80 8 40 80 8 40 80 8 40 80 8 40 80 8 40 80 8 40 80 8 40 80 8 40 80 8 40 80 8 40 80 8 40 80 8 40 80 8 40 80
48 48 56 48 48 56 48 48 56 48 48 56 48 48 56 48 48 56 48 48 56 48 48 56 48 48 56 48 48 56 48 48 56 48 48 56 48 48 56 48 48 56 48 48 56 48 48 56 48 48 56 48 48 56 48 48 56 48 48 56 48 48 56 48 48 56 48 48 56 48 48 56 48 48 56 48 48 56 48 48 56 48 48 56 48 48 56 48 48 56 48 48 56 48 48 56 152 88 16 152 88 16 152 88 16 152 88 16 152 88 16 152 88 16 152 88 16 152 88 16 152 88 16 152 88 16 152 88 16 152 88 16 152 88 16 152 88 16 152 88 16 152 88 16 152 88 16 152 88 16 152 88 16 152 88 16 152 88 16 152 88 16 152 88 16 152 88 16 152 88 16 152 88 16 152 88 16 152 88 16 152 88 16 152 88 16 152 88 16 152 88 16 0 40 80 0 40 80 0 40 80 0 40 80 0 40 80 0 40 80 0 40 80 0 40 80 0 40 80 0 40 80 0 40 80 0 40 80 0 40 80 0 40 80 0 40 80 0 40 80 0 40 80 0 40 80 0 40 80 0 40 80 0 40 80 0 40 80 0 40 80 0 40 80 0 40 80 0 40 80 0 40 80 0 40 80 0 40 80 0 40 80 0 40 80 0 40 80 8 40 80 8 40 80 8 40 80 8 40 80 8 40 80 8 40 80 8 40 80 8 40 80 8 40 80 8 40 80 8 40 80 8 40 80 8 40 80 8 40 80 8 40 80 8 40 80 8 40 80 8 40 80 8 40 80 8 40 80 8 40 80 8 40 80 8 40 80 8 40 80 8 40 80 8 40 80 8 40 80 8 40 80 8 40 80 8 40 80 8 40 80 8 40 80
48 48 56 48 48 56 48 48 56 48 48 56 48 48 56 48 48 56 48 48 56 48 48 56 48 48 56 48 48 56 48 48 56 48 48 56 48 48 56 48 48 56 48 48 56 48 48 56 48 48 56 48 48 56 48 48 56 48 48 56 48 48 56 48 48 56 48 48 56 48 48 56 48 48 56 48 48 56 48 48 56 48 48 56 48 48 56 48 48 56 48 48 56 48 48 56 152 88 16 152 88 16 152 88 16 152 88 16 152 88 16 152 88 16 152 88 16 152 88 16 152 88 16 152 88 16 152 88 16 152 88 16 152 88 16 152 88 16 152 88 16 152 88 16 152 88 16 152 88 16 152 88 16 152 88 16 152 88 16 152 88 16 152 88 16 152 88 16 152 88 16 152 88 16 152 88 16 152 88 16 152 88 16 152 88 16 152 88 16 152 88 16 0 40 80 0 40 80 0 40 80 0 40 80 0 40 80 0 40 80 0 40 80 0 40 80 0 40 80 0 40 80 0 40 80 0 40 80 0 40 80 0 40 80 0 40 80 0 40 80 0 40 80 0 40 80 0 40 80 0 40 80 0 40 80 0 40 80 0 40 80 0 40 80 0 40 80 0 40 80 0 40 80 0 40 80 0 40 80 0 40 80 0 40 80 0 40 80 8 40 80 8 40 80 8 40 80 8 40 80 8 40 80 8 40 80 8 40 80 8 40 80 8 40 80 8 40 80 8 40 80 8 40 80 8 40 80 8 40 80 8 40 80 8 40 80 8 40 80 8 40 80 8 40 80 8 40 80 8 40 80 8 40 80 8 40 80 8 40 80 8 40 80 8 40 80 8 40 80 8 40 80 8 40 80 8 40 80 8 40 80 8 40 80
48 48 56 48 48 56 48 48 56 48 48 56 48 48 56 48 48 56 48 48 56 48 48 56 48 48 56 48 48 56 48 48 56 48 48 56 48 48 56 48 48 56 48 48 56 48 48 56 48 48 56 48 48 56 48 48 56 48 48 56 48 48 56 48 48 56 48 48 56 48 48 56 48 48 56 48 48 56 48 48 56 48 48 56 48 48 56 48 48 56 48 48 56 48 48 56 152 88 16 152 88 16 152 88 16 152 88 16 152 88 16 152 88 16 152 88 16 152 88 16 152 88 16 152 88 16 152 88 16 152 88 16 152 88 16 152 88 16 152 88 16 152 88 16 152 88 16 152 88 16 152 88 16 152 88 16 152 88 16 152 88 16 152 88 16 152 88 16 152 88 16 152 88 16 152 88 16 152 88 16 152 88 16 152 88 16 152 88 16 152 88 16 0 40 80 0 40 80 0 40 80 0 40 80 0 40 80 0 40 80 0 40 80 0 40 80 0 40 80 0 40 80 0 40 80 0 40 80 0 40 80 0 40 80 0 40 80 0 40 80 0 40 80 0 40 80 0 40 80 0 40 80 0 40 80 0 40 80 0 40 80 0 40 80 0 40 80 0 40 80 0 40 80 0 40 80 0 40 80 0 40 80 0 40 80 0 40 80 8 40 80 8 40 80 8 40 80 8 40 80 8 40 80 8 40 80 8 40 80 8 40 80 8 40 80 8 40 80 8 40 80 8 40 80 8 40 80 8 40 80 8 40 80 8 40 80 8 40 80 8 40 80 8 40 80 8 40 80 8 40 80 8 40 80 8 40 80 8 40 80 8 40 80 8 40 80 8 40 80 8 40 80 8 40 80 8 40 80 8 40 80 8 40 80
48 48 56 48 48 56 48 48 56 48 48 56 48 48 56 48 48 56 48 48 56 48 48 56 48 48 56 48 48 56 48 48 56 48 48 56 48 48 56 48 48 56 48 48 56 48 48 56 48 48 56 48 48 56 48 48 56 48 48 56 48 48 56 48 48 56 48 48 56 48 48 56 48 48 56 48 48 56 48 48 56 48 48 56 48 48 56 48 48 56 48 48 56 48 48 56 152 88 16 152 88 16 152 88 16 152 88 16 152 88 16 152 88 16 152 88 16 152 88 16 152 88 16 152 88 16 152 88 16 152 88 16 152 88 16 152 88 16 152 88 16 152 88 16 152 88 16 152 88 16 152 88 16 152 88 16 152 88 16 152 88 16 152 88 16 152 88 16 152 88 16 152 88 16 152 88 16 152 88 16 152 88 16 152 88 16 152 88 16 152 88 16 0 40 80 0 40 80 0 40 80 0 40 80 0 40 80 0 40 80 0 40 80 0 40 80 0 40 80 0 40 80 0 40 80 0 40 80 0 40 80 0 40 80 0 40 80 0 40 80 0 40 80 0 40 80 0 40 80 0 40 80 0 40 80 0 40 80 0 40 80 0 40 80 0 40 80 0 40 80 0 40 80 0 40 80 0 40 80 0 40 80 0 40 80 0 40 80 8 40 80 8 40 80 8 40 80 8 40 80 8 40 80 8 40 80 8 40 80 8 40 80 8 40 80 8 40 80 8 40 80 8 40 80 8 40 80 8 40 80 8 40 80 8 40 80 8 40 80 8 40 80 8 40 80 8 40 80 8 40 80 8 40 80 8 40 80 8 40 80 8 40 80 8 40 80 8 40 80 8 40 80 8 40 80 8 40 80 8 40 80 8 40 80
48 48 56 48 48 56 48 48 56 48 48 56 48 48 56 48 48 56 48 48 56 48 48 56 48 48 56 48 48 56 48 48 56 48 48 56 48 48 56 48 48 56 48 48 56 48 48 56 48 48 56 48 48 56 48 48 56 48 48 56 48 48 56 48 48 56 48 48 56 48 48 56 48 48 56 48 48 56 48 48 56 48 48 56 48 48 56 48 48 56 48 48 56 48 48 56 152 88 16 152 88 16 152 88 16 152 88 16 152 88 16 152 88 16 152 88 16 152 88 16 152 88 16 152 88 16 152 88 16 152 88 16 152 88 16 152 88 16 152 88 16 152 88 16 152 88 16 152 88 16 152 88 16 152 88 16 152 88 16 152 88 16 152 88 16 152 88 16 152 88 16 152 88 16 152 88 16 152 88 16 152 88 16 152 88 16 152 88 16 152 88 16 0 40 80 0 40 80 0 40 80 0 40 80 0 40 80 0 40 80 0 40 80 0 40 80 0 40 80 0 40 80 0 40 80 0 40 80 0 40 80 0 40 80 0 40 80 0 40 80 0 40 80 0 40 80 0 40 80 0 40 80 0 40 80 0 40 80 0 40 80 0 40 80 0 40 80 0 40 80 0 40 80 0 40 80 0 40 80 0 40 80 0 40 80 0 40 80 8 40 80 8 40 80 8 40 80 8 40 80 8 40 80 8 40 80 8 40 80 8 40 80 8 40 80 8 40 80 8 40 80 8 40 80 8 40 80 8 40 80 8 40 80 8 40 80 8 40 80 8 40 80 8 40 80 8 40 80 8 40 80 8 40 80 8 40 80 8 40 80 8 40 80 8 40 80 8 40 80 8 40 80 8 40 80 8 40 80 8 40 80 8 40 80
48 48 56 48 48 56 48 48 56 48 48 56 48 48 56 48 48 56 48 48 56 48 48 56 48 48 56 48 48 56 48 48 56 48 48 56 48 48 56 48 48 56 48 48 56 48 48 56 48 48 56 48 48 56 48 48 56 48 48 56 48 48 56 48 48 56 48 48 56 48 48 56 48 48 56 48 48 56 48 48 56 48 48 56 48 48 56 48 48 56 48 48 56 48 48 56 152 88 16 152 88 16 152 88 16 152 88 16 152 88 16 152 88 16 152 88 16 152 88 16 152 88 16 152 88 16 152 88 16 152 88 16 152 88 16 152 88 16 152 88 16 152 88 16 152 88 16 152 88 16 152 88 16 152 88 16 152 88 16 152 88 16 152 88 16 152 88 16 152 88 16 152 88 16 152 88 16 152 88 16 152 88 16 152 88 16 152 88 16 152 88 16 0 40 80 0 40 80 0 40 80 0 40 80 0 40 80 0 40 80 0 40 80 0 40 80 0 40 80 0 40 80 0 40 80 0 40 80 0 40 80 0 40 80 0 40 80 0 40 80 0 40 80 0 40 80 0 40 80 0 40 80 0 40 80 0 40 80 0 40 80 0 40 80 0 40 80 0 40 80 0 40 80 0 40 80 0 40 80 0 40 80 0 40 80 0 40 80 8 40 80 8 40 80 8 40 80 8 40 80 8 40 80 8 40 80 8 40 80 8 40 80 8 40 80 8 40 80 8 40 80 8 40 80 8 40 80 8 40 80 8 40 80 8 40 80 8 40 80 8 40 80 8 40 80 8 40 80 8 40 80 8 40 80 8 40 80 8 40 80 8 40 80 8 40 80 8 40 80 8 40 80 8 40 80 8 40 80 8 40 80 8 40 80
48 48 56 48 48 56 48 48 56 48 48 56 48 48 56 48 48 56 48 48 56 48 48 56 48 48 56 48 48 56 48 48 56 48 48 56 48 48 56 48 48 56 48 48 56 48 48 56 48 48 56 48 48 56 48 48 56 48 48 56 48 48 56 48 48 56 48 48 56 48 48 56 48 48 56 48 48 56 48 48 56 48 48 56 48 48 56 48 48 56 48 48 56 48 48 56 152 88 16 152 88 16 152 88 16 152 88 16 152 88 16 152 88 16 152 88 16 152 88 16 152 88 16 152 88 16 152 88 16 152 88 16 152 88 16 152 88 16 152 88 16 152 88 16 152 88 16 152 88 16 152 88 16 152 88 16 152 88 16 152 88 16 152 88 16 152 88 16 152 88 16 152 88 16 152 88 16 152 88 16 152 88 16 152 88 16 152 88 16 152 88 16 0 40 80 0 40 80 0 40 80 0 40 80 0 40 80 0 40 80 0 40 80 0 40 80 0 40 80 0 40 80 0 40 80 0 40 80 0 40 80 0 40 80 0 40 80 0 40 80 0 40 80 0 40 80 0 40 80 0 40 80 0 40 80 0 40 80 0 40 80 0 40 80 0 40 80 0 40 80 0 40 80 0 40 80 0 40 80 0 40 80 0 40 80 0 40 80 8 40 80 8 40 80 8 40 80 8 40 80 8 40 80 8 40 80 8 40 80 8 40 80 8 40 80 8 40 80 8 40 80 8 40 80 8 40 80 8 40 80 8 40 80 8 40 80 8 40 80 8 40 80 8 40 80 8 40 80 8 40 80 8 40 80 8 40 80 8 40 80 8 40 80 8 40 80 8 40 80 8 40 80 8 40 80 8 40 80 8 40 80 8 40 80
48 48 56 48 48 56 48 48 56 48 48 56 48 48 56 48 48 56 48 48 56 48 48 56 48 48 56 48 48 56 48 48 56 48 48 56 48 48 56 48 48 56 48 48 56 48 48 56 48 48 56 48 48 56 48 48 56 48 48 56 48 48 56 48 48 56 48 48 56 48 48 56 48 48 56 48 48 56 48 48 56 48 48 56 48 48 56 48 48 56 48 48 56 48 48 56 152 88 16 152 88 16 152 88 16 152 88 16 152 88 16 152 88 16 152 88 16 152 88 16 152 88 16 152 88 16 152 88 16 152 88 16 152 88 16 152 88 16 152 88 16 152 88 16 152 88 16 152 88 16 152 88 16 152 88 16 152 88 16 152 88 16 152 88 16 152 88 16 152 88 16 152 88 16 152 88 16 152 88 16 152 88 16 152 88 16 152 88 16 152 88 16 0 40 80 0 40 80 0 40 80 0 40 80 0 40 80 0 40 80 0 40 80 0 40 80 0 40 80 0 40 80 0 40 80 0 40 80 0 40 80 0 40 80 0 40 80 0 40 80 0 40 80 0 40 80 0 40 80 0 40 80 0 40 80 0 40 80 0 40 80 0 40 80 0 40 80 0 40 80 0 40 80 0 40 80 0 40 80 0 40 80 0 40 80 0 40 80 8 40 80 8 40 80 8 40 80 8 40 80 8 40 80 8 40 80 8 40 80 8 40 80 8 40 80 8 40 80 8 40 80 8 40 80 8 40 80 8 40 80 8 40 80 8 40 80 8 40 80 8 40 80 8 40 80 8 40 80 8 40 80 8 40 80 8 40 80 8 40 80 8 40 80 8 40 80 8 40 80 8 40 80 8 40 80 8 40 80 8 40 80 8 40 80
48 48 56 48 48 56 48 48 56 48 48 56 48 48 56 48 48 56 48 48 56 48 48 56 48 48 56 48 48 56 48 48 56 48 48 56 48 48 56 48 48 56 48 48 56 48 48 56 48 48 56 48 48 56 48 48 56 48 48 56 48 48 56 48 48 56 48 48 56 48 48 56 48 48 56 48 48 56 48 48 56 48 48 56 48 48 56 48 48 56 48 48 56 48 48 56 152 88 16 152 88 16 152 88 16 152 88 16 152 88 16 152 88 16 152 88 16 152 88 16 152 88 16 152 88 16 152 88 16 152 88 16 152 88 16 152 88 16 152 88 16 152 88 16 152 88 16 152 88 16 152 88 16 152 88 16 152 88 16 152 88 16 152 88 16 152 88 16 152 88 16 152 88 16 152 88 16 152 88 16 152 88 16 152 88 16 152 88 16 152 88 16 0 40 80 0 40 80 0 40 80 0 40 80 0 40 80 0 40 80 0 40 80 0 40 80 0 40 80 0 40 80 0 40 80 0 40 80 0 40 80 0 40 80 0 40 80 0 40 80 0 40 80 0 40 80 0 40 80 0 40 80 0 40 80 0 40 80 0 40 80 0 40 80 0 40 80 0 40 80 0 40 80 0 40 80 0 40 80 0 40 80 0 40 80 0 40 80 8 40 80 8 40 80 8 40 80 8 40 80 8 40 80 8 40 80 8 40 80 8 40 80 8 40 80 8 40 80 8 40 80 8 40 80 8 40 80 8 40 80 8 40 80 8 40 80 8 40 80 8 40 80 8 40 80 8 40 80 8 40 80 8 40 80 8 40 80 8 40 80 8 40 80 8 40 80 8 40 80 8 40 80 8 40 80 8 40 80 8 40 80 8 40 80
48 48 56 48 48 56 48 48 56 48 48 56 48 48 56 48 48 56 48 48 56 48 48 56 48 48 56 48 48 56 48 48 56 48 48 56 48 48 56 48 48 56 48 48 56 48 48 56 48 48 56 48 48 56 48 48 56 48 48 56 48 48 56 48 48 56 48 48 56 48 48 56 48 48 56 48 48 56 48 48 56 48 48 56 48 48 56 48 48 56 48 48 56 48 48 56 152 88 16 152 88 16 152 88 16 152 88 16 152 88 16 152 88 16 152 88 16 152 88 16 152 88 16 152 88 16 152 88 16 152 88 16 152 88 16 152 88 16 152 88 16 152 88 16 152 88 16 152 88 16 152 88 16 152 88 16 152 88 16 152 88 16 152 88 16 152 88 16 152 88 16 152 88 16 152 88 16 152 88 16 152 88 16 152 88 16 152 88 16 152 88 16 0 40 80 0 40 80 0 40 80 0 40 80 0 40 80 0 40 80 0 40 80 0 40 80 0 40 80 0 40 80 0 40 80 0 40 80 0 40 80 0 40 80 0 40 80 0 40 80 0 40 80 0 40 80 0 40 80 0 40 80 0 40 80 0 40 80 0 40 80 0 40 80 0 40 80 0 40 80 0 40 80 0 40 80 0 40 80 0 40 80 0 40 80 0 40 80 8 40 80 8 40 80 8 40 80 8 40 80 8 40 80 8 40 80 8 40 80 8 40 80 8 40 80 8 40 80 8 40 80 8 40 80 8 40 80 8 40 80 8 40 80 8 40 80 8 40 80 8 40 80 8 40 80 8 40 80 8 40 80 8 40 80 8 40 80 8 40 80 8 40 80 8 40 80 8 40 80 8 40 80 8 40 80 8 40 80 8 40 80 8 40 80
48 48 56 48 48 56 48 48 56 48 48 56 48 48 56 48 48 56 48 48 56 48 48 56 48 48 56 48 48 56 48 48 56 48 48 56 48 48 56 48 48 56 48 48 56 48 48 56 48 48 56 48 48 56 48 48 56 48 48 56 48 48 56 48 48 56 48 48 56 48 48 56 48 48 56 48 48 56 48 48 56 48 48 56 48 48 56 48 48 56 48 48 56 48 48 56 152 88 16 152 88 16 152 88 16 152 88 16 152 88 16 152 88 16 152 88 16 152 88 16 152 88 16 152 88 16 152 88 16 152 88 16 152 88 16 152 88 16 152 88 16 152 88 16 152 88 16 152 88 16 152 88 16 152 88 16 152 88 16 152 88 16 152 88 16 152 88 16 152 88 16 152 88 16 152 88 16 152 88 16 152 88 16 152 88 16 152 88 16 152 88 16 0 40 80 0 40 80 0 40 80 0 40 80 0 40 80 0 40 80 0 40 80 0 40 80 0 40 80 0 40 80 0 40 80 0 40 80 0 40 80 0 40 80 0 40 80 0 40 80 0 40 80 0 40 80 0 40 80 0 40 80 0 40 80 0 40 80 0 40 80 0 40 80 0 40 80 0 40 80 0 40 80 0 40 80 0 40 80 0 40 80 0 40 80 0 40 80 8 40 80 8 40 80 8 40 80 8 40 80 8 40 80 8 40 80 8 40 80 8 40 80 8 40 80 8 40 80 8 40 80 8 40 80 8 40 80 8 40 80 8 40 80 8 40 80 8 40 80 8 40 80 8 40 80 8 40 80 8 40 80 8 40 80 8 40 80 8 40 80 8 40 80 8 40 80 8 40 80 8 40 80 8 40 80 8 40 80 8 40 80 8 40 80
48 48 56 48 48 56 48 48 56 48 48 56 48 48 56 48 48 56 48 48 56 48 48 56 48 48 56 48 48 56 48 48 56 48 48 56 48 48 56 48 48 56 48 48 56 48 48 56 48 48 56 48 48 56 48 48 56 48 48 56 48 48 56 48 48 56 48 48 56 48 48 56 48 48 56 48 48 56 48 48 56 48 48 56 48 48 56 48 48 56 48 48 56 48 48 56 152 88 16 152 88 16 152 88 16 152 88 16 152 88 16 152 88 16 152 88 16 152 88 16 152 88 16 152 88 16 152 88 16 152 88 16 152 88 16 152 88 16 152 88 16 152 88 16 152 88 16 152 88 16 152 88 16 152 88 16 152 88 16 152 88 16 152 88 16 152 88 16 152 88 16 152 88 16 152 88 16 152 88 16 152 88 16 152 88 16 152 88 16 152 88 16 0 40 80 0 40 80 0 40 80 0 40 80 0 40 80 0 40 80 0 40 80 0 40 80 0 40 80 0 40 80 0 40 80 0 40 80 0 40 80 0 40 80 0 40 80 0 40 80 0 40 80 0 40 80 0 40 80 0 40 80 0 40 80 0 40 80 0 40 80 0 40 80 0 40 80 0 40 80 0 40 80 0 40 80 0 40 80 0 40 80 0 40 80 0 40 80 8 40 80 8 40 80 8 40 80 8 40 80 8 40 80 8 40 80 8 40 80 8 40 80 8 40 80 8 40 80 8 40 80 8 40 80 8 40 80 8 40 80 8 40 80 8 40 80 8 40 80 8 40 80 8 40 80 8 40 80 8 40 80 8 40 80 8 40 80 8 40 80 8 40 80 8 40 80 8 40 80 8 40 80 8 40 80 8 40 80 8 40 80 8 40 80