P3
128 128
255
72 48 48 72 48 48 72 48 48 72 48 48 72 48 48 72 48 48 72 48 48 72 48 48 72 48 48 72 48 48 72 48 48 72 48 48 72 48 48 72 48 48 72 48 48 72 48 48 72 48 48 72 48 48 72 48 48 72 48 48 72 48 48 72 48 48 72 48 48 72 48 48 72 48 48 72 48 48 72 48 48 72 48 48 72 48 48 72 48 48 72 48 48 72 48 48 176 104 56 176 104 56 176 104 56 176 104 56 176 104 56 176 104 56 176 104 56 176 104 56 176 104 56 176 104 56 176 104 56 176 104 56 176 104 56 176 104 56 176 104 56 176 104 56 176 104 56 176 104 56 176 104 56 176 104 56 176 104 56 176 104 56 176 104 56 176 104 56 176 104 56 176 104 56 176 104 56 176 104 56 176 104 56 176 104 56 176 104 56 176 104 56 184 104 56 184 104 56 184 104 56 184 104 56 184 104 56 184 104 56 184 104 56 184 104 56 184 104 56 184 104 56 184 104 56 184 104 56 184 104 56 184 104 56 184 104 56 184 104 56 184 104 56 184 104 56 184 104 56 184 104 56 184 104 56 184 104 56 184 104 56 184 104 56 184 104 56 184 104 56 184 104 56 184 104 56 184 104 56 184 104 56 184 104 56 184 104 56 176 104 56 176 104 56 176 104 56 176 104 56 176 104 56 176 104 56 176 104 56 176 104 56 176 104 56 176 104 56 176 104 56 176 104 56 176 104 56 176 104 56 176 104 56 176 104 56 176 104 56 176 104 56 176 104 56 176 104 56 176 104 56 176 104 56 176 104 56 176 104 56 176 104 56 176 104 56 176 104 56 176 104 56 176 104 56 176 104 56 176 104 56 176 104 56
72 48 48 72 48 48 72 48 48 72 48 48 72 48 48 72 48 48 72 48 48 72 48 48 72 48 48 72 48 48 72 48 48 72 48 48 72 48 48 72 48 48 72 48 48 72 48 48 72 48 48 72 48 48 72 48 48 72 48 48 72 48 48 72 48 48 72 48 48 72 48 48 72 48 48 72 48 48 72 48 48 72 48 48 72 48 48 72 48 48 72 48 48 72 48 48 176 104 56 176 104 56 176 104 56 176 104 56 176 104 56 176 104 56 176 104 56 176 104 56 176 104 56 176 104 56 176 104 56 176 104 56 176 104 56 176 104 56 176 104 56 176 104 56 176 104 56 176 104 56 176 104 56 176 104 56 176 104 56 176 104 56 176 104 56 176 104 56 176 104 56 176 104 56 176 104 56 176 104 56 176 104 56 176 104 56 176 104 56 176 104 56 184 104 56 184 104 56 184 104 56 184 104 56 184 104 56 184 104 56 184 104 56 184 104 56 184 104 56 184 104 56 184 104 56 184 104 56 184 104 56 184 104 56 184 104 56 184 104 56 184 104 56 184 104 56 184 104 56 184 104 56 184 104 56 184 104 56 184 104 56 184 104 56 184 104 56 184 104 56 184 104 56 184 104 56 184 104 56 184 104 56 184 104 56 184 104 56 176 104 56 176 104 56 176 104 56 176 104 56 176 104 56 176 104 56 176 104 56 176 104 56 176 104 56 176 104 56 176 104 56 176 104 56 176 104 56 176 104 56 176 104 56 176 104 56 176 104 56 176 104 56 176 104 56 176 104 56 176 104 56 176 104 56 176 104 56 176 104 56 176 104 56 176 104 56 176 104 56 176 104 56 176 104 56 176 104 56 176 104 56 176 104 56
72 48 48 72 48 48 72 48 48 72 48 48 72 48 48 72 48 48 72 48 48 72 48 48 72 48 48 72 48 48 72 48 48 72 48 48 72 48 48 72 48 48 72 48 48 72 48 48 72 48 48 72 48 48 72 48 48 72 48 48 72 48 48 72 48 48 72 48 48 72 48 48 72 48 48 72 48 48 72 48 48 72 48 48 72 48 48 72 48 48 72 48 48 72 48 48 176 104 56 176 104 56 176 104 56 176 104 56 176 104 56 176 104 56 176 104 56 176 104 56 176 104 56 176 104 56 176 104 56 176 104 56 176 104 56 176 104 56 176 104 56 176 104 56 176 104 56 176 104 56 176 104 56 176 104 56 176 104 56 176 104 56 176 104 56 176 104 56 176 104 56 176 104 56 176 104 56 176 104 56 176 104 56 176 104 56 176 104 56 176 104 56 184 104 56 184 104 56 184 104 56 184 104 56 184 104 56 184 104 56 184 104 56 184 104 56 184 104 56 184 104 56 184 104 56 184 104 56 184 104 56 184 104 56 184 104 56 184 104 56 184 104 56 184 104 56 184 104 56 184 104 56 184 104 56 184 104 56 184 104 56 184 104 56 184 104 56 184 104 56 184 104 56 184 104 56 184 104 56 184 104 56 184 104 56 184 104 56 176 104 56 176 104 56 176 104 56 176 104 56 176 104 56 176 104 56 176 104 56 176 104 56 176 104 56 176 104 56 176 104 56 176 104 56 176 104 56 176 104 56 176 104 56 176 104 56 176 104 56 176 104 56 176 104 56 176 104 56 176 104 56 176 104 56 176 104 56 176 104 56 176 104 56 176 104 56 176 104 56 176 104 56 176 104 56 176 104 56 176 104 56 176 104 56
72 48 48 72 48 48 72 48 48 72 48 48 72 48 48 72 48 48 72 48 48 72 48 48 72 48 48 72 48 48 72 48 48 72 48 48 72 48 48 72 48 48 72 48 48 72 48 48 72 48 48 72 48 48 72 48 48 72 48 48 72 48 48 72 48 48 72 48 48 72 48 48 72 48 48 72 48 48 72 48 48 72 48 48 72 48 48 72 48 48 72 48 48 72 48 48 176 104 56 176 104 56 176 104 56 176 104 56 176 104 56 176 104 56 176 104 56 176 104 56 176 104 56 176 104 56 176 104 56 176 104 56 176 104 56 176 104 56 176 104 56 176 104 56 176 104 56 176 104 56 176 104 56 176 104 56 176 104 56 176 104 56 176 104 56 176 104 56 176 104 56 176 104 56 176 104 56 176 104 56 176 104 56 176 104 56 176 104 56 176 104 56 184 104 56 184 104 56 184 104 56 184 104 56 184 104 56 184 104 56 184 104 56 184 104 56 184 104 56 184 104 56 184 104 56 184 104 56 184 104 56 184 104 56 184 104 56 184 104 56 184 104 56 184 104 56 184 104 56 184 104 56 184 104 56 184 104 56 184 104 56 184 104 56 184 104 56 184 104 56 184 104 56 184 104 56 184 104 56 184 104 56 184 104 56 184 104 56 176 104 56 176 104 56 176 104 56 176 104 56 176 104 56 176 104 56 176 104 56 176 104 56 176 104 56 176 104 56 176 104 56 176 104 56 176 104 56 176 104 56 176 104 56 176 104 56 176 104 56 176 104 56 176 104 56 176 104 56 176 104 56 176 104 56 176 104 56 176 104 56 176 104 56 176 104 56 176 104 56 176 104 56 176 104 56 176 104 56 176 104 56 176 104 56
72 48 48 72 48 48 72 48 48 72 48 48 72 48 48 72 48 48 72 48 48 72 48 48 72 48 48 72 48 48 72 48 48 72 48 48 72 48 48 72 48 48 72 48 48 72 48 48 72 48 48 72 48 48 72 48 48 72 48 48 72 48 48 72 48 48 72 48 48 72 48 48 72 48 48 72 48 48 72 48 48 72 48 48 72 48 48 72 48 48 72 48 48 72 48 48 176 104 56 176 104 56 176 104 56 176 104 56 176 104 56 176 104 56 176 104 56 176 104 56 176 104 56 176 104 56 176 104 56 176 104 56 176 104 56 176 104 56 176 104 56 176 104 56 176 104 56 176 104 56 176 104 56 176 104 56 176 104 56 176 104 56 176 104 56 176 104 56 176 104 56 176 104 56 176 104 56 176 104 56 176 104 56 176 104 56 176 104 56 176 104 56 184 104 56 184 104 56 184 104 56 184 104 56 184 104 56 184 104 56 184 104 56 184 104 56 184 104 56 184 104 56 184 104 56 184 104 56 184 104 56 184 104 56 184 104 56 184 104 56 184 104 56 184 104 56 184 104 56 184 104 56 184 104 56 184 104 56 184 104 56 184 104 56 184 104 56 184 104 56 184 104 56 184 104 56 184 104 56 184 104 56 184 104 56 184 104 56 176 104 56 176 104 56 176 104 56 176 104 56 176 104 56 176 104 56 176 104 56 176 104 56 176 104 56 176 104 56 176 104 56 176 104 56 176 104 56 176 104 56 176 104 56 176 104 56 176 104 56 176 104 56 176 104 56 176 104 56 176 104 56 176 104 56 176 104 56 176 104 56 176 104 56 176 104 56 176 104 56 176 104 56 176 104 56 176 104 56 176 104 56 176 104 56
72 48 48 72 48 48 72 48 48 72 48 48 72 48 48 72 48 48 72 48 48 72 48 48 72 48 48 72 48 48 72 48 48 72 48 48 72 48 48 72 48 48 72 48 48 72 48 48 72 48 48 72 48 48 72 48 48 72 48 48 72 48 48 72 48 48 72 48 48 72 48 48 72 48 48 72 48 48 72 48 48 72 48 48 72 48 48 72 48 48 72 48 48 72 48 48 176 104 56 176 104 56 176 104 56 176 104 56 176 104 56 176 104 56 176 104 56 176 104 56 176 104 56 176 104 56 176 104 56 176 104 56 176 104 56 176 104 56 176 104 56 176 104 56 176 104 56 176 104 56 176 104 56 176 104 56 176 104 56 176 104 56 176 104 56 176 104 56 176 104 56 176 104 56 176 104 56 176 104 56 176 104 56 176 104 56 176 104 56 176 104 56 184 104 56 184 104 56 184 104 56 184 104 56 184 104 56 184 104 56 184 104 56 184 104 56 184 104 56 184 104 56 184 104 56 184 104 56 184 104 56 184 104 56 184 104 56 184 104 56 184 104 56 184 104 56 184 104 56 184 104 56 184 104 56 184 104 56 184 104 56 184 104 56 184 104 56 184 104 56 184 104 56 184 104 56 184 104 56 184 104 56 184 104 56 184 104 56 176 104 56 176 104 56 176 104 56 176 104 56 176 104 56 176 104 56 176 104 56 176 104 56 176 104 56 176 104 56 176 104 56 176 104 56 176 104 56 176 104 56 176 104 56 176 104 56 176 104 56 176 104 56 176 104 56 176 104 56 176 104 56 176 104 56 176 104 56 176 104 56 176 104 56 176 104 56 176 104 56 176 104 56 176 104 56 176 104 56 176 104 56 176 104 56
72 48 48 72 48 48 72 48 48 72 48 48 72 48 48 72 48 48 72 48 48 72 48 48 72 48 48 72 48 48 72 48 48 72 48 48 72 48 48 72 48 48 72 48 48 72 48 48 72 48 48 72 48 48 72 48 48 72 48 48 72 48 48 72 48 48 72 48 48 72 48 48 72 48 48 72 48 48 72 48 48 72 48 48 72 48 48 72 48 48 72 48 48 72 48 48 176 104 56 176 104 56 176 104 56 176 104 56 176 104 56 176 104 56 176 104 56 176 104 56 176 104 56 176 104 56 176 104 56 176 104 56 176 104 56 176 104 56 176 104 56 176 104 56 176 104 56 176 104 56 176 104 56 176 104 56 176 104 56 176 104 56 176 104 56 176 104 56 176 104 56 176 104 56 176 104 56 176 104 56 176 104 56 176 104 56 176 104 56 176 104 56 184 104 56 184 104 56 184 104 56 184 104 56 184 104 56 184 104 56 184 104 56 184 104 56 184 104 56 184 104 56 184 104 56 184 104 56 184 104 56 184 104 56 184 104 56 184 104 56 184 104 56 184 104 56 184 104 56 184 104 56 184 104 56 184 104 56 184 104 56 184 104 56 184 104 56 184 104 56 184 104 56 184 104 56 184 104 56 184 104 56 184 104 56 184 104 56 176 104 56 176 104 56 176 104 56 176 104 56 176 104 56 176 104 56 176 104 56 176 104 56 176 104 56 176 104 56 176 104 56 176 104 56 176 104 56 176 104 56 176 104 56 176 104 56 176 104 56 176 104 56 176 104 56 176 104 56 176 104 56 176 104 56 176 104 56 176 104 56 176 104 56 176 104 56 176 104 56 176 104 56 176 104 56 176 104 56 176 104 56 176 104 56
72 48 48 72 48 48 72 48 48 72 48 48 72 48 48 72 48 48 72 48 48 72 48 48 72 48 48 72 48 48 72 48 48 72 48 48 72 48 48 72 48 48 72 48 48 72 48 48 72 48 48 72 48 48 72 48 48 72 48 48 72 48 48 72 48 48 72 48 48 72 48 48 72 48 48 72 48 48 72 48 48 72 48 48 72 48 48 72 48 48 72 48 48 72 48 48 176 104 56 176 104 56 176 104 56 176 104 56 176 104 56 176 104 56 176 104 56 176 104 56 176 104 56 176 104 56 176 104 56 176 104 56 176 104 56 176 104 56 176 104 56 176 104 56 176 104 56 176 104 56 176 104 56 176 104 56 176 104 56 176 104 56 176 104 56 176 104 56 176 104 56 176 104 56 176 104 56 176 104 56 176 104 56 176 104 56 176 104 56 176 104 56 184 104 56 184 104 56 184 104 56 184 104 56 184 104 56 184 104 56 184 104 56 184 104 56 184 104 56 184 104 56 184 104 56 184 104 56 184 104 56 184 104 56 184 104 56 184 104 56 184 104 56 184 104 56 184 104 56 184 104 56 184 104 56 184 104 56 184 104 56 184 104 56 184 104 56 184 104 56 184 104 56 184 104 56 184 104 56 184 104 56 184 104 56 184 104 56 176 104 56 176 104 56 176 104 56 176 104 56 176 104 56 176 104 56 176 104 56 176 104 56 176 104 56 176 104 56 176 104 56 176 104 56 176 104 56 176 104 56 176 104 56 176 104 56 176 104 56 176 104 56 176 104 56 176 104 56 176 104 56 176 104 56 176 104 56 176 104 56 176 104 56 176 104 56 176 104 56 176 104 56 176 104 56 176 104 56 176 104 56 176 104 56
72 48 48 72 48 48 72 48 48 72 48 48 72 48 48 72 48 48 72 48 48 72 48 48 72 48 48 72 48 48 72 48 48 72 48 48 72 48 48 72 48 48 72 48 48 72 48 48 72 48 48 72 48 48 72 48 48 72 48 48 72 48 48 72 48 48 72 48 48 72 48 48 72 48 48 72 48 48 72 48 48 72 48 48 72 48 48 72 48 48 72 48 48 72 48 48 176 104 56 176 104 56 176 104 56 176 104 56 176 104 56 176 104 56 176 104 56 176 104 56 176 104 56 176 104 56 176 104 56 176 104 56 176 104 56 176 104 56 176 104 56 176 104 56 176 104 56 176 104 56 176 104 56 176 104 56 176 104 56 176 104 56 176 104 56 176 104 56 176 104 56 176 104 56 176 104 56 176 104 56 176 104 56 176 104 56 176 104 56 176 104 56 184 104 56 184 104 56 184 104 56 184 104 56 184 104 56 184 104 56 184 104 56 184 104 56 184 104 56 184 104 56 184 104 56 184 104 56 184 104 56 184 104 56 184 104 56 184 104 56 184 104 56 184 104 56 184 104 56 184 104 56 184 104 56 184 104 56 184 104 56 184 104 56 184 104 56 184 104 56 184 104 56 184 104 56 184 104 56 184 104 56 184 104 56 184 104 56 176 104 56 176 104 56 176 104 56 176 104 56 176 104 56 176 104 56 176 104 56 176 104 56 176 104 56 176 104 56 176 104 56 176 104 56 176 104 56 176 104 56 176 104 56 176 104 56 176 104 56 176 104 56 176 104 56 176 104 56 176 104 56 176 104 56 176 104 56 176 104 56 176 104 56 176 104 56 176 104 56 176 104 56 176 104 56 176 104 56 176 104 56 176 104 56
72 48 48 72 48 48 72 48 48 72 48 48 72 48 48 72 48 48 72 48 48 72 48 48 72 48 48 72 48 48 72 48 48 72 48 48 72 48 48 72 48 48 72 48 48 72 48 48 72 48 48 72 48 48 72 48 48 72 48 48 72 48 48 72 48 48 72 48 48 72 48 48 72 48 48 72 48 48 72 48 48 72 48 48 72 48 48 72 48 48 72 48 48 72 48 48 176 104 56 176 104 56 176 104 56 176 104 56 176 104 56 176 104 56 176 104 56 176 104 56 176 104 56 176 104 56 176 104 56 176 104 56 176 104 56 176 104 56 176 104 56 176 104 56 176 104 56 176 104 56 176 104 56 176 104 56 176 104 56 176 104 56 176 104 56 176 104 56 176 104 56 176 104 56 176 104 56 176 104 56 176 104 56 176 104 56 176 104 56 176 104 56 184 104 56 184 104 56 184 104 56 184 104 56 184 104 56 184 104 56 184 104 56 184 104 56 184 104 56 184 104 56 184 104 56 184 104 56 184 104 56 184 104 56 184 104 56 184 104 56 184 104 56 184 104 56 184 104 56 184 104 56 184 104 56 184 104 56 184 104 56 184 104 56 184 104 56 184 104 56 184 104 56 184 104 56 184 104 56 184 104 56 184 104 56 184 104 56 176 104 56 176 104 56 176 104 56 176 104 56 176 104 56 176 104 56 176 104 56 176 104 56 176 104 56 176 104 56 176 104 56 176 104 56 176 104 56 176 104 56 176 104 56 176 104 56 176 104 56 176 104 56 176 104 56 176 104 56 176 104 56 176 104 56 176 104 56 176 104 56 176 104 56 176 104 56 176 104 56 176 104 56 176 104 56 176 104 56 176 104 56 176 104 56
72 48 48 72 48 48 72 48 48 72 48 48 72 48 48 72 48 48 72 48 48 72 48 48 72 48 48 72 48 48 72 48 48 72 48 48 72 48 48 72 48 48 72 48 48 72 48 48 72 48 48 72 48 48 72 48 48 72 48 48 72 48 48 72 48 48 72 48 48 72 48 48 72 48 48 72 48 48 72 48 48 72 48 48 72 48 48 72 48 48 72 48 48 72 48 48 176 104 56 176 104 56 176 104 56 176 104 56 176 104 56 176 104 56 176 104 56 176 104 56 176 104 56 176 104 56 176 104 56 176 104 56 176 104 56 176 104 56 176 104 56 176 104 56 176 104 56 176 104 56 176 104 56 176 104 56 176 104 56 176 104 56 176 104 56 176 104 56 176 104 56 176 104 56 176 104 56 176 104 56 176 104 56 176 104 56 176 104 56 176 104 56 184 104 56 184 104 56 184 104 56 184 104 56 184 104 56 184 104 56 184 104 56 184 104 56 184 104 56 184 104 56 184 104 56 184 104 56 184 104 56 184 104 56 184 104 56 184 104 56 184 104 56 184 104 56 184 104 56 184 104 56 184 104 56 184 104 56 184 104 56 184 104 56 184 104 56 184 104 56 184 104 56 184 104 56 184 104 56 184 104 56 184 104 56 184 104 56 176 104 56 176 104 56 176 104 56 176 104 56 176 104 56 176 104 56 176 104 56 176 104 56 176 104 56 176 104 56 176 104 56 176 104 56 176 104 56 176 104 56 176 104 56 176 104 56 176 104 56 176 104 56 176 104 56 176 104 56 176 104 56 176 104 56 176 104 56 176 104 56 176 104 56 176 104 56 176 104 56 176 104 56 176 104 56 176 104 56 176 104 56 176 104 56
72 48 48 72 48 48 72 48 48 72 48 48 72 48 48 72 48 48 72 48 48 72 48 48 72 48 48 72 48 48 72 48 48 72 48 48 72 48 48 72 48 48 72 48 48 72 48 48 72 48 48 72 48 48 72 48 48 72 48 48 72 48 48 72 48 48 72 48 48 72 48 48 72 48 48 72 48 48 72 48 48 72 48 48 72 48 48 72 48 48 72 48 48 72 48 48 176 104 56 176 104 56 176 104 56 176 104 56 176 104 56 176 104 56 176 104 56 176 104 56 176 104 56 176 104 56 176 104 56 176 104 56 176 104 56 176 104 56 176 104 56 176 104 56 176 104 56 176 104 56 176 104 56 176 104 56 176 104 56 176 104 56 176 104 56 176 104 56 176 104 56 176 104 56 176 104 56 176 104 56 176 104 56 176 104 56 176 104 56 176 104 56 184 104 56 184 104 56 184 104 56 184 104 56 184 104 56 184 104 56 184 104 56 184 104 56 184 104 56 184 104 56 184 104 56 184 104 56 184 104 56 184 104 56 184 104 56 184 104 56 184 104 56 184 104 56 184 104 56 184 104 56 184 104 56 184 104 56 184 104 56 184 104 56 184 104 56 184 104 56 184 104 56 184 104 56 184 104 56 184 104 56 184 104 56 184 104 56 176 104 56 176 104 56 176 104 56 176 104 56 176 104 56 176 104 56 176 104 56 176 104 56 176 104 56 176 104 56 176 104 56 176 104 56 176 104 56 176 104 56 176 104 56 176 104 56 176 104 56 176 104 56 176 104 56 176 104 56 176 104 56 176 104 56 176 104 56 176 104 56 176 104 56 176 104 56 176 104 56 176 104 56 176 104 56 176 104 56 176 104 56 176 104 56
72 48 48 72 48 48 72 48 48 72 48 48 72 48 48 72 48 48 72 48 48 72 48 48 72 48 48 72 48 48 72 48 48 72 48 48 72 48 48 72 48 48 72 48 48 72 48 48 72 48 48 72 48 48 72 48 48 72 48 48 72 48 48 72 48 48 72 48 48 72 48 48 72 48 48 72 48 48 72 48 48 72 48 48 72 48 48 72 48 48 72 48 48 72 48 48 176 104 56 176 104 56 176 104 56 176 104 56 176 104 56 176 104 56 176 104 56 176 104 56 176 104 56 176 104 56 176 104 56 176 104 56 176 104 56 176 104 56 176 104 56 176 104 56 176 104 56 176 104 56 176 104 56 176 104 56 176 104 56 176 104 56 176 104 56 176 104 56 176 104 56 176 104 56 176 104 56 176 104 56 176 104 56 176 104 56 176 104 56 176 104 56 184 104 56 184 104 56 184 104 56 184 104 56 184 104 56 184 104 56 184 104 56 184 104 56 184 104 56 184 104 56 184 104 56 184 104 56 184 104 56 184 104 56 184 104 56 184 104 56 184 104 56 184 104 56 184 104 56 184 104 56 184 104 56 184 104 56 184 104 56 184 104 56 184 104 56 184 104 56 184 104 56 184 104 56 184 104 56 184 104 56 184 104 56 184 104 56 176 104 56 176 104 56 176 104 56 176 104 56 176 104 56 176 104 56 176 104 56 176 104 56 176 104 56 176 104 56 176 104 56 176 104 56 176 104 56 176 104 56 176 104 56 176 104 56 176 104 56 176 104 56 176 104 56 176 104 56 176 104 56 176 104 56 176 104 56 176 104 56 176 104 56 176 104 56 176 104 56 176 104 56 176 104 56 176 104 56 176 104 56 176 104 56
72 48 48 72 48 48 72 48 48 72 48 48 72 48 48 72 48 48 72 48 48 72 48 48 72 48 48 72 48 48 72 48 48 72 48 48 72 48 48 72 48 48 72 48 48 72 48 48 72 48 48 72 48 48 72 48 48 72 48 48 72 48 48 72 48 48 72 48 48 72 48 48 72 48 48 72 48 48 72 48 48 72 48 48 72 48 48 72 48 48 72 48 48 72 48 48 176 104 56 176 104 56 176 104 56 176 104 56 176 104 56 176 104 56 176 104 56 176 104 56 176 104 56 176 104 56 176 104 56 176 104 56 176 104 56 176 104 56 176 104 56 176 104 56 176 104 56 176 104 56 176 104 56 176 104 56 176 104 56 176 104 56 176 104 56 176 104 56 176 104 56 176 104 56 176 104 56 176 104 56 176 104 56 176 104 56 176 104 56 176 104 56 184 104 56 184 104 56 184 104 56 184 104 56 184 104 56 184 104 56 184 104 56 184 104 56 184 104 56 184 104 56 184 104 56 184 104 56 184 104 56 184 104 56 184 104 56 184 104 56 184 104 56 184 104 56 184 104 56 184 104 56 184 104 56 184 104 56 184 104 56 184 104 56 184 104 56 184 104 56 184 104 56 184 104 56 184 104 56 184 104 56 184 104 56 184 104 56 176 104 56 176 104 56 176 104 56 176 104 56 176 104 56 176 104 56 176 104 56 176 104 56 176 104 56 176 104 56 176 104 56 176 104 56 176 104 56 176 104 56 176 104 56 176 104 56 176 104 56 176 104 56 176 104 56 176 104 56 176 104 56 176 104 56 176 104 56 176 104 56 176 104 56 176 104 56 176 104 56 176 104 56 176 104 56 176 104 56 176 104 56 176 104 56
72 48 48 72 48 48 72 48 48 72 48 48 72 48 48 72 48 48 72 48 48 72 48 48 72 48 48 72 48 48 72 48 48 72 48 48 72 48 48 72 48 48 72 48 48 72 48 48 72 48 48 72 48 48 72 48 48 72 48 48 72 48 48 72 48 48 72 48 48 72 48 48 72 48 48 72 48 48 72 48 48 72 48 48 72 48 48 72 48 48 72 48 48 72 48 48 176 104 56 176 104 56 176 104 56 176 104 56 176 104 56 176 104 56 176 104 56 176 104 56 176 104 56 176 104 56 176 104 56 176 104 56 176 104 56 176 104 56 176 104 56 176 104 56 176 104 56 176 104 56 176 104 56 176 104 56 176 104 56 176 104 56 176 104 56 176 104 56 176 104 56 176 104 56 176 104 56 176 104 56 176 104 56 176 104 56 176 104 56 176 104 56 184 104 56 184 104 56 184 104 56 184 104 56 184 104 56 184 104 56 184 104 56 184 104 56 184 104 56 184 104 56 184 104 56 184 104 56 184 104 56 184 104 56 184 104 56 184 104 56 184 104 56 184 104 56 184 104 56 184 104 56 184 104 56 184 104 56 184 104 56 184 104 56 184 104 56 184 104 56 184 104 56 184 104 56 184 104 56 184 104 56 184 104 56 184 104 56 176 104 56 176 104 56 176 104 56 176 104 56 176 104 56 176 104 56 176 104 56 176 104 56 176 104 56 176 104 56 176 104 56 176 104 56 176 104 56 176 104 56 176 104 56 176 104 56 176 104 56 176 104 56 176 104 56 176 104 56 176 104 56 176 104 56 176 104 56 176 104 56 176 104 56 176 104 56 176 104 56 176 104 56 176 104 56 176 104 56 176 104 56 176 104 56
72 48 48 72 48 48 72 48 48 72 48 48 72 48 48 72 48 48 72 48 48 72 48 48 72 48 48 72 48 48 72 48 48 72 48 48 72 48 48 72 48 48 72 48 48 72 48 48 72 48 48 72 48 48 72 48 48 72 48 48 72 48 48 72 48 48 72 48 48 72 48 48 72 48 48 72 48 48 72 48 48 72 48 48 72 48 48 72 48 48 72 48 48 72 48 48 176 104 56 176 104 56 176 104 56 176 104 56 176 104 56 176 104 56 176 104 56 176 104 56 176 104 56 176 104 56 176 104 56 176 104 56 176 104 56 176 104 56 176 104 56 176 104 56 176 104 56 176 104 56 176 104 56 176 104 56 176 104 56 176 104 56 176 104 56 176 104 56 176 104 56 176 104 56 176 104 56 176 104 56 176 104 56 176 104 56 176 104 56 176 104 56 184 104 56 184 104 56 184 104 56 184 104 56 184 104 56 184 104 56 184 104 56 184 104 56 184 104 56 184 104 56 184 104 56 184 104 56 184 104 56 184 104 56 184 104 56 184 104 56 184 104 56 184 104 56 184 104 56 184 104 56 184 104 56 184 104 56 184 104 56 184 104 56 184 104 56 184 104 56 184 104 56 184 104 56 184 104 56 184 104 56 184 104 56 184 104 56 176 104 56 176 104 56 176 104 56 176 104 56 176 104 56 176 104 56 176 104 56 176 104 56 176 104 56 176 104 56 176 104 56 176 104 56 176 104 56 176 104 56 176 104 56 176 104 56 176 104 56 176 104 56 176 104 56 176 104 56 176 104 56 176 104 56 176 104 56 176 104 56 176 104 56 176 104 56 176 104 56 176 104 56 176 104 56 176 104 56 176 104 56 176 104 56
72 48 48 72 48 48 72 48 48 72 48 48 72 48 48 72 48 48 72 48 48 72 48 48 72 48 48 72 48 48 72 48 48 72 48 48 72 48 48 72 48 48 72 48 48 72 48 48 72 48 48 72 48 48 72 48 48 72 48 48 72 48 48 72 48 48 72 48 48 72 48 48 72 48 48 72 48 48 72 48 48 72 48 48 72 48 48 72 48 48 72 48 48 72 48 48 176 104 56 176 104 56 176 104 56 176 104 56 176 104 56 176 104 56 176 104 56 176 104 56 176 104 56 176 104 56 176 104 56 176 104 56 176 104 56 176 104 56 176 104 56 176 104 56 176 104 56 176 104 56 176 104 56 176 104 56 176 104 56 176 104 56 176 104 56 176 104 56 176 104 56 176 104 56 176 104 56 176 104 56 176 104 56 176 104 56 176 104 56 176 104 56 184 104 56 184 104 56 184 104 56 184 104 56 184 104 56 184 104 56 184 104 56 184 104 56 184 104 56 184 104 56 184 104 56 184 104 56 184 104 56 184 104 56 184 104 56 184 104 56 184 104 56 184 104 56 184 104 56 184 104 56 184 104 56 184 104 56 184 104 56 184 104 56 184 104 56 184 104 56 184 104 56 184 104 56 184 104 56 184 104 56 184 104 56 184 104 56 176 104 56 176 104 56 176 104 56 176 104 56 176 104 56 176 104 56 176 104 56 176 104 56 176 104 56 176 104 56 176 104 56 176 104 56 176 104 56 176 104 56 176 104 56 176 104 56 176 104 56 176 104 56 176 104 56 176 104 56 176 104 56 176 104 56 176 104 56 176 104 56 176 104 56 176 104 56 176 104 56 176 104 56 176 104 56 176 104 56 176 104 56 176 104 56
72 48 48 72 48 48 72 48 48 72 48 48 72 48 48 72 48 48 72 48 48 72 48 48 72 48 48 72 48 48 72 48 48 72 48 48 72 48 48 72 48 48 72 48 48 72 48 48 72 48 48 72 48 48 72 48 48 72 48 48 72 48 48 72 48 48 72 48 48 72 48 48 72 48 48 72 48 48 72 48 48 72 48 48 72 48 48 72 48 48 72 48 48 72 48 48 176 104 56 176 104 56 176 104 56 176 104 56 176 104 56 176 104 56 176 104 56 176 104 56 176 104 56 176 104 56 176 104 56 176 104 56 176 104 56 176 104 56 176 104 56 176 104 56 176 104 56 176 104 56 176 104 56 176 104 56 176 104 56 176 104 56 176 104 56 176 104 56 176 104 56 176 104 56 176 104 56 176 104 56 176 104 56 176 104 56 176 104 56 176 104 56 184 104 56 184 104 56 184 104 56 184 104 56 184 104 56 184 104 56 184 104 56 184 104 56 184 104 56 184 104 56 184 104 56 184 104 56 184 104 56 184 104 56 184 104 56 184 104 56 184 104 56 184 104 56 184 104 56 184 104 56 184 104 56 184 104 56 184 104 56 184 104 56 184 104 56 184 104 56 184 104 56 184 104 56 184 104 56 184 104 56 184 104 56 184 104 56 176 104 56 176 104 56 176 104 56 176 104 56 176 104 56 176 104 56 176 104 56 176 104 56 176 104 56 176 104 56 176 104 56 176 104 56 176 104 56 176 104 56 176 104 56 176 104 56 176 104 56 176 104 56 176 104 56 176 104 56 176 104 56 176 104 56 176 104 56 176 104 56 176 104 56 176 104 56 176 104 56 176 104 56 176 104 56 176 104 56 176 104 56 176 104 56
72 48 48 72 48 48 72 48 48 72 48 48 72 48 48 72 48 48 72 48 48 72 48 48 72 48 48 72 48 48 72 48 48 72 48 48 72 48 48 72 48 48 72 48 48 72 48 48 72 48 48 72 48 48 72 48 48 72 48 48 72 48 48 72 48 48 72 48 48 72 48 48 72 48 48 72 48 48 72 48 48 72 48 48 72 48 48 72 48 48 72 48 48 72 48 48 176 104 56 176 104 56 176 104 56 176 104 56 176 104 56 176 104 56 176 104 56 176 104 56 176 104 56 176 104 56 176 104 56 176 104 56 176 104 56 176 104 56 176 104 56 176 104 56 176 104 56 176 104 56 176 104 56 176 104 56 176 104 56 176 104 56 176 104 56 176 104 56 176 104 56 176 104 56 176 104 56 176 104 56 176 104 56 176 104 56 176 104 56 176 104 56 184 104 56 184 104 56 184 104 56 184 104 56 184 104 56 184 104 56 184 104 56 184 104 56 184 104 56 184 104 56 184 104 56 184 104 56 184 104 56 184 104 56 184 104 56 184 104 56 184 104 56 184 104 56 184 104 56 184 104 56 184 104 56 184 104 56 184 104 56 184 104 56 184 104 56 184 104 56 184 104 56 184 104 56 184 104 56 184 104 56 184 104 56 184 104 56 176 104 56 176 104 56 176 104 56 176 104 56 176 104 56 176 104 56 176 104 56 176 104 56 176 104 56 176 104 56 176 104 56 176 104 56 176 104 56 176 104 56 176 104 56 176 104 56 176 104 56 176 104 56 176 104 56 176 104 56 176 104 56 176 104 56 176 104 56 176 104 56 176 104 56 176 104 56 176 104 56 176 104 56 176 104 56 176 104 56 176 104 56 176 104 56
72 48 48 72 48 48 72 48 48 72 48 48 72 48 48 72 48 48 72 48 48 72 48 48 72 48 48 72 48 48 72 48 48 72 48 48 72 48 48 72 48 48 72 48 48 72 48 48 72 48 48 72 48 48 72 48 48 72 48 48 72 48 48 72 48 48 72 48 48 72 48 48 72 48 48 72 48 48 72 48 48 72 48 48 72 48 48 72 48 48 72 48 48 72 48 48 176 104 56 176 104 56 176 104 56 176 104 56 176 104 56 176 104 56 176 104 56 176 104 56 176 104 56 176 104 56 176 104 56 176 104 56 176 104 56 176 104 56 176 104 56 176 104 56 176 104 56 176 104 56 176 104 56 176 104 56 176 104 56 176 104 56 176 104 56 176 104 56 176 104 56 176 104 56 176 104 56 176 104 56 176 104 56 176 104 56 176 104 56 176 104 56 184 104 56 184 104 56 184 104 56 184 104 56 184 104 56 184 104 56 184 104 56 184 104 56 184 104 56 184 104 56 184 104 56 184 104 56 184 104 56 184 104 56 184 104 56 184 104 56 184 104 56 184 104 56 184 104 56 184 104 56 184 104 56 184 104 56 184 104 56 184 104 56 184 104 56 184 104 56 184 104 56 184 104 56 184 104 56 184 104 56 184 104 56 184 104 56 176 104 56 176 104 56 176 104 56 176 104 56 176 104 56 176 104 56 176 104 56 176 104 56 176 104 56 176 104 56 176 104 56 176 104 56 176 104 56 176 104 56 176 104 56 176 104 56 176 104 56 176 104 56 176 104 56 176 104 56 176 104 56 176 104 56 176 104 56 176 104 56 176 104 56 176 104 56 176 104 56 176 104 56 176 104 56 176 104 56 176 104 56 176 104 56
72 48 48 72 48 48 72 48 48 72 48 48 72 48 48 72 48 48 72 48 48 72 48 48 72 48 48 72 48 48 72 48 48 72 48 48 72 48 48 72 48 48 72 48 48 72 48 48 72 48 48 72 48 48 72 48 48 72 48 48 72 48 48 72 48 48 72 48 48 72 48 48 72 48 48 72 48 48 72 48 48 72 48 48 72 48 48 72 48 48 72 48 48 72 48 48 176 104 56 176 104 56 176 104 56 176 104 56 176 104 56 176 104 56 176 104 56 176 104 56 176 104 56 176 104 56 176 104 56 176 104 56 176 104 56 176 104 56 176 104 56 176 104 56 176 104 56 176 104 56 176 104 56 176 104 56 176 104 56 176 104 56 176 104 56 176 104 56 176 104 56 176 104 56 176 104 56 176 104 56 176 104 56 176 104 56 176 104 56 176 104 56 184 104 56 184 104 56 184 104 56 184 104 56 184 104 56 184 104 56 184 104 56 184 104 56 184 104 56 184 104 56 184 104 56 184 104 56 184 104 56 184 104 56 184 104 56 184 104 56 184 104 56 184 104 56 184 104 56 184 104 56 184 104 56 184 104 56 184 104 56 184 104 56 184 104 56 184 104 56 184 104 56 184 104 56 184 104 56 184 104 56 184 104 56 184 104 56 176 104 56 176 104 56 176 104 56 176 104 56 176 104 56 176 104 56 176 104 56 176 104 56 176 104 56 176 104 56 176 104 56 176 104 56 176 104 56 176 104 56 176 104 56 176 104 56 176 104 56 176 104 56 176 104 56 176 104 56 176 104 56 176 104 56 176 104 56 176 104 56 176 104 56 176 104 56 176 104 56 176 104 56 176 104 56 176 104 56 176 104 56 176 104 56
72 48 48 72 48 48 72 48 48 72 48 48 72 48 48 72 48 48 72 48 48 72 48 48 72 48 48 72 48 48 72 48 48 72 48 48 72 48 48 72 48 48 72 48 48 72 48 48 72 48 48 72 48 48 72 48 48 72 48 48 72 48 48 72 48 48 72 48 48 72 48 48 72 48 48 72 48 48 72 48 48 72 48 48 72 48 48 72 48 48 72 48 48 72 48 48 176 104 56 176 104 56 176 104 56 176 104 56 176 104 56 176 104 56 176 104 56 176 104 56 176 104 56 176 104 56 176 104 56 176 104 56 176 104 56 176 104 56 176 104 56 176 104 56 176 104 56 176 104 56 176 104 56 176 104 56 176 104 56 176 104 56 176 104 56 176 104 56 176 104 56 176 104 56 176 104 56 176 104 56 176 104 56 176 104 56 176 104 56 176 104 56 184 104 56 184 104 56 184 104 56 184 104 56 184 104 56 184 104 56 184 104 56 184 104 56 184 104 56 184 104 56 184 104 56 184 104 56 184 104 56 184 104 56 184 104 56 184 104 56 184 104 56 184 104 56 184 104 56 184 104 56 184 104 56 184 104 56 184 104 56 184 104 56 184 104 56 184 104 56 184 104 56 184 104 56 184 104 56 184 104 56 184 104 56 184 104 56 176 104 56 176 104 56 176 104 56 176 104 56 176 104 56 176 104 56 176 104 56 176 104 56 176 104 56 176 104 56 176 104 56 176 104 56 176 104 56 176 104 56 176 104 56 176 104 56 176 104 56 176 104 56 176 104 56 176 104 56 176 104 56 176 104 56 176 104 56 176 104 56 176 104 56 176 104 56 176 104 56 176 104 56 176 104 56 176 104 56 176 104 56 176 104 56
72 48 48 72 48 48 72 48 48 72 48 48 72 48 48 72 48 48 72 48 48 72 48 48 72 48 48 72 48 48 72 48 48 72 48 48 72 48 48 72 48 48 72 48 48 72 48 48 72 48 48 72 48 48 72 48 48 72 48 48 72 48 48 72 48 48 72 48 48 72 48 48 72 48 48 72 48 48 72 48 48 72 48 48 72 48 48 72 48 48 72 48 48 72 48 48 176 104 56 176 104 56 176 104 56 176 104 56 176 104 56 176 104 56 176 104 56 176 104 56 176 104 56 176 104 56 176 104 56 176 104 56 176 104 56 176 104 56 176 104 56 176 104 56 176 104 56 176 104 56 176 104 56 176 104 56 176 104 56 176 104 56 176 104 56 176 104 56 176 104 56 176 104 56 176 104 56 176 104 56 176 104 56 176 104 56 176 104 56 176 104 56 184 104 56 184 104 56 184 104 56 184 104 56 184 104 56 184 104 56 184 104 56 184 104 56 184 104 56 184 104 56 184 104 56 184 104 56 184 104 56 184 104 56 184 104 56 184 104 56 184 104 56 184 104 56 184 104 56 184 104 56 184 104 56 184 104 56 184 104 56 184 104 56 184 104 56 184 104 56 184 104 56 184 104 56 184 104 56 184 104 56 184 104 56 184 104 56 176 104 56 176 104 56 176 104 56 176 104 56 176 104 56 176 104 56 176 104 56 176 104 56 176 104 56 176 104 56 176 104 56 176 104 56 176 104 56 176 104 56 176 104 56 176 104 56 176 104 56 176 104 56 176 104 56 176 104 56 176 104 56 176 104 56 176 104 56 176 104 56 176 104 56 176 104 56 176 104 56 176 104 56 176 104 56 176 104 56 176 104 56 176 104 56
72 48 48 72 48 48 72 48 48 72 48 48 72 48 48 72 48 48 72 48 48 72 48 48 72 48 48 72 48 48 72 48 48 72 48 48 72 48 48 72 48 48 72 48 48 72 48 48 72 48 48 72 48 48 72 48 48 72 48 48 72 48 48 72 48 48 72 48 48 72 48 48 72 48 48 72 48 48 72 48 48 72 48 48 72 48 48 72 48 48 72 48 48 72 48 48 176 104 56 176 104 56 176 104 56 176 104 56 176 104 56 176 104 56 176 104 56 176 104 56 176 104 56 176 104 56 176 104 56 176 104 56 176 104 56 176 104 56 176 104 56 176 104 56 176 104 56 176 104 56 176 104 56 176 104 56 176 104 56 176 104 56 176 104 56 176 104 56 176 104 56 176 104 56 176 104 56 176 104 56 176 104 56 176 104 56 176 104 56 176 104 56 184 104 56 184 104 56 184 104 56 184 104 56 184 104 56 184 104 56 184 104 56 184 104 56 184 104 56 184 104 56 184 104 56 184 104 56 184 104 56 184 104 56 184 104 56 184 104 56 184 104 56 184 104 56 184 104 56 184 104 56 184 104 56 184 104 56 184 104 56 184 104 56 184 104 56 184 104 56 184 104 56 184 104 56 184 104 56 184 104 56 184 104 56 184 104 56 176 104 56 176 104 56 176 104 56 176 104 56 176 104 56 176 104 56 176 104 56 176 104 56 176 104 56 176 104 56 176 104 56 176 104 56 176 104 56 176 104 56 176 104 56 176 104 56 176 104 56 176 104 56 176 104 56 176 104 56 176 104 56 176 104 56 176 104 56 176 104 56 176 104 56 176 104 56 176 104 56 176 104 56 176 104 56 176 104 56 176 104 56 176 104 56
72 48 48 72 48 48 72 48 48 72 48 48 72 48 48 72 48 48 72 48 48 72 48 48 72 48 48 72 48 48 72 48 48 72 48 48 72 48 48 72 48 48 72 48 48 72 48 48 72 48 48 72 48 48 72 48 48 72 48 48 72 48 48 72 48 48 72 48 48 72 48 48 72 48 48 72 48 48 72 48 48 72 48 48 72 48 48 72 48 48 72 48 48 72 48 48 176 104 56 176 104 56 176 104 56 176 104 56 176 104 56 176 104 56 176 104 56 176 104 56 176 104 56 176 104 56 176 104 56 176 104 56 176 104 56 176 104 56 176 104 56 176 104 56 176 104 56 176 104 56 176 104 56 176 104 56 176 104 56 176 104 56 176 104 56 176 104 56 176 104 56 176 104 56 176 104 56 176 104 56 176 104 56 176 104 56 176 104 56 176 104 56 184 104 56 184 104 56 184 104 56 184 104 56 184 104 56 184 104 56 184 104 56 184 104 56 184 104 56 184 104 56 184 104 56 184 104 56 184 104 56 184 104 56 184 104 56 184 104 56 184 104 56 184 104 56 184 104 56 184 104 56 184 104 56 184 104 56 184 104 56 184 104 56 184 104 56 184 104 56 184 104 56 184 104 56 184 104 56 184 104 56 184 104 56 184 104 56 176 104 56 176 104 56 176 104 56 176 104 56 176 104 56 176 104 56 176 104 56 176 104 56 176 104 56 176 104 56 176 104 56 176 104 56 176 104 56 176 104 56 176 104 56 176 104 56 176 104 56 176 104 56 176 104 56 176 104 56 176 104 56 176 104 56 176 104 56 176 104 56 176 104 56 176 104 56 176 104 56 176 104 56 176 104 56 176 104 56 176 104 56 176 104 56
72 48 48 72 48 48 72 48 48 72 48 48 72 48 48 72 48 48 72 48 48 72 48 48 72 48 48 72 48 48 72 48 48 72 48 48 72 48 48 72 48 48 72 48 48 72 48 48 72 48 48 72 48 48 72 48 48 72 48 48 72 48 48 72 48 48 72 48 48 72 48 48 72 48 48 72 48 48 72 48 48 72 48 48 72 48 48 72 48 48 72 48 48 72 48 48 176 104 56 176 104 56 176 104 56 176 104 56 176 104 56 176 104 56 176 104 56 176 104 56 176 104 56 176 104 56 176 104 56 176 104 56 176 104 56 176 104 56 176 104 56 176 104 56 176 104 56 176 104 56 176 104 56 176 104 56 176 104 56 176 104 56 176 104 56 176 104 56 176 104 56 176 104 56 176 104 56 176 104 56 176 104 56 176 104 56 176 104 56 176 104 56 184 104 56 184 104 56 184 104 56 184 104 56 184 104 56 184 104 56 184 104 56 184 104 56 184 104 56 184 104 56 184 104 56 184 104 56 184 104 56 184 104 56 184 104 56 184 104 56 184 104 56 184 104 56 184 104 56 184 104 56 184 104 56 184 104 56 184 104 56 184 104 56 184 104 56 184 104 56 184 104 56 184 104 56 184 104 56 184 104 56 184 104 56 184 104 56 176 104 56 176 104 56 176 104 56 176 104 56 176 104 56 176 104 56 176 104 56 176 104 56 176 104 56 176 104 56 176 104 56 176 104 56 176 104 56 176 104 56 176 104 56 176 104 56 176 104 56 176 104 56 176 104 56 176 104 56 176 104 56 176 104 56 176 104 56 176 104 56 176 104 56 176 104 56 176 104 56 176 104 56 176 104 56 176 104 56 176 104 56 176 104 56
72 48 48 72 48 48 72 48 48 72 48 48 72 48 48 72 48 48 72 48 48 72 48 48 72 48 48 72 48 48 72 48 48 72 48 48 72 48 48 72 48 48 72 48 48 72 48 48 72 48 48 72 48 48 72 48 48 72 48 48 72 48 48 72 48 48 72 48 48 72 48 48 72 48 48 72 48 48 72 48 48 72 48 48 72 48 48 72 48 48 72 48 48 72 48 48 176 104 56 176 104 56 176 104 56 176 104 56 176 104 56 176 104 56 176 104 56 176 104 56 176 104 56 176 104 56 176 104 56 176 104 56 176 104 56 176 104 56 176 104 56 176 104 56 176 104 56 176 104 56 176 104 56 176 104 56 176 104 56 176 104 56 176 104 56 176 104 56 176 104 56 176 104 56 176 104 56 176 104 56 176 104 56 176 104 56 176 104 56 176 104 56 184 104 56 184 104 56 184 104 56 184 104 56 184 104 56 184 104 56 184 104 56 184 104 56 184 104 56 184 104 56 184 104 56 184 104 56 184 104 56 184 104 56 184 104 56 184 104 56 184 104 56 184 104 56 184 104 56 184 104 56 184 104 56 184 104 56 184 104 56 184 104 56 184 104 56 184 104 56 184 104 56 184 104 56 184 104 56 184 104 56 184 104 56 184 104 56 176 104 56 176 104 56 176 104 56 176 104 56 176 104 56 176 104 56 176 104 56 176 104 56 176 104 56 176 104 56 176 104 56 176 104 56 176 104 56 176 104 56 176 104 56 176 104 56 176 104 56 176 104 56 176 104 56 176 104 56 176 104 56 176 104 56 176 104 56 176 104 56 176 104 56 176 104 56 176 104 56 176 104 56 176 104 56 176 104 56 176 104 56 176 104 56
72 48 48 72 48 48 72 48 48 72 48 48 72 48 48 72 48 48 72 48 48 72 48 48 72 48 48 72 48 48 72 48 48 72 48 48 72 48 48 72 48 48 72 48 48 72 48 48 72 48 48 72 48 48 72 48 48 72 48 48 72 48 48 72 48 48 72 48 48 72 48 48 72 48 48 72 48 48 72 48 48 72 48 48 72 48 48 72 48 48 72 48 48 72 48 48 176 104 56 176 104 56 176 104 56 176 104 56 176 104 56 176 104 56 176 104 56 176 104 56 176 104 56 176 104 56 176 104 56 176 104 56 176 104 56 176 104 56 176 104 56 176 104 56 176 104 56 176 104 56 176 104 56 176 104 56 176 104 56 176 104 56 176 104 56 176 104 56 176 104 56 176 104 56 176 104 56 176 104 56 176 104 56 176 104 56 176 104 56 176 104 56 184 104 56 184 104 56 184 104 56 184 104 56 184 104 56 184 104 56 184 104 56 184 104 56 184 104 56 184 104 56 184 104 56 184 104 56 184 104 56 184 104 56 184 104 56 184 104 56 184 104 56 184 104 56 184 104 56 184 104 56 184 104 56 184 104 56 184 104 56 184 104 56 184 104 56 184 104 56 184 104 56 184 104 56 184 104 56 184 104 56 184 104 56 184 104 56 176 104 56 176 104 56 176 104 56 176 104 56 176 104 56 176 104 56 176 104 56 176 104 56 176 104 56 176 104 56 176 104 56 176 104 56 176 104 56 176 104 56 176 104 56 176 104 56 176 104 56 176 104 56 176 104 56 176 104 56 176 104 56 176 104 56 176 104 56 176 104 56 176 104 56 176 104 56 176 104 56 176 104 56 176 104 56 176 104 56 176 104 56 176 104 56
72 48 48 72 48 48 72 48 48 72 48 48 72 48 48 72 48 48 72 48 48 72 48 48 72 48 48 72 48 48 72 48 48 72 48 48 72 48 48 72 48 48 72 48 48 72 48 48 72 48 48 72 48 48 72 48 48 72 48 48 72 48 48 72 48 48 72 48 48 72 48 48 72 48 48 72 48 48 72 48 48 72 48 48 72 48 48 72 48 48 72 48 48 72 48 48 176 104 56 176 104 56 176 104 56 176 104 56 176 104 56 176 104 56 176 104 56 176 104 56 176 104 56 176 104 56 176 104 56 176 104 56 176 104 56 176 104 56 176 104 56 176 104 56 176 104 56 176 104 56 176 104 56 176 104 56 176 104 56 176 104 56 176 104 56 176 104 56 176 104 56 176 104 56 176 104 56 176 104 56 176 104 56 176 104 56 176 104 56 176 104 56 184 104 56 184 104 56 184 104 56 184 104 56 184 104 56 184 104 56 184 104 56 184 104 56 184 104 56 184 104 56 184 104 56 184 104 56 184 104 56 184 104 56 184 104 56 184 104 56 184 104 56 184 104 56 184 104 56 184 104 56 184 104 56 184 104 56 184 104 56 184 104 56 184 104 56 184 104 56 184 104 56 184 104 56 184 104 56 184 104 56 184 104 56 184 104 56 176 104 56 176 104 56 176 104 56 176 104 56 176 104 56 176 104 56 176 104 56 176 104 56 176 104 56 176 104 56 176 104 56 176 104 56 176 104 56 176 104 56 176 104 56 176 104 56 176 104 56 176 104 56 176 104 56 176 104 56 176 104 56 176 104 56 176 104 56 176 104 56 176 104 56 176 104 56 176 104 56 176 104 56 176 104 56 176 104 56 176 104 56 176 104 56
72 48 48 72 48 48 72 48 48 72 48 48 72 48 48 72 48 48 72 48 48 72 48 48 72 48 48 72 48 48 72 48 48 72 48 48 72 48 48 72 48 48 72 48 48 72 48 48 72 48 48 72 48 48 72 48 48 72 48 48 72 48 48 72 48 48 72 48 48 72 48 48 72 48 48 72 48 48 72 48 48 72 48 48 72 48 48 72 48 48 72 48 48 72 48 48 176 104 56 176 104 56 176 104 56 176 104 56 176 104 56 176 104 56 176 104 56 176 104 56 176 104 56 176 104 56 176 104 56 176 104 56 176 104 56 176 104 56 176 104 56 176 104 56 176 104 56 176 104 56 176 104 56 176 104 56 176 104 56 176 104 56 176 104 56 176 104 56 176 104 56 176 104 56 176 104 56 176 104 56 176 104 56 176 104 56 176 104 56 176 104 56 184 104 56 184 104 56 184 104 56 184 104 56 184 104 56 184 104 56 184 104 56 184 104 56 184 104 56 184 104 56 184 104 56 184 104 56 184 104 56 184 104 56 184 104 56 184 104 56 184 104 56 184 104 56 184 104 56 184 104 56 184 104 56 184 104 56 184 104 56 184 104 56 184 104 56 184 104 56 184 104 56 184 104 56 184 104 56 184 104 56 184 104 56 184 104 56 176 104 56 176 104 56 176 104 56 176 104 56 176 104 56 176 104 56 176 104 56 176 104 56 176 104 56 176 104 56 176 104 56 176 104 56 176 104 56 176 104 56 176 104 56 176 104 56 176 104 56 176 104 56 176 104 56 176 104 56 176 104 56 176 104 56 176 104 56 176 104 56 176 104 56 176 104 56 176 104 56 176 104 56 176 104 56 176 104 56 176 104 56 176 104 56
72 48 48 72 48 48 72 48 48 72 48 48 72 48 48 72 48 48 72 48 48 72 48 48 72 48 48 72 48 48 72 48 48 72 48 48 72 48 48 72 48 48 72 48 48 72 48 48 72 48 48 72 48 48 72 48 48 72 48 48 72 48 48 72 48 48 72 48 48 72 48 48 72 48 48 72 48 48 72 48 48 72 48 48 72 48 48 72 48 48 72 48 48 72 48 48 176 104 56 176 104 56 176 104 56 176 104 56 176 104 56 176 104 56 176 104 56 176 104 56 176 104 56 176 104 56 176 104 56 176 104 56 176 104 56 176 104 56 176 104 56 176 104 56 176 104 56 176 104 56 176 104 56 176 104 56 176 104 56 176 104 56 176 104 56 176 104 56 176 104 56 176 104 56 176 104 56 176 104 56 176 104 56 176 104 56 176 104 56 176 104 56 184 104 56 184 104 56 184 104 56 184 104 56 184 104 56 184 104 56 184 104 56 184 104 56 184 104 56 184 104 56 184 104 56 184 104 56 184 104 56 184 104 56 184 104 56 184 104 56 184 104 56 184 104 56 184 104 56 184 104 56 184 104 56 184 104 56 184 104 56 184 104 56 184 104 56 184 104 56 184 104 56 184 104 56 184 104 56 184 104 56 184 104 56 184 104 56 176 104 56 176 104 56 176 104 56 176 104 56 176 104 56 176 104 56 176 104 56 176 104 56 176 104 56 176 104 56 176 104 56 176 104 56 176 104 56 176 104 56 176 104 56 176 104 56 176 104 56 176 104 56 176 104 56 176 104 56 176 104 56 176 104 56 176 104 56 176 104 56 176 104 56 176 104 56 176 104 56 176 104 56 176 104 56 176 104 56 176 104 56 176 104 56
72 48 48 72 48 48 72 48 48 72 48 48 72 48 48 72 48 48 72 48 48 72 48 48 72 48 48 72 48 48 72 48 48 72 48 48 72 48 48 72 48 48 72 48 48 72 48 48 72 48 48 72 48 48 72 48 48 72 48 48 72 48 48 72 48 48 72 48 48 72 48 48 72 48 48 72 48 48 72 48 48 72 48 48 72 48 48 72 48 48 72 48 48 72 48 48 176 104 56 176 104 56 176 104 56 176 104 56 176 104 56 176 104 56 176 104 56 176 104 56 176 104 56 176 104 56 176 104 56 176 104 56 176 104 56 176 104 56 176 104 56 176 104 56 176 104 56 176 104 56 176 104 56 176 104 56 176 104 56 176 104 56 176 104 56 176 104 56 176 104 56 176 104 56 176 104 56 176 104 56 176 104 56 176 104 56 176 104 56 176 104 56 184 104 56 184 104 56 184 104 56 184 104 56 184 104 56 184 104 56 184 104 56 184 104 56 184 104 56 184 104 56 184 104 56 184 104 56 184 104 56 184 104 56 184 104 56 184 104 56 184 104 56 184 104 56 184 104 56 184 104 56 184 104 56 184 104 56 184 104 56 184 104 56 184 104 56 184 104 56 184 104 56 184 104 56 184 104 56 184 104 56 184 104 56 184 104 56 176 104 56 176 104 56 176 104 56 176 104 56 176 104 56 176 104 56 176 104 56 176 104 56 176 104 56 176 104 56 176 104 56 176 104 56 176 104 56 176 104 56 176 104 56 176 104 56 176 104 56 176 104 56 176 104 56 176 104 56 176 104 56 176 104 56 176 104 56 176 104 56 176 104 56 176 104 56 176 104 56 176 104 56 176 104 56 176 104 56 176 104 56 176 104 56
184 104 56 184 104 56 184 104 56 184 104 56 184 104 56 184 104 56 184 104 56 184 104 56 184 104 56 184 104 56 184 104 56 184 104 56 184 104 56 184 104 56 184 104 56 184 104 56 184 104 56 184 104 56 184 104 56 184 104 56 184 104 56 184 104 56 184 104 56 184 104 56 184 104 56 184 104 56 184 104 56 184 104 56 184 104 56 184 104 56 184 104 56 184 104 56 192 104 56 192 104 56 192 104 56 192 104 56 192 104 56 192 104 56 192 104 56 192 104 56 192 104 56 192 104 56 192 104 56 192 104 56 192 104 56 192 104 56 192 104 56 192 104 56 192 104 56 192 104 56 192 104 56 192 104 56 192 104 56 192 104 56 192 104 56 192 104 56 192 104 56 192 104 56 192 104 56 192 104 56 192 104 56 192 104 56 192 104 56 192 104 56 200 104 56 200 104 56 200 104 56 200 104 56 200 104 56 200 104 56 200 104 56 200 104 56 200 104 56 200 104 56 200 104 56 200 104 56 200 104 56 200 104 56 200 104 56 200 104 56 200 104 56 200 104 56 200 104 56 200 104 56 200 104 56 200 104 56 200 104 56 200 104 56 200 104 56 200 104 56 200 104 56 200 104 56 200 104 56 200 104 56 200 104 56 200 104 56 192 104 56 192 104 56 192 104 56 192 104 56 192 104 56 192 104 56 192 104 56 192 104 56 192 104 56 192 104 56 192 104 56 192 104 56 192 104 56 192 104 56 192 104 56 192 104 56 192 104 56 192 104 56 192 104 56 192 104 56 192 104 56 192 104 56 192 104 56 192 104 56 192 104 56 192 104 56 192 104 56 192 104 56 192 104 56 192 104 56 192 104 56 192 104 56
184 104 56 184 104 56 184 104 56 184 104 56 184 104 56 184 104 56 184 104 56 184 104 56 184 104 56 184 104 56 184 104 56 184 104 56 184 104 56 184 104 56 184 104 56 184 104 56 184 104 56 184 104 56 184 104 56 184 104 56 184 104 56 184 104 56 184 104 56 184 104 56 184 104 56 184 104 56 184 104 56 184 104 56 184 104 56 184 104 56 184 104 56 184 104 56 192 104 56 192 104 56 192 104 56 192 104 56 192 104 56 192 104 56 192 104 56 192 104 56 192 104 56 192 104 56 192 104 56 192 104 56 192 104 56 192 104 56 192 104 56 192 104 56 192 104 56 192 104 56 192 104 56 192 104 56 192 104 56 192 104 56 192 104 56 192 104 56 192 104 56 192 104 56 192 104 56 192 104 56 192 104 56 192 104 56 192 104 56 192 104 56 200 104 56 200 104 56 200 104 56 200 104 56 200 104 56 200 104 56 200 104 56 200 104 56 200 104 56 200 104 56 200 104 56 200 104 56 200 104 56 200 104 56 200 104 56 200 104 56 200 104 56 200 104 56 200 104 56 200 104 56 200 104 56 200 104 56 200 104 56 200 104 56 200 104 56 200 104 56 200 104 56 200 104 56 200 104 56 200 104 56 200 104 56 200 104 56 192 104 56 192 104 56 192 104 56 192 104 56 192 104 56 192 104 56 192 104 56 192 104 56 192 104 56 192 104 56 192 104 56 192 104 56 192 104 56 192 104 56 192 104 56 192 104 56 192 104 56 192 104 56 192 104 56 192 104 56 192 104 56 192 104 56 192 104 56 192 104 56 192 104 56 192 104 56 192 104 56 192 104 56 192 104 56 192 104 56 192 104 56 192 104 56
184 104 56 184 104 56 184 104 56 184 104 56 184 104 56 184 104 56 184 104 56 184 104 56 184 104 56 184 104 56 184 104 56 184 104 56 184 104 56 184 104 56 184 104 56 184 104 56 184 104 56 184 104 56 184 104 56 184 104 56 184 104 56 184 104 56 184 104 56 184 104 56 184 104 56 184 104 56 184 104 56 184 104 56 184 104 56 184 104 56 184 104 56 184 104 56 192 104 56 192 104 56 192 104 56 192 104 56 192 104 56 192 104 56 192 104 56 192 104 56 192 104 56 192 104 56 192 104 56 192 104 56 192 104 56 192 104 56 192 104 56 192 104 56 192 104 56 192 104 56 192 104 56 192 104 56 192 104 56 192 104 56 192 104 56 192 104 56 192 104 56 192 104 56 192 104 56 192 104 56 192 104 56 192 104 56 192 104 56 192 104 56 200 104 56 200 104 56 200 104 56 200 104 56 200 104 56 200 104 56 200 104 56 200 104 56 200 104 56 200 104 56 200 104 56 200 104 56 200 104 56 200 104 56 200 104 56 200 104 56 200 104 56 200 104 56 200 104 56 200 104 56 200 104 56 200 104 56 200 104 56 200 104 56 200 104 56 200 104 56 200 104 56 200 104 56 200 104 56 200 104 56 200 104 56 200 104 56 192 104 56 192 104 56 192 104 56 192 104 56 192 104 56 192 104 56 192 104 56 192 104 56 192 104 56 192 104 56 192 104 56 192 104 56 192 104 56 192 104 56 192 104 56 192 104 56 192 104 56 192 104 56 192 104 56 192 104 56 192 104 56 192 104 56 192 104 56 192 104 56 192 104 56 192 104 56 192 104 56 192 104 56 192 104 56 192 104 56 192 104 56 192 104 56
184 104 56 184 104 56 184 104 56 184 104 56 184 104 56 184 104 56 184 104 56 184 104 56 184 104 56 184 104 56 184 104 56 184 104 56 184 104 56 184 104 56 184 104 56 184 104 56 184 104 56 184 104 56 184 104 56 184 104 56 184 104 56 184 104 56 184 104 56 184 104 56 184 104 56 184 104 56 184 104 56 184 104 56 184 104 56 184 104 56 184 104 56 184 104 56 192 104 56 192 104 56 192 104 56 192 104 56 192 104 56 192 104 56 192 104 56 192 104 56 192 104 56 192 104 56 192 104 56 192 104 56 192 104 56 192 104 56 192 104 56 192 104 56 192 104 56 192 104 56 192 104 56 192 104 56 192 104 56 192 104 56 192 104 56 192 104 56 192 104 56 192 104 56 192 104 56 192 104 56 192 104 56 192 104 56 192 104 56 192 104 56 200 104 56 200 104 56 200 104 56 200 104 56 200 104 56 200 104 56 200 104 56 200 104 56 200 104 56 200 104 56 200 104 56 200 104 56 200 104 56 200 104 56 200 104 56 200 104 56 200 104 56 200 104 56 200 104 56 200 104 56 200 104 56 200 104 56 200 104 56 200 104 56 200 104 56 200 104 56 200 104 56 200 104 56 200 104 56 200 104 56 200 104 56 200 104 56 192 104 56 192 104 56 192 104 56 192 104 56 192 104 56 192 104 56 192 104 56 192 104 56 192 104 56 192 104 56 192 104 56 192 104 56 192 104 56 192 104 56 192 104 56 192 104 56 192 104 56 192 104 56 192 104 56 192 104 56 192 104 56 192 104 56 192 104 56 192 104 56 192 104 56 192 104 56 192 104 56 192 104 56 192 104 56 192 104 56 192 104 56 192 104 56
184 104 56 184 104 56 184 104 56 184 104 56 184 104 56 184 104 56 184 104 56 184 104 56 184 104 56 184 104 56 184 104 56 184 104 56 184 104 56 184 104 56 184 104 56 184 104 56 184 104 56 184 104 56 184 104 56 184 104 56 184 104 56 184 104 56 184 104 56 184 104 56 184 104 56 184 104 56 184 104 56 184 104 56 184 104 56 184 104 56 184 104 56 184 104 56 192 104 56 192 104 56 192 104 56 192 104 56 192 104 56 192 104 56 192 104 56 192 104 56 192 104 56 192 104 56 192 104 56 192 104 56 192 104 56 192 104 56 192 104 56 192 104 56 192 104 56 192 104 56 192 104 56 192 104 56 192 104 56 192 104 56 192 104 56 192 104 56 192 104 56 192 104 56 192 104 56 192 104 56 192 104 56 192 104 56 192 104 56 192 104 56 200 104 56 200 104 56 200 104 56 200 104 56 200 104 56 200 104 56 200 104 56 200 104 56 200 104 56 200 104 56 200 104 56 200 104 56 200 104 56 200 104 56 200 104 56 200 104 56 200 104 56 200 104 56 200 104 56 200 104 56 200 104 56 200 104 56 200 104 56 200 104 56 200 104 56 200 104 56 200 104 56 200 104 56 200 104 56 200 104 56 200 104 56 200 104 56 192 104 56 192 104 56 192 104 56 192 104 56 192 104 56 192 104 56 192 104 56 192 104 56 192 104 56 192 104 56 192 104 56 192 104 56 192 104 56 192 104 56 192 104 56 192 104 56 192 104 56 192 104 56 192 104 56 192 104 56 192 104 56 192 104 56 192 104 56 192 104 56 192 104 56 192 104 56 192 104 56 192 104 56 192 104 56 192 104 56 192 104 56 192 104 56
184 104 56 184 104 56 184 104 56 184 104 56 184 104 56 184 104 56 184 104 56 184 104 56 184 104 56 184 104 56 184 104 56 184 104 56 184 104 56 184 104 56 184 104 56 184 104 56 184 104 56 184 104 56 184 104 56 184 104 56 184 104 56 184 104 56 184 104 56 184 104 56 184 104 56 184 104 56 184 104 56 184 104 56 184 104 56 184 104 56 184 104 56 184 104 56 192 104 56 192 104 56 192 104 56 192 104 56 192 104 56 192 104 56 192 104 56 192 104 56 192 104 56 192 104 56 192 104 56 192 104 56 192 104 56 192 104 56 192 104 56 192 104 56 192 104 56 192 104 56 192 104 56 192 104 56 192 104 56 192 104 56 192 104 56 192 104 56 192 104 56 192 104 56 192 104 56 192 104 56 192 104 56 192 104 56 192 104 56 192 104 56 200 104 56 200 104 56 200 104 56 200 104 56 200 104 56 200 104 56 200 104 56 200 104 56 200 104 56 200 104 56 200 104 56 200 104 56 200 104 56 200 104 56 200 104 56 200 104 56 200 104 56 200 104 56 200 104 56 200 104 56 200 104 56 200 104 56 200 104 56 200 104 56 200 104 56 200 104 56 200 104 56 200 104 56 200 104 56 200 104 56 200 104 56 200 104 56 192 104 56 192 104 56 192 104 56 192 104 56 192 104 56 192 104 56 192 104 56 192 104 56 192 104 56 192 104 56 192 104 56 192 104 56 192 104 56 192 104 56 192 104 56 192 104 56 192 104 56 192 104 56 192 104 56 192 104 56 192 104 56 192 104 56 192 104 56 192 104 56 192 104 56 192 104 56 192 104 56 192 104 56 192 104 56 192 104 56 192 104 56 192 104 56
184 104 56 184 104 56 184 104 56 184 104 56 184 104 56 184 104 56 184 104 56 184 104 56 184 104 56 184 104 56 184 104 56 184 104 56 184 104 56 184 104 56 184 104 56 184 104 56 184 104 56 184 104 56 184 104 56 184 104 56 184 104 56 184 104 56 184 104 56 184 104 56 184 104 56 184 104 56 184 104 56 184 104 56 184 104 56 184 104 56 184 104 56 184 104 56 192 104 56 192 104 56 192 104 56 192 104 56 192 104 56 192 104 56 192 104 56 192 104 56 192 104 56 192 104 56 192 104 56 192 104 56 192 104 56 192 104 56 192 104 56 192 104 56 192 104 56 192 104 56 192 104 56 192 104 56 192 104 56 192 104 56 192 104 56 192 104 56 192 104 56 192 104 56 192 104 56 192 104 56 192 104 56 192 104 56 192 104 56 192 104 56 200 104 56 200 104 56 200 104 56 200 104 56 200 104 56 200 104 56 200 104 56 200 104 56 200 104 56 200 104 56 200 104 56 200 104 56 200 104 56 200 104 56 200 104 56 200 104 56 200 104 56 200 104 56 200 104 56 200 104 56 200 104 56 200 104 56 200 104 56 200 104 56 200 104 56 200 104 56 200 104 56 200 104 56 200 104 56 200 104 56 200 104 56 200 104 56 192 104 56 192 104 56 192 104 56 192 104 56 192 104 56 192 104 56 192 104 56 192 104 56 192 104 56 192 104 56 192 104 56 192 104 56 192 104 56 192 104 56 192 104 56 192 104 56 192 104 56 192 104 56 192 104 56 192 104 56 192 104 56 192 104 56 192 104 56 192 104 56 192 104 56 192 104 56 192 104 56 192 104 56 192 104 56 192 104 56 192 104 56 192 104 56
184 104 56 184 104 56 184 104 56 184 104 56 184 104 56 184 104 56 184 104 56 184 104 56 184 104 56 184 104 56 184 104 56 184 104 56 184 104 56 184 104 56 184 104 56 184 104 56 184 104 56 184 104 56 184 104 56 184 104 56 184 104 56 184 104 56 184 104 56 184 104 56 184 104 56 184 104 56 184 104 56 184 104 56 184 104 56 184 104 56 184 104 56 184 104 56 192 104 56 192 104 56 192 104 56 192 104 56 192 104 56 192 104 56 192 104 56 192 104 56 192 104 56 192 104 56 192 104 56 192 104 56 192 104 56 192 104 56 192 104 56 192 104 56 192 104 56 192 104 56 192 104 56 192 104 56 192 104 56 192 104 56 192 104 56 192 104 56 192 104 56 192 104 56 192 104 56 192 104 56 192 104 56 192 104 56 192 104 56 192 104 56 200 104 56 200 104 56 200 104 56 200 104 56 200 104 56 200 104 56 200 104 56 200 104 56 200 104 56 200 104 56 200 104 56 200 104 56 200 104 56 200 104 56 200 104 56 200 104 56 200 104 56 200 104 56 200 104 56 200 104 56 200 104 56 200 104 56 200 104 56 200 104 56 200 104 56 200 104 56 200 104 56 200 104 56 200 104 56 200 104 56 200 104 56 200 104 56 192 104 56 192 104 56 192 104 56 192 104 56 192 104 56 192 104 56 192 104 56 192 104 56 192 104 56 192 104 56 192 104 56 192 104 56 192 104 56 192 104 56 192 104 56 192 104 56 192 104 56 192 104 56 192 104 56 192 104 56 192 104 56 192 104 56 192 104 56 192 104 56 192 104 56 192 104 56 192 104 56 192 104 56 192 104 56 192 104 56 192 104 56 192 104 56
184 104 56 184 104 56 184 104 56 184 104 56 184 104 56 184 104 56 184 104 56 184 104 56 184 104 56 184 104 56 184 104 56 184 104 56 184 104 56 184 104 56 184 104 56 184 104 56 184 104 56 184 104 56 184 104 56 184 104 56 184 104 56 184 104 56 184 104 56 184 104 56 184 104 56 184 104 56 184 104 56 184 104 56 184 104 56 184 104 56 184 104 56 184 104 56 192 104 56 192 104 56 192 104 56 192 104 56 192 104 56 192 104 56 192 104 56 192 104 56 192 104 56 192 104 56 192 104 56 192 104 56 192 104 56 192 104 56 192 104 56 192 104 56 192 104 56 192 104 56 192 104 56 192 104 56 192 104 56 192 104 56 192 104 56 192 104 56 192 104 56 192 104 56 192 104 56 192 104 56 192 104 56 192 104 56 192 104 56 192 104 56 200 104 56 200 104 56 200 104 56 200 104 56 200 104 56 200 104 56 200 104 56 200 104 56 200 104 56 200 104 56 200 104 56 200 104 56 200 104 56 200 104 56 200 104 56 200 104 56 200 104 56 200 104 56 200 104 56 200 104 56 200 104 56 200 104 56 200 104 56 200 104 56 200 104 56 200 104 56 200 104 56 200 104 56 200 104 56 200 104 56 200 104 56 200 104 56 192 104 56 192 104 56 192 104 56 192 104 56 192 104 56 192 104 56 192 104 56 192 104 56 192 104 56 192 104 56 192 104 56 192 104 56 192 104 56 192 104 56 192 104 56 192 104 56 192 104 56 192 104 56 192 104 56 192 104 56 192 104 56 192 104 56 192 104 56 192 104 56 192 104 56 192 104 56 192 104 56 192 104 56 192 104 56 192 104 56 192 104 56 192 104 56
184 104 56 184 104 56 184 104 56 184 104 56 184 104 56 184 104 56 184 104 56 184 104 56 184 104 56 184 104 56 184 104 56 184 104 56 184 104 56 184 104 56 184 104 56 184 104 56 184 104 56 184 104 56 184 104 56 184 104 56 184 104 56 184 104 56 184 104 56 184 104 56 184 104 56 184 104 56 184 104 56 184 104 56 184 104 56 184 104 56 184 104 56 184 104 56 192 104 56 192 104 56 192 104 56 192 104 56 192 104 56 192 104 56 192 104 56 192 104 56 192 104 56 192 104 56 192 104 56 192 104 56 192 104 56 192 104 56 192 104 56 192 104 56 192 104 56 192 104 56 192 104 56 192 104 56 192 104 56 192 104 56 192 104 56 192 104 56 192 104 56 192 104 56 192 104 56 192 104 56 192 104 56 192 104 56 192 104 56 192 104 56 200 104 56 200 104 56 200 104 56 200 104 56 200 104 56 200 104 56 200 104 56 200 104 56 200 104 56 200 104 56 200 104 56 200 104 56 200 104 56 200 104 56 200 104 56 200 104 56 200 104 56 200 104 56 200 104 56 200 104 56 200 104 56 200 104 56 200 104 56 200 104 56 200 104 56 200 104 56 200 104 56 200 104 56 200 104 56 200 104 56 200 104 56 200 104 56 192 104 56 192 104 56 192 104 56 192 104 56 192 104 56 192 104 56 192 104 56 192 104 56 192 104 56 192 104 56 192 104 56 192 104 56 192 104 56 192 104 56 192 104 56 192 104 56 192 104 56 192 104 56 192 104 56 192 104 56 192 104 56 192 104 56 192 104 56 192 104 56 192 104 56 192 104 56 192 104 56 192 104 56 192 104 56 192 104 56 192 104 56 192 104 56
184 104 56 184 104 56 184 104 56 184 104 56 184 104 56 184 104 56 184 104 56 184 104 56 184 104 56 184 104 56 184 104 56 184 104 56 184 104 56 184 104 56 184 104 56 184 104 56 184 104 56 184 104 56 184 104 56 184 104 56 184 104 56 184 104 56 184 104 56 184 104 56 184 104 56 184 104 56 184 104 56 184 104 56 184 104 56 184 104 56 184 104 56 184 104 56 192 104 56 192 104 56 192 104 56 192 104 56 192 104 56 192 104 56 192 104 56 192 104 56 192 104 56 192 104 56 192 104 56 192 104 56 192 104 56 192 104 56 192 104 56 192 104 56 192 104 56 192 104 56 192 104 56 192 104 56 192 104 56 192 104 56 192 104 56 192 104 56 192 104 56 192 104 56 192 104 56 192 104 56 192 104 56 192 104 56 192 104 56 192 104 56 200 104 56 200 104 56 200 104 56 200 104 56 200 104 56 200 104 56 200 104 56 200 104 56 200 104 56 200 104 56 200 104 56 200 104 56 200 104 56 200 104 56 200 104 56 200 104 56 200 104 56 200 104 56 200 104 56 200 104 56 200 104 56 200 104 56 200 104 56 200 104 56 200 104 56 200 104 56 200 104 56 200 104 56 200 104 56 200 104 56 200 104 56 200 104 56 192 104 56 192 104 56 192 104 56 192 104 56 192 104 56 192 104 56 192 104 56 192 104 56 192 104 56 192 104 56 192 104 56 192 104 56 192 104 56 192 104 56 192 104 56 192 104 56 192 104 56 192 104 56 192 104 56 192 104 56 192 104 56 192 104 56 192 104 56 192 104 56 192 104 56 192 104 56 192 104 56 192 104 56 192 104 56 192 104 56 192 104 56 192 104 56
184 104 56 184 104 56 184 104 56 184 104 56 184 104 56 184 104 56 184 104 56 184 104 56 184 104 56 184 104 56 184 104 56 184 104 56 184 104 56 184 104 56 184 104 56 184 104 56 184 104 56 184 104 56 184 104 56 184 104 56 184 104 56 184 104 56 184 104 56 184 104 56 184 104 56 184 104 56 184 104 56 184 104 56 184 104 56 184 104 56 184 104 56 184 104 56 192 104 56 192 104 56 192 104 56 192 104 56 192 104 56 192 104 56 192 104 56 192 104 56 192 104 56 192 104 56 192 104 56 192 104 56 192 104 56 192 104 56 192 104 56 192 104 56 192 104 56 192 104 56 192 104 56 192 104 56 192 104 56 192 104 56 192 104 56 192 104 56 192 104 56 192 104 56 192 104 56 192 104 56 192 104 56 192 104 56 192 104 56 192 104 56 200 104 56 200 104 56 200 104 56 200 104 56 200 104 56 200 104 56 200 104 56 200 104 56 200 104 56 200 104 56 200 104 56 200 104 56 200 104 56 200 104 56 200 104 56 200 104 56 200 104 56 200 104 56 200 104 56 200 104 56 200 104 56 200 104 56 200 104 56 200 104 56 200 104 56 200 104 56 200 104 56 200 104 56 200 104 56 200 104 56 200 104 56 200 104 56 192 104 56 192 104 56 192 104 56 192 104 56 192 104 56 192 104 56 192 104 56 192 104 56 192 104 56 192 104 56 192 104 56 192 104 56 192 104 56 192 104 56 192 104 56 192 104 56 192 104 56 192 104 56 192 104 56 192 104 56 192 104 56 192 104 56 192 104 56 192 104 56 192 104 56 192 104 56 192 104 56 192 104 56 192 104 56 192 104 56 192 104 56 192 104 56
184 104 56 184 104 56 184 104 56 184 104 56 184 104 56 184 104 56 184 104 56 184 104 56 184 104 56 184 104 56 184 104 56 184 104 56 184 104 56 184 104 56 184 104 56 184 104 56 184 104 56 184 104 56 184 104 56 184 104 56 184 104 56 184 104 56 184 104 56 184 104 56 184 104 56 184 104 56 184 104 56 184 104 56 184 104 56 184 104 56 184 104 56 184 104 56 192 104 56 192 104 56 192 104 56 192 104 56 192 104 56 192 104 56 192 104 56 192 104 56 192 104 56 192 104 56 192 104 56 192 104 56 192 104 56 192 104 56 192 104 56 192 104 56 192 104 56 192 104 56 192 104 56 192 104 56 192 104 56 192 104 56 192 104 56 192 104 56 192 104 56 192 104 56 192 104 56 192 104 56 192 104 56 192 104 56 192 104 56 192 104 56 200 104 56 200 104 56 200 104 56 200 104 56 200 104 56 200 104 56 200 104 56 200 104 56 200 104 56 200 104 56 200 104 56 200 104 56 200 104 56 200 104 56 200 104 56 200 104 56 200 104 56 200 104 56 200 104 56 200 104 56 200 104 56 200 104 56 200 104 56 200 104 56 200 104 56 200 104 56 200 104 56 200 104 56 200 104 56 200 104 56 200 104 56 200 104 56 192 104 56 192 104 56 192 104 56 192 104 56 192 104 56 192 104 56 192 104 56 192 104 56 192 104 56 192 104 56 192 104 56 192 104 56 192 104 56 192 104 56 192 104 56 192 104 56 192 104 56 192 104 56 192 104 56 192 104 56 192 104 56 192 104 56 192 104 56 192 104 56 192 104 56 192 104 56 192 104 56 192 104 56 192 104 56 192 104 56 192 104 56 192 104 56
184 104 56 184 104 56 184 104 56 184 104 56 184 104 56 184 104 56 184 104 56 184 104 56 184 104 56 184 104 56 184 104 56 184 104 56 184 104 56 184 104 56 184 104 56 184 104 56 184 104 56 184 104 56 184 104 56 184 104 56 184 104 56 184 104 56 184 104 56 184 104 56 184 104 56 184 104 56 184 104 56 184 104 56 184 104 56 184 104 56 184 104 56 184 104 56 192 104 56 192 104 56 192 104 56 192 104 56 192 104 56 192 104 56 192 104 56 192 104 56 192 104 56 192 104 56 192 104 56 192 104 56 192 104 56 192 104 56 192 104 56 192 104 56 192 104 56 192 104 56 192 104 56 192 104 56 192 104 56 192 104 56 192 104 56 192 104 56 192 104 56 192 104 56 192 104 56 192 104 56 192 104 56 192 104 56 192 104 56 192 104 56 200 104 56 200 104 56 200 104 56 200 104 56 200 104 56 200 104 56 200 104 56 200 104 56 200 104 56 200 104 56 200 104 56 200 104 56 200 104 56 200 104 56 200 104 56 200 104 56 200 104 56 200 104 56 200 104 56 200 104 56 200 104 56 200 104 56 200 104 56 200 104 56 200 104 56 200 104 56 200 104 56 200 104 56 200 104 56 200 104 56 200 104 56 200 104 56 192 104 56 192 104 56 192 104 56 192 104 56 192 104 56 192 104 56 192 104 56 192 104 56 192 104 56 192 104 56 192 104 56 192 104 56 192 104 56 192 104 56 192 104 56 192 104 56 192 104 56 192 104 56 192 104 56 192 104 56 192 104 56 192 104 56 192 104 56 192 104 56 192 104 56 192 104 56 192 104 56 192 104 56 192 104 56 192 104 56 192 104 56 192 104 56
184 104 56 184 104 56 184 104 56 184 104 56 184 104 56 184 104 56 184 104 56 184 104 56 184 104 56 184 104 56 184 104 56 184 104 56 184 104 56 184 104 56 184 104 56 184 104 56 184 104 56 184 104 56 184 104 56 184 104 56 184 104 56 184 104 56 184 104 56 184 104 56 184 104 56 184 104 56 184 104 56 184 104 56 184 104 56 184 104 56 184 104 56 184 104 56 192 104 56 192 104 56 192 104 56 192 104 56 192 104 56 192 104 56 192 104 56 192 104 56 192 104 56 192 104 56 192 104 56 192 104 56 192 104 56 192 104 56 192 104 56 192 104 56 192 104 56 192 104 56 192 104 56 192 104 56 192 104 56 192 104 56 192 104 56 192 104 56 192 104 56 192 104 56 192 104 56 192 104 56 192 104 56 192 104 56 192 104 56 192 104 56 200 104 56 200 104 56 200 104 56 200 104 56 200 104 56 200 104 56 200 104 56 200 104 56 200 104 56 200 104 56 200 104 56 200 104 56 200 104 56 200 104 56 200 104 56 200 104 56 200 104 56 200 104 56 200 104 56 200 104 56 200 104 56 200 104 56 200 104 56 200 104 56 200 104 56 200 104 56 200 104 56 200 104 56 200 104 56 200 104 56 200 104 56 200 104 56 192 104 56 192 104 56 192 104 56 192 104 56 192 104 56 192 104 56 192 104 56 192 104 56 192 104 56 192 104 56 192 104 56 192 104 56 192 104 56 192 104 56 192 104 56 192 104 56 192 104 56 192 104 56 192 104 56 192 104 56 192 104 56 192 104 56 192 104 56 192 104 56 192 104 56 192 104 56 192 104 56 192 104 56 192 104 56 192 104 56 192 104 56 192 104 56
184 104 56 184 104 56 184 104 56 184 104 56 184 104 56 184 104 56 184 104 56 184 104 56 184 104 56 184 104 56 184 104 56 184 104 56 184 104 56 184 104 56 184 104 56 184 104 56 184 104 56 184 104 56 184 104 56 184 104 56 184 104 56 184 104 56 184 104 56 184 104 56 184 104 56 184 104 56 184 104 56 184 104 56 184 104 56 184 104 56 184 104 56 184 104 56 192 104 56 192 104 56 192 104 56 192 104 56 192 104 56 192 104 56 192 104 56 192 104 56 192 104 56 192 104 56 192 104 56 192 104 56 192 104 56 192 104 56 192 104 56 192 104 56 192 104 56 192 104 56 192 104 56 192 104 56 192 104 56 192 104 56 192 104 56 192 104 56 192 104 56 192 104 56 192 104 56 192 104 56 192 104 56 192 104 56 192 104 56 192 104 56 200 104 56 200 104 56 200 104 56 200 104 56 200 104 56 200 104 56 200 104 56 200 104 56 200 104 56 200 104 56 200 104 56 200 104 56 200 104 56 200 104 56 200 104 56 200 104 56 200 104 56 200 104 56 200 104 56 200 104 56 200 104 56 200 104 56 200 104 56 200 104 56 200 104 56 200 104 56 200 104 56 200 104 56 200 104 56 200 104 56 200 104 56 200 104 56 192 104 56 192 104 56 192 104 56 192 104 56 192 104 56 192 104 56 192 104 56 192 104 56 192 104 56 192 104 56 192 104 56 192 104 56 192 104 56 192 104 56 192 104 56 192 104 56 192 104 56 192 104 56 192 104 56 192 104 56 192 104 56 192 104 56 192 104 56 192 104 56 192 104 56 192 104 56 192 104 56 192 104 56 192 104 56 192 104 56 192 104 56 192 104 56
184 104 56 184 104 56 184 104 56 184 104 56 184 104 56 184 104 56 184 104 56 184 104 56 184 104 56 184 104 56 184 104 56 184 104 56 184 104 56 184 104 56 184 104 56 184 104 56 184 104 56 184 104 56 184 104 56 184 104 56 184 104 56 184 104 56 184 104 56 184 104 56 184 104 56 184 104 56 184 104 56 184 104 56 184 104 56 184 104 56 184 104 56 184 104 56 192 104 56 192 104 56 192 104 56 192 104 56 192 104 56 192 104 56 192 104 56 192 104 56 192 104 56 192 104 56 192 104 56 192 104 56 192 104 56 192 104 56 192 104 56 192 104 56 192 104 56 192 104 56 192 104 56 192 104 56 192 104 56 192 104 56 192 104 56 192 104 56 192 104 56 192 104 56 192 104 56 192 104 56 192 104 56 192 104 56 192 104 56 192 104 56 200 104 56 200 104 56 200 104 56 200 104 56 200 104 56 200 104 56 200 104 56 200 104 56 200 104 56 200 104 56 200 104 56 200 104 56 200 104 56 200 104 56 200 104 56 200 104 56 200 104 56 200 104 56 200 104 56 200 104 56 200 104 56 200 104 56 200 104 56 200 104 56 200 104 56 200 104 56 200 104 56 200 104 56 200 104 56 200 104 56 200 104 56 200 104 56 192 104 56 192 104 56 192 104 56 192 104 56 192 104 56 192 104 56 192 104 56 192 104 56 192 104 56 192 104 56 192 104 56 192 104 56 192 104 56 192 104 56 192 104 56 192 104 56 192 104 56 192 104 56 192 104 56 192 104 56 192 104 56 192 104 56 192 104 56 192 104 56 192 104 56 192 104 56 192 104 56 192 104 56 192 104 56 192 104 56 192 104 56 192 104 56
184 104 56 184 104 56 184 104 56 184 104 56 184 104 56 184 104 56 184 104 56 184 104 56 184 104 56 184 104 56 184 104 56 184 104 56 184 104 56 184 104 56 184 104 56 184 104 56 184 104 56 184 104 56 184 104 56 184 104 56 184 104 56 184 104 56 184 104 56 184 104 56 184 104 56 184 104 56 184 104 56 184 104 56 184 104 56 184 104 56 184 104 56 184 104 56 192 104 56 192 104 56 192 104 56 192 104 56 192 104 56 192 104 56 192 104 56 192 104 56 192 104 56 192 104 56 192 104 56 192 104 56 192 104 56 192 104 56 192 104 56 192 104 56 192 104 56 192 104 56 192 104 56 192 104 56 192 104 56 192 104 56 192 104 56 192 104 56 192 104 56 192 104 56 192 104 56 192 104 56 192 104 56 192 104 56 192 104 56 192 104 56 200 104 56 200 104 56 200 104 56 200 104 56 200 104 56 200 104 56 200 104 56 200 104 56 200 104 56 200 104 56 200 104 56 200 104 56 200 104 56 200 104 56 200 104 56 200 104 56 200 104 56 200 104 56 200 104 56 200 104 56 200 104 56 200 104 56 200 104 56 200 104 56 200 104 56 200 104 56 200 104 56 200 104 56 200 104 56 200 104 56 200 104 56 200 104 56 192 104 56 192 104 56 192 104 56 192 104 56 192 104 56 192 104 56 192 104 56 192 104 56 192 104 56 192 104 56 192 104 56 192 104 56 192 104 56 192 104 56 192 104 56 192 104 56 192 104 56 192 104 56 192 104 56 192 104 56 192 104 56 192 104 56 192 104 56 192 104 56 192 104 56 192 104 56 192 104 56 192 104 56 192 104 56 192 104 56 192 104 56 192 104 56
184 104 56 184 104 56 184 104 56 184 104 56 184 104 56 184 104 56 184 104 56 184 104 56 184 104 56 184 104 56 184 104 56 184 104 56 184 104 56 184 104 56 184 104 56 184 104 56 184 104 56 184 104 56 184 104 56 184 104 56 184 104 56 184 104 56 184 104 56 184 104 56 184 104 56 184 104 56 184 104 56 184 104 56 184 104 56 184 104 56 184 104 56 184 104 56 192 104 56 192 104 56 192 104 56 192 104 56 192 104 56 192 104 56 192 104 56 192 104 56 192 104 56 192 104 56 192 104 56 192 104 56 192 104 56 192 104 56 192 104 56 192 104 56 192 104 56 192 104 56 192 104 56 192 104 56 192 104 56 192 104 56 192 104 56 192 104 56 192 104 56 192 104 56 192 104 56 192 104 56 192 104 56 192 104 56 192 104 56 192 104 56 200 104 56 200 104 56 200 104 56 200 104 56 200 104 56 200 104 56 200 104 56 200 104 56 200 104 56 200 104 56 200 104 56 200 104 56 200 104 56 200 104 56 200 104 56 200 104 56 200 104 56 200 104 56 200 104 56 200 104 56 200 104 56 200 104 56 200 104 56 200 104 56 200 104 56 200 104 56 200 104 56 200 104 56 200 104 56 200 104 56 200 104 56 200 104 56 192 104 56 192 104 56 192 104 56 192 104 56 192 104 56 192 104 56 192 104 56 192 104 56 192 104 56 192 104 56 192 104 56 192 104 56 192 104 56 192 104 56 192 104 56 192 104 56 192 104 56 192 104 56 192 104 56 192 104 56 192 104 56 192 104 56 192 104 56 192 104 56 192 104 56 192 104 56 192 104 56 192 104 56 192 104 56 192 104 56 192 104 56 192 104 56
184 104 56 184 104 56 184 104 56 184 104 56 184 104 56 184 104 56 184 104 56 184 104 56 184 104 56 184 104 56 184 104 56 184 104 56 184 104 56 184 104 56 184 104 56 184 104 56 184 104 56 184 104 56 184 104 56 184 104 56 184 104 56 184 104 56 184 104 56 184 104 56 184 104 56 184 104 56 184 104 56 184 104 56 184 104 56 184 104 56 184 104 56 184 104 56 192 104 56 192 104 56 192 104 56 192 104 56 192 104 56 192 104 56 192 104 56 192 104 56 192 104 56 192 104 56 192 104 56 192 104 56 192 104 56 192 104 56 192 104 56 192 104 56 192 104 56 192 104 56 192 104 56 192 104 56 192 104 56 192 104 56 192 104 56 192 104 56 192 104 56 192 104 56 192 104 56 192 104 56 192 104 56 192 104 56 192 104 56 192 104 56 200 104 56 200 104 56 200 104 56 200 104 56 200 104 56 200 104 56 200 104 56 200 104 56 200 104 56 200 104 56 200 104 56 200 104 56 200 104 56 200 104 56 200 104 56 200 104 56 200 104 56 200 104 56 200 104 56 200 104 56 200 104 56 200 104 56 200 104 56 200 104 56 200 104 56 200 104 56 200 104 56 200 104 56 200 104 56 200 104 56 200 104 56 200 104 56 192 104 56 192 104 56 192 104 56 192 104 56 192 104 56 192 104 56 192 104 56 192 104 56 192 104 56 192 104 56 192 104 56 192 104 56 192 104 56 192 104 56 192 104 56 192 104 56 192 104 56 192 104 56 192 104 56 192 104 56 192 104 56 192 104 56 192 104 56 192 104 56 192 104 56 192 104 56 192 104 56 192 104 56 192 104 56 192 104 56 192 104 56 192 104 56
184 104 56 184 104 56 184 104 56 184 104 56 184 104 56 184 104 56 184 104 56 184 104 56 184 104 56 184 104 56 184 104 56 184 104 56 184 104 56 184 104 56 184 104 56 184 104 56 184 104 56 184 104 56 184 104 56 184 104 56 184 104 56 184 104 56 184 104 56 184 104 56 184 104 56 184 104 56 184 104 56 184 104 56 184 104 56 184 104 56 184 104 56 184 104 56 192 104 56 192 104 56 192 104 56 192 104 56 192 104 56 192 104 56 192 104 56 192 104 56 192 104 56 192 104 56 192 104 56 192 104 56 192 104 56 192 104 56 192 104 56 192 104 56 192 104 56 192 104 56 192 104 56 192 104 56 192 104 56 192 104 56 192 104 56 192 104 56 192 104 56 192 104 56 192 104 56 192 104 56 192 104 56 192 104 56 192 104 56 192 104 56 200 104 56 200 104 56 200 104 56 200 104 56 200 104 56 200 104 56 200 104 56 200 104 56 200 104 56 200 104 56 200 104 56 200 104 56 200 104 56 200 104 56 200 104 56 200 104 56 200 104 56 200 104 56 200 104 56 200 104 56 200 104 56 200 104 56 200 104 56 200 104 56 200 104 56 200 104 56 200 104 56 200 104 56 200 104 56 200 104 56 200 104 56 200 104 56 192 104 56 192 104 56 192 104 56 192 104 56 192 104 56 192 104 56 192 104 56 192 104 56 192 104 56 192 104 56 192 104 56 192 104 56 192 104 56 192 104 56 192 104 56 192 104 56 192 104 56 192 104 56 192 104 56 192 104 56 192 104 56 192 104 56 192 104 56 192 104 56 192 104 56 192 104 56 192 104 56 192 104 56 192 104 56 192 104 56 192 104 56 192 104 56
184 104 56 184 104 56 184 104 56 184 104 56 184 104 56 184 104 56 184 104 56 184 104 56 184 104 56 184 104 56 184 104 56 184 104 56 184 104 56 184 104 56 184 104 56 184 104 56 184 104 56 184 104 56 184 104 56 184 104 56 184 104 56 184 104 56 184 104 56 184 104 56 184 104 56 184 104 56 184 104 56 184 104 56 184 104 56 184 104 56 184 104 56 184 104 56 192 104 56 192 104 56 192 104 56 192 104 56 192 104 56 192 104 56 192 104 56 192 104 56 192 104 56 192 104 56 192 104 56 192 104 56 192 104 56 192 104 56 192 104 56 192 104 56 192 104 56 192 104 56 192 104 56 192 104 56 192 104 56 192 104 56 192 104 56 192 104 56 192 104 56 192 104 56 192 104 56 192 104 56 192 104 56 192 104 56 192 104 56 192 104 56 200 104 56 200 104 56 200 104 56 200 104 56 200 104 56 200 104 56 200 104 56 200 104 56 200 104 56 200 104 56 200 104 56 200 104 56 200 104 56 200 104 56 200 104 56 200 104 56 200 104 56 200 104 56 200 104 56 200 104 56 200 104 56 200 104 56 200 104 56 200 104 56 200 104 56 200 104 56 200 104 56 200 104 56 200 104 56 200 104 56 200 104 56 200 104 56 192 104 56 192 104 56 192 104 56 192 104 56 192 104 56 192 104 56 192 104 56 192 104 56 192 104 56 192 104 56 192 104 56 192 104 56 192 104 56 192 104 56 192 104 56 192 104 56 192 104 56 192 104 56 192 104 56 192 104 56 192 104 56 192 104 56 192 104 56 192 104 56 192 104 56 192 104 56 192 104 56 192 104 56 192 104 56 192 104 56 192 104 56 192 104 56
184 104 56 184 104 56 184 104 56 184 104 56 184 104 56 184 104 56 184 104 56 184 104 56 184 104 56 184 104 56 184 104 56 184 104 56 184 104 56 184 104 56 184 104 56 184 104 56 184 104 56 184 104 56 184 104 56 184 104 56 184 104 56 184 104 56 184 104 56 184 104 56 184 104 56 184 104 56 184 104 56 184 104 56 184 104 56 184 104 56 184 104 56 184 104 56 192 104 56 192 104 56 192 104 56 192 104 56 192 104 56 192 104 56 192 104 56 192 104 56 192 104 56 192 104 56 192 104 56 192 104 56 192 104 56 192 104 56 192 104 56 192 104 56 192 104 56 192 104 56 192 104 56 192 104 56 192 104 56 192 104 56 192 104 56 192 104 56 192 104 56 192 104 56 192 104 56 192 104 56 192 104 56 192 104 56 192 104 56 192 104 56 200 104 56 200 104 56 200 104 56 200 104 56 200 104 56 200 104 56 200 104 56 200 104 56 200 104 56 200 104 56 200 104 56 200 104 56 200 104 56 200 104 56 200 104 56 200 104 56 200 104 56 200 104 56 200 104 56 200 104 56 200 104 56 200 104 56 200 104 56 200 104 56 200 104 56 200 104 56 200 104 56 200 104 56 200 104 56 200 104 56 200 104 56 200 104 56 192 104 56 192 104 56 192 104 56 192 104 56 192 104 56 192 104 56 192 104 56 192 104 56 192 104 56 192 104 56 192 104 56 192 104 56 192 104 56 192 104 56 192 104 56 192 104 56 192 104 56 192 104 56 192 104 56 192 104 56 192 104 56 192 104 56 192 104 56 192 104 56 192 104 56 192 104 56 192 104 56 192 104 56 192 104 56 192 104 56 192 104 56 192 104 56
184 104 56 184 104 56 184 104 56 184 104 56 184 104 56 184 104 56 184 104 56 184 104 56 184 104 56 184 104 56 184 104 56 184 104 56 184 104 56 184 104 56 184 104 56 184 104 56 184 104 56 184 104 56 184 104 56 184 104 56 184 104 56 184 104 56 184 104 56 184 104 56 184 104 56 184 104 56 184 104 56 184 104 56 184 104 56 184 104 56 184 104 56 184 104 56 192 104 56 192 104 56 192 104 56 192 104 56 192 104 56 192 104 56 192 104 56 192 104 56 192 104 56 192 104 56 192 104 56 192 104 56 192 104 56 192 104 56 192 104 56 192 104 56 192 104 56 192 104 56 192 104 56 192 104 56 192 104 56 192 104 56 192 104 56 192 104 56 192 104 56 192 104 56 192 104 56 192 104 56 192 104 56 192 104 56 192 104 56 192 104 56 200 104 56 200 104 56 200 104 56 200 104 56 200 104 56 200 104 56 200 104 56 200 104 56 200 104 56 200 104 56 200 104 56 200 104 56 200 104 56 200 104 56 200 104 56 200 104 56 200 104 56 200 104 56 200 104 56 200 104 56 200 104 56 200 104 56 200 104 56 200 104 56 200 104 56 200 104 56 200 104 56 200 104 56 200 104 56 200 104 56 200 104 56 200 104 56 192 104 56 192 104 56 192 104 56 192 104 56 192 104 56 192 104 56 192 104 56 192 104 56 192 104 56 192 104 56 192 104 56 192 104 56 192 104 56 192 104 56 192 104 56 192 104 56 192 104 56 192 104 56 192 104 56 192 104 56 192 104 56 192 104 56 192 104 56 192 104 56 192 104 56 192 104 56 192 104 56 192 104 56 192 104 56 192 104 56 192 104 56 192 104 56
184 104 56 184 104 56 184 104 56 184 104 56 184 104 56 184 104 56 184 104 56 184 104 56 184 104 56 184 104 56 184 104 56 184 104 56 184 104 56 184 104 56 184 104 56 184 104 56 184 104 56 184 104 56 184 104 56 184 104 56 184 104 56 184 104 56 184 104 56 184 104 56 184 104 56 184 104 56 184 104 56 184 104 56 184 104 56 184 104 56 184 104 56 184 104 56 192 104 56 192 104 56 192 104 56 192 104 56 192 104 56 192 104 56 192 104 56 192 104 56 192 104 56 192 104 56 192 104 56 192 104 56 192 104 56 192 104 56 192 104 56 192 104 56 192 104 56 192 104 56 192 104 56 192 104 56 192 104 56 192 104 56 192 104 56 192 104 56 192 104 56 192 104 56 192 104 56 192 104 56 192 104 56 192 104 56 192 104 56 192 104 56 200 104 56 200 104 56 200 104 56 200 104 56 200 104 56 200 104 56 200 104 56 200 104 56 200 104 56 200 104 56 200 104 56 200 104 56 200 104 56 200 104 56 200 104 56 200 104 56 200 104 56 200 104 56 200 104 56 200 104 56 200 104 56 200 104 56 200 104 56 200 104 56 200 104 56 200 104 56 200 104 56 200 104 56 200 104 56 200 104 56 200 104 56 200 104 56 192 104 56 192 104 56 192 104 56 192 104 56 192 104 56 192 104 56 192 104 56 192 104 56 192 104 56 192 104 56 192 104 56 192 104 56 192 104 56 192 104 56 192 104 56 192 104 56 192 104 56 192 104 56 192 104 56 192 104 56 192 104 56 192 104 56 192 104 56 192 104 56 192 104 56 192 104 56 192 104 56 192 104 56 192 104 56 192 104 56 192 104 56 192 104 56
184 104 56 184 104 56 184 104 56 184 104 56 184 104 56 184 104 56 184 104 56 184 104 56 184 104 56 184 104 56 184 104 56 184 104 56 184 104 56 184 104 56 184 104 56 184 104 56 184 104 56 184 104 56 184 104 56 184 104 56 184 104 56 184 104 56 184 104 56 184 104 56 184 104 56 184 104 56 184 104 56 184 104 56 184 104 56 184 104 56 184 104 56 184 104 56 192 104 56 192 104 56 192 104 56 192 104 56 192 104 56 192 104 56 192 104 56 192 104 56 192 104 56 192 104 56 192 104 56 192 104 56 192 104 56 192 104 56 192 104 56 192 104 56 192 104 56 192 104 56 192 104 56 192 104 56 192 104 56 192 104 56 192 104 56 192 104 56 192 104 56 192 104 56 192 104 56 192 104 56 192 104 56 192 104 56 192 104 56 192 104 56 200 104 56 200 104 56 200 104 56 200 104 56 200 104 56 200 104 56 200 104 56 200 104 56 200 104 56 200 104 56 200 104 56 200 104 56 200 104 56 200 104 56 200 104 56 200 104 56 200 104 56 200 104 56 200 104 56 200 104 56 200 104 56 200 104 56 200 104 56 200 104 56 200 104 56 200 104 56 200 104 56 200 104 56 200 104 56 200 104 56 200 104 56 200 104 56 192 104 56 192 104 56 192 104 56 192 104 56 192 104 56 192 104 56 192 104 56 192 104 56 192 104 56 192 104 56 192 104 56 192 104 56 192 104 56 192 104 56 192 104 56 192 104 56 192 104 56 192 104 56 192 104 56 192 104 56 192 104 56 192 104 56 192 104 56 192 104 56 192 104 56 192 104 56 192 104 56 192 104 56 192 104 56 192 104 56 192 104 56 192 104 56
184 104 56 184 104 56 184 104 56 184 104 56 184 104 56 184 104 56 184 104 56 184 104 56 184 104 56 184 104 56 184 104 56 184 104 56 184 104 56 184 104 56 184 104 56 184 104 56 184 104 56 184 104 56 184 104 56 184 104 56 184 104 56 184 104 56 184 104 56 184 104 56 184 104 56 184 104 56 184 104 56 184 104 56 184 104 56 184 104 56 184 104 56 184 104 56 192 104 56 192 104 56 192 104 56 192 104 56 192 104 56 192 104 56 192 104 56 192 104 56 192 104 56 192 104 56 192 104 56 192 104 56 192 104 56 192 104 56 192 104 56 192 104 56 192 104 56 192 104 56 192 104 56 192 104 56 192 104 56 192 104 56 192 104 56 192 104 56 192 104 56 192 104 56 192 104 56 192 104 56 192 104 56 192 104 56 192 104 56 192 104 56 200 104 56 200 104 56 200 104 56 200 104 56 200 104 56 200 104 56 200 104 56 200 104 56 200 104 56 200 104 56 200 104 56 200 104 56 200 104 56 200 104 56 200 104 56 200 104 56 200 104 56 200 104 56 200 104 56 200 104 56 200 104 56 200 104 56 200 104 56 200 104 56 200 104 56 200 104 56 200 104 56 200 104 56 200 104 56 200 104 56 200 104 56 200 104 56 192 104 56 192 104 56 192 104 56 192 104 56 192 104 56 192 104 56 192 104 56 192 104 56 192 104 56 192 104 56 192 104 56 192 104 56 192 104 56 192 104 56 192 104 56 192 104 56 192 104 56 192 104 56 192 104 56 192 104 56 192 104 56 192 104 56 192 104 56 192 104 56 192 104 56 192 104 56 192 104 56 192 104 56 192 104 56 192 104 56 192 104 56 192 104 56
184 104 56 184 104 56 184 104 56 184 104 56 184 104 56 184 104 56 184 104 56 184 104 56 184 104 56 184 104 56 184 104 56 184 104 56 184 104 56 184 104 56 184 104 56 184 104 56 184 104 56 184 104 56 184 104 56 184 104 56 184 104 56 184 104 56 184 104 56 184 104 56 184 104 56 184 104 56 184 104 56 184 104 56 184 104 56 184 104 56 184 104 56 184 104 56 192 104 56 192 104 56 192 104 56 192 104 56 192 104 56 192 104 56 192 104 56 192 104 56 192 104 56 192 104 56 192 104 56 192 104 56 192 104 56 192 104 56 192 104 56 192 104 56 192 104 56 192 104 56 192 104 56 192 104 56 192 104 56 192 104 56 192 104 56 192 104 56 192 104 56 192 104 56 192 104 56 192 104 56 192 104 56 192 104 56 192 104 56 192 104 56 200 104 56 200 104 56 200 104 56 200 104 56 200 104 56 200 104 56 200 104 56 200 104 56 200 104 56 200 104 56 200 104 56 200 104 56 200 104 56 200 104 56 200 104 56 200 104 56 200 104 56 200 104 56 200 104 56 200 104 56 200 104 56 200 104 56 200 104 56 200 104 56 200 104 56 200 104 56 200 104 56 200 104 56 200 104 56 200 104 56 200 104 56 200 104 56 192 104 56 192 104 56 192 104 56 192 104 56 192 104 56 192 104 56 192 104 56 192 104 56 192 104 56 192 104 56 192 104 56 192 104 56 192 104 56 192 104 56 192 104 56 192 104 56 192 104 56 192 104 56 192 104 56 192 104 56 192 104 56 192 104 56 192 104 56 192 104 56 192 104 56 192 104 56 192 104 56 192 104 56 192 104 56 192 104 56 192 104 56 192 104 56
184 104 56 184 104 56 184 104 56 184 104 56 184 104 56 184 104 56 184 104 56 184 104 56 184 104 56 184 104 56 184 104 56 184 104 56 184 104 56 184 104 56 184 104 56 184 104 56 184 104 56 184 104 56 184 104 56 184 104 56 184 104 56 184 104 56 184 104 56 184 104 56 184 104 56 184 104 56 184 104 56 184 104 56 184 104 56 184 104 56 184 104 56 184 104 56 192 104 56 192 104 56 192 104 56 192 104 56 192 104 56 192 104 56 192 104 56 192 104 56 192 104 56 192 104 56 192 104 56 192 104 56 192 104 56 192 104 56 192 104 56 192 104 56 192 104 56 192 104 56 192 104 56 192 104 56 192 104 56 192 104 56 192 104 56 192 104 56 192 104 56 192 104 56 192 104 56 192 104 56 192 104 56 192 104 56 192 104 56 192 104 56 200 104 56 200 104 56 200 104 56 200 104 56 200 104 56 200 104 56 200 104 56 200 104 56 200 104 56 200 104 56 200 104 56 200 104 56 200 104 56 200 104 56 200 104 56 200 104 56 200 104 56 200 104 56 200 104 56 200 104 56 200 104 56 200 104 56 200 104 56 200 104 56 200 104 56 200 104 56 200 104 56 200 104 56 200 104 56 200 104 56 200 104 56 200 104 56 192 104 56 192 104 56 192 104 56 192 104 56 192 104 56 192 104 56 192 104 56 192 104 56 192 104 56 192 104 56 192 104 56 192 104 56 192 104 56 192 104 56 192 104 56 192 104 56 192 104 56 192 104 56 192 104 56 192 104 56 192 104 56 192 104 56 192 104 56 192 104 56 192 104 56 192 104 56 192 104 56 192 104 56 192 104 56 192 104 56 192 104 56 192 104 56
184 104 56 184 104 56 184 104 56 184 104 56 184 104 56 184 104 56 184 104 56 184 104 56 184 104 56 184 104 56 184 104 56 184 104 56 184 104 56 184 104 56 184 104 56 184 104 56 184 104 56 184 104 56 184 104 56 184 104 56 184 104 56 184 104 56 184 104 56 184 104 56 184 104 56 184 104 56 184 104 56 184 104 56 184 104 56 184 104 56 184 104 56 184 104 56 192 104 56 192 104 56 192 104 56 192 104 56 192 104 56 192 104 56 192 104 56 192 104 56 192 104 56 192 104 56 192 104 56 192 104 56 192 104 56 192 104 56 192 104 56 192 104 56 192 104 56 192 104 56 192 104 56 192 104 56 192 104 56 192 104 56 192 104 56 192 104 56 192 104 56 192 104 56 192 104 56 192 104 56 192 104 56 192 104 56 192 104 56 192 104 56 200 104 56 200 104 56 200 104 56 200 104 56 200 104 56 200 104 56 200 104 56 200 104 56 200 104 56 200 104 56 200 104 56 200 104 56 200 104 56 200 104 56 200 104 56 200 104 56 200 104 56 200 104 56 200 104 56 200 104 56 200 104 56 200 104 56 200 104 56 200 104 56 200 104 56 200 104 56 200 104 56 200 104 56 200 104 56 200 104 56 200 104 56 200 104 56 192 104 56 192 104 56 192 104 56 192 104 56 192 104 56 192 104 56 192 104 56 192 104 56 192 104 56 192 104 56 192 104 56 192 104 56 192 104 56 192 104 56 192 104 56 192 104 56 192 104 56 192 104 56 192 104 56 192 104 56 192 104 56 192 104 56 192 104 56 192 104 56 192 104 56 192 104 56 192 104 56 192 104 56 192 104 56 192 104 56 192 104 56 192 104 56
184 104 56 184 104 56 184 104 56 184 104 56 184 104 56 184 104 56 184 104 56 184 104 56 184 104 56 184 104 56 184 104 56 184 104 56 184 104 56 184 104 56 184 104 56 184 104 56 184 104 56 184 104 56 184 104 56 184 104 56 184 104 56 184 104 56 184 104 56 184 104 56 184 104 56 184 104 56 184 104 56 184 104 56 184 104 56 184 104 56 184 104 56 184 104 56 192 104 56 192 104 56 192 104 56 192 104 56 192 104 56 192 104 56 192 104 56 192 104 56 192 104 56 192 104 56 192 104 56 192 104 56 192 104 56 192 104 56 192 104 56 192 104 56 192 104 56 192 104 56 192 104 56 192 104 56 192 104 56 192 104 56 192 104 56 192 104 56 192 104 56 192 104 56 192 104 56 192 104 56 192 104 56 192 104 56 192 104 56 192 104 56 200 104 56 200 104 56 200 104 56 200 104 56 200 104 56 200 104 56 200 104 56 200 104 56 200 104 56 200 104 56 200 104 56 200 104 56 200 104 56 200 104 56 200 104 56 200 104 56 200 104 56 200 104 56 200 104 56 200 104 56 200 104 56 200 104 56 200 104 56 200 104 56 200 104 56 200 104 56 200 104 56 200 104 56 200 104 56 200 104 56 200 104 56 200 104 56 192 104 56 192 104 56 192 104 56 192 104 56 192 104 56 192 104 56 192 104 56 192 104 56 192 104 56 192 104 56 192 104 56 192 104 56 192 104 56 192 104 56 192 104 56 192 104 56 192 104 56 192 104 56 192 104 56 192 104 56 192 104 56 192 104 56 192 104 56 192 104 56 192 104 56 192 104 56 192 104 56 192 104 56 192 104 56 192 104 56 192 104 56 192 104 56
184 104 56 184 104 56 184 104 56 184 104 56 184 104 56 184 104 56 184 104 56 184 104 56 184 104 56 184 104 56 184 104 56 184 104 56 184 104 56 184 104 56 184 104 56 184 104 56 184 104 56 184 104 56 184 104 56 184 104 56 184 104 56 184 104 56 184 104 56 184 104 56 184 104 56 184 104 56 184 104 56 184 104 56 184 104 56 184 104 56 184 104 56 184 104 56 192 104 56 192 104 56 192 104 56 192 104 56 192 104 56 192 104 56 192 104 56 192 104 56 192 104 56 192 104 56 192 104 56 192 104 56 192 104 56 192 104 56 192 104 56 192 104 56 192 104 56 192 104 56 192 104 56 192 104 56 192 104 56 192 104 56 192 104 56 192 104 56 192 104 56 192 104 56 192 104 56 192 104 56 192 104 56 192 104 56 192 104 56 192 104 56 200 104 56 200 104 56 200 104 56 200 104 56 200 104 56 200 104 56 200 104 56 200 104 56 200 104 56 200 104 56 200 104 56 200 104 56 200 104 56 200 104 56 200 104 56 200 104 56 200 104 56 200 104 56 200 104 56 200 104 56 200 104 56 200 104 56 200 104 56 200 104 56 200 104 56 200 104 56 200 104 56 200 104 56 200 104 56 200 104 56 200 104 56 200 104 56 192 104 56 192 104 56 192 104 56 192 104 56 192 104 56 192 104 56 192 104 56 192 104 56 192 104 56 192 104 56 192 104 56 192 104 56 192 104 56 192 104 56 192 104 56 192 104 56 192 104 56 192 104 56 192 104 56 192 104 56 192 104 56 192 104 56 192 104 56 192 104 56 192 104 56 192 104 56 192 104 56 192 104 56 192 104 56 192 104 56 192 104 56 192 104 56
200 104 56 200 104 56 200 104 56 200 104 56 200 104 56 200 104 56 200 104 56 200 104 56 200 104 56 200 104 56 200 104 56 200 104 56 200 104 56 200 104 56 200 104 56 200 104 56 200 104 56 200 104 56 200 104 56 200 104 56 200 104 56 200 104 56 200 104 56 200 104 56 200 104 56 200 104 56 200 104 56 200 104 56 200 104 56 200 104 56 200 104 56 200 104 56 112 104 56 112 104 56 112 104 56 112 104 56 112 104 56 112 104 56 112 104 56 112 104 56 112 104 56 112 104 56 112 104 56 112 104 56 112 104 56 112 104 56 112 104 56 112 104 56 112 104 56 112 104 56 112 104 56 112 104 56 112 104 56 112 104 56 112 104 56 112 104 56 112 104 56 112 104 56 112 104 56 112 104 56 112 104 56 112 104 56 112 104 56 112 104 56 120 104 56 120 104 56 120 104 56 120 104 56 120 104 56 120 104 56 120 104 56 120 104 56 120 104 56 120 104 56 120 104 56 120 104 56 120 104 56 120 104 56 120 104 56 120 104 56 120 104 56 120 104 56 120 104 56 120 104 56 120 104 56 120 104 56 120 104 56 120 104 56 120 104 56 120 104 56 120 104 56 120 104 56 120 104 56 120 104 56 120 104 56 120 104 56 112 104 56 112 104 56 112 104 56 112 104 56 112 104 56 112 104 56 112 104 56 112 104 56 112 104 56 112 104 56 112 104 56 112 104 56 112 104 56 112 104 56 112 104 56 112 104 56 112 104 56 112 104 56 112 104 56 112 104 56 112 104 56 112 104 56 112 104 56 112 104 56 112 104 56 112 104 56 112 104 56 112 104 56 112 104 56 112 104 56 112 104 56 112 104 56
200 104 56 200 104 56 200 104 56 200 104 56 200 104 56 200 104 56 200 104 56 200 104 56 200 104 56 200 104 56 200 104 56 200 104 56 200 104 56 200 104 56 200 104 56 200 104 56 200 104 56 200 104 56 200 104 56 200 104 56 200 104 56 200 104 56 200 104 56 200 104 56 200 104 56 200 104 56 200 104 56 200 104 56 200 104 56 200 104 56 200 104 56 200 104 56 112 104 56 112 104 56 112 104 56 112 104 56 112 104 56 112 104 56 112 104 56 112 104 56 112 104 56 112 104 56 112 104 56 112 104 56 112 104 56 112 104 56 112 104 56 112 104 56 112 104 56 112 104 56 112 104 56 112 104 56 112 104 56 112 104 56 112 104 56 112 104 56 112 104 56 112 104 56 112 104 56 112 104 56 112 104 56 112 104 56 112 104 56 112 104 56 120 104 56 120 104 56 120 104 56 120 104 56 120 104 56 120 104 56 120 104 56 120 104 56 120 104 56 120 104 56 120 104 56 120 104 56 120 104 56 120 104 56 120 104 56 120 104 56 120 104 56 120 104 56 120 104 56 120 104 56 120 104 56 120 104 56 120 104 56 120 104 56 120 104 56 120 104 56 120 104 56 120 104 56 120 104 56 120 104 56 120 104 56 120 104 56 112 104 56 112 104 56 112 104 56 112 104 56 112 104 56 112 104 56 112 104 56 112 104 56 112 104 56 112 104 56 112 104 56 112 104 56 112 104 56 112 104 56 112 104 56 112 104 56 112 104 56 112 104 56 112 104 56 112 104 56 112 104 56 112 104 56 112 104 56 112 104 56 112 104 56 112 104 56 112 104 56 112 104 56 112 104 56 112 104 56 112 104 56 112 104 56
200 104 56 200 104 56 200 104 56 200 104 56 200 104 56 200 104 56 200 104 56 200 104 56 200 104 56 200 104 56 200 104 56 200 104 56 200 104 56 200 104 56 200 104 56 200 104 56 200 104 56 200 104 56 200 104 56 200 104 56 200 104 56 200 104 56 200 104 56 200 104 56 200 104 56 200 104 56 200 104 56 200 104 56 200 104 56 200 104 56 200 104 56 200 104 56 112 104 56 112 104 56 112 104 56 112 104 56 112 104 56 112 104 56 112 104 56 112 104 56 112 104 56 112 104 56 112 104 56 112 104 56 112 104 56 112 104 56 112 104 56 112 104 56 112 104 56 112 104 56 112 104 56 112 104 56 112 104 56 112 104 56 112 104 56 112 104 56 112 104 56 112 104 56 112 104 56 112 104 56 112 104 56 112 104 56 112 104 56 112 104 56 120 104 56 120 104 56 120 104 56 120 104 56 120 104 56 120 104 56 120 104 56 120 104 56 120 104 56 120 104 56 120 104 56 120 104 56 120 104 56 120 104 56 120 104 56 120 104 56 120 104 56 120 104 56 120 104 56 120 104 56 120 104 56 120 104 56 120 104 56 120 104 56 120 104 56 120 104 56 120 104 56 120 104 56 120 104 56 120 104 56 120 104 56 120 104 56 112 104 56 112 104 56 112 104 56 112 104 56 112 104 56 112 104 56 112 104 56 112 104 56 112 104 56 112 104 56 112 104 56 112 104 56 112 104 56 112 104 56 112 104 56 112 104 56 112 104 56 112 104 56 112 104 56 112 104 56 112 104 56 112 104 56 112 104 56 112 104 56 112 104 56 112 104 56 112 104 56 112 104 56 112 104 56 112 104 56 112 104 56 112 104 56
200 104 56 200 104 56 200 104 56 200 104 56 200 104 56 200 104 56 200 104 56 200 104 56 200 104 56 200 104 56 200 104 56 200 104 56 200 104 56 200 104 56 200 104 56 200 104 56 200 104 56 200 104 56 200 104 56 200 104 56 200 104 56 200 104 56 200 104 56 200 104 56 200 104 56 200 104 56 200 104 56 200 104 56 200 104 56 200 104 56 200 104 56 200 104 56 112 104 56 112 104 56 112 104 56 112 104 56 112 104 56 112 104 56 112 104 56 112 104 56 112 104 56 112 104 56 112 104 56 112 104 56 112 104 56 112 104 56 112 104 56 112 104 56 112 104 56 112 104 56 112 104 56 112 104 56 112 104 56 112 104 56 112 104 56 112 104 56 112 104 56 112 104 56 112 104 56 112 104 56 112 104 56 112 104 56 112 104 56 112 104 56 120 104 56 120 104 56 120 104 56 120 104 56 120 104 56 120 104 56 120 104 56 120 104 56 120 104 56 120 104 56 120 104 56 120 104 56 120 104 56 120 104 56 120 104 56 120 104 56 120 104 56 120 104 56 120 104 56 120 104 56 120 104 56 120 104 56 120 104 56 120 104 56 120 104 56 120 104 56 120 104 56 120 104 56 120 104 56 120 104 56 120 104 56 120 104 56 112 104 56 112 104 56 112 104 56 112 104 56 112 104 56 112 104 56 112 104 56 112 104 56 112 104 56 112 104 56 112 104 56 112 104 56 112 104 56 112 104 56 112 104 56 112 104 56 112 104 56 112 104 56 112 104 56 112 104 56 112 104 56 112 104 56 112 104 56 112 104 56 112 104 56 112 104 56 112 104 56 112 104 56 112 104 56 112 104 56 112 104 56 112 104 56
200 104 56 200 104 56 200 104 56 200 104 56 200 104 56 200 104 56 200 104 56 200 104 56 200 104 56 200 104 56 200 104 56 200 104 56 200 104 56 200 104 56 200 104 56 200 104 56 200 104 56 200 104 56 200 104 56 200 104 56 200 104 56 200 104 56 200 104 56 200 104 56 200 104 56 200 104 56 200 104 56 200 104 56 200 104 56 200 104 56 200 104 56 200 104 56 112 104 56 112 104 56 112 104 56 112 104 56 112 104 56 112 104 56 112 104 56 112 104 56 112 104 56 112 104 56 112 104 56 112 104 56 112 104 56 112 104 56 112 104 56 112 104 56 112 104 56 112 104 56 112 104 56 112 104 56 112 104 56 112 104 56 112 104 56 112 104 56 112 104 56 112 104 56 112 104 56 112 104 56 112 104 56 112 104 56 112 104 56 112 104 56 120 104 56 120 104 56 120 104 56 120 104 56 120 104 56 120 104 56 120 104 56 120 104 56 120 104 56 120 104 56 120 104 56 120 104 56 120 104 56 120 104 56 120 104 56 120 104 56 120 104 56 120 104 56 120 104 56 120 104 56 120 104 56 120 104 56 120 104 56 120 104 56 120 104 56 120 104 56 120 104 56 120 104 56 120 104 56 120 104 56 120 104 56 120 104 56 112 104 56 112 104 56 112 104 56 112 104 56 112 104 56 112 104 56 112 104 56 112 104 56 112 104 56 112 104 56 112 104 56 112 104 56 112 104 56 112 104 56 112 104 56 112 104 56 112 104 56 112 104 56 112 104 56 112 104 56 112 104 56 112 104 56 112 104 56 112 104 56 112 104 56 112 104 56 112 104 56 112 104 56 112 104 56 112 104 56 112 104 56 112 104 56
200 104 56 200 104 56 200 104 56 200 104 56 200 104 56 200 104 56 200 104 56 200 104 56 200 104 56 200 104 56 200 104 56 200 104 56 200 104 56 200 104 56 200 104 56 200 104 56 200 104 56 200 104 56 200 104 56 200 104 56 200 104 56 200 104 56 200 104 56 200 104 56 200 104 56 200 104 56 200 104 56 200 104 56 200 104 56 200 104 56 200 104 56 200 104 56 112 104 56 112 104 56 112 104 56 112 104 56 112 104 56 112 104 56 112 104 56 112 104 56 112 104 56 112 104 56 112 104 56 112 104 56 112 104 56 112 104 56 112 104 56 112 104 56 112 104 56 112 104 56 112 104 56 112 104 56 112 104 56 112 104 56 112 104 56 112 104 56 112 104 56 112 104 56 112 104 56 112 104 56 112 104 56 112 104 56 112 104 56 112 104 56 120 104 56 120 104 56 120 104 56 120 104 56 120 104 56 120 104 56 120 104 56 120 104 56 120 104 56 120 104 56 120 104 56 120 104 56 120 104 56 120 104 56 120 104 56 120 104 56 120 104 56 120 104 56 120 104 56 120 104 56 120 104 56 120 104 56 120 104 56 120 104 56 120 104 56 120 104 56 120 104 56 120 104 56 120 104 56 120 104 56 120 104 56 120 104 56 112 104 56 112 104 56 112 104 56 112 104 56 112 104 56 112 104 56 112 104 56 112 104 56 112 104 56 112 104 56 112 104 56 112 104 56 112 104 56 112 104 56 112 104 56 112 104 56 112 104 56 112 104 56 112 104 56 112 104 56 112 104 56 112 104 56 112 104 56 112 104 56 112 104 56 112 104 56 112 104 56 112 104 56 112 104 56 112 104 56 112 104 56 112 104 56
200 104 56 200 104 56 200 104 56 200 104 56 200 104 56 200 104 56 200 104 56 200 104 56 200 104 56 200 104 56 200 104 56 200 104 56 200 104 56 200 104 56 200 104 56 200 104 56 200 104 56 200 104 56 200 104 56 200 104 56 200 104 56 200 104 56 200 104 56 200 104 56 200 104 56 200 104 56 200 104 56 200 104 56 200 104 56 200 104 56 200 104 56 200 104 56 112 104 56 112 104 56 112 104 56 112 104 56 112 104 56 112 104 56 112 104 56 112 104 56 112 104 56 112 104 56 112 104 56 112 104 56 112 104 56 112 104 56 112 104 56 112 104 56 112 104 56 112 104 56 112 104 56 112 104 56 112 104 56 112 104 56 112 104 56 112 104 56 112 104 56 112 104 56 112 104 56 112 104 56 112 104 56 112 104 56 112 104 56 112 104 56 120 104 56 120 104 56 120 104 56 120 104 56 120 104 56 120 104 56 120 104 56 120 104 56 120 104 56 120 104 56 120 104 56 120 104 56 120 104 56 120 104 56 120 104 56 120 104 56 120 104 56 120 104 56 120 104 56 120 104 56 120 104 56 120 104 56 120 104 56 120 104 56 120 104 56 120 104 56 120 104 56 120 104 56 120 104 56 120 104 56 120 104 56 120 104 56 112 104 56 112 104 56 112 104 56 112 104 56 112 104 56 112 104 56 112 104 56 112 104 56 112 104 56 112 104 56 112 104 56 112 104 56 112 104 56 112 104 56 112 104 56 112 104 56 112 104 56 112 104 56 112 104 56 112 104 56 112 104 56 112 104 56 112 104 56 112 104 56 112 104 56 112 104 56 112 104 56 112 104 56 112 104 56 112 104 56 112 104 56 112 104 56
200 104 56 200 104 56 200 104 56 200 104 56 200 104 56 200 104 56 200 104 56 200 104 56 200 104 56 200 104 56 200 104 56 200 104 56 200 104 56 200 104 56 200 104 56 200 104 56 200 104 56 200 104 56 200 104 56 200 104 56 200 104 56 200 104 56 200 104 56 200 104 56 200 104 56 200 104 56 200 104 56 200 104 56 200 104 56 200 104 56 200 104 56 200 104 56 112 104 56 112 104 56 112 104 56 112 104 56 112 104 56 112 104 56 112 104 56 112 104 56 112 104 56 112 104 56 112 104 56 112 104 56 112 104 56 112 104 56 112 104 56 112 104 56 112 104 56 112 104 56 112 104 56 112 104 56 112 104 56 112 104 56 112 104 56 112 104 56 112 104 56 112 104 56 112 104 56 112 104 56 112 104 56 112 104 56 112 104 56 112 104 56 120 104 56 120 104 56 120 104 56 120 104 56 120 104 56 120 104 56 120 104 56 120 104 56 120 104 56 120 104 56 120 104 56 120 104 56 120 104 56 120 104 56 120 104 56 120 104 56 120 104 56 120 104 56 120 104 56 120 104 56 120 104 56 120 104 56 120 104 56 120 104 56 120 104 56 120 104 56 120 104 56 120 104 56 120 104 56 120 104 56 120 104 56 120 104 56 112 104 56 112 104 56 112 104 56 112 104 56 112 104 56 112 104 56 112 104 56 112 104 56 112 104 56 112 104 56 112 104 56 112 104 56 112 104 56 112 104 56 112 104 56 112 104 56 112 104 56 112 104 56 112 104 56 112 104 56 112 104 56 112 104 56 112 104 56 112 104 56 112 104 56 112 104 56 112 104 56 112 104 56 112 104 56 112 104 56 112 104 56 112 104 56
200 104 56 200 104 56 200 104 56 200 104 56 200 104 56 200 104 56 200 104 56 200 104 56 200 104 56 200 104 56 200 104 56 200 104 56 200 104 56 200 104 56 200 104 56 200 104 56 200 104 56 200 104 56 200 104 56 200 104 56 200 104 56 200 104 56 200 104 56 200 104 56 200 104 56 200 104 56 200 104 56 200 104 56 200 104 56 200 104 56 200 104 56 200 104 56 112 104 56 112 104 56 112 104 56 112 104 56 112 104 56 112 104 56 112 104 56 112 104 56 112 104 56 112 104 56 112 104 56 112 104 56 112 104 56 112 104 56 112 104 56 112 104 56 112 104 56 112 104 56 112 104 56 112 104 56 112 104 56 112 104 56 112 104 56 112 104 56 112 104 56 112 104 56 112 104 56 112 104 56 112 104 56 112 104 56 112 104 56 112 104 56 120 104 56 120 104 56 120 104 56 120 104 56 120 104 56 120 104 56 120 104 56 120 104 56 120 104 56 120 104 56 120 104 56 120 104 56 120 104 56 120 104 56 120 104 56 120 104 56 120 104 56 120 104 56 120 104 56 120 104 56 120 104 56 120 104 56 120 104 56 120 104 56 120 104 56 120 104 56 120 104 56 120 104 56 120 104 56 120 104 56 120 104 56 120 104 56 112 104 56 112 104 56 112 104 56 112 104 56 112 104 56 112 104 56 112 104 56 112 104 56 112 104 56 112 104 56 112 104 56 112 104 56 112 104 56 112 104 56 112 104 56 112 104 56 112 104 56 112 104 56 112 104 56 112 104 56 112 104 56 112 104 56 112 104 56 112 104 56 112 104 56 112 104 56 112 104 56 112 104 56 112 104 56 112 104 56 112 104 56 112 104 56
200 104 56 200 104 56 200 104 56 200 104 56 200 104 56 200 104 56 200 104 56 200 104 56 200 104 56 200 104 56 200 104 56 200 104 56 200 104 56 200 104 56 200 104 56 200 104 56 200 104 56 200 104 56 200 104 56 200 104 56 200 104 56 200 104 56 200 104 56 200 104 56 200 104 56 200 104 56 200 104 56 200 104 56 200 104 56 200 104 56 200 104 56 200 104 56 112 104 56 112 104 56 112 104 56 112 104 56 112 104 56 112 104 56 112 104 56 112 104 56 112 104 56 112 104 56 112 104 56 112 104 56 112 104 56 112 104 56 112 104 56 112 104 56 112 104 56 112 104 56 112 104 56 112 104 56 112 104 56 112 104 56 112 104 56 112 104 56 112 104 56 112 104 56 112 104 56 112 104 56 112 104 56 112 104 56 112 104 56 112 104 56 120 104 56 120 104 56 120 104 56 120 104 56 120 104 56 120 104 56 120 104 56 120 104 56 120 104 56 120 104 56 120 104 56 120 104 56 120 104 56 120 104 56 120 104 56 120 104 56 120 104 56 120 104 56 120 104 56 120 104 56 120 104 56 120 104 56 120 104 56 120 104 56 120 104 56 120 104 56 120 104 56 120 104 56 120 104 56 120 104 56 120 104 56 120 104 56 112 104 56 112 104 56 112 104 56 112 104 56 112 104 56 112 104 56 112 104 56 112 104 56 112 104 56 112 104 56 112 104 56 112 104 56 112 104 56 112 104 56 112 104 56 112 104 56 112 104 56 112 104 56 112 104 56 112 104 56 112 104 56 112 104 56 112 104 56 112 104 56 112 104 56 112 104 56 112 104 56 112 104 56 112 104 56 112 104 56 112 104 56 112 104 56
200 104 56 200 104 56 200 104 56 200 104 56 200 104 56 200 104 56 200 104 56 200 104 56 200 104 56 200 104 56 200 104 56 200 104 56 200 104 56 200 104 56 200 104 56 200 104 56 200 104 56 200 104 56 200 104 56 200 104 56 200 104 56 200 104 56 200 104 56 200 104 56 200 104 56 200 104 56 200 104 56 200 104 56 200 104 56 200 104 56 200 104 56 200 104 56 112 104 56 112 104 56 112 104 56 112 104 56 112 104 56 112 104 56 112 104 56 112 104 56 112 104 56 112 104 56 112 104 56 112 104 56 112 104 56 112 104 56 112 104 56 112 104 56 112 104 56 112 104 56 112 104 56 112 104 56 112 104 56 112 104 56 112 104 56 112 104 56 112 104 56 112 104 56 112 104 56 112 104 56 112 104 56 112 104 56 112 104 56 112 104 56 120 104 56 120 104 56 120 104 56 120 104 56 120 104 56 120 104 56 120 104 56 120 104 56 120 104 56 120 104 56 120 104 56 120 104 56 120 104 56 120 104 56 120 104 56 120 104 56 120 104 56 120 104 56 120 104 56 120 104 56 120 104 56 120 104 56 120 104 56 120 104 56 120 104 56 120 104 56 120 104 56 120 104 56 120 104 56 120 104 56 120 104 56 120 104 56 112 104 56 112 104 56 112 104 56 112 104 56 112 104 56 112 104 56 112 104 56 112 104 56 112 104 56 112 104 56 112 104 56 112 104 56 112 104 56 112 104 56 112 104 56 112 104 56 112 104 56 112 104 56 112 104 56 112 104 56 112 104 56 112 104 56 112 104 56 112 104 56 112 104 56 112 104 56 112 104 56 112 104 56 112 104 56 112 104 56 112 104 56 112 104 56
200 104 56 200 104 56 200 104 56 200 104 56 200 104 56 200 104 56 200 104 56 200 104 56 200 104 56 200 104 56 200 104 56 200 104 56 200 104 56 200 104 56 200 104 56 200 104 56 200 104 56 200 104 56 200 104 56 200 104 56 200 104 56 200 104 56 200 104 56 200 104 56 200 104 56 200 104 56 200 104 56 200 104 56 200 104 56 200 104 56 200 104 56 200 104 56 112 104 56 112 104 56 112 104 56 112 104 56 112 104 56 112 104 56 112 104 56 112 104 56 112 104 56 112 104 56 112 104 56 112 104 56 112 104 56 112 104 56 112 104 56 112 104 56 112 104 56 112 104 56 112 104 56 112 104 56 112 104 56 112 104 56 112 104 56 112 104 56 112 104 56 112 104 56 112 104 56 112 104 56 112 104 56 112 104 56 112 104 56 112 104 56 120 104 56 120 104 56 120 104 56 120 104 56 120 104 56 120 104 56 120 104 56 120 104 56 120 104 56 120 104 56 120 104 56 120 104 56 120 104 56 120 104 56 120 104 56 120 104 56 120 104 56 120 104 56 120 104 56 120 104 56 120 104 56 120 104 56 120 104 56 120 104 56 120 104 56 120 104 56 120 104 56 120 104 56 120 104 56 120 104 56 120 104 56 120 104 56 112 104 56 112 104 56 112 104 56 112 104 56 112 104 56 112 104 56 112 104 56 112 104 56 112 104 56 112 104 56 112 104 56 112 104 56 112 104 56 112 104 56 112 104 56 112 104 56 112 104 56 112 104 56 112 104 56 112 104 56 112 104 56 112 104 56 112 104 56 112 104 56 112 104 56 112 104 56 112 104 56 112 104 56 112 104 56 112 104 56 112 104 56 112 104 56
200 104 56 200 104 56 200 104 56 200 104 56 200 104 56 200 104 56 200 104 56 200 104 56 200 104 56 200 104 56 200 104 56 200 104 56 200 104 56 200 104 56 200 104 56 200 104 56 200 104 56 200 104 56 200 104 56 200 104 56 200 104 56 200 104 56 200 104 56 200 104 56 200 104 56 200 104 56 200 104 56 200 104 56 200 104 56 200 104 56 200 104 56 200 104 56 112 104 56 112 104 56 112 104 56 112 104 56 112 104 56 112 104 56 112 104 56 112 104 56 112 104 56 112 104 56 112 104 56 112 104 56 112 104 56 112 104 56 112 104 56 112 104 56 112 104 56 112 104 56 112 104 56 112 104 56 112 104 56 112 104 56 112 104 56 112 104 56 112 104 56 112 104 56 112 104 56 112 104 56 112 104 56 112 104 56 112 104 56 112 104 56 120 104 56 120 104 56 120 104 56 120 104 56 120 104 56 120 104 56 120 104 56 120 104 56 120 104 56 120 104 56 120 104 56 120 104 56 120 104 56 120 104 56 120 104 56 120 104 56 120 104 56 120 104 56 120 104 56 120 104 56 120 104 56 120 104 56 120 104 56 120 104 56 120 104 56 120 104 56 120 104 56 120 104 56 120 104 56 120 104 56 120 104 56 120 104 56 112 104 56 112 104 56 112 104 56 112 104 56 112 104 56 112 104 56 112 104 56 112 104 56 112 104 56 112 104 56 112 104 56 112 104 56 112 104 56 112 104 56 112 104 56 112 104 56 112 104 56 112 104 56 112 104 56 112 104 56 112 104 56 112 104 56 112 104 56 112 104 56 112 104 56 112 104 56 112 104 56 112 104 56 112 104 56 112 104 56 112 104 56 112 104 56
200 104 56 200 104 56 200 104 56 200 104 56 200 104 56 200 104 56 200 104 56 200 104 56 200 104 56 200 104 56 200 104 56 200 104 56 200 104 56 200 104 56 200 104 56 200 104 56 200 104 56 200 104 56 200 104 56 200 104 56 200 104 56 200 104 56 200 104 56 200 104 56 200 104 56 200 104 56 200 104 56 200 104 56 200 104 56 200 104 56 200 104 56 200 104 56 112 104 56 112 104 56 112 104 56 112 104 56 112 104 56 112 104 56 112 104 56 112 104 56 112 104 56 112 104 56 112 104 56 112 104 56 112 104 56 112 104 56 112 104 56 112 104 56 112 104 56 112 104 56 112 104 56 112 104 56 112 104 56 112 104 56 112 104 56 112 104 56 112 104 56 112 104 56 112 104 56 112 104 56 112 104 56 112 104 56 112 104 56 112 104 56 120 104 56 120 104 56 120 104 56 120 104 56 120 104 56 120 104 56 120 104 56 120 104 56 120 104 56 120 104 56 120 104 56 120 104 56 120 104 56 120 104 56 120 104 56 120 104 56 120 104 56 120 104 56 120 104 56 120 104 56 120 104 56 120 104 56 120 104 56 120 104 56 120 104 56 120 104 56 120 104 56 120 104 56 120 104 56 120 104 56 120 104 56 120 104 56 112 104 56 112 104 56 112 104 56 112 104 56 112 104 56 112 104 56 112 104 56 112 104 56 112 104 56 112 104 56 112 104 56 112 104 56 112 104 56 112 104 56 112 104 56 112 104 56 112 104 56 112 104 56 112 104 56 112 104 56 112 104 56 112 104 56 112 104 56 112 104 56 112 104 56 112 104 56 112 104 56 112 104 56 112 104 56 112 104 56 112 104 56 112 104 56
200 104 56 200 104 56 200 104 56 200 104 56 200 104 56 200 104 56 200 104 56 200 104 56 200 104 56 200 104 56 200 104 56 200 104 56 200 104 56 200 104 56 200 104 56 200 104 56 200 104 56 200 104 56 200 104 56 200 104 56 200 104 56 200 104 56 200 104 56 200 104 56 200 104 56 200 104 56 200 104 56 200 104 56 200 104 56 200 104 56 200 104 56 200 104 56 112 104 56 112 104 56 112 104 56 112 104 56 112 104 56 112 104 56 112 104 56 112 104 56 112 104 56 112 104 56 112 104 56 112 104 56 112 104 56 112 104 56 112 104 56 112 104 56 112 104 56 112 104 56 112 104 56 112 104 56 112 104 56 112 104 56 112 104 56 112 104 56 112 104 56 112 104 56 112 104 56 112 104 56 112 104 56 112 104 56 112 104 56 112 104 56 120 104 56 120 104 56 120 104 56 120 104 56 120 104 56 120 104 56 120 104 56 120 104 56 120 104 56 120 104 56 120 104 56 120 104 56 120 104 56 120 104 56 120 104 56 120 104 56 120 104 56 120 104 56 120 104 56 120 104 56 120 104 56 120 104 56 120 104 56 120 104 56 120 104 56 120 104 56 120 104 56 120 104 56 120 104 56 120 104 56 120 104 56 120 104 56 112 104 56 112 104 56 112 104 56 112 104 56 112 104 56 112 104 56 112 104 56 112 104 56 112 104 56 112 104 56 112 104 56 112 104 56 112 104 56 112 104 56 112 104 56 112 104 56 112 104 56 112 104 56 112 104 56 112 104 56 112 104 56 112 104 56 112 104 56 112 104 56 112 104 56 112 104 56 112 104 56 112 104 56 112 104 56 112 104 56 112 104 56 112 104 56
200 104 56 200 104 56 200 104 56 200 104 56 200 104 56 200 104 56 200 104 56 200 104 56 200 104 56 200 104 56 200 104 56 200 104 56 200 104 56 200 104 56 200 104 56 200 104 56 200 104 56 200 104 56 200 104 56 200 104 56 200 104 56 200 104 56 200 104 56 200 104 56 200 104 56 200 104 56 200 104 56 200 104 56 200 104 56 200 104 56 200 104 56 200 104 56 112 104 56 112 104 56 112 104 56 112 104 56 112 104 56 112 104 56 112 104 56 112 104 56 112 104 56 112 104 56 112 104 56 112 104 56 112 104 56 112 104 56 112 104 56 112 104 56 112 104 56 112 104 56 112 104 56 112 104 56 112 104 56 112 104 56 112 104 56 112 104 56 112 104 56 112 104 56 112 104 56 112 104 56 112 104 56 112 104 56 112 104 56 112 104 56 120 104 56 120 104 56 120 104 56 120 104 56 120 104 56 120 104 56 120 104 56 120 104 56 120 104 56 120 104 56 120 104 56 120 104 56 120 104 56 120 104 56 120 104 56 120 104 56 120 104 56 120 104 56 120 104 56 120 104 56 120 104 56 120 104 56 120 104 56 120 104 56 120 104 56 120 104 56 120 104 56 120 104 56 120 104 56 120 104 56 120 104 56 120 104 56 112 104 56 112 104 56 112 104 56 112 104 56 112 104 56 112 104 56 112 104 56 112 104 56 112 104 56 112 104 56 112 104 56 112 104 56 112 104 56 112 104 56 112 104 56 112 104 56 112 104 56 112 104 56 112 104 56 112 104 56 112 104 56 112 104 56 112 104 56 112 104 56 112 104 56 112 104 56 112 104 56 112 104 56 112 104 56 112 104 56 112 104 56 112 104 56
200 104 56 200 104 56 200 104 56 200 104 56 200 104 56 200 104 56 200 104 56 200 104 56 200 104 56 200 104 56 200 104 56 200 104 56 200 104 56 200 104 56 200 104 56 200 104 56 200 104 56 200 104 56 200 104 56 200 104 56 200 104 56 200 104 56 200 104 56 200 104 56 200 104 56 200 104 56 200 104 56 200 104 56 200 104 56 200 104 56 200 104 56 200 104 56 112 104 56 112 104 56 112 104 56 112 104 56 112 104 56 112 104 56 112 104 56 112 104 56 112 104 56 112 104 56 112 104 56 112 104 56 112 104 56 112 104 56 112 104 56 112 104 56 112 104 56 112 104 56 112 104 56 112 104 56 112 104 56 112 104 56 112 104 56 112 104 56 112 104 56 112 104 56 112 104 56 112 104 56 112 104 56 112 104 56 112 104 56 112 104 56 120 104 56 120 104 56 120 104 56 120 104 56 120 104 56 120 104 56 120 104 56 120 104 56 120 104 56 120 104 56 120 104 56 120 104 56 120 104 56 120 104 56 120 104 56 120 104 56 120 104 56 120 104 56 120 104 56 120 104 56 120 104 56 120 104 56 120 104 56 120 104 56 120 104 56 120 104 56 120 104 56 120 104 56 120 104 56 120 104 56 120 104 56 120 104 56 112 104 56 112 104 56 112 104 56 112 104 56 112 104 56 112 104 56 112 104 56 112 104 56 112 104 56 112 104 56 112 104 56 112 104 56 112 104 56 112 104 56 112 104 56 112 104 56 112 104 56 112 104 56 112 104 56 112 104 56 112 104 56 112 104 56 112 104 56 112 104 56 112 104 56 112 104 56 112 104 56 112 104 56 112 104 56 112 104 56 112 104 56 112 104 56
200 104 56 200 104 56 200 104 56 200 104 56 200 104 56 200 104 56 200 104 56 200 104 56 200 104 56 200 104 56 200 104 56 200 104 56 200 104 56 200 104 56 200 104 56 200 104 56 200 104 56 200 104 56 200 104 56 200 104 56 200 104 56 200 104 56 200 104 56 200 104 56 200 104 56 200 104 56 200 104 56 200 104 56 200 104 56 200 104 56 200 104 56 200 104 56 112 104 56 112 104 56 112 104 56 112 104 56 112 104 56 112 104 56 112 104 56 112 104 56 112 104 56 112 104 56 112 104 56 112 104 56 112 104 56 112 104 56 112 104 56 112 104 56 112 104 56 112 104 56 112 104 56 112 104 56 112 104 56 112 104 56 112 104 56 112 104 56 112 104 56 112 104 56 112 104 56 112 104 56 112 104 56 112 104 56 112 104 56 112 104 56 120 104 56 120 104 56 120 104 56 120 104 56 120 104 56 120 104 56 120 104 56 120 104 56 120 104 56 120 104 56 120 104 56 120 104 56 120 104 56 120 104 56 120 104 56 120 104 56 120 104 56 120 104 56 120 104 56 120 104 56 120 104 56 120 104 56 120 104 56 120 104 56 120 104 56 120 104 56 120 104 56 120 104 56 120 104 56 120 104 56 120 104 56 120 104 56 112 104 56 112 104 56 112 104 56 112 104 56 112 104 56 112 104 56 112 104 56 112 104 56 112 104 56 112 104 56 112 104 56 112 104 56 112 104 56 112 104 56 112 104 56 112 104 56 112 104 56 112 104 56 112 104 56 112 104 56 112 104 56 112 104 56 112 104 56 112 104 56 112 104 56 112 104 56 112 104 56 112 104 56 112 104 56 112 104 56 112 104 56 112 104 56
200 104 56 200 104 56 200 104 56 200 104 56 200 104 56 200 104 56 200 104 56 200 104 56 200 104 56 200 104 56 200 104 56 200 104 56 200 104 56 200 104 56 200 104 56 200 104 56 200 104 56 200 104 56 200 104 56 200 104 56 200 104 56 200 104 56 200 104 56 200 104 56 200 104 56 200 104 56 200 104 56 200 104 56 200 104 56 200 104 56 200 104 56 200 104 56 112 104 56 112 104 56 112 104 56 112 104 56 112 104 56 112 104 56 112 104 56 112 104 56 112 104 56 112 104 56 112 104 56 112 104 56 112 104 56 112 104 56 112 104 56 112 104 56 112 104 56 112 104 56 112 104 56 112 104 56 112 104 56 112 104 56 112 104 56 112 104 56 112 104 56 112 104 56 112 104 56 112 104 56 112 104 56 112 104 56 112 104 56 112 104 56 120 104 56 120 104 56 120 104 56 120 104 56 120 104 56 120 104 56 120 104 56 120 104 56 120 104 56 120 104 56 120 104 56 120 104 56 120 104 56 120 104 56 120 104 56 120 104 56 120 104 56 120 104 56 120 104 56 120 104 56 120 104 56 120 104 56 120 104 56 120 104 56 120 104 56 120 104 56 120 104 56 120 104 56 120 104 56 120 104 56 120 104 56 120 104 56 112 104 56 112 104 56 112 104 56 112 104 56 112 104 56 112 104 56 112 104 56 112 104 56 112 104 56 112 104 56 112 104 56 112 104 56 112 104 56 112 104 56 112 104 56 112 104 56 112 104 56 112 104 56 112 104 56 112 104 56 112 104 56 112 104 56 112 104 56 112 104 56 112 104 56 112 104 56 112 104 56 112 104 56 112 104 56 112 104 56 112 104 56 112 104 56
200 104 56 200 104 56 200 104 56 200 104 56 200 104 56 200 104 56 200 104 56 200 104 56 200 104 56 200 104 56 200 104 56 200 104 56 200 104 56 200 104 56 200 104 56 200 104 56 200 104 56 200 104 56 200 104 56 200 104 56 200 104 56 200 104 56 200 104 56 200 104 56 200 104 56 200 104 56 200 104 56 200 104 56 200 104 56 200 104 56 200 104 56 200 104 56 112 104 56 112 104 56 112 104 56 112 104 56 112 104 56 112 104 56 112 104 56 112 104 56 112 104 56 112 104 56 112 104 56 112 104 56 112 104 56 112 104 56 112 104 56 112 104 56 112 104 56 112 104 56 112 104 56 112 104 56 112 104 56 112 104 56 112 104 56 112 104 56 112 104 56 112 104 56 112 104 56 112 104 56 112 104 56 112 104 56 112 104 56 112 104 56 120 104 56 120 104 56 120 104 56 120 104 56 120 104 56 120 104 56 120 104 56 120 104 56 120 104 56 120 104 56 120 104 56 120 104 56 120 104 56 120 104 56 120 104 56 120 104 56 120 104 56 120 104 56 120 104 56 120 104 56 120 104 56 120 104 56 120 104 56 120 104 56 120 104 56 120 104 56 120 104 56 120 104 56 120 104 56 120 104 56 120 104 56 120 104 56 112 104 56 112 104 56 112 104 56 112 104 56 112 104 56 112 104 56 112 104 56 112 104 56 112 104 56 112 104 56 112 104 56 112 104 56 112 104 56 112 104 56 112 104 56 112 104 56 112 104 56 112 104 56 112 104 56 112 104 56 112 104 56 112 104 56 112 104 56 112 104 56 112 104 56 112 104 56 112 104 56 112 104 56 112 104 56 112 104 56 112 104 56 112 104 56
200 104 56 200 104 56 200 104 56 200 104 56 200 104 56 200 104 56 200 104 56 200 104 56 200 104 56 200 104 56 200 104 56 200 104 56 200 104 56 200 104 56 200 104 56 200 104 56 200 104 56 200 104 56 200 104 56 200 104 56 200 104 56 200 104 56 200 104 56 200 104 56 200 104 56 200 104 56 200 104 56 200 104 56 200 104 56 200 104 56 200 104 56 200 104 56 112 104 56 112 104 56 112 104 56 112 104 56 112 104 56 112 104 56 112 104 56 112 104 56 112 104 56 112 104 56 112 104 56 112 104 56 112 104 56 112 104 56 112 104 56 112 104 56 112 104 56 112 104 56 112 104 56 112 104 56 112 104 56 112 104 56 112 104 56 112 104 56 112 104 56 112 104 56 112 104 56 112 104 56 112 104 56 112 104 56 112 104 56 112 104 56 120 104 56 120 104 56 120 104 56 120 104 56 120 104 56 120 104 56 120 104 56 120 104 56 120 104 56 120 104 56 120 104 56 120 104 56 120 104 56 120 104 56 120 104 56 120 104 56 120 104 56 120 104 56 120 104 56 120 104 56 120 104 56 120 104 56 120 104 56 120 104 56 120 104 56 120 104 56 120 104 56 120 104 56 120 104 56 120 104 56 120 104 56 120 104 56 112 104 56 112 104 56 112 104 56 112 104 56 112 104 56 112 104 56 112 104 56 112 104 56 112 104 56 112 104 56 112 104 56 112 104 56 112 104 56 112 104 56 112 104 56 112 104 56 112 104 56 112 104 56 112 104 56 112 104 56 112 104 56 112 104 56 112 104 56 112 104 56 112 104 56 112 104 56 112 104 56 112 104 56 112 104 56 112 104 56 112 104 56 112 104 56
200 104 56 200 104 56 200 104 56 200 104 56 200 104 56 200 104 56 200 104 56 200 104 56 200 104 56 200 104 56 200 104 56 200 104 56 200 104 56 200 104 56 200 104 56 200 104 56 200 104 56 200 104 56 200 104 56 200 104 56 200 104 56 200 104 56 200 104 56 200 104 56 200 104 56 200 104 56 200 104 56 200 104 56 200 104 56 200 104 56 200 104 56 200 104 56 112 104 56 112 104 56 112 104 56 112 104 56 112 104 56 112 104 56 112 104 56 112 104 56 112 104 56 112 104 56 112 104 56 112 104 56 112 104 56 112 104 56 112 104 56 112 104 56 112 104 56 112 104 56 112 104 56 112 104 56 112 104 56 112 104 56 112 104 56 112 104 56 112 104 56 112 104 56 112 104 56 112 104 56 112 104 56 112 104 56 112 104 56 112 104 56 120 104 56 120 104 56 120 104 56 120 104 56 120 104 56 120 104 56 120 104 56 120 104 56 120 104 56 120 104 56 120 104 56 120 104 56 120 104 56 120 104 56 120 104 56 120 104 56 120 104 56 120 104 56 120 104 56 120 104 56 120 104 56 120 104 56 120 104 56 120 104 56 120 104 56 120 104 56 120 104 56 120 104 56 120 104 56 120 104 56 120 104 56 120 104 56 112 104 56 112 104 56 112 104 56 112 104 56 112 104 56 112 104 56 112 104 56 112 104 56 112 104 56 112 104 56 112 104 56 112 104 56 112 104 56 112 104 56 112 104 56 112 104 56 112 104 56 112 104 56 112 104 56 112 104 56 112 104 56 112 104 56 112 104 56 112 104 56 112 104 56 112 104 56 112 104 56 112 104 56 112 104 56 112 104 56 112 104 56 112 104 56
200 104 56 200 104 56 200 104 56 200 104 56 200 104 56 200 104 56 200 104 56 200 104 56 200 104 56 200 104 56 200 104 56 200 104 56 200 104 56 200 104 56 200 104 56 200 104 56 200 104 56 200 104 56 200 104 56 200 104 56 200 104 56 200 104 56 200 104 56 200 104 56 200 104 56 200 104 56 200 104 56 200 104 56 200 104 56 200 104 56 200 104 56 200 104 56 112 104 56 112 104 56 112 104 56 112 104 56 112 104 56 112 104 56 112 104 56 112 104 56 112 104 56 112 104 56 112 104 56 112 104 56 112 104 56 112 104 56 112 104 56 112 104 56 112 104 56 112 104 56 112 104 56 112 104 56 112 104 56 112 104 56 112 104 56 112 104 56 112 104 56 112 104 56 112 104 56 112 104 56 112 104 56 112 104 56 112 104 56 112 104 56 120 104 56 120 104 56 120 104 56 120 104 56 120 104 56 120 104 56 120 104 56 120 104 56 120 104 56 120 104 56 120 104 56 120 104 56 120 104 56 120 104 56 120 104 56 120 104 56 120 104 56 120 104 56 120 104 56 120 104 56 120 104 56 120 104 56 120 104 56 120 104 56 120 104 56 120 104 56 120 104 56 120 104 56 120 104 56 120 104 56 120 104 56 120 104 56 112 104 56 112 104 56 112 104 56 112 104 56 112 104 56 112 104 56 112 104 56 112 104 56 112 104 56 112 104 56 112 104 56 112 104 56 112 104 56 112 104 56 112 104 56 112 104 56 112 104 56 112 104 56 112 104 56 112 104 56 112 104 56 112 104 56 112 104 56 112 104 56 112 104 56 112 104 56 112 104 56 112 104 56 112 104 56 112 104 56 112 104 56 112 104 56
200 104 56 200 104 56 200 104 56 200 104 56 200 104 56 200 104 56 200 104 56 200 104 56 200 104 56 200 104 56 200 104 56 200 104 56 200 104 56 200 104 56 200 104 56 200 104 56 200 104 56 200 104 56 200 104 56 200 104 56 200 104 56 200 104 56 200 104 56 200 104 56 200 104 56 200 104 56 200 104 56 200 104 56 200 104 56 200 104 56 200 104 56 200 104 56 112 104 56 112 104 56 112 104 56 112 104 56 112 104 56 112 104 56 112 104 56 112 104 56 112 104 56 112 104 56 112 104 56 112 104 56 112 104 56 112 104 56 112 104 56 112 104 56 112 104 56 112 104 56 112 104 56 112 104 56 112 104 56 112 104 56 112 104 56 112 104 56 112 104 56 112 104 56 112 104 56 112 104 56 112 104 56 112 104 56 112 104 56 112 104 56 120 104 56 120 104 56 120 104 56 120 104 56 120 104 56 120 104 56 120 104 56 120 104 56 120 104 56 120 104 56 120 104 56 120 104 56 120 104 56 120 104 56 120 104 56 120 104 56 120 104 56 120 104 56 120 104 56 120 104 56 120 104 56 120 104 56 120 104 56 120 104 56 120 104 56 120 104 56 120 104 56 120 104 56 120 104 56 120 104 56 120 104 56 120 104 56 112 104 56 112 104 56 112 104 56 112 104 56 112 104 56 112 104 56 112 104 56 112 104 56 112 104 56 112 104 56 112 104 56 112 104 56 112 104 56 112 104 56 112 104 56 112 104 56 112 104 56 112 104 56 112 104 56 112 104 56 112 104 56 112 104 56 112 104 56 112 104 56 112 104 56 112 104 56 112 104 56 112 104 56 112 104 56 112 104 56 112 104 56 112 104 56
200 104 56 200 104 56 200 104 56 200 104 56 200 104 56 200 104 56 200 104 56 200 104 56 200 104 56 200 104 56 200 104 56 200 104 56 200 104 56 200 104 56 200 104 56 200 104 56 200 104 56 200 104 56 200 104 56 200 104 56 200 104 56 200 104 56 200 104 56 200 104 56 200 104 56 200 104 56 200 104 56 200 104 56 200 104 56 200 104 56 200 104 56 200 104 56 112 104 56 112 104 56 112 104 56 112 104 56 112 104 56 112 104 56 112 104 56 112 104 56 112 104 56 112 104 56 112 104 56 112 104 56 112 104 56 112 104 56 112 104 56 112 104 56 112 104 56 112 104 56 112 104 56 112 104 56 112 104 56 112 104 56 112 104 56 112 104 56 112 104 56 112 104 56 112 104 56 112 104 56 112 104 56 112 104 56 112 104 56 112 104 56 120 104 56 120 104 56 120 104 56 120 104 56 120 104 56 120 104 56 120 104 56 120 104 56 120 104 56 120 104 56 120 104 56 120 104 56 120 104 56 120 104 56 120 104 56 120 104 56 120 104 56 120 104 56 120 104 56 120 104 56 120 104 56 120 104 56 120 104 56 120 104 56 120 104 56 120 104 56 120 104 56 120 104 56 120 104 56 120 104 56 120 104 56 120 104 56 112 104 56 112 104 56 112 104 56 112 104 56 112 104 56 112 104 56 112 104 56 112 104 56 112 104 56 112 104 56 112 104 56 112 104 56 112 104 56 112 104 56 112 104 56 112 104 56 112 104 56 112 104 56 112 104 56 112 104 56 112 104 56 112 104 56 112 104 56 112 104 56 112 104 56 112 104 56 112 104 56 112 104 56 112 104 56 112 104 56 112 104 56 112 104 56
200 104 56 200 104 56 200 104 56 200 104 56 200 104 56 200 104 56 200 104 56 200 104 56 200 104 56 200 104 56 200 104 56 200 104 56 200 104 56 200 104 56 200 104 56 200 104 56 200 104 56 200 104 56 200 104 56 200 104 56 200 104 56 200 104 56 200 104 56 200 104 56 200 104 56 200 104 56 200 104 56 200 104 56 200 104 56 200 104 56 200 104 56 200 104 56 112 104 56 112 104 56 112 104 56 112 104 56 112 104 56 112 104 56 112 104 56 112 104 56 112 104 56 112 104 56 112 104 56 112 104 56 112 104 56 112 104 56 112 104 56 112 104 56 112 104 56 112 104 56 112 104 56 112 104 56 112 104 56 112 104 56 112 104 56 112 104 56 112 104 56 112 104 56 112 104 56 112 104 56 112 104 56 112 104 56 112 104 56 112 104 56 120 104 56 120 104 56 120 104 56 120 104 56 120 104 56 120 104 56 120 104 56 120 104 56 120 104 56 120 104 56 120 104 56 120 104 56 120 104 56 120 104 56 120 104 56 120 104 56 120 104 56 120 104 56 120 104 56 120 104 56 120 104 56 120 104 56 120 104 56 120 104 56 120 104 56 120 104 56 120 104 56 120 104 56 120 104 56 120 104 56 120 104 56 120 104 56 112 104 56 112 104 56 112 104 56 112 104 56 112 104 56 112 104 56 112 104 56 112 104 56 112 104 56 112 104 56 112 104 56 112 104 56 112 104 56 112 104 56 112 104 56 112 104 56 112 104 56 112 104 56 112 104 56 112 104 56 112 104 56 112 104 56 112 104 56 112 104 56 112 104 56 112 104 56 112 104 56 112 104 56 112 104 56 112 104 56 112 104 56 112 104 56
200 104 56 200 104 56 200 104 56 200 104 56 200 104 56 200 104 56 200 104 56 200 104 56 200 104 56 200 104 56 200 104 56 200 104 56 200 104 56 200 104 56 200 104 56 200 104 56 200 104 56 200 104 56 200 104 56 200 104 56 200 104 56 200 104 56 200 104 56 200 104 56 200 104 56 200 104 56 200 104 56 200 104 56 200 104 56 200 104 56 200 104 56 200 104 56 112 104 56 112 104 56 112 104 56 112 104 56 112 104 56 112 104 56 112 104 56 112 104 56 112 104 56 112 104 56 112 104 56 112 104 56 112 104 56 112 104 56 112 104 56 112 104 56 112 104 56 112 104 56 112 104 56 112 104 56 112 104 56 112 104 56 112 104 56 112 104 56 112 104 56 112 104 56 112 104 56 112 104 56 112 104 56 112 104 56 112 104 56 112 104 56 120 104 56 120 104 56 120 104 56 120 104 56 120 104 56 120 104 56 120 104 56 120 104 56 120 104 56 120 104 56 120 104 56 120 104 56 120 104 56 120 104 56 120 104 56 120 104 56 120 104 56 120 104 56 120 104 56 120 104 56 120 104 56 120 104 56 120 104 56 120 104 56 120 104 56 120 104 56 120 104 56 120 104 56 120 104 56 120 104 56 120 104 56 120 104 56 112 104 56 112 104 56 112 104 56 112 104 56 112 104 56 112 104 56 112 104 56 112 104 56 112 104 56 112 104 56 112 104 56 112 104 56 112 104 56 112 104 56 112 104 56 112 104 56 112 104 56 112 104 56 112 104 56 112 104 56 112 104 56 112 104 56 112 104 56 112 104 56 112 104 56 112 104 56 112 104 56 112 104 56 112 104 56 112 104 56 112 104 56 112 104 56
200 104 56 200 104 56 200 104 56 200 104 56 200 104 56 200 104 56 200 104 56 200 104 56 200 104 56 200 104 56 200 104 56 200 104 56 200 104 56 200 104 56 200 104 56 200 104 56 200 104 56 200 104 56 200 104 56 200 104 56 200 104 56 200 104 56 200 104 56 200 104 56 200 104 56 200 104 56 200 104 56 200 104 56 200 104 56 200 104 56 200 104 56 200 104 56 112 104 56 112 104 56 112 104 56 112 104 56 112 104 56 112 104 56 112 104 56 112 104 56 112 104 56 112 104 56 112 104 56 112 104 56 112 104 56 112 104 56 112 104 56 112 104 56 112 104 56 112 104 56 112 104 56 112 104 56 112 104 56 112 104 56 112 104 56 112 104 56 112 104 56 112 104 56 112 104 56 112 104 56 112 104 56 112 104 56 112 104 56 112 104 56 120 104 56 120 104 56 120 104 56 120 104 56 120 104 56 120 104 56 120 104 56 120 104 56 120 104 56 120 104 56 120 104 56 120 104 56 120 104 56 120 104 56 120 104 56 120 104 56 120 104 56 120 104 56 120 104 56 120 104 56 120 104 56 120 104 56 120 104 56 120 104 56 120 104 56 120 104 56 120 104 56 120 104 56 120 104 56 120 104 56 120 104 56 120 104 56 112 104 56 112 104 56 112 104 56 112 104 56 112 104 56 112 104 56 112 104 56 112 104 56 112 104 56 112 104 56 112 104 56 112 104 56 112 104 56 112 104 56 112 104 56 112 104 56 112 104 56 112 104 56 112 104 56 112 104 56 112 104 56 112 104 56 112 104 56 112 104 56 112 104 56 112 104 56 112 104 56 112 104 56 112 104 56 112 104 56 112 104 56 112 104 56
200 104 56 200 104 56 200 104 56 200 104 56 200 104 56 200 104 56 200 104 56 200 104 56 200 104 56 200 104 56 200 104 56 200 104 56 200 104 56 200 104 56 200 104 56 200 104 56 200 104 56 200 104 56 200 104 56 200 104 56 200 104 56 200 104 56 200 104 56 200 104 56 200 104 56 200 104 56 200 104 56 200 104 56 200 104 56 200 104 56 200 104 56 200 104 56 112 104 56 112 104 56 112 104 56 112 104 56 112 104 56 112 104 56 112 104 56 112 104 56 112 104 56 112 104 56 112 104 56 112 104 56 112 104 56 112 104 56 112 104 56 112 104 56 112 104 56 112 104 56 112 104 56 112 104 56 112 104 56 112 104 56 112 104 56 112 104 56 112 104 56 112 104 56 112 104 56 112 104 56 112 104 56 112 104 56 112 104 56 112 104 56 120 104 56 120 104 56 120 104 56 120 104 56 120 104 56 120 104 56 120 104 56 120 104 56 120 104 56 120 104 56 120 104 56 120 104 56 120 104 56 120 104 56 120 104 56 120 104 56 120 104 56 120 104 56 120 104 56 120 104 56 120 104 56 120 104 56 120 104 56 120 104 56 120 104 56 120 104 56 120 104 56 120 104 56 120 104 56 120 104 56 120 104 56 120 104 56 112 104 56 112 104 56 112 104 56 112 104 56 112 104 56 112 104 56 112 104 56 112 104 56 112 104 56 112 104 56 112 104 56 112 104 56 112 104 56 112 104 56 112 104 56 112 104 56 112 104 56 112 104 56 112 104 56 112 104 56 112 104 56 112 104 56 112 104 56 112 104 56 112 104 56 112 104 56 112 104 56 112 104 56 112 104 56 112 104 56 112 104 56 112 104 56
200 104 56 200 104 56 200 104 56 200 104 56 200 104 56 200 104 56 200 104 56 200 104 56 200 104 56 200 104 56 200 104 56 200 104 56 200 104 56 200 104 56 200 104 56 200 104 56 200 104 56 200 104 56 200 104 56 200 104 56 200 104 56 200 104 56 200 104 56 200 104 56 200 104 56 200 104 56 200 104 56 200 104 56 200 104 56 200 104 56 200 104 56 200 104 56 112 104 56 112 104 56 112 104 56 112 104 56 112 104 56 112 104 56 112 104 56 112 104 56 112 104 56 112 104 56 112 104 56 112 104 56 112 104 56 112 104 56 112 104 56 112 104 56 112 104 56 112 104 56 112 104 56 112 104 56 112 104 56 112 104 56 112 104 56 112 104 56 112 104 56 112 104 56 112 104 56 112 104 56 112 104 56 112 104 56 112 104 56 112 104 56 120 104 56 120 104 56 120 104 56 120 104 56 120 104 56 120 104 56 120 104 56 120 104 56 120 104 56 120 104 56 120 104 56 120 104 56 120 104 56 120 104 56 120 104 56 120 104 56 120 104 56 120 104 56 120 104 56 120 104 56 120 104 56 120 104 56 120 104 56 120 104 56 120 104 56 120 104 56 120 104 56 120 104 56 120 104 56 120 104 56 120 104 56 120 104 56 112 104 56 112 104 56 112 104 56 112 104 56 112 104 56 112 104 56 112 104 56 112 104 56 112 104 56 112 104 56 112 104 56 112 104 56 112 104 56 112 104 56 112 104 56 112 104 56 112 104 56 112 104 56 112 104 56 112 104 56 112 104 56 112 104 56 112 104 56 112 104 56 112 104 56 112 104 56 112 104 56 112 104 56 112 104 56 112 104 56 112 104 56 112 104 56
200 104 56 200 104 56 200 104 56 200 104 56 200 104 56 200 104 56 200 104 56 200 104 56 200 104 56 200 104 56 200 104 56 200 104 56 200 104 56 200 104 56 200 104 56 200 104 56 200 104 56 200 104 56 200 104 56 200 104 56 200 104 56 200 104 56 200 104 56 200 104 56 200 104 56 200 104 56 200 104 56 200 104 56 200 104 56 200 104 56 200 104 56 200 104 56 112 104 56 112 104 56 112 104 56 112 104 56 112 104 56 112 104 56 112 104 56 112 104 56 112 104 56 112 104 56 112 104 56 112 104 56 112 104 56 112 104 56 112 104 56 112 104 56 112 104 56 112 104 56 112 104 56 112 104 56 112 104 56 112 104 56 112 104 56 112 104 56 112 104 56 112 104 56 112 104 56 112 104 56 112 104 56 112 104 56 112 104 56 112 104 56 120 104 56 120 104 56 120 104 56 120 104 56 120 104 56 120 104 56 120 104 56 120 104 56 120 104 56 120 104 56 120 104 56 120 104 56 120 104 56 120 104 56 120 104 56 120 104 56 120 104 56 120 104 56 120 104 56 120 104 56 120 104 56 120 104 56 120 104 56 120 104 56 120 104 56 120 104 56 120 104 56 120 104 56 120 104 56 120 104 56 120 104 56 120 104 56 112 104 56 112 104 56 112 104 56 112 104 56 112 104 56 112 104 56 112 104 56 112 104 56 112 104 56 112 104 56 112 104 56 112 104 56 112 104 56 112 104 56 112 104 56 112 104 56 112 104 56 112 104 56 112 104 56 112 104 56 112 104 56 112 104 56 112 104 56 112 104 56 112 104 56 112 104 56 112 104 56 112 104 56 112 104 56 112 104 56 112 104 56 112 104 56
200 104 56 200 104 56 200 104 56 200 104 56 200 104 56 200 104 56 200 104 56 200 104 56 200 104 56 200 104 56 200 104 56 200 104 56 200 104 56 200 104 56 200 104 56 200 104 56 200 104 56 200 104 56 200 104 56 200 104 56 200 104 56 200 104 56 200 104 56 200 104 56 200 104 56 200 104 56 200 104 56 200 104 56 200 104 56 200 104 56 200 104 56 200 104 56 112 104 56 112 104 56 112 104 56 112 104 56 112 104 56 112 104 56 112 104 56 112 104 56 112 104 56 112 104 56 112 104 56 112 104 56 112 104 56 112 104 56 112 104 56 112 104 56 112 104 56 112 104 56 112 104 56 112 104 56 112 104 56 112 104 56 112 104 56 112 104 56 112 104 56 112 104 56 112 104 56 112 104 56 112 104 56 112 104 56 112 104 56 112 104 56 120 104 56 120 104 56 120 104 56 120 104 56 120 104 56 120 104 56 120 104 56 120 104 56 120 104 56 120 104 56 120 104 56 120 104 56 120 104 56 120 104 56 120 104 56 120 104 56 120 104 56 120 104 56 120 104 56 120 104 56 120 104 56 120 104 56 120 104 56 120 104 56 120 104 56 120 104 56 120 104 56 120 104 56 120 104 56 120 104 56 120 104 56 120 104 56 112 104 56 112 104 56 112 104 56 112 104 56 112 104 56 112 104 56 112 104 56 112 104 56 112 104 56 112 104 56 112 104 56 112 104 56 112 104 56 112 104 56 112 104 56 112 104 56 112 104 56 112 104 56 112 104 56 112 104 56 112 104 56 112 104 56 112 104 56 112 104 56 112 104 56 112 104 56 112 104 56 112 104 56 112 104 56 112 104 56 112 104 56 112 104 56
120 104 56 120 104 56 120 104 56 120 104 56 120 104 56 120 104 56 120 104 56 120 104 56 120 104 56 120 104 56 120 104 56 120 104 56 120 104 56 120 104 56 120 104 56 120 104 56 120 104 56 120 104 56 120 104 56 120 104 56 120 104 56 120 104 56 120 104 56 120 104 56 120 104 56 120 104 56 120 104 56 120 104 56 120 104 56 120 104 56 120 104 56 120 104 56 240 104 56 240 104 56 240 104 56 240 104 56 240 104 56 240 104 56 240 104 56 240 104 56 240 104 56 240 104 56 240 104 56 240 104 56 240 104 56 240 104 56 240 104 56 240 104 56 240 104 56 240 104 56 240 104 56 240 104 56 240 104 56 240 104 56 240 104 56 240 104 56 240 104 56 240 104 56 240 104 56 240 104 56 240 104 56 240 104 56 240 104 56 240 104 56 248 104 56 248 104 56 248 104 56 248 104 56 248 104 56 248 104 56 248 104 56 248 104 56 248 104 56 248 104 56 248 104 56 248 104 56 248 104 56 248 104 56 248 104 56 248 104 56 248 104 56 248 104 56 248 104 56 248 104 56 248 104 56 248 104 56 248 104 56 248 104 56 248 104 56 248 104 56 248 104 56 248 104 56 248 104 56 248 104 56 248 104 56 248 104 56 240 104 56 240 104 56 240 104 56 240 104 56 240 104 56 240 104 56 240 104 56 240 104 56 240 104 56 240 104 56 240 104 56 240 104 56 240 104 56 240 104 56 240 104 56 240 104 56 240 104 56 240 104 56 240 104 56 240 104 56 240 104 56 240 104 56 240 104 56 240 104 56 240 104 56 240 104 56 240 104 56 240 104 56 240 104 56 240 104 56 240 104 56 240 104 56
120 104 56 120 104 56 120 104 56 120 104 56 120 104 56 120 104 56 120 104 56 120 104 56 120 104 56 120 104 56 120 104 56 120 104 56 120 104 56 120 104 56 120 104 56 120 104 56 120 104 56 120 104 56 120 104 56 120 104 56 120 104 56 120 104 56 120 104 56 120 104 56 120 104 56 120 104 56 120 104 56 120 104 56 120 104 56 120 104 56 120 104 56 120 104 56 240 104 56 240 104 56 240 104 56 240 104 56 240 104 56 240 104 56 240 104 56 240 104 56 240 104 56 240 104 56 240 104 56 240 104 56 240 104 56 240 104 56 240 104 56 240 104 56 240 104 56 240 104 56 240 104 56 240 104 56 240 104 56 240 104 56 240 104 56 240 104 56 240 104 56 240 104 56 240 104 56 240 104 56 240 104 56 240 104 56 240 104 56 240 104 56 248 104 56 248 104 56 248 104 56 248 104 56 248 104 56 248 104 56 248 104 56 248 104 56 248 104 56 248 104 56 248 104 56 248 104 56 248 104 56 248 104 56 248 104 56 248 104 56 248 104 56 248 104 56 248 104 56 248 104 56 248 104 56 248 104 56 248 104 56 248 104 56 248 104 56 248 104 56 248 104 56 248 104 56 248 104 56 248 104 56 248 104 56 248 104 56 240 104 56 240 104 56 240 104 56 240 104 56 240 104 56 240 104 56 240 104 56 240 104 56 240 104 56 240 104 56 240 104 56 240 104 56 240 104 56 240 104 56 240 104 56 240 104 56 240 104 56 240 104 56 240 104 56 240 104 56 240 104 56 240 104 56 240 104 56 240 104 56 240 104 56 240 104 56 240 104 56 240 104 56 240 104 56 240 104 56 240 104 56 240 104 56
120 104 56 120 104 56 120 104 56 120 104 56 120 104 56 120 104 56 120 104 56 120 104 56 120 104 56 120 104 56 120 104 56 120 104 56 120 104 56 120 104 56 120 104 56 120 104 56 120 104 56 120 104 56 120 104 56 120 104 56 120 104 56 120 104 56 120 104 56 120 104 56 120 104 56 120 104 56 120 104 56 120 104 56 120 104 56 120 104 56 120 104 56 120 104 56 240 104 56 240 104 56 240 104 56 240 104 56 240 104 56 240 104 56 240 104 56 240 104 56 240 104 56 240 104 56 240 104 56 240 104 56 240 104 56 240 104 56 240 104 56 240 104 56 240 104 56 240 104 56 240 104 56 240 104 56 240 104 56 240 104 56 240 104 56 240 104 56 240 104 56 240 104 56 240 104 56 240 104 56 240 104 56 240 104 56 240 104 56 240 104 56 248 104 56 248 104 56 248 104 56 248 104 56 248 104 56 248 104 56 248 104 56 248 104 56 248 104 56 248 104 56 248 104 56 248 104 56 248 104 56 248 104 56 248 104 56 248 104 56 248 104 56 248 104 56 248 104 56 248 104 56 248 104 56 248 104 56 248 104 56 248 104 56 248 104 56 248 104 56 248 104 56 248 104 56 248 104 56 248 104 56 248 104 56 248 104 56 240 104 56 240 104 56 240 104 56 240 104 56 240 104 56 240 104 56 240 104 56 240 104 56 240 104 56 240 104 56 240 104 56 240 104 56 240 104 56 240 104 56 240 104 56 240 104 56 240 104 56 240 104 56 240 104 56 240 104 56 240 104 56 240 104 56 240 104 56 240 104 56 240 104 56 240 104 56 240 104 56 240 104 56 240 104 56 240 104 56 240 104 56 240 104 56
120 104 56 120 104 56 120 104 56 120 104 56 120 104 56 120 104 56 120 104 56 120 104 56 120 104 56 120 104 56 120 104 56 120 104 56 120 104 56 120 104 56 120 104 56 120 104 56 120 104 56 120 104 56 120 104 56 120 104 56 120 104 56 120 104 56 120 104 56 120 104 56 120 104 56 120 104 56 120 104 56 120 104 56 120 104 56 120 104 56 120 104 56 120 104 56 240 104 56 240 104 56 240 104 56 240 104 56 240 104 56 240 104 56 240 104 56 240 104 56 240 104 56 240 104 56 240 104 56 240 104 56 240 104 56 240 104 56 240 104 56 240 104 56 240 104 56 240 104 56 240 104 56 240 104 56 240 104 56 240 104 56 240 104 56 240 104 56 240 104 56 240 104 56 240 104 56 240 104 56 240 104 56 240 104 56 240 104 56 240 104 56 248 104 56 248 104 56 248 104 56 248 104 56 248 104 56 248 104 56 248 104 56 248 104 56 248 104 56 248 104 56 248 104 56 248 104 56 248 104 56 248 104 56 248 104 56 248 104 56 248 104 56 248 104 56 248 104 56 248 104 56 248 104 56 248 104 56 248 104 56 248 104 56 248 104 56 248 104 56 248 104 56 248 104 56 248 104 56 248 104 56 248 104 56 248 104 56 240 104 56 240 104 56 240 104 56 240 104 56 240 104 56 240 104 56 240 104 56 240 104 56 240 104 56 240 104 56 240 104 56 240 104 56 240 104 56 240 104 56 240 104 56 240 104 56 240 104 56 240 104 56 240 104 56 240 104 56 240 104 56 240 104 56 240 104 56 240 104 56 240 104 56 240 104 56 240 104 56 240 104 56 240 104 56 240 104 56 240 104 56 240 104 56
120 104 56 120 104 56 120 104 56 120 104 56 120 104 56 120 104 56 120 104 56 120 104 56 120 104 56 120 104 56 120 104 56 120 104 56 120 104 56 120 104 56 120 104 56 120 104 56 120 104 56 120 104 56 120 104 56 120 104 56 120 104 56 120 104 56 120 104 56 120 104 56 120 104 56 120 104 56 120 104 56 120 104 56 120 104 56 120 104 56 120 104 56 120 104 56 240 104 56 240 104 56 240 104 56 240 104 56 240 104 56 240 104 56 240 104 56 240 104 56 240 104 56 240 104 56 240 104 56 240 104 56 240 104 56 240 104 56 240 104 56 240 104 56 240 104 56 240 104 56 240 104 56 240 104 56 240 104 56 240 104 56 240 104 56 240 104 56 240 104 56 240 104 56 240 104 56 240 104 56 240 104 56 240 104 56 240 104 56 240 104 56 248 104 56 248 104 56 248 104 56 248 104 56 248 104 56 248 104 56 248 104 56 248 104 56 248 104 56 248 104 56 248 104 56 248 104 56 248 104 56 248 104 56 248 104 56 248 104 56 248 104 56 248 104 56 248 104 56 248 104 56 248 104 56 248 104 56 248 104 56 248 104 56 248 104 56 248 104 56 248 104 56 248 104 56 248 104 56 248 104 56 248 104 56 248 104 56 240 104 56 240 104 56 240 104 56 240 104 56 240 104 56 240 104 56 240 104 56 240 104 56 240 104 56 240 104 56 240 104 56 240 104 56 240 104 56 240 104 56 240 104 56 240 104 56 240 104 56 240 104 56 240 104 56 240 104 56 240 104 56 240 104 56 240 104 56 240 104 56 240 104 56 240 104 56 240 104 56 240 104 56 240 104 56 240 104 56 240 104 56 240 104 56
120 104 56 120 104 56 120 104 56 120 104 56 120 104 56 120 104 56 120 104 56 120 104 56 120 104 56 120 104 56 120 104 56 120 104 56 120 104 56 120 104 56 120 104 56 120 104 56 120 104 56 120 104 56 120 104 56 120 104 56 120 104 56 120 104 56 120 104 56 120 104 56 120 104 56 120 104 56 120 104 56 120 104 56 120 104 56 120 104 56 120 104 56 120 104 56 240 104 56 240 104 56 240 104 56 240 104 56 240 104 56 240 104 56 240 104 56 240 104 56 240 104 56 240 104 56 240 104 56 240 104 56 240 104 56 240 104 56 240 104 56 240 104 56 240 104 56 240 104 56 240 104 56 240 104 56 240 104 56 240 104 56 240 104 56 240 104 56 240 104 56 240 104 56 240 104 56 240 104 56 240 104 56 240 104 56 240 104 56 240 104 56 248 104 56 248 104 56 248 104 56 248 104 56 248 104 56 248 104 56 248 104 56 248 104 56 248 104 56 248 104 56 248 104 56 248 104 56 248 104 56 248 104 56 248 104 56 248 104 56 248 104 56 248 104 56 248 104 56 248 104 56 248 104 56 248 104 56 248 104 56 248 104 56 248 104 56 248 104 56 248 104 56 248 104 56 248 104 56 248 104 56 248 104 56 248 104 56 240 104 56 240 104 56 240 104 56 240 104 56 240 104 56 240 104 56 240 104 56 240 104 56 240 104 56 240 104 56 240 104 56 240 104 56 240 104 56 240 104 56 240 104 56 240 104 56 240 104 56 240 104 56 240 104 56 240 104 56 240 104 56 240 104 56 240 104 56 240 104 56 240 104 56 240 104 56 240 104 56 240 104 56 240 104 56 240 104 56 240 104 56 240 104 56
120 104 56 120 104 56 120 104 56 120 104 56 120 104 56 120 104 56 120 104 56 120 104 56 120 104 56 120 104 56 120 104 56 120 104 56 120 104 56 120 104 56 120 104 56 120 104 56 120 104 56 120 104 56 120 104 56 120 104 56 120 104 56 120 104 56 120 104 56 120 104 56 120 104 56 120 104 56 120 104 56 120 104 56 120 104 56 120 104 56 120 104 56 120 104 56 240 104 56 240 104 56 240 104 56 240 104 56 240 104 56 240 104 56 240 104 56 240 104 56 240 104 56 240 104 56 240 104 56 240 104 56 240 104 56 240 104 56 240 104 56 240 104 56 240 104 56 240 104 56 240 104 56 240 104 56 240 104 56 240 104 56 240 104 56 240 104 56 240 104 56 240 104 56 240 104 56 240 104 56 240 104 56 240 104 56 240 104 56 240 104 56 248 104 56 248 104 56 248 104 56 248 104 56 248 104 56 248 104 56 248 104 56 248 104 56 248 104 56 248 104 56 248 104 56 248 104 56 248 104 56 248 104 56 248 104 56 248 104 56 248 104 56 248 104 56 248 104 56 248 104 56 248 104 56 248 104 56 248 104 56 248 104 56 248 104 56 248 104 56 248 104 56 248 104 56 248 104 56 248 104 56 248 104 56 248 104 56 240 104 56 240 104 56 240 104 56 240 104 56 240 104 56 240 104 56 240 104 56 240 104 56 240 104 56 240 104 56 240 104 56 240 104 56 240 104 56 240 104 56 240 104 56 240 104 56 240 104 56 240 104 56 240 104 56 240 104 56 240 104 56 240 104 56 240 104 56 240 104 56 240 104 56 240 104 56 240 104 56 240 104 56 240 104 56 240 104 56 240 104 56 240 104 56
120 104 56 120 104 56 120 104 56 120 104 56 120 104 56 120 104 56 120 104 56 120 104 56 120 104 56 120 104 56 120 104 56 120 104 56 120 104 56 120 104 56 120 104 56 120 104 56 120 104 56 120 104 56 120 104 56 120 104 56 120 104 56 120 104 56 120 104 56 120 104 56 120 104 56 120 104 56 120 104 56 120 104 56 120 104 56 120 104 56 120 104 56 120 104 56 240 104 56 240 104 56 240 104 56 240 104 56 240 104 56 240 104 56 240 104 56 240 104 56 240 104 56 240 104 56 240 104 56 240 104 56 240 104 56 240 104 56 240 104 56 240 104 56 240 104 56 240 104 56 240 104 56 240 104 56 240 104 56 240 104 56 240 104 56 240 104 56 240 104 56 240 104 56 240 104 56 240 104 56 240 104 56 240 104 56 240 104 56 240 104 56 248 104 56 248 104 56 248 104 56 248 104 56 248 104 56 248 104 56 248 104 56 248 104 56 248 104 56 248 104 56 248 104 56 248 104 56 248 104 56 248 104 56 248 104 56 248 104 56 248 104 56 248 104 56 248 104 56 248 104 56 248 104 56 248 104 56 248 104 56 248 104 56 248 104 56 248 104 56 248 104 56 248 104 56 248 104 56 248 104 56 248 104 56 248 104 56 240 104 56 240 104 56 240 104 56 240 104 56 240 104 56 240 104 56 240 104 56 240 104 56 240 104 56 240 104 56 240 104 56 240 104 56 240 104 56 240 104 56 240 104 56 240 104 56 240 104 56 240 104 56 240 104 56 240 104 56 240 104 56 240 104 56 240 104 56 240 104 56 240 104 56 240 104 56 240 104 56 240 104 56 240 104 56 240 104 56 240 104 56 240 104 56
120 104 56 120 104 56 120 104 56 120 104 56 120 104 56 120 104 56 120 104 56 120 104 56 120 104 56 120 104 56 120 104 56 120 104 56 120 104 56 120 104 56 120 104 56 120 104 56 120 104 56 120 104 56 120 104 56 120 104 56 120 104 56 120 104 56 120 104 56 120 104 56 120 104 56 120 104 56 120 104 56 120 104 56 120 104 56 120 104 56 120 104 56 120 104 56 240 104 56 240 104 56 240 104 56 240 104 56 240 104 56 240 104 56 240 104 56 240 104 56 240 104 56 240 104 56 240 104 56 240 104 56 240 104 56 240 104 56 240 104 56 240 104 56 240 104 56 240 104 56 240 104 56 240 104 56 240 104 56 240 104 56 240 104 56 240 104 56 240 104 56 240 104 56 240 104 56 240 104 56 240 104 56 240 104 56 240 104 56 240 104 56 248 104 56 248 104 56 248 104 56 248 104 56 248 104 56 248 104 56 248 104 56 248 104 56 248 104 56 248 104 56 248 104 56 248 104 56 248 104 56 248 104 56 248 104 56 248 104 56 248 104 56 248 104 56 248 104 56 248 104 56 248 104 56 248 104 56 248 104 56 248 104 56 248 104 56 248 104 56 248 104 56 248 104 56 248 104 56 248 104 56 248 104 56 248 104 56 240 104 56 240 104 56 240 104 56 240 104 56 240 104 56 240 104 56 240 104 56 240 104 56 240 104 56 240 104 56 240 104 56 240 104 56 240 104 56 240 104 56 240 104 56 240 104 56 240 104 56 240 104 56 240 104 56 240 104 56 240 104 56 240 104 56 240 104 56 240 104 56 240 104 56 240 104 56 240 104 56 240 104 56 240 104 56 240 104 56 240 104 56 240 104 56
120 104 56 120 104 56 120 104 56 120 104 56 120 104 56 120 104 56 120 104 56 120 104 56 120 104 56 120 104 56 120 104 56 120 104 56 120 104 56 120 104 56 120 104 56 120 104 56 120 104 56 120 104 56 120 104 56 120 104 56 120 104 56 120 104 56 120 104 56 120 104 56 120 104 56 120 104 56 120 104 56 120 104 56 120 104 56 120 104 56 120 104 56 120 104 56 240 104 56 240 104 56 240 104 56 240 104 56 240 104 56 240 104 56 240 104 56 240 104 56 240 104 56 240 104 56 240 104 56 240 104 56 240 104 56 240 104 56 240 104 56 240 104 56 240 104 56 240 104 56 240 104 56 240 104 56 240 104 56 240 104 56 240 104 56 240 104 56 240 104 56 240 104 56 240 104 56 240 104 56 240 104 56 240 104 56 240 104 56 240 104 56 248 104 56 248 104 56 248 104 56 248 104 56 248 104 56 248 104 56 248 104 56 248 104 56 248 104 56 248 104 56 248 104 56 248 104 56 248 104 56 248 104 56 248 104 56 248 104 56 248 104 56 248 104 56 248 104 56 248 104 56 248 104 56 248 104 56 248 104 56 248 104 56 248 104 56 248 104 56 248 104 56 248 104 56 248 104 56 248 104 56 248 104 56 248 104 56 240 104 56 240 104 56 240 104 56 240 104 56 240 104 56 240 104 56 240 104 56 240 104 56 240 104 56 240 104 56 240 104 56 240 104 56 240 104 56 240 104 56 240 104 56 240 104 56 240 104 56 240 104 56 240 104 56 240 104 56 240 104 56 240 104 56 240 104 56 240 104 56 240 104 56 240 104 56 240 104 56 240 104 56 240 104 56 240 104 56 240 104 56 240 104 56
120 104 56 120 104 56 120 104 56 120 104 56 120 104 56 120 104 56 120 104 56 120 104 56 120 104 56 120 104 56 120 104 56 120 104 56 120 104 56 120 104 56 120 104 56 120 104 56 120 104 56 120 104 56 120 104 56 120 104 56 120 104 56 120 104 56 120 104 56 120 104 56 120 104 56 120 104 56 120 104 56 120 104 56 120 104 56 120 104 56 120 104 56 120 104 56 240 104 56 240 104 56 240 104 56 240 104 56 240 104 56 240 104 56 240 104 56 240 104 56 240 104 56 240 104 56 240 104 56 240 104 56 240 104 56 240 104 56 240 104 56 240 104 56 240 104 56 240 104 56 240 104 56 240 104 56 240 104 56 240 104 56 240 104 56 240 104 56 240 104 56 240 104 56 240 104 56 240 104 56 240 104 56 240 104 56 240 104 56 240 104 56 248 104 56 248 104 56 248 104 56 248 104 56 248 104 56 248 104 56 248 104 56 248 104 56 248 104 56 248 104 56 248 104 56 248 104 56 248 104 56 248 104 56 248 104 56 248 104 56 248 104 56 248 104 56 248 104 56 248 104 56 248 104 56 248 104 56 248 104 56 248 104 56 248 104 56 248 104 56 248 104 56 248 104 56 248 104 56 248 104 56 248 104 56 248 104 56 240 104 56 240 104 56 240 104 56 240 104 56 240 104 56 240 104 56 240 104 56 240 104 56 240 104 56 240 104 56 240 104 56 240 104 56 240 104 56 240 104 56 240 104 56 240 104 56 240 104 56 240 104 56 240 104 56 240 104 56 240 104 56 240 104 56 240 104 56 240 104 56 240 104 56 240 104 56 240 104 56 240 104 56 240 104 56 240 104 56 240 104 56 240 104 56
120 104 56 120 104 56 120 104 56 120 104 56 120 104 56 120 104 56 120 104 56 120 104 56 120 104 56 120 104 56 120 104 56 120 104 56 120 104 56 120 104 56 120 104 56 120 104 56 120 104 56 120 104 56 120 104 56 120 104 56 120 104 56 120 104 56 120 104 56 120 104 56 120 104 56 120 104 56 120 104 56 120 104 56 120 104 56 120 104 56 120 104 56 120 104 56 240 104 56 240 104 56 240 104 56 240 104 56 240 104 56 240 104 56 240 104 56 240 104 56 240 104 56 240 104 56 240 104 56 240 104 56 240 104 56 240 104 56 240 104 56 240 104 56 240 104 56 240 104 56 240 104 56 240 104 56 240 104 56 240 104 56 240 104 56 240 104 56 240 104 56 240 104 56 240 104 56 240 104 56 240 104 56 240 104 56 240 104 56 240 104 56 248 104 56 248 104 56 248 104 56 248 104 56 248 104 56 248 104 56 248 104 56 248 104 56 248 104 56 248 104 56 248 104 56 248 104 56 248 104 56 248 104 56 248 104 56 248 104 56 248 104 56 248 104 56 248 104 56 248 104 56 248 104 56 248 104 56 248 104 56 248 104 56 248 104 56 248 104 56 248 104 56 248 104 56 248 104 56 248 104 56 248 104 56 248 104 56 240 104 56 240 104 56 240 104 56 240 104 56 240 104 56 240 104 56 240 104 56 240 104 56 240 104 56 240 104 56 240 104 56 240 104 56 240 104 56 240 104 56 240 104 56 240 104 56 240 104 56 240 104 56 240 104 56 240 104 56 240 104 56 240 104 56 240 104 56 240 104 56 240 104 56 240 104 56 240 104 56 240 104 56 240 104 56 240 104 56 240 104 56 240 104 56
120 104 56 120 104 56 120 104 56 120 104 56 120 104 56 120 104 56 120 104 56 120 104 56 120 104 56 120 104 56 120 104 56 120 104 56 120 104 56 120 104 56 120 104 56 120 104 56 120 104 56 120 104 56 120 104 56 120 104 56 120 104 56 120 104 56 120 104 56 120 104 56 120 104 56 120 104 56 120 104 56 120 104 56 120 104 56 120 104 56 120 104 56 120 104 56 240 104 56 240 104 56 240 104 56 240 104 56 240 104 56 240 104 56 240 104 56 240 104 56 240 104 56 240 104 56 240 104 56 240 104 56 240 104 56 240 104 56 240 104 56 240 104 56 240 104 56 240 104 56 240 104 56 240 104 56 240 104 56 240 104 56 240 104 56 240 104 56 240 104 56 240 104 56 240 104 56 240 104 56 240 104 56 240 104 56 240 104 56 240 104 56 248 104 56 248 104 56 248 104 56 248 104 56 248 104 56 248 104 56 248 104 56 248 104 56 248 104 56 248 104 56 248 104 56 248 104 56 248 104 56 248 104 56 248 104 56 248 104 56 248 104 56 248 104 56 248 104 56 248 104 56 248 104 56 248 104 56 248 104 56 248 104 56 248 104 56 248 104 56 248 104 56 248 104 56 248 104 56 248 104 56 248 104 56 248 104 56 240 104 56 240 104 56 240 104 56 240 104 56 240 104 56 240 104 56 240 104 56 240 104 56 240 104 56 240 104 56 240 104 56 240 104 56 240 104 56 240 104 56 240 104 56 240 104 56 240 104 56 240 104 56 240 104 56 240 104 56 240 104 56 240 104 56 240 104 56 240 104 56 240 104 56 240 104 56 240 104 56 240 104 56 240 104 56 240 104 56 240 104 56 240 104 56
120 104 56 120 104 56 120 104 56 120 104 56 120 104 56 120 104 56 120 104 56 120 104 56 120 104 56 120 104 56 120 104 56 120 104 56 120 104 56 120 104 56 120 104 56 120 104 56 120 104 56 120 104 56 120 104 56 120 104 56 120 104 56 120 104 56 120 104 56 120 104 56 120 104 56 120 104 56 120 104 56 120 104 56 120 104 56 120 104 56 120 104 56 120 104 56 240 104 56 240 104 56 240 104 56 240 104 56 240 104 56 240 104 56 240 104 56 240 104 56 240 104 56 240 104 56 240 104 56 240 104 56 240 104 56 240 104 56 240 104 56 240 104 56 240 104 56 240 104 56 240 104 56 240 104 56 240 104 56 240 104 56 240 104 56 240 104 56 240 104 56 240 104 56 240 104 56 240 104 56 240 104 56 240 104 56 240 104 56 240 104 56 248 104 56 248 104 56 248 104 56 248 104 56 248 104 56 248 104 56 248 104 56 248 104 56 248 104 56 248 104 56 248 104 56 248 104 56 248 104 56 248 104 56 248 104 56 248 104 56 248 104 56 248 104 56 248 104 56 248 104 56 248 104 56 248 104 56 248 104 56 248 104 56 248 104 56 248 104 56 248 104 56 248 104 56 248 104 56 248 104 56 248 104 56 248 104 56 240 104 56 240 104 56 240 104 56 240 104 56 240 104 56 240 104 56 240 104 56 240 104 56 240 104 56 240 104 56 240 104 56 240 104 56 240 104 56 240 104 56 240 104 56 240 104 56 240 104 56 240 104 56 240 104 56 240 104 56 240 104 56 240 104 56 240 104 56 240 104 56 240 104 56 240 104 56 240 104 56 240 104 56 240 104 56 240 104 56 240 104 56 240 104 56
120 104 56 120 104 56 120 104 56 120 104 56 120 104 56 120 104 56 120 104 56 120 104 56 120 104 56 120 104 56 120 104 56 120 104 56 120 104 56 120 104 56 120 104 56 120 104 56 120 104 56 120 104 56 120 104 56 120 104 56 120 104 56 120 104 56 120 104 56 120 104 56 120 104 56 120 104 56 120 104 56 120 104 56 120 104 56 120 104 56 120 104 56 120 104 56 240 104 56 240 104 56 240 104 56 240 104 56 240 104 56 240 104 56 240 104 56 240 104 56 240 104 56 240 104 56 240 104 56 240 104 56 240 104 56 240 104 56 240 104 56 240 104 56 240 104 56 240 104 56 240 104 56 240 104 56 240 104 56 240 104 56 240 104 56 240 104 56 240 104 56 240 104 56 240 104 56 240 104 56 240 104 56 240 104 56 240 104 56 240 104 56 248 104 56 248 104 56 248 104 56 248 104 56 248 104 56 248 104 56 248 104 56 248 104 56 248 104 56 248 104 56 248 104 56 248 104 56 248 104 56 248 104 56 248 104 56 248 104 56 248 104 56 248 104 56 248 104 56 248 104 56 248 104 56 248 104 56 248 104 56 248 104 56 248 104 56 248 104 56 248 104 56 248 104 56 248 104 56 248 104 56 248 104 56 248 104 56 240 104 56 240 104 56 240 104 56 240 104 56 240 104 56 240 104 56 240 104 56 240 104 56 240 104 56 240 104 56 240 104 56 240 104 56 240 104 56 240 104 56 240 104 56 240 104 56 240 104 56 240 104 56 240 104 56 240 104 56 240 104 56 240 104 56 240 104 56 240 104 56 240 104 56 240 104 56 240 104 56 240 104 56 240 104 56 240 104 56 240 104 56 240 104 56
120 104 56 120 104 56 120 104 56 120 104 56 120 104 56 120 104 56 120 104 56 120 104 56 120 104 56 120 104 56 120 104 56 120 104 56 120 104 56 120 104 56 120 104 56 120 104 56 120 104 56 120 104 56 120 104 56 120 104 56 120 104 56 120 104 56 120 104 56 120 104 56 120 104 56 120 104 56 120 104 56 120 104 56 120 104 56 120 104 56 120 104 56 120 104 56 240 104 56 240 104 56 240 104 56 240 104 56 240 104 56 240 104 56 240 104 56 240 104 56 240 104 56 240 104 56 240 104 56 240 104 56 240 104 56 240 104 56 240 104 56 240 104 56 240 104 56 240 104 56 240 104 56 240 104 56 240 104 56 240 104 56 240 104 56 240 104 56 240 104 56 240 104 56 240 104 56 240 104 56 240 104 56 240 104 56 240 104 56 240 104 56 248 104 56 248 104 56 248 104 56 248 104 56 248 104 56 248 104 56 248 104 56 248 104 56 248 104 56 248 104 56 248 104 56 248 104 56 248 104 56 248 104 56 248 104 56 248 104 56 248 104 56 248 104 56 248 104 56 248 104 56 248 104 56 248 104 56 248 104 56 248 104 56 248 104 56 248 104 56 248 104 56 248 104 56 248 104 56 248 104 56 248 104 56 248 104 56 240 104 56 240 104 56 240 104 56 240 104 56 240 104 56 240 104 56 240 104 56 240 104 56 240 104 56 240 104 56 240 104 56 240 104 56 240 104 56 240 104 56 240 104 56 240 104 56 240 104 56 240 104 56 240 104 56 240 104 56 240 104 56 240 104 56 240 104 56 240 104 56 240 104 56 240 104 56 240 104 56 240 104 56 240 104 56 240 104 56 240 104 56 240 104 56
120 104 56 120 104 56 120 104 56 120 104 56 120 104 56 120 104 56 120 104 56 120 104 56 120 104 56 120 104 56 120 104 56 120 104 56 120 104 56 120 104 56 120 104 56 120 104 56 120 104 56 120 104 56 120 104 56 120 104 56 120 104 56 120 104 56 120 104 56 120 104 56 120 104 56 120 104 56 120 104 56 120 104 56 120 104 56 120 104 56 120 104 56 120 104 56 240 104 56 240 104 56 240 104 56 240 104 56 240 104 56 240 104 56 240 104 56 240 104 56 240 104 56 240 104 56 240 104 56 240 104 56 240 104 56 240 104 56 240 104 56 240 104 56 240 104 56 240 104 56 240 104 56 240 104 56 240 104 56 240 104 56 240 104 56 240 104 56 240 104 56 240 104 56 240 104 56 240 104 56 240 104 56 240 104 56 240 104 56 240 104 56 248 104 56 248 104 56 248 104 56 248 104 56 248 104 56 248 104 56 248 104 56 248 104 56 248 104 56 248 104 56 248 104 56 248 104 56 248 104 56 248 104 56 248 104 56 248 104 56 248 104 56 248 104 56 248 104 56 248 104 56 248 104 56 248 104 56 248 104 56 248 104 56 248 104 56 248 104 56 248 104 56 248 104 56 248 104 56 248 104 56 248 104 56 248 104 56 240 104 56 240 104 56 240 104 56 240 104 56 240 104 56 240 104 56 240 104 56 240 104 56 240 104 56 240 104 56 240 104 56 240 104 56 240 104 56 240 104 56 240 104 56 240 104 56 240 104 56 240 104 56 240 104 56 240 104 56 240 104 56 240 104 56 240 104 56 240 104 56 240 104 56 240 104 56 240 104 56 240 104 56 240 104 56 240 104 56 240 104 56 240 104 56
120 104 56 120 104 56 120 104 56 120 104 56 120 104 56 120 104 56 120 104 56 120 104 56 120 104 56 120 104 56 120 104 56 120 104 56 120 104 56 120 104 56 120 104 56 120 104 56 120 104 56 120 104 56 120 104 56 120 104 56 120 104 56 120 104 56 120 104 56 120 104 56 120 104 56 120 104 56 120 104 56 120 104 56 120 104 56 120 104 56 120 104 56 120 104 56 240 104 56 240 104 56 240 104 56 240 104 56 240 104 56 240 104 56 240 104 56 240 104 56 240 104 56 240 104 56 240 104 56 240 104 56 240 104 56 240 104 56 240 104 56 240 104 56 240 104 56 240 104 56 240 104 56 240 104 56 240 104 56 240 104 56 240 104 56 240 104 56 240 104 56 240 104 56 240 104 56 240 104 56 240 104 56 240 104 56 240 104 56 240 104 56 248 104 56 248 104 56 248 104 56 248 104 56 248 104 56 248 104 56 248 104 56 248 104 56 248 104 56 248 104 56 248 104 56 248 104 56 248 104 56 248 104 56 248 104 56 248 104 56 248 104 56 248 104 56 248 104 56 248 104 56 248 104 56 248 104 56 248 104 56 248 104 56 248 104 56 248 104 56 248 104 56 248 104 56 248 104 56 248 104 56 248 104 56 248 104 56 240 104 56 240 104 56 240 104 56 240 104 56 240 104 56 240 104 56 240 104 56 240 104 56 240 104 56 240 104 56 240 104 56 240 104 56 240 104 56 240 104 56 240 104 56 240 104 56 240 104 56 240 104 56 240 104 56 240 104 56 240 104 56 240 104 56 240 104 56 240 104 56 240 104 56 240 104 56 240 104 56 240 104 56 240 104 56 240 104 56 240 104 56 240 104 56
120 104 56 120 104 56 120 104 56 120 104 56 120 104 56 120 104 56 120 104 56 120 104 56 120 104 56 120 104 56 120 104 56 120 104 56 120 104 56 120 104 56 120 104 56 120 104 56 120 104 56 120 104 56 120 104 56 120 104 56 120 104 56 120 104 56 120 104 56 120 104 56 120 104 56 120 104 56 120 104 56 120 104 56 120 104 56 120 104 56 120 104 56 120 104 56 240 104 56 240 104 56 240 104 56 240 104 56 240 104 56 240 104 56 240 104 56 240 104 56 240 104 56 240 104 56 240 104 56 240 104 56 240 104 56 240 104 56 240 104 56 240 104 56 240 104 56 240 104 56 240 104 56 240 104 56 240 104 56 240 104 56 240 104 56 240 104 56 240 104 56 240 104 56 240 104 56 240 104 56 240 104 56 240 104 56 240 104 56 240 104 56 248 104 56 248 104 56 248 104 56 248 104 56 248 104 56 248 104 56 248 104 56 248 104 56 248 104 56 248 104 56 248 104 56 248 104 56 248 104 56 248 104 56 248 104 56 248 104 56 248 104 56 248 104 56 248 104 56 248 104 56 248 104 56 248 104 56 248 104 56 248 104 56 248 104 56 248 104 56 248 104 56 248 104 56 248 104 56 248 104 56 248 104 56 248 104 56 240 104 56 240 104 56 240 104 56 240 104 56 240 104 56 240 104 56 240 104 56 240 104 56 240 104 56 240 104 56 240 104 56 240 104 56 240 104 56 240 104 56 240 104 56 240 104 56 240 104 56 240 104 56 240 104 56 240 104 56 240 104 56 240 104 56 240 104 56 240 104 56 240 104 56 240 104 56 240 104 56 240 104 56 240 104 56 240 104 56 240 104 56 240 104 56
120 104 56 120 104 56 120 104 56 120 104 56 120 104 56 120 104 56 120 104 56 120 104 56 120 104 56 120 104 56 120 104 56 120 104 56 120 104 56 120 104 56 120 104 56 120 104 56 120 104 56 120 104 56 120 104 56 120 104 56 120 104 56 120 104 56 120 104 56 120 104 56 120 104 56 120 104 56 120 104 56 120 104 56 120 104 56 120 104 56 120 104 56 120 104 56 240 104 56 240 104 56 240 104 56 240 104 56 240 104 56 240 104 56 240 104 56 240 104 56 240 104 56 240 104 56 240 104 56 240 104 56 240 104 56 240 104 56 240 104 56 240 104 56 240 104 56 240 104 56 240 104 56 240 104 56 240 104 56 240 104 56 240 104 56 240 104 56 240 104 56 240 104 56 240 104 56 240 104 56 240 104 56 240 104 56 240 104 56 240 104 56 248 104 56 248 104 56 248 104 56 248 104 56 248 104 56 248 104 56 248 104 56 248 104 56 248 104 56 248 104 56 248 104 56 248 104 56 248 104 56 248 104 56 248 104 56 248 104 56 248 104 56 248 104 56 248 104 56 248 104 56 248 104 56 248 104 56 248 104 56 248 104 56 248 104 56 248 104 56 248 104 56 248 104 56 248 104 56 248 104 56 248 104 56 248 104 56 240 104 56 240 104 56 240 104 56 240 104 56 240 104 56 240 104 56 240 104 56 240 104 56 240 104 56 240 104 56 240 104 56 240 104 56 240 104 56 240 104 56 240 104 56 240 104 56 240 104 56 240 104 56 240 104 56 240 104 56 240 104 56 240 104 56 240 104 56 240 104 56 240 104 56 240 104 56 240 104 56 240 104 56 240 104 56 240 104 56 240 104 56 240 104 56
120 104 56 120 104 56 120 104 56 120 104 56 120 104 56 120 104 56 120 104 56 120 104 56 120 104 56 120 104 56 120 104 56 120 104 56 120 104 56 120 104 56 120 104 56 120 104 56 120 104 56 120 104 56 120 104 56 120 104 56 120 104 56 120 104 56 120 104 56 120 104 56 120 104 56 120 104 56 120 104 56 120 104 56 120 104 56 120 104 56 120 104 56 120 104 56 240 104 56 240 104 56 240 104 56 240 104 56 240 104 56 240 104 56 240 104 56 240 104 56 240 104 56 240 104 56 240 104 56 240 104 56 240 104 56 240 104 56 240 104 56 240 104 56 240 104 56 240 104 56 240 104 56 240 104 56 240 104 56 240 104 56 240 104 56 240 104 56 240 104 56 240 104 56 240 104 56 240 104 56 240 104 56 240 104 56 240 104 56 240 104 56 248 104 56 248 104 56 248 104 56 248 104 56 248 104 56 248 104 56 248 104 56 248 104 56 248 104 56 248 104 56 248 104 56 248 104 56 248 104 56 248 104 56 248 104 56 248 104 56 248 104 56 248 104 56 248 104 56 248 104 56 248 104 56 248 104 56 248 104 56 248 104 56 248 104 56 248 104 56 248 104 56 248 104 56 248 104 56 248 104 56 248 104 56 248 104 56 240 104 56 240 104 56 240 104 56 240 104 56 240 104 56 240 104 56 240 104 56 240 104 56 240 104 56 240 104 56 240 104 56 240 104 56 240 104 56 240 104 56 240 104 56 240 104 56 240 104 56 240 104 56 240 104 56 240 104 56 240 104 56 240 104 56 240 104 56 240 104 56 240 104 56 240 104 56 240 104 56 240 104 56 240 104 56 240 104 56 240 104 56 240 104 56
120 104 56 120 104 56 120 104 56 120 104 56 120 104 56 120 104 56 120 104 56 120 104 56 120 104 56 120 104 56 120 104 56 120 104 56 120 104 56 120 104 56 120 104 56 120 104 56 120 104 56 120 104 56 120 104 56 120 104 56 120 104 56 120 104 56 120 104 56 120 104 56 120 104 56 120 104 56 120 104 56 120 104 56 120 104 56 120 104 56 120 104 56 120 104 56 240 104 56 240 104 56 240 104 56 240 104 56 240 104 56 240 104 56 240 104 56 240 104 56 240 104 56 240 104 56 240 104 56 240 104 56 240 104 56 240 104 56 240 104 56 240 104 56 240 104 56 240 104 56 240 104 56 240 104 56 240 104 56 240 104 56 240 104 56 240 104 56 240 104 56 240 104 56 240 104 56 240 104 56 240 104 56 240 104 56 240 104 56 240 104 56 248 104 56 248 104 56 248 104 56 248 104 56 248 104 56 248 104 56 248 104 56 248 104 56 248 104 56 248 104 56 248 104 56 248 104 56 248 104 56 248 104 56 248 104 56 248 104 56 248 104 56 248 104 56 248 104 56 248 104 56 248 104 56 248 104 56 248 104 56 248 104 56 248 104 56 248 104 56 248 104 56 248 104 56 248 104 56 248 104 56 248 104 56 248 104 56 240 104 56 240 104 56 240 104 56 240 104 56 240 104 56 240 104 56 240 104 56 240 104 56 240 104 56 240 104 56 240 104 56 240 104 56 240 104 56 240 104 56 240 104 56 240 104 56 240 104 56 240 104 56 240 104 56 240 104 56 240 104 56 240 104 56 240 104 56 240 104 56 240 104 56 240 104 56 240 104 56 240 104 56 240 104 56 240 104 56 240 104 56 240 104 56
120 104 56 120 104 56 120 104 56 120 104 56 120 104 56 120 104 56 120 104 56 120 104 56 120 104 56 120 104 56 120 104 56 120 104 56 120 104 56 120 104 56 120 104 56 120 104 56 120 104 56 120 104 56 120 104 56 120 104 56 120 104 56 120 104 56 120 104 56 120 104 56 120 104 56 120 104 56 120 104 56 120 104 56 120 104 56 120 104 56 120 104 56 120 104 56 240 104 56 240 104 56 240 104 56 240 104 56 240 104 56 240 104 56 240 104 56 240 104 56 240 104 56 240 104 56 240 104 56 240 104 56 240 104 56 240 104 56 240 104 56 240 104 56 240 104 56 240 104 56 240 104 56 240 104 56 240 104 56 240 104 56 240 104 56 240 104 56 240 104 56 240 104 56 240 104 56 240 104 56 240 104 56 240 104 56 240 104 56 240 104 56 248 104 56 248 104 56 248 104 56 248 104 56 248 104 56 248 104 56 248 104 56 248 104 56 248 104 56 248 104 56 248 104 56 248 104 56 248 104 56 248 104 56 248 104 56 248 104 56 248 104 56 248 104 56 248 104 56 248 104 56 248 104 56 248 104 56 248 104 56 248 104 56 248 104 56 248 104 56 248 104 56 248 104 56 248 104 56 248 104 56 248 104 56 248 104 56 240 104 56 240 104 56 240 104 56 240 104 56 240 104 56 240 104 56 240 104 56 240 104 56 240 104 56 240 104 56 240 104 56 240 104 56 240 104 56 240 104 56 240 104 56 240 104 56 240 104 56 240 104 56 240 104 56 240 104 56 240 104 56 240 104 56 240 104 56 240 104 56 240 104 56 240 104 56 240 104 56 240 104 56 240 104 56 240 104 56 240 104 56 240 104 56
120 104 56 120 104 56 120 104 56 120 104 56 120 104 56 120 104 56 120 104 56 120 104 56 120 104 56 120 104 56 120 104 56 120 104 56 120 104 56 120 104 56 120 104 56 120 104 56 120 104 56 120 104 56 120 104 56 120 104 56 120 104 56 120 104 56 120 104 56 120 104 56 120 104 56 120 104 56 120 104 56 120 104 56 120 104 56 120 104 56 120 104 56 120 104 56 240 104 56 240 104 56 240 104 56 240 104 56 240 104 56 240 104 56 240 104 56 240 104 56 240 104 56 240 104 56 240 104 56 240 104 56 240 104 56 240 104 56 240 104 56 240 104 56 240 104 56 240 104 56 240 104 56 240 104 56 240 104 56 240 104 56 240 104 56 240 104 56 240 104 56 240 104 56 240 104 56 240 104 56 240 104 56 240 104 56 240 104 56 240 104 56 248 104 56 248 104 56 248 104 56 248 104 56 248 104 56 248 104 56 248 104 56 248 104 56 248 104 56 248 104 56 248 104 56 248 104 56 248 104 56 248 104 56 248 104 56 248 104 56 248 104 56 248 104 56 248 104 56 248 104 56 248 104 56 248 104 56 248 104 56 248 104 56 248 104 56 248 104 56 248 104 56 248 104 56 248 104 56 248 104 56 248 104 56 248 104 56 240 104 56 240 104 56 240 104 56 240 104 56 240 104 56 240 104 56 240 104 56 240 104 56 240 104 56 240 104 56 240 104 56 240 104 56 240 104 56 240 104 56 240 104 56 240 104 56 240 104 56 240 104 56 240 104 56 240 104 56 240 104 56 240 104 56 240 104 56 240 104 56 240 104 56 240 104 56 240 104 56 240 104 56 240 104 56 240 104 56 240 104 56 240 104 56
120 104 56 120 104 56 120 104 56 120 104 56 120 104 56 120 104 56 120 104 56 120 104 56 120 104 56 120 104 56 120 104 56 120 104 56 120 104 56 120 104 56 120 104 56 120 104 56 120 104 56 120 104 56 120 104 56 120 104 56 120 104 56 120 104 56 120 104 56 120 104 56 120 104 56 120 104 56 120 104 56 120 104 56 120 104 56 120 104 56 120 104 56 120 104 56 240 104 56 240 104 56 240 104 56 240 104 56 240 104 56 240 104 56 240 104 56 240 104 56 240 104 56 240 104 56 240 104 56 240 104 56 240 104 56 240 104 56 240 104 56 240 104 56 240 104 56 240 104 56 240 104 56 240 104 56 240 104 56 240 104 56 240 104 56 240 104 56 240 104 56 240 104 56 240 104 56 240 104 56 240 104 56 240 104 56 240 104 56 240 104 56 248 104 56 248 104 56 248 104 56 248 104 56 248 104 56 248 104 56 248 104 56 248 104 56 248 104 56 248 104 56 248 104 56 248 104 56 248 104 56 248 104 56 248 104 56 248 104 56 248 104 56 248 104 56 248 104 56 248 104 56 248 104 56 248 104 56 248 104 56 248 104 56 248 104 56 248 104 56 248 104 56 248 104 56 248 104 56 248 104 56 248 104 56 248 104 56 240 104 56 240 104 56 240 104 56 240 104 56 240 104 56 240 104 56 240 104 56 240 104 56 240 104 56 240 104 56 240 104 56 240 104 56 240 104 56 240 104 56 240 104 56 240 104 56 240 104 56 240 104 56 240 104 56 240 104 56 240 104 56 240 104 56 240 104 56 240 104 56 240 104 56 240 104 56 240 104 56 240 104 56 240 104 56 240 104 56 240 104 56 240 104 56
120 104 56 120 104 56 120 104 56 120 104 56 120 104 56 120 104 56 120 104 56 120 104 56 120 104 56 120 104 56 120 104 56 120 104 56 120 104 56 120 104 56 120 104 56 120 104 56 120 104 56 120 104 56 120 104 56 120 104 56 120 104 56 120 104 56 120 104 56 120 104 56 120 104 56 120 104 56 120 104 56 120 104 56 120 104 56 120 104 56 120 104 56 120 104 56 240 104 56 240 104 56 240 104 56 240 104 56 240 104 56 240 104 56 240 104 56 240 104 56 240 104 56 240 104 56 240 104 56 240 104 56 240 104 56 240 104 56 240 104 56 240 104 56 240 104 56 240 104 56 240 104 56 240 104 56 240 104 56 240 104 56 240 104 56 240 104 56 240 104 56 240 104 56 240 104 56 240 104 56 240 104 56 240 104 56 240 104 56 240 104 56 248 104 56 248 104 56 248 104 56 248 104 56 248 104 56 248 104 56 248 104 56 248 104 56 248 104 56 248 104 56 248 104 56 248 104 56 248 104 56 248 104 56 248 104 56 248 104 56 248 104 56 248 104 56 248 104 56 248 104 56 248 104 56 248 104 56 248 104 56 248 104 56 248 104 56 248 104 56 248 104 56 248 104 56 248 104 56 248 104 56 248 104 56 248 104 56 240 104 56 240 104 56 240 104 56 240 104 56 240 104 56 240 104 56 240 104 56 240 104 56 240 104 56 240 104 56 240 104 56 240 104 56 240 104 56 240 104 56 240 104 56 240 104 56 240 104 56 240 104 56 240 104 56 240 104 56 240 104 56 240 104 56 240 104 56 240 104 56 240 104 56 240 104 56 240 104 56 240 104 56 240 104 56 240 104 56 240 104 56 240 104 56
120 104 56 120 104 56 120 104 56 120 104 56 120 104 56 120 104 56 120 104 56 120 104 56 120 104 56 120 104 56 120 104 56 120 104 56 120 104 56 120 104 56 120 104 56 120 104 56 120 104 56 120 104 56 120 104 56 120 104 56 120 104 56 120 104 56 120 104 56 120 104 56 120 104 56 120 104 56 120 104 56 120 104 56 120 104 56 120 104 56 120 104 56 120 104 56 240 104 56 240 104 56 240 104 56 240 104 56 240 104 56 240 104 56 240 104 56 240 104 56 240 104 56 240 104 56 240 104 56 240 104 56 240 104 56 240 104 56 240 104 56 240 104 56 240 104 56 240 104 56 240 104 56 240 104 56 240 104 56 240 104 56 240 104 56 240 104 56 240 104 56 240 104 56 240 104 56 240 104 56 240 104 56 240 104 56 240 104 56 240 104 56 248 104 56 248 104 56 248 104 56 248 104 56 248 104 56 248 104 56 248 104 56 248 104 56 248 104 56 248 104 56 248 104 56 248 104 56 248 104 56 248 104 56 248 104 56 248 104 56 248 104 56 248 104 56 248 104 56 248 104 56 248 104 56 248 104 56 248 104 56 248 104 56 248 104 56 248 104 56 248 104 56 248 104 56 248 104 56 248 104 56 248 104 56 248 104 56 240 104 56 240 104 56 240 104 56 240 104 56 240 104 56 240 104 56 240 104 56 240 104 56 240 104 56 240 104 56 240 104 56 240 104 56 240 104 56 240 104 56 240 104 56 240 104 56 240 104 56 240 104 56 240 104 56 240 104 56 240 104 56 240 104 56 240 104 56 240 104 56 240 104 56 240 104 56 240 104 56 240 104 56 240 104 56 240 104 56 240 104 56 240 104 56
120 104 56 120 104 56 120 104 56 120 104 56 120 104 56 120 104 56 120 104 56 120 104 56 120 104 56 120 104 56 120 104 56 120 104 56 120 104 56 120 104 56 120 104 56 120 104 56 120 104 56 120 104 56 120 104 56 120 104 56 120 104 56 120 104 56 120 104 56 120 104 56 120 104 56 120 104 56 120 104 56 120 104 56 120 104 56 120 104 56 120 104 56 120 104 56 240 104 56 240 104 56 240 104 56 240 104 56 240 104 56 240 104 56 240 104 56 240 104 56 240 104 56 240 104 56 240 104 56 240 104 56 240 104 56 240 104 56 240 104 56 240 104 56 240 104 56 240 104 56 240 104 56 240 104 56 240 104 56 240 104 56 240 104 56 240 104 56 240 104 56 240 104 56 240 104 56 240 104 56 240 104 56 240 104 56 240 104 56 240 104 56 248 104 56 248 104 56 248 104 56 248 104 56 248 104 56 248 104 56 248 104 56 248 104 56 248 104 56 248 104 56 248 104 56 248 104 56 248 104 56 248 104 56 248 104 56 248 104 56 248 104 56 248 104 56 248 104 56 248 104 56 248 104 56 248 104 56 248 104 56 248 104 56 248 104 56 248 104 56 248 104 56 248 104 56 248 104 56 248 104 56 248 104 56 248 104 56 240 104 56 240 104 56 240 104 56 240 104 56 240 104 56 240 104 56 240 104 56 240 104 56 240 104 56 240 104 56 240 104 56 240 104 56 240 104 56 240 104 56 240 104 56 240 104 56 240 104 56 240 104 56 240 104 56 240 104 56 240 104 56 240 104 56 240 104 56 240 104 56 240 104 56 240 104 56 240 104 56 240 104 56 240 104 56 240 104 56 240 104 56 240 104 56
120 104 56 120 104 56 120 104 56 120 104 56 120 104 56 120 104 56 120 104 56 120 104 56 120 104 56 120 104 56 120 104 56 120 104 56 120 104 56 120 104 56 120 104 56 120 104 56 120 104 56 120 104 56 120 104 56 120 104 56 120 104 56 120 104 56 120 104 56 120 104 56 120 104 56 120 104 56 120 104 56 120 104 56 120 104 56 120 104 56 120 104 56 120 104 56 240 104 56 240 104 56 240 104 56 240 104 56 240 104 56 240 104 56 240 104 56 240 104 56 240 104 56 240 104 56 240 104 56 240 104 56 240 104 56 240 104 56 240 104 56 240 104 56 240 104 56 240 104 56 240 104 56 240 104 56 240 104 56 240 104 56 240 104 56 240 104 56 240 104 56 240 104 56 240 104 56 240 104 56 240 104 56 240 104 56 240 104 56 240 104 56 248 104 56 248 104 56 248 104 56 248 104 56 248 104 56 248 104 56 248 104 56 248 104 56 248 104 56 248 104 56 248 104 56 248 104 56 248 104 56 248 104 56 248 104 56 248 104 56 248 104 56 248 104 56 248 104 56 248 104 56 248 104 56 248 104 56 248 104 56 248 104 56 248 104 56 248 104 56 248 104 56 248 104 56 248 104 56 248 104 56 248 104 56 248 104 56 240 104 56 240 104 56 240 104 56 240 104 56 240 104 56 240 104 56 240 104 56 240 104 56 240 104 56 240 104 56 240 104 56 240 104 56 240 104 56 240 104 56 240 104 56 240 104 56 240 104 56 240 104 56 240 104 56 240 104 56 240 104 56 240 104 56 240 104 56 240 104 56 240 104 56 240 104 56 240 104 56 240 104 56 240 104 56 240 104 56 240 104 56 240 104 56
120 104 56 120 104 56 120 104 56 120 104 56 120 104 56 120 104 56 120 104 56 120 104 56 120 104 56 120 104 56 120 104 56 120 104 56 120 104 56 120 104 56 120 104 56 120 104 56 120 104 56 120 104 56 120 104 56 120 104 56 120 104 56 120 104 56 120 104 56 120 104 56 120 104 56 120 104 56 120 104 56 120 104 56 120 104 56 120 104 56 120 104 56 120 104 56 240 104 56 240 104 56 240 104 56 240 104 56 240 104 56 240 104 56 240 104 56 240 104 56 240 104 56 240 104 56 240 104 56 240 104 56 240 104 56 240 104 56 240 104 56 240 104 56 240 104 56 240 104 56 240 104 56 240 104 56 240 104 56 240 104 56 240 104 56 240 104 56 240 104 56 240 104 56 240 104 56 240 104 56 240 104 56 240 104 56 240 104 56 240 104 56 248 104 56 248 104 56 248 104 56 248 104 56 248 104 56 248 104 56 248 104 56 248 104 56 248 104 56 248 104 56 248 104 56 248 104 56 248 104 56 248 104 56 248 104 56 248 104 56 248 104 56 248 104 56 248 104 56 248 104 56 248 104 56 248 104 56 248 104 56 248 104 56 248 104 56 248 104 56 248 104 56 248 104 56 248 104 56 248 104 56 248 104 56 248 104 56 240 104 56 240 104 56 240 104 56 240 104 56 240 104 56 240 104 56 240 104 56 240 104 56 240 104 56 240 104 56 240 104 56 240 104 56 240 104 56 240 104 56 240 104 56 240 104 56 240 104 56 240 104 56 240 104 56 240 104 56 240 104 56 240 104 56 240 104 56 240 104 56 240 104 56 240 104 56 240 104 56 240 104 56 240 104 56 240 104 56 240 104 56 240 104 56
120 104 56 120 104 56 120 104 56 120 104 56 120 104 56 120 104 56 120 104 56 120 104 56 120 104 56 120 104 56 120 104 56 120 104 56 120 104 56 120 104 56 120 104 56 120 104 56 120 104 56 120 104 56 120 104 56 120 104 56 120 104 56 120 104 56 120 104 56 120 104 56 120 104 56 120 104 56 120 104 56 120 104 56 120 104 56 120 104 56 120 104 56 120 104 56 240 104 56 240 104 56 240 104 56 240 104 56 240 104 56 240 104 56 240 104 56 240 104 56 240 104 56 240 104 56 240 104 56 240 104 56 240 104 56 240 104 56 240 104 56 240 104 56 240 104 56 240 104 56 240 104 56 240 104 56 240 104 56 240 104 56 240 104 56 240 104 56 240 104 56 240 104 56 240 104 56 240 104 56 240 104 56 240 104 56 240 104 56 240 104 56 248 104 56 248 104 56 248 104 56 248 104 56 248 104 56 248 104 56 248 104 56 248 104 56 248 104 56 248 104 56 248 104 56 248 104 56 248 104 56 248 104 56 248 104 56 248 104 56 248 104 56 248 104 56 248 104 56 248 104 56 248 104 56 248 104 56 248 104 56 248 104 56 248 104 56 248 104 56 248 104 56 248 104 56 248 104 56 248 104 56 248 104 56 248 104 56 240 104 56 240 104 56 240 104 56 240 104 56 240 104 56 240 104 56 240 104 56 240 104 56 240 104 56 240 104 56 240 104 56 240 104 56 240 104 56 240 104 56 240 104 56 240 104 56 240 104 56 240 104 56 240 104 56 240 104 56 240 104 56 240 104 56 240 104 56 240 104 56 240 104 56 240 104 56 240 104 56 240 104 56 240 104 56 240 104 56 240 104 56 240 104 56
120 104 56 120 104 56 120 104 56 120 104 56 120 104 56 120 104 56 120 104 56 120 104 56 120 104 56 120 104 56 120 104 56 120 104 56 120 104 56 120 104 56 120 104 56 120 104 56 120 104 56 120 104 56 120 104 56 120 104 56 120 104 56 120 104 56 120 104 56 120 104 56 120 104 56 120 104 56 120 104 56 120 104 56 120 104 56 120 104 56 120 104 56 120 104 56 240 104 56 240 104 56 240 104 56 240 104 56 240 104 56 240 104 56 240 104 56 240 104 56 240 104 56 240 104 56 240 104 56 240 104 56 240 104 56 240 104 56 240 104 56 240 104 56 240 104 56 240 104 56 240 104 56 240 104 56 240 104 56 240 104 56 240 104 56 240 104 56 240 104 56 240 104 56 240 104 56 240 104 56 240 104 56 240 104 56 240 104 56 240 104 56 248 104 56 248 104 56 248 104 56 248 104 56 248 104 56 248 104 56 248 104 56 248 104 56 248 104 56 248 104 56 248 104 56 248 104 56 248 104 56 248 104 56 248 104 56 248 104 56 248 104 56 248 104 56 248 104 56 248 104 56 248 104 56 248 104 56 248 104 56 248 104 56 248 104 56 248 104 56 248 104 56 248 104 56 248 104 56 248 104 56 248 104 56 248 104 56 240 104 56 240 104 56 240 104 56 240 104 56 240 104 56 240 104 56 240 104 56 240 104 56 240 104 56 240 104 56 240 104 56 240 104 56 240 104 56 240 104 56 240 104 56 240 104 56 240 104 56 240 104 56 240 104 56 240 104 56 240 104 56 240 104 56 240 104 56 240 104 56 240 104 56 240 104 56 240 104 56 240 104 56 240 104 56 240 104 56 240 104 56 240 104 56