P3
128 128
255
240 88 16 240 88 16 240 88 16 240 88 16 240 88 16 240 88 16 240 88 16 240 88 16 240 88 16 240 88 16 240 88 16 240 88 16 240 88 16 240 88 16 240 88 16 240 88 16 240 88 16 240 88 16 240 88 16 240 88 16 240 88 16 240 88 16 240 88 16 240 88 16 240 88 16 240 88 16 240 88 16 240 88 16 240 88 16 240 88 16 240 88 16 240 88 16 240 88 16 240 88 16 240 88 16 240 88 16 240 88 16 240 88 16 240 88 16 240 88 16 240 88 16 240 88 16 240 88 16 240 88 16 240 88 16 240 88 16 240 88 16 240 88 16 240 88 16 240 88 16 240 88 16 240 88 16 240 88 16 240 88 16 240 88 16 240 88 16 240 88 16 240 88 16 240 88 16 240 88 16 240 88 16 240 88 16 240 88 16 240 88 16 112 104 32 112 104 32 112 104 32 112 104 32 112 104 32 112 104 32 112 104 32 112 104 32 112 104 32 112 104 32 112 104 32 112 104 32 112 104 32 112 104 32 112 104 32 112 104 32 112 104 32 112 104 32 112 104 32 112 104 32 112 104 32 112 104 32 112 104 32 112 104 32 112 104 32 112 104 32 112 104 32 112 104 32 112 104 32 112 104 32 112 104 32 112 104 32 48 80 32 48 80 32 48 80 32 48 80 32 48 80 32 48 80 32 48 80 32 48 80 32 48 80 32 48 80 32 48 80 32 48 80 32 48 80 32 48 80 32 48 80 32 48 80 32 48 80 32 48 80 32 48 80 32 48 80 32 48 80 32 48 80 32 48 80 32 48 80 32 48 80 32 48 80 32 48 80 32 48 80 32 48 80 32 48 80 32 48 80 32 48 80 32
240 88 16 240 88 16 240 88 16 240 88 16 240 88 16 240 88 16 240 88 16 240 88 16 240 88 16 240 88 16 240 88 16 240 88 16 240 88 16 240 88 16 240 88 16 240 88 16 240 88 16 240 88 16 240 88 16 240 88 16 240 88 16 240 88 16 240 88 16 240 88 16 240 88 16 240 88 16 240 88 16 240 88 16 240 88 16 240 88 16 240 88 16 240 88 16 240 88 16 240 88 16 240 88 16 240 88 16 240 88 16 240 88 16 240 88 16 240 88 16 240 88 16 240 88 16 240 88 16 240 88 16 240 88 16 240 88 16 240 88 16 240 88 16 240 88 16 240 88 16 240 88 16 240 88 16 240 88 16 240 88 16 240 88 16 240 88 16 240 88 16 240 88 16 240 88 16 240 88 16 240 88 16 240 88 16 240 88 16 240 88 16 112 104 32 112 104 32 112 104 32 112 104 32 112 104 32 112 104 32 112 104 32 112 104 32 112 104 32 112 104 32 112 104 32 112 104 32 112 104 32 112 104 32 112 104 32 112 104 32 112 104 32 112 104 32 112 104 32 112 104 32 112 104 32 112 104 32 112 104 32 112 104 32 112 104 32 112 104 32 112 104 32 112 104 32 112 104 32 112 104 32 112 104 32 112 104 32 48 80 32 48 80 32 48 80 32 48 80 32 48 80 32 48 80 32 48 80 32 48 80 32 48 80 32 48 80 32 48 80 32 48 80 32 48 80 32 48 80 32 48 80 32 48 80 32 48 80 32 48 80 32 48 80 32 48 80 32 48 80 32 48 80 32 48 80 32 48 80 32 48 80 32 48 80 32 48 80 32 48 80 32 48 80 32 48 80 32 48 80 32 48 80 32
240 88 16 240 88 16 240 88 16 240 88 16 240 88 16 240 88 16 240 88 16 240 88 16 240 88 16 240 88 16 240 88 16 240 88 16 240 88 16 240 88 16 240 88 16 240 88 16 240 88 16 240 88 16 240 88 16 240 88 16 240 88 16 240 88 16 240 88 16 240 88 16 240 88 16 240 88 16 240 88 16 240 88 16 240 88 16 240 88 16 240 88 16 240 88 16 240 88 16 240 88 16 240 88 16 240 88 16 240 88 16 240 88 16 240 88 16 240 88 16 240 88 16 240 88 16 240 88 16 240 88 16 240 88 16 240 88 16 240 88 16 240 88 16 240 88 16 240 88 16 240 88 16 240 88 16 240 88 16 240 88 16 240 88 16 240 88 16 240 88 16 240 88 16 240 88 16 240 88 16 240 88 16 240 88 16 240 88 16 240 88 16 112 104 32 112 104 32 112 104 32 112 104 32 112 104 32 112 104 32 112 104 32 112 104 32 112 104 32 112 104 32 112 104 32 112 104 32 112 104 32 112 104 32 112 104 32 112 104 32 112 104 32 112 104 32 112 104 32 112 104 32 112 104 32 112 104 32 112 104 32 112 104 32 112 104 32 112 104 32 112 104 32 112 104 32 112 104 32 112 104 32 112 104 32 112 104 32 48 80 32 48 80 32 48 80 32 48 80 32 48 80 32 48 80 32 48 80 32 48 80 32 48 80 32 48 80 32 48 80 32 48 80 32 48 80 32 48 80 32 48 80 32 48 80 32 48 80 32 48 80 32 48 80 32 48 80 32 48 80 32 48 80 32 48 80 32 48 80 32 48 80 32 48 80 32 48 80 32 48 80 32 48 80 32 48 80 32 48 80 32 48 80 32
240 88 16 240 88 16 240 88 16 240 88 16 240 88 16 240 88 16 240 88 16 240 88 16 240 88 16 240 88 16 240 88 16 240 88 16 240 88 16 240 88 16 240 88 16 240 88 16 240 88 16 240 88 16 240 88 16 240 88 16 240 88 16 240 88 16 240 88 16 240 88 16 240 88 16 240 88 16 240 88 16 240 88 16 240 88 16 240 88 16 240 88 16 240 88 16 240 88 16 240 88 16 240 88 16 240 88 16 240 88 16 240 88 16 240 88 16 240 88 16 240 88 16 240 88 16 240 88 16 240 88 16 240 88 16 240 88 16 240 88 16 240 88 16 240 88 16 240 88 16 240 88 16 240 88 16 240 88 16 240 88 16 240 88 16 240 88 16 240 88 16 240 88 16 240 88 16 240 88 16 240 88 16 240 88 16 240 88 16 240 88 16 112 104 32 112 104 32 112 104 32 112 104 32 112 104 32 112 104 32 112 104 32 112 104 32 112 104 32 112 104 32 112 104 32 112 104 32 112 104 32 112 104 32 112 104 32 112 104 32 112 104 32 112 104 32 112 104 32 112 104 32 112 104 32 112 104 32 112 104 32 112 104 32 112 104 32 112 104 32 112 104 32 112 104 32 112 104 32 112 104 32 112 104 32 112 104 32 48 80 32 48 80 32 48 80 32 48 80 32 48 80 32 48 80 32 48 80 32 48 80 32 48 80 32 48 80 32 48 80 32 48 80 32 48 80 32 48 80 32 48 80 32 48 80 32 48 80 32 48 80 32 48 80 32 48 80 32 48 80 32 48 80 32 48 80 32 48 80 32 48 80 32 48 80 32 48 80 32 48 80 32 48 80 32 48 80 32 48 80 32 48 80 32
240 88 16 240 88 16 240 88 16 240 88 16 240 88 16 240 88 16 240 88 16 240 88 16 240 88 16 240 88 16 240 88 16 240 88 16 240 88 16 240 88 16 240 88 16 240 88 16 240 88 16 240 88 16 240 88 16 240 88 16 240 88 16 240 88 16 240 88 16 240 88 16 240 88 16 240 88 16 240 88 16 240 88 16 240 88 16 240 88 16 240 88 16 240 88 16 240 88 16 240 88 16 240 88 16 240 88 16 240 88 16 240 88 16 240 88 16 240 88 16 240 88 16 240 88 16 240 88 16 240 88 16 240 88 16 240 88 16 240 88 16 240 88 16 240 88 16 240 88 16 240 88 16 240 88 16 240 88 16 240 88 16 240 88 16 240 88 16 240 88 16 240 88 16 240 88 16 240 88 16 240 88 16 240 88 16 240 88 16 240 88 16 112 104 32 112 104 32 112 104 32 112 104 32 112 104 32 112 104 32 112 104 32 112 104 32 112 104 32 112 104 32 112 104 32 112 104 32 112 104 32 112 104 32 112 104 32 112 104 32 112 104 32 112 104 32 112 104 32 112 104 32 112 104 32 112 104 32 112 104 32 112 104 32 112 104 32 112 104 32 112 104 32 112 104 32 112 104 32 112 104 32 112 104 32 112 104 32 48 80 32 48 80 32 48 80 32 48 80 32 48 80 32 48 80 32 48 80 32 48 80 32 48 80 32 48 80 32 48 80 32 48 80 32 48 80 32 48 80 32 48 80 32 48 80 32 48 80 32 48 80 32 48 80 32 48 80 32 48 80 32 48 80 32 48 80 32 48 80 32 48 80 32 48 80 32 48 80 32 48 80 32 48 80 32 48 80 32 48 80 32 48 80 32
240 88 16 240 88 16 240 88 16 240 88 16 240 88 16 240 88 16 240 88 16 240 88 16 240 88 16 240 88 16 240 88 16 240 88 16 240 88 16 240 88 16 240 88 16 240 88 16 240 88 16 240 88 16 240 88 16 240 88 16 240 88 16 240 88 16 240 88 16 240 88 16 240 88 16 240 88 16 240 88 16 240 88 16 240 88 16 240 88 16 240 88 16 240 88 16 240 88 16 240 88 16 240 88 16 240 88 16 240 88 16 240 88 16 240 88 16 240 88 16 240 88 16 240 88 16 240 88 16 240 88 16 240 88 16 240 88 16 240 88 16 240 88 16 240 88 16 240 88 16 240 88 16 240 88 16 240 88 16 240 88 16 240 88 16 240 88 16 240 88 16 240 88 16 240 88 16 240 88 16 240 88 16 240 88 16 240 88 16 240 88 16 112 104 32 112 104 32 112 104 32 112 104 32 112 104 32 112 104 32 112 104 32 112 104 32 112 104 32 112 104 32 112 104 32 112 104 32 112 104 32 112 104 32 112 104 32 112 104 32 112 104 32 112 104 32 112 104 32 112 104 32 112 104 32 112 104 32 112 104 32 112 104 32 112 104 32 112 104 32 112 104 32 112 104 32 112 104 32 112 104 32 112 104 32 112 104 32 48 80 32 48 80 32 48 80 32 48 80 32 48 80 32 48 80 32 48 80 32 48 80 32 48 80 32 48 80 32 48 80 32 48 80 32 48 80 32 48 80 32 48 80 32 48 80 32 48 80 32 48 80 32 48 80 32 48 80 32 48 80 32 48 80 32 48 80 32 48 80 32 48 80 32 48 80 32 48 80 32 48 80 32 48 80 32 48 80 32 48 80 32 48 80 32
240 88 16 240 88 16 240 88 16 240 88 16 240 88 16 240 88 16 240 88 16 240 88 16 240 88 16 240 88 16 240 88 16 240 88 16 240 88 16 240 88 16 240 88 16 240 88 16 240 88 16 240 88 16 240 88 16 240 88 16 240 88 16 240 88 16 240 88 16 240 88 16 240 88 16 240 88 16 240 88 16 240 88 16 240 88 16 240 88 16 240 88 16 240 88 16 240 88 16 240 88 16 240 88 16 240 88 16 240 88 16 240 88 16 240 88 16 240 88 16 240 88 16 240 88 16 240 88 16 240 88 16 240 88 16 240 88 16 240 88 16 240 88 16 240 88 16 240 88 16 240 88 16 240 88 16 240 88 16 240 88 16 240 88 16 240 88 16 240 88 16 240 88 16 240 88 16 240 88 16 240 88 16 240 88 16 240 88 16 240 88 16 112 104 32 112 104 32 112 104 32 112 104 32 112 104 32 112 104 32 112 104 32 112 104 32 112 104 32 112 104 32 112 104 32 112 104 32 112 104 32 112 104 32 112 104 32 112 104 32 112 104 32 112 104 32 112 104 32 112 104 32 112 104 32 112 104 32 112 104 32 112 104 32 112 104 32 112 104 32 112 104 32 112 104 32 112 104 32 112 104 32 112 104 32 112 104 32 48 80 32 48 80 32 48 80 32 48 80 32 48 80 32 48 80 32 48 80 32 48 80 32 48 80 32 48 80 32 48 80 32 48 80 32 48 80 32 48 80 32 48 80 32 48 80 32 48 80 32 48 80 32 48 80 32 48 80 32 48 80 32 48 80 32 48 80 32 48 80 32 48 80 32 48 80 32 48 80 32 48 80 32 48 80 32 48 80 32 48 80 32 48 80 32
240 88 16 240 88 16 240 88 16 240 88 16 240 88 16 240 88 16 240 88 16 240 88 16 240 88 16 240 88 16 240 88 16 240 88 16 240 88 16 240 88 16 240 88 16 240 88 16 240 88 16 240 88 16 240 88 16 240 88 16 240 88 16 240 88 16 240 88 16 240 88 16 240 88 16 240 88 16 240 88 16 240 88 16 240 88 16 240 88 16 240 88 16 240 88 16 240 88 16 240 88 16 240 88 16 240 88 16 240 88 16 240 88 16 240 88 16 240 88 16 240 88 16 240 88 16 240 88 16 240 88 16 240 88 16 240 88 16 240 88 16 240 88 16 240 88 16 240 88 16 240 88 16 240 88 16 240 88 16 240 88 16 240 88 16 240 88 16 240 88 16 240 88 16 240 88 16 240 88 16 240 88 16 240 88 16 240 88 16 240 88 16 112 104 32 112 104 32 112 104 32 112 104 32 112 104 32 112 104 32 112 104 32 112 104 32 112 104 32 112 104 32 112 104 32 112 104 32 112 104 32 112 104 32 112 104 32 112 104 32 112 104 32 112 104 32 112 104 32 112 104 32 112 104 32 112 104 32 112 104 32 112 104 32 112 104 32 112 104 32 112 104 32 112 104 32 112 104 32 112 104 32 112 104 32 112 104 32 48 80 32 48 80 32 48 80 32 48 80 32 48 80 32 48 80 32 48 80 32 48 80 32 48 80 32 48 80 32 48 80 32 48 80 32 48 80 32 48 80 32 48 80 32 48 80 32 48 80 32 48 80 32 48 80 32 48 80 32 48 80 32 48 80 32 48 80 32 48 80 32 48 80 32 48 80 32 48 80 32 48 80 32 48 80 32 48 80 32 48 80 32 48 80 32
240 88 16 240 88 16 240 88 16 240 88 16 240 88 16 240 88 16 240 88 16 240 88 16 240 88 16 240 88 16 240 88 16 240 88 16 240 88 16 240 88 16 240 88 16 240 88 16 240 88 16 240 88 16 240 88 16 240 88 16 240 88 16 240 88 16 240 88 16 240 88 16 240 88 16 240 88 16 240 88 16 240 88 16 240 88 16 240 88 16 240 88 16 240 88 16 240 88 16 240 88 16 240 88 16 240 88 16 240 88 16 240 88 16 240 88 16 240 88 16 240 88 16 240 88 16 240 88 16 240 88 16 240 88 16 240 88 16 240 88 16 240 88 16 240 88 16 240 88 16 240 88 16 240 88 16 240 88 16 240 88 16 240 88 16 240 88 16 240 88 16 240 88 16 240 88 16 240 88 16 240 88 16 240 88 16 240 88 16 240 88 16 112 104 32 112 104 32 112 104 32 112 104 32 112 104 32 112 104 32 112 104 32 112 104 32 112 104 32 112 104 32 112 104 32 112 104 32 112 104 32 112 104 32 112 104 32 112 104 32 112 104 32 112 104 32 112 104 32 112 104 32 112 104 32 112 104 32 112 104 32 112 104 32 112 104 32 112 104 32 112 104 32 112 104 32 112 104 32 112 104 32 112 104 32 112 104 32 48 80 32 48 80 32 48 80 32 48 80 32 48 80 32 48 80 32 48 80 32 48 80 32 48 80 32 48 80 32 48 80 32 48 80 32 48 80 32 48 80 32 48 80 32 48 80 32 48 80 32 48 80 32 48 80 32 48 80 32 48 80 32 48 80 32 48 80 32 48 80 32 48 80 32 48 80 32 48 80 32 48 80 32 48 80 32 48 80 32 48 80 32 48 80 32
240 88 16 240 88 16 240 88 16 240 88 16 240 88 16 240 88 16 240 88 16 240 88 16 240 88 16 240 88 16 240 88 16 240 88 16 240 88 16 240 88 16 240 88 16 240 88 16 240 88 16 240 88 16 240 88 16 240 88 16 240 88 16 240 88 16 240 88 16 240 88 16 240 88 16 240 88 16 240 88 16 240 88 16 240 88 16 240 88 16 240 88 16 240 88 16 240 88 16 240 88 16 240 88 16 240 88 16 240 88 16 240 88 16 240 88 16 240 88 16 240 88 16 240 88 16 240 88 16 240 88 16 240 88 16 240 88 16 240 88 16 240 88 16 240 88 16 240 88 16 240 88 16 240 88 16 240 88 16 240 88 16 240 88 16 240 88 16 240 88 16 240 88 16 240 88 16 240 88 16 240 88 16 240 88 16 240 88 16 240 88 16 112 104 32 112 104 32 112 104 32 112 104 32 112 104 32 112 104 32 112 104 32 112 104 32 112 104 32 112 104 32 112 104 32 112 104 32 112 104 32 112 104 32 112 104 32 112 104 32 112 104 32 112 104 32 112 104 32 112 104 32 112 104 32 112 104 32 112 104 32 112 104 32 112 104 32 112 104 32 112 104 32 112 104 32 112 104 32 112 104 32 112 104 32 112 104 32 48 80 32 48 80 32 48 80 32 48 80 32 48 80 32 48 80 32 48 80 32 48 80 32 48 80 32 48 80 32 48 80 32 48 80 32 48 80 32 48 80 32 48 80 32 48 80 32 48 80 32 48 80 32 48 80 32 48 80 32 48 80 32 48 80 32 48 80 32 48 80 32 48 80 32 48 80 32 48 80 32 48 80 32 48 80 32 48 80 32 48 80 32 48 80 32
240 88 16 240 88 16 240 88 16 240 88 16 240 88 16 240 88 16 240 88 16 240 88 16 240 88 16 240 88 16 240 88 16 240 88 16 240 88 16 240 88 16 240 88 16 240 88 16 240 88 16 240 88 16 240 88 16 240 88 16 240 88 16 240 88 16 240 88 16 240 88 16 240 88 16 240 88 16 240 88 16 240 88 16 240 88 16 240 88 16 240 88 16 240 88 16 240 88 16 240 88 16 240 88 16 240 88 16 240 88 16 240 88 16 240 88 16 240 88 16 240 88 16 240 88 16 240 88 16 240 88 16 240 88 16 240 88 16 240 88 16 240 88 16 240 88 16 240 88 16 240 88 16 240 88 16 240 88 16 240 88 16 240 88 16 240 88 16 240 88 16 240 88 16 240 88 16 240 88 16 240 88 16 240 88 16 240 88 16 240 88 16 112 104 32 112 104 32 112 104 32 112 104 32 112 104 32 112 104 32 112 104 32 112 104 32 112 104 32 112 104 32 112 104 32 112 104 32 112 104 32 112 104 32 112 104 32 112 104 32 112 104 32 112 104 32 112 104 32 112 104 32 112 104 32 112 104 32 112 104 32 112 104 32 112 104 32 112 104 32 112 104 32 112 104 32 112 104 32 112 104 32 112 104 32 112 104 32 48 80 32 48 80 32 48 80 32 48 80 32 48 80 32 48 80 32 48 80 32 48 80 32 48 80 32 48 80 32 48 80 32 48 80 32 48 80 32 48 80 32 48 80 32 48 80 32 48 80 32 48 80 32 48 80 32 48 80 32 48 80 32 48 80 32 48 80 32 48 80 32 48 80 32 48 80 32 48 80 32 48 80 32 48 80 32 48 80 32 48 80 32 48 80 32
240 88 16 240 88 16 240 88 16 240 88 16 240 88 16 240 88 16 240 88 16 240 88 16 240 88 16 240 88 16 240 88 16 240 88 16 240 88 16 240 88 16 240 88 16 240 88 16 240 88 16 240 88 16 240 88 16 240 88 16 240 88 16 240 88 16 240 88 16 240 88 16 240 88 16 240 88 16 240 88 16 240 88 16 240 88 16 240 88 16 240 88 16 240 88 16 240 88 16 240 88 16 240 88 16 240 88 16 240 88 16 240 88 16 240 88 16 240 88 16 240 88 16 240 88 16 240 88 16 240 88 16 240 88 16 240 88 16 240 88 16 240 88 16 240 88 16 240 88 16 240 88 16 240 88 16 240 88 16 240 88 16 240 88 16 240 88 16 240 88 16 240 88 16 240 88 16 240 88 16 240 88 16 240 88 16 240 88 16 240 88 16 112 104 32 112 104 32 112 104 32 112 104 32 112 104 32 112 104 32 112 104 32 112 104 32 112 104 32 112 104 32 112 104 32 112 104 32 112 104 32 112 104 32 112 104 32 112 104 32 112 104 32 112 104 32 112 104 32 112 104 32 112 104 32 112 104 32 112 104 32 112 104 32 112 104 32 112 104 32 112 104 32 112 104 32 112 104 32 112 104 32 112 104 32 112 104 32 48 80 32 48 80 32 48 80 32 48 80 32 48 80 32 48 80 32 48 80 32 48 80 32 48 80 32 48 80 32 48 80 32 48 80 32 48 80 32 48 80 32 48 80 32 48 80 32 48 80 32 48 80 32 48 80 32 48 80 32 48 80 32 48 80 32 48 80 32 48 80 32 48 80 32 48 80 32 48 80 32 48 80 32 48 80 32 48 80 32 48 80 32 48 80 32
240 88 16 240 88 16 240 88 16 240 88 16 240 88 16 240 88 16 240 88 16 240 88 16 240 88 16 240 88 16 240 88 16 240 88 16 240 88 16 240 88 16 240 88 16 240 88 16 240 88 16 240 88 16 240 88 16 240 88 16 240 88 16 240 88 16 240 88 16 240 88 16 240 88 16 240 88 16 240 88 16 240 88 16 240 88 16 240 88 16 240 88 16 240 88 16 240 88 16 240 88 16 240 88 16 240 88 16 240 88 16 240 88 16 240 88 16 240 88 16 240 88 16 240 88 16 240 88 16 240 88 16 240 88 16 240 88 16 240 88 16 240 88 16 240 88 16 240 88 16 240 88 16 240 88 16 240 88 16 240 88 16 240 88 16 240 88 16 240 88 16 240 88 16 240 88 16 240 88 16 240 88 16 240 88 16 240 88 16 240 88 16 112 104 32 112 104 32 112 104 32 112 104 32 112 104 32 112 104 32 112 104 32 112 104 32 112 104 32 112 104 32 112 104 32 112 104 32 112 104 32 112 104 32 112 104 32 112 104 32 112 104 32 112 104 32 112 104 32 112 104 32 112 104 32 112 104 32 112 104 32 112 104 32 112 104 32 112 104 32 112 104 32 112 104 32 112 104 32 112 104 32 112 104 32 112 104 32 48 80 32 48 80 32 48 80 32 48 80 32 48 80 32 48 80 32 48 80 32 48 80 32 48 80 32 48 80 32 48 80 32 48 80 32 48 80 32 48 80 32 48 80 32 48 80 32 48 80 32 48 80 32 48 80 32 48 80 32 48 80 32 48 80 32 48 80 32 48 80 32 48 80 32 48 80 32 48 80 32 48 80 32 48 80 32 48 80 32 48 80 32 48 80 32
240 88 16 240 88 16 240 88 16 240 88 16 240 88 16 240 88 16 240 88 16 240 88 16 240 88 16 240 88 16 240 88 16 240 88 16 240 88 16 240 88 16 240 88 16 240 88 16 240 88 16 240 88 16 240 88 16 240 88 16 240 88 16 240 88 16 240 88 16 240 88 16 240 88 16 240 88 16 240 88 16 240 88 16 240 88 16 240 88 16 240 88 16 240 88 16 240 88 16 240 88 16 240 88 16 240 88 16 240 88 16 240 88 16 240 88 16 240 88 16 240 88 16 240 88 16 240 88 16 240 88 16 240 88 16 240 88 16 240 88 16 240 88 16 240 88 16 240 88 16 240 88 16 240 88 16 240 88 16 240 88 16 240 88 16 240 88 16 240 88 16 240 88 16 240 88 16 240 88 16 240 88 16 240 88 16 240 88 16 240 88 16 112 104 32 112 104 32 112 104 32 112 104 32 112 104 32 112 104 32 112 104 32 112 104 32 112 104 32 112 104 32 112 104 32 112 104 32 112 104 32 112 104 32 112 104 32 112 104 32 112 104 32 112 104 32 112 104 32 112 104 32 112 104 32 112 104 32 112 104 32 112 104 32 112 104 32 112 104 32 112 104 32 112 104 32 112 104 32 112 104 32 112 104 32 112 104 32 48 80 32 48 80 32 48 80 32 48 80 32 48 80 32 48 80 32 48 80 32 48 80 32 48 80 32 48 80 32 48 80 32 48 80 32 48 80 32 48 80 32 48 80 32 48 80 32 48 80 32 48 80 32 48 80 32 48 80 32 48 80 32 48 80 32 48 80 32 48 80 32 48 80 32 48 80 32 48 80 32 48 80 32 48 80 32 48 80 32 48 80 32 48 80 32
240 88 16 240 88 16 240 88 16 240 88 16 240 88 16 240 88 16 240 88 16 240 88 16 240 88 16 240 88 16 240 88 16 240 88 16 240 88 16 240 88 16 240 88 16 240 88 16 240 88 16 240 88 16 240 88 16 240 88 16 240 88 16 240 88 16 240 88 16 240 88 16 240 88 16 240 88 16 240 88 16 240 88 16 240 88 16 240 88 16 240 88 16 240 88 16 240 88 16 240 88 16 240 88 16 240 88 16 240 88 16 240 88 16 240 88 16 240 88 16 240 88 16 240 88 16 240 88 16 240 88 16 240 88 16 240 88 16 240 88 16 240 88 16 240 88 16 240 88 16 240 88 16 240 88 16 240 88 16 240 88 16 240 88 16 240 88 16 240 88 16 240 88 16 240 88 16 240 88 16 240 88 16 240 88 16 240 88 16 240 88 16 112 104 32 112 104 32 112 104 32 112 104 32 112 104 32 112 104 32 112 104 32 112 104 32 112 104 32 112 104 32 112 104 32 112 104 32 112 104 32 112 104 32 112 104 32 112 104 32 112 104 32 112 104 32 112 104 32 112 104 32 112 104 32 112 104 32 112 104 32 112 104 32 112 104 32 112 104 32 112 104 32 112 104 32 112 104 32 112 104 32 112 104 32 112 104 32 48 80 32 48 80 32 48 80 32 48 80 32 48 80 32 48 80 32 48 80 32 48 80 32 48 80 32 48 80 32 48 80 32 48 80 32 48 80 32 48 80 32 48 80 32 48 80 32 48 80 32 48 80 32 48 80 32 48 80 32 48 80 32 48 80 32 48 80 32 48 80 32 48 80 32 48 80 32 48 80 32 48 80 32 48 80 32 48 80 32 48 80 32 48 80 32
240 88 16 240 88 16 240 88 16 240 88 16 240 88 16 240 88 16 240 88 16 240 88 16 240 88 16 240 88 16 240 88 16 240 88 16 240 88 16 240 88 16 240 88 16 240 88 16 240 88 16 240 88 16 240 88 16 240 88 16 240 88 16 240 88 16 240 88 16 240 88 16 240 88 16 240 88 16 240 88 16 240 88 16 240 88 16 240 88 16 240 88 16 240 88 16 240 88 16 240 88 16 240 88 16 240 88 16 240 88 16 240 88 16 240 88 16 240 88 16 240 88 16 240 88 16 240 88 16 240 88 16 240 88 16 240 88 16 240 88 16 240 88 16 240 88 16 240 88 16 240 88 16 240 88 16 240 88 16 240 88 16 240 88 16 240 88 16 240 88 16 240 88 16 240 88 16 240 88 16 240 88 16 240 88 16 240 88 16 240 88 16 112 104 32 112 104 32 112 104 32 112 104 32 112 104 32 112 104 32 112 104 32 112 104 32 112 104 32 112 104 32 112 104 32 112 104 32 112 104 32 112 104 32 112 104 32 112 104 32 112 104 32 112 104 32 112 104 32 112 104 32 112 104 32 112 104 32 112 104 32 112 104 32 112 104 32 112 104 32 112 104 32 112 104 32 112 104 32 112 104 32 112 104 32 112 104 32 48 80 32 48 80 32 48 80 32 48 80 32 48 80 32 48 80 32 48 80 32 48 80 32 48 80 32 48 80 32 48 80 32 48 80 32 48 80 32 48 80 32 48 80 32 48 80 32 48 80 32 48 80 32 48 80 32 48 80 32 48 80 32 48 80 32 48 80 32 48 80 32 48 80 32 48 80 32 48 80 32 48 80 32 48 80 32 48 80 32 48 80 32 48 80 32
240 88 16 240 88 16 240 88 16 240 88 16 240 88 16 240 88 16 240 88 16 240 88 16 240 88 16 240 88 16 240 88 16 240 88 16 240 88 16 240 88 16 240 88 16 240 88 16 240 88 16 240 88 16 240 88 16 240 88 16 240 88 16 240 88 16 240 88 16 240 88 16 240 88 16 240 88 16 240 88 16 240 88 16 240 88 16 240 88 16 240 88 16 240 88 16 240 88 16 240 88 16 240 88 16 240 88 16 240 88 16 240 88 16 240 88 16 240 88 16 240 88 16 240 88 16 240 88 16 240 88 16 240 88 16 240 88 16 240 88 16 240 88 16 240 88 16 240 88 16 240 88 16 240 88 16 240 88 16 240 88 16 240 88 16 240 88 16 240 88 16 240 88 16 240 88 16 240 88 16 240 88 16 240 88 16 240 88 16 240 88 16 112 104 32 112 104 32 112 104 32 112 104 32 112 104 32 112 104 32 112 104 32 112 104 32 112 104 32 112 104 32 112 104 32 112 104 32 112 104 32 112 104 32 112 104 32 112 104 32 112 104 32 112 104 32 112 104 32 112 104 32 112 104 32 112 104 32 112 104 32 112 104 32 112 104 32 112 104 32 112 104 32 112 104 32 112 104 32 112 104 32 112 104 32 112 104 32 48 80 32 48 80 32 48 80 32 48 80 32 48 80 32 48 80 32 48 80 32 48 80 32 48 80 32 48 80 32 48 80 32 48 80 32 48 80 32 48 80 32 48 80 32 48 80 32 48 80 32 48 80 32 48 80 32 48 80 32 48 80 32 48 80 32 48 80 32 48 80 32 48 80 32 48 80 32 48 80 32 48 80 32 48 80 32 48 80 32 48 80 32 48 80 32
240 88 16 240 88 16 240 88 16 240 88 16 240 88 16 240 88 16 240 88 16 240 88 16 240 88 16 240 88 16 240 88 16 240 88 16 240 88 16 240 88 16 240 88 16 240 88 16 240 88 16 240 88 16 240 88 16 240 88 16 240 88 16 240 88 16 240 88 16 240 88 16 240 88 16 240 88 16 240 88 16 240 88 16 240 88 16 240 88 16 240 88 16 240 88 16 240 88 16 240 88 16 240 88 16 240 88 16 240 88 16 240 88 16 240 88 16 240 88 16 240 88 16 240 88 16 240 88 16 240 88 16 240 88 16 240 88 16 240 88 16 240 88 16 240 88 16 240 88 16 240 88 16 240 88 16 240 88 16 240 88 16 240 88 16 240 88 16 240 88 16 240 88 16 240 88 16 240 88 16 240 88 16 240 88 16 240 88 16 240 88 16 112 104 32 112 104 32 112 104 32 112 104 32 112 104 32 112 104 32 112 104 32 112 104 32 112 104 32 112 104 32 112 104 32 112 104 32 112 104 32 112 104 32 112 104 32 112 104 32 112 104 32 112 104 32 112 104 32 112 104 32 112 104 32 112 104 32 112 104 32 112 104 32 112 104 32 112 104 32 112 104 32 112 104 32 112 104 32 112 104 32 112 104 32 112 104 32 48 80 32 48 80 32 48 80 32 48 80 32 48 80 32 48 80 32 48 80 32 48 80 32 48 80 32 48 80 32 48 80 32 48 80 32 48 80 32 48 80 32 48 80 32 48 80 32 48 80 32 48 80 32 48 80 32 48 80 32 48 80 32 48 80 32 48 80 32 48 80 32 48 80 32 48 80 32 48 80 32 48 80 32 48 80 32 48 80 32 48 80 32 48 80 32
240 88 16 240 88 16 240 88 16 240 88 16 240 88 16 240 88 16 240 88 16 240 88 16 240 88 16 240 88 16 240 88 16 240 88 16 240 88 16 240 88 16 240 88 16 240 88 16 240 88 16 240 88 16 240 88 16 240 88 16 240 88 16 240 88 16 240 88 16 240 88 16 240 88 16 240 88 16 240 88 16 240 88 16 240 88 16 240 88 16 240 88 16 240 88 16 240 88 16 240 88 16 240 88 16 240 88 16 240 88 16 240 88 16 240 88 16 240 88 16 240 88 16 240 88 16 240 88 16 240 88 16 240 88 16 240 88 16 240 88 16 240 88 16 240 88 16 240 88 16 240 88 16 240 88 16 240 88 16 240 88 16 240 88 16 240 88 16 240 88 16 240 88 16 240 88 16 240 88 16 240 88 16 240 88 16 240 88 16 240 88 16 112 104 32 112 104 32 112 104 32 112 104 32 112 104 32 112 104 32 112 104 32 112 104 32 112 104 32 112 104 32 112 104 32 112 104 32 112 104 32 112 104 32 112 104 32 112 104 32 112 104 32 112 104 32 112 104 32 112 104 32 112 104 32 112 104 32 112 104 32 112 104 32 112 104 32 112 104 32 112 104 32 112 104 32 112 104 32 112 104 32 112 104 32 112 104 32 48 80 32 48 80 32 48 80 32 48 80 32 48 80 32 48 80 32 48 80 32 48 80 32 48 80 32 48 80 32 48 80 32 48 80 32 48 80 32 48 80 32 48 80 32 48 80 32 48 80 32 48 80 32 48 80 32 48 80 32 48 80 32 48 80 32 48 80 32 48 80 32 48 80 32 48 80 32 48 80 32 48 80 32 48 80 32 48 80 32 48 80 32 48 80 32
240 88 16 240 88 16 240 88 16 240 88 16 240 88 16 240 88 16 240 88 16 240 88 16 240 88 16 240 88 16 240 88 16 240 88 16 240 88 16 240 88 16 240 88 16 240 88 16 240 88 16 240 88 16 240 88 16 240 88 16 240 88 16 240 88 16 240 88 16 240 88 16 240 88 16 240 88 16 240 88 16 240 88 16 240 88 16 240 88 16 240 88 16 240 88 16 240 88 16 240 88 16 240 88 16 240 88 16 240 88 16 240 88 16 240 88 16 240 88 16 240 88 16 240 88 16 240 88 16 240 88 16 240 88 16 240 88 16 240 88 16 240 88 16 240 88 16 240 88 16 240 88 16 240 88 16 240 88 16 240 88 16 240 88 16 240 88 16 240 88 16 240 88 16 240 88 16 240 88 16 240 88 16 240 88 16 240 88 16 240 88 16 112 104 32 112 104 32 112 104 32 112 104 32 112 104 32 112 104 32 112 104 32 112 104 32 112 104 32 112 104 32 112 104 32 112 104 32 112 104 32 112 104 32 112 104 32 112 104 32 112 104 32 112 104 32 112 104 32 112 104 32 112 104 32 112 104 32 112 104 32 112 104 32 112 104 32 112 104 32 112 104 32 112 104 32 112 104 32 112 104 32 112 104 32 112 104 32 48 80 32 48 80 32 48 80 32 48 80 32 48 80 32 48 80 32 48 80 32 48 80 32 48 80 32 48 80 32 48 80 32 48 80 32 48 80 32 48 80 32 48 80 32 48 80 32 48 80 32 48 80 32 48 80 32 48 80 32 48 80 32 48 80 32 48 80 32 48 80 32 48 80 32 48 80 32 48 80 32 48 80 32 48 80 32 48 80 32 48 80 32 48 80 32
240 88 16 240 88 16 240 88 16 240 88 16 240 88 16 240 88 16 240 88 16 240 88 16 240 88 16 240 88 16 240 88 16 240 88 16 240 88 16 240 88 16 240 88 16 240 88 16 240 88 16 240 88 16 240 88 16 240 88 16 240 88 16 240 88 16 240 88 16 240 88 16 240 88 16 240 88 16 240 88 16 240 88 16 240 88 16 240 88 16 240 88 16 240 88 16 240 88 16 240 88 16 240 88 16 240 88 16 240 88 16 240 88 16 240 88 16 240 88 16 240 88 16 240 88 16 240 88 16 240 88 16 240 88 16 240 88 16 240 88 16 240 88 16 240 88 16 240 88 16 240 88 16 240 88 16 240 88 16 240 88 16 240 88 16 240 88 16 240 88 16 240 88 16 240 88 16 240 88 16 240 88 16 240 88 16 240 88 16 240 88 16 112 104 32 112 104 32 112 104 32 112 104 32 112 104 32 112 104 32 112 104 32 112 104 32 112 104 32 112 104 32 112 104 32 112 104 32 112 104 32 112 104 32 112 104 32 112 104 32 112 104 32 112 104 32 112 104 32 112 104 32 112 104 32 112 104 32 112 104 32 112 104 32 112 104 32 112 104 32 112 104 32 112 104 32 112 104 32 112 104 32 112 104 32 112 104 32 48 80 32 48 80 32 48 80 32 48 80 32 48 80 32 48 80 32 48 80 32 48 80 32 48 80 32 48 80 32 48 80 32 48 80 32 48 80 32 48 80 32 48 80 32 48 80 32 48 80 32 48 80 32 48 80 32 48 80 32 48 80 32 48 80 32 48 80 32 48 80 32 48 80 32 48 80 32 48 80 32 48 80 32 48 80 32 48 80 32 48 80 32 48 80 32
240 88 16 240 88 16 240 88 16 240 88 16 240 88 16 240 88 16 240 88 16 240 88 16 240 88 16 240 88 16 240 88 16 240 88 16 240 88 16 240 88 16 240 88 16 240 88 16 240 88 16 240 88 16 240 88 16 240 88 16 240 88 16 240 88 16 240 88 16 240 88 16 240 88 16 240 88 16 240 88 16 240 88 16 240 88 16 240 88 16 240 88 16 240 88 16 240 88 16 240 88 16 240 88 16 240 88 16 240 88 16 240 88 16 240 88 16 240 88 16 240 88 16 240 88 16 240 88 16 240 88 16 240 88 16 240 88 16 240 88 16 240 88 16 240 88 16 240 88 16 240 88 16 240 88 16 240 88 16 240 88 16 240 88 16 240 88 16 240 88 16 240 88 16 240 88 16 240 88 16 240 88 16 240 88 16 240 88 16 240 88 16 112 104 32 112 104 32 112 104 32 112 104 32 112 104 32 112 104 32 112 104 32 112 104 32 112 104 32 112 104 32 112 104 32 112 104 32 112 104 32 112 104 32 112 104 32 112 104 32 112 104 32 112 104 32 112 104 32 112 104 32 112 104 32 112 104 32 112 104 32 112 104 32 112 104 32 112 104 32 112 104 32 112 104 32 112 104 32 112 104 32 112 104 32 112 104 32 48 80 32 48 80 32 48 80 32 48 80 32 48 80 32 48 80 32 48 80 32 48 80 32 48 80 32 48 80 32 48 80 32 48 80 32 48 80 32 48 80 32 48 80 32 48 80 32 48 80 32 48 80 32 48 80 32 48 80 32 48 80 32 48 80 32 48 80 32 48 80 32 48 80 32 48 80 32 48 80 32 48 80 32 48 80 32 48 80 32 48 80 32 48 80 32
240 88 16 240 88 16 240 88 16 240 88 16 240 88 16 240 88 16 240 88 16 240 88 16 240 88 16 240 88 16 240 88 16 240 88 16 240 88 16 240 88 16 240 88 16 240 88 16 240 88 16 240 88 16 240 88 16 240 88 16 240 88 16 240 88 16 240 88 16 240 88 16 240 88 16 240 88 16 240 88 16 240 88 16 240 88 16 240 88 16 240 88 16 240 88 16 240 88 16 240 88 16 240 88 16 240 88 16 240 88 16 240 88 16 240 88 16 240 88 16 240 88 16 240 88 16 240 88 16 240 88 16 240 88 16 240 88 16 240 88 16 240 88 16 240 88 16 240 88 16 240 88 16 240 88 16 240 88 16 240 88 16 240 88 16 240 88 16 240 88 16 240 88 16 240 88 16 240 88 16 240 88 16 240 88 16 240 88 16 240 88 16 112 104 32 112 104 32 112 104 32 112 104 32 112 104 32 112 104 32 112 104 32 112 104 32 112 104 32 112 104 32 112 104 32 112 104 32 112 104 32 112 104 32 112 104 32 112 104 32 112 104 32 112 104 32 112 104 32 112 104 32 112 104 32 112 104 32 112 104 32 112 104 32 112 104 32 112 104 32 112 104 32 112 104 32 112 104 32 112 104 32 112 104 32 112 104 32 48 80 32 48 80 32 48 80 32 48 80 32 48 80 32 48 80 32 48 80 32 48 80 32 48 80 32 48 80 32 48 80 32 48 80 32 48 80 32 48 80 32 48 80 32 48 80 32 48 80 32 48 80 32 48 80 32 48 80 32 48 80 32 48 80 32 48 80 32 48 80 32 48 80 32 48 80 32 48 80 32 48 80 32 48 80 32 48 80 32 48 80 32 48 80 32
240 88 16 240 88 16 240 88 16 240 88 16 240 88 16 240 88 16 240 88 16 240 88 16 240 88 16 240 88 16 240 88 16 240 88 16 240 88 16 240 88 16 240 88 16 240 88 16 240 88 16 240 88 16 240 88 16 240 88 16 240 88 16 240 88 16 240 88 16 240 88 16 240 88 16 240 88 16 240 88 16 240 88 16 240 88 16 240 88 16 240 88 16 240 88 16 240 88 16 240 88 16 240 88 16 240 88 16 240 88 16 240 88 16 240 88 16 240 88 16 240 88 16 240 88 16 240 88 16 240 88 16 240 88 16 240 88 16 240 88 16 240 88 16 240 88 16 240 88 16 240 88 16 240 88 16 240 88 16 240 88 16 240 88 16 240 88 16 240 88 16 240 88 16 240 88 16 240 88 16 240 88 16 240 88 16 240 88 16 240 88 16 112 104 32 112 104 32 112 104 32 112 104 32 112 104 32 112 104 32 112 104 32 112 104 32 112 104 32 112 104 32 112 104 32 112 104 32 112 104 32 112 104 32 112 104 32 112 104 32 112 104 32 112 104 32 112 104 32 112 104 32 112 104 32 112 104 32 112 104 32 112 104 32 112 104 32 112 104 32 112 104 32 112 104 32 112 104 32 112 104 32 112 104 32 112 104 32 48 80 32 48 80 32 48 80 32 48 80 32 48 80 32 48 80 32 48 80 32 48 80 32 48 80 32 48 80 32 48 80 32 48 80 32 48 80 32 48 80 32 48 80 32 48 80 32 48 80 32 48 80 32 48 80 32 48 80 32 48 80 32 48 80 32 48 80 32 48 80 32 48 80 32 48 80 32 48 80 32 48 80 32 48 80 32 48 80 32 48 80 32 48 80 32
240 88 16 240 88 16 240 88 16 240 88 16 240 88 16 240 88 16 240 88 16 240 88 16 240 88 16 240 88 16 240 88 16 240 88 16 240 88 16 240 88 16 240 88 16 240 88 16 240 88 16 240 88 16 240 88 16 240 88 16 240 88 16 240 88 16 240 88 16 240 88 16 240 88 16 240 88 16 240 88 16 240 88 16 240 88 16 240 88 16 240 88 16 240 88 16 240 88 16 240 88 16 240 88 16 240 88 16 240 88 16 240 88 16 240 88 16 240 88 16 240 88 16 240 88 16 240 88 16 240 88 16 240 88 16 240 88 16 240 88 16 240 88 16 240 88 16 240 88 16 240 88 16 240 88 16 240 88 16 240 88 16 240 88 16 240 88 16 240 88 16 240 88 16 240 88 16 240 88 16 240 88 16 240 88 16 240 88 16 240 88 16 112 104 32 112 104 32 112 104 32 112 104 32 112 104 32 112 104 32 112 104 32 112 104 32 112 104 32 112 104 32 112 104 32 112 104 32 112 104 32 112 104 32 112 104 32 112 104 32 112 104 32 112 104 32 112 104 32 112 104 32 112 104 32 112 104 32 112 104 32 112 104 32 112 104 32 112 104 32 112 104 32 112 104 32 112 104 32 112 104 32 112 104 32 112 104 32 48 80 32 48 80 32 48 80 32 48 80 32 48 80 32 48 80 32 48 80 32 48 80 32 48 80 32 48 80 32 48 80 32 48 80 32 48 80 32 48 80 32 48 80 32 48 80 32 48 80 32 48 80 32 48 80 32 48 80 32 48 80 32 48 80 32 48 80 32 48 80 32 48 80 32 48 80 32 48 80 32 48 80 32 48 80 32 48 80 32 48 80 32 48 80 32
240 88 16 240 88 16 240 88 16 240 88 16 240 88 16 240 88 16 240 88 16 240 88 16 240 88 16 240 88 16 240 88 16 240 88 16 240 88 16 240 88 16 240 88 16 240 88 16 240 88 16 240 88 16 240 88 16 240 88 16 240 88 16 240 88 16 240 88 16 240 88 16 240 88 16 240 88 16 240 88 16 240 88 16 240 88 16 240 88 16 240 88 16 240 88 16 240 88 16 240 88 16 240 88 16 240 88 16 240 88 16 240 88 16 240 88 16 240 88 16 240 88 16 240 88 16 240 88 16 240 88 16 240 88 16 240 88 16 240 88 16 240 88 16 240 88 16 240 88 16 240 88 16 240 88 16 240 88 16 240 88 16 240 88 16 240 88 16 240 88 16 240 88 16 240 88 16 240 88 16 240 88 16 240 88 16 240 88 16 240 88 16 112 104 32 112 104 32 112 104 32 112 104 32 112 104 32 112 104 32 112 104 32 112 104 32 112 104 32 112 104 32 112 104 32 112 104 32 112 104 32 112 104 32 112 104 32 112 104 32 112 104 32 112 104 32 112 104 32 112 104 32 112 104 32 112 104 32 112 104 32 112 104 32 112 104 32 112 104 32 112 104 32 112 104 32 112 104 32 112 104 32 112 104 32 112 104 32 48 80 32 48 80 32 48 80 32 48 80 32 48 80 32 48 80 32 48 80 32 48 80 32 48 80 32 48 80 32 48 80 32 48 80 32 48 80 32 48 80 32 48 80 32 48 80 32 48 80 32 48 80 32 48 80 32 48 80 32 48 80 32 48 80 32 48 80 32 48 80 32 48 80 32 48 80 32 48 80 32 48 80 32 48 80 32 48 80 32 48 80 32 48 80 32
240 88 16 240 88 16 240 88 16 240 88 16 240 88 16 240 88 16 240 88 16 240 88 16 240 88 16 240 88 16 240 88 16 240 88 16 240 88 16 240 88 16 240 88 16 240 88 16 240 88 16 240 88 16 240 88 16 240 88 16 240 88 16 240 88 16 240 88 16 240 88 16 240 88 16 240 88 16 240 88 16 240 88 16 240 88 16 240 88 16 240 88 16 240 88 16 240 88 16 240 88 16 240 88 16 240 88 16 240 88 16 240 88 16 240 88 16 240 88 16 240 88 16 240 88 16 240 88 16 240 88 16 240 88 16 240 88 16 240 88 16 240 88 16 240 88 16 240 88 16 240 88 16 240 88 16 240 88 16 240 88 16 240 88 16 240 88 16 240 88 16 240 88 16 240 88 16 240 88 16 240 88 16 240 88 16 240 88 16 240 88 16 112 104 32 112 104 32 112 104 32 112 104 32 112 104 32 112 104 32 112 104 32 112 104 32 112 104 32 112 104 32 112 104 32 112 104 32 112 104 32 112 104 32 112 104 32 112 104 32 112 104 32 112 104 32 112 104 32 112 104 32 112 104 32 112 104 32 112 104 32 112 104 32 112 104 32 112 104 32 112 104 32 112 104 32 112 104 32 112 104 32 112 104 32 112 104 32 48 80 32 48 80 32 48 80 32 48 80 32 48 80 32 48 80 32 48 80 32 48 80 32 48 80 32 48 80 32 48 80 32 48 80 32 48 80 32 48 80 32 48 80 32 48 80 32 48 80 32 48 80 32 48 80 32 48 80 32 48 80 32 48 80 32 48 80 32 48 80 32 48 80 32 48 80 32 48 80 32 48 80 32 48 80 32 48 80 32 48 80 32 48 80 32
240 88 16 240 88 16 240 88 16 240 88 16 240 88 16 240 88 16 240 88 16 240 88 16 240 88 16 240 88 16 240 88 16 240 88 16 240 88 16 240 88 16 240 88 16 240 88 16 240 88 16 240 88 16 240 88 16 240 88 16 240 88 16 240 88 16 240 88 16 240 88 16 240 88 16 240 88 16 240 88 16 240 88 16 240 88 16 240 88 16 240 88 16 240 88 16 240 88 16 240 88 16 240 88 16 240 88 16 240 88 16 240 88 16 240 88 16 240 88 16 240 88 16 240 88 16 240 88 16 240 88 16 240 88 16 240 88 16 240 88 16 240 88 16 240 88 16 240 88 16 240 88 16 240 88 16 240 88 16 240 88 16 240 88 16 240 88 16 240 88 16 240 88 16 240 88 16 240 88 16 240 88 16 240 88 16 240 88 16 240 88 16 112 104 32 112 104 32 112 104 32 112 104 32 112 104 32 112 104 32 112 104 32 112 104 32 112 104 32 112 104 32 112 104 32 112 104 32 112 104 32 112 104 32 112 104 32 112 104 32 112 104 32 112 104 32 112 104 32 112 104 32 112 104 32 112 104 32 112 104 32 112 104 32 112 104 32 112 104 32 112 104 32 112 104 32 112 104 32 112 104 32 112 104 32 112 104 32 48 80 32 48 80 32 48 80 32 48 80 32 48 80 32 48 80 32 48 80 32 48 80 32 48 80 32 48 80 32 48 80 32 48 80 32 48 80 32 48 80 32 48 80 32 48 80 32 48 80 32 48 80 32 48 80 32 48 80 32 48 80 32 48 80 32 48 80 32 48 80 32 48 80 32 48 80 32 48 80 32 48 80 32 48 80 32 48 80 32 48 80 32 48 80 32
240 88 16 240 88 16 240 88 16 240 88 16 240 88 16 240 88 16 240 88 16 240 88 16 240 88 16 240 88 16 240 88 16 240 88 16 240 88 16 240 88 16 240 88 16 240 88 16 240 88 16 240 88 16 240 88 16 240 88 16 240 88 16 240 88 16 240 88 16 240 88 16 240 88 16 240 88 16 240 88 16 240 88 16 240 88 16 240 88 16 240 88 16 240 88 16 240 88 16 240 88 16 240 88 16 240 88 16 240 88 16 240 88 16 240 88 16 240 88 16 240 88 16 240 88 16 240 88 16 240 88 16 240 88 16 240 88 16 240 88 16 240 88 16 240 88 16 240 88 16 240 88 16 240 88 16 240 88 16 240 88 16 240 88 16 240 88 16 240 88 16 240 88 16 240 88 16 240 88 16 240 88 16 240 88 16 240 88 16 240 88 16 112 104 32 112 104 32 112 104 32 112 104 32 112 104 32 112 104 32 112 104 32 112 104 32 112 104 32 112 104 32 112 104 32 112 104 32 112 104 32 112 104 32 112 104 32 112 104 32 112 104 32 112 104 32 112 104 32 112 104 32 112 104 32 112 104 32 112 104 32 112 104 32 112 104 32 112 104 32 112 104 32 112 104 32 112 104 32 112 104 32 112 104 32 112 104 32 48 80 32 48 80 32 48 80 32 48 80 32 48 80 32 48 80 32 48 80 32 48 80 32 48 80 32 48 80 32 48 80 32 48 80 32 48 80 32 48 80 32 48 80 32 48 80 32 48 80 32 48 80 32 48 80 32 48 80 32 48 80 32 48 80 32 48 80 32 48 80 32 48 80 32 48 80 32 48 80 32 48 80 32 48 80 32 48 80 32 48 80 32 48 80 32
240 88 16 240 88 16 240 88 16 240 88 16 240 88 16 240 88 16 240 88 16 240 88 16 240 88 16 240 88 16 240 88 16 240 88 16 240 88 16 240 88 16 240 88 16 240 88 16 240 88 16 240 88 16 240 88 16 240 88 16 240 88 16 240 88 16 240 88 16 240 88 16 240 88 16 240 88 16 240 88 16 240 88 16 240 88 16 240 88 16 240 88 16 240 88 16 240 88 16 240 88 16 240 88 16 240 88 16 240 88 16 240 88 16 240 88 16 240 88 16 240 88 16 240 88 16 240 88 16 240 88 16 240 88 16 240 88 16 240 88 16 240 88 16 240 88 16 240 88 16 240 88 16 240 88 16 240 88 16 240 88 16 240 88 16 240 88 16 240 88 16 240 88 16 240 88 16 240 88 16 240 88 16 240 88 16 240 88 16 240 88 16 112 104 32 112 104 32 112 104 32 112 104 32 112 104 32 112 104 32 112 104 32 112 104 32 112 104 32 112 104 32 112 104 32 112 104 32 112 104 32 112 104 32 112 104 32 112 104 32 112 104 32 112 104 32 112 104 32 112 104 32 112 104 32 112 104 32 112 104 32 112 104 32 112 104 32 112 104 32 112 104 32 112 104 32 112 104 32 112 104 32 112 104 32 112 104 32 48 80 32 48 80 32 48 80 32 48 80 32 48 80 32 48 80 32 48 80 32 48 80 32 48 80 32 48 80 32 48 80 32 48 80 32 48 80 32 48 80 32 48 80 32 48 80 32 48 80 32 48 80 32 48 80 32 48 80 32 48 80 32 48 80 32 48 80 32 48 80 32 48 80 32 48 80 32 48 80 32 48 80 32 48 80 32 48 80 32 48 80 32 48 80 32
240 88 16 240 88 16 240 88 16 240 88 16 240 88 16 240 88 16 240 88 16 240 88 16 240 88 16 240 88 16 240 88 16 240 88 16 240 88 16 240 88 16 240 88 16 240 88 16 240 88 16 240 88 16 240 88 16 240 88 16 240 88 16 240 88 16 240 88 16 240 88 16 240 88 16 240 88 16 240 88 16 240 88 16 240 88 16 240 88 16 240 88 16 240 88 16 240 88 16 240 88 16 240 88 16 240 88 16 240 88 16 240 88 16 240 88 16 240 88 16 240 88 16 240 88 16 240 88 16 240 88 16 240 88 16 240 88 16 240 88 16 240 88 16 240 88 16 240 88 16 240 88 16 240 88 16 240 88 16 240 88 16 240 88 16 240 88 16 240 88 16 240 88 16 240 88 16 240 88 16 240 88 16 240 88 16 240 88 16 240 88 16 112 104 32 112 104 32 112 104 32 112 104 32 112 104 32 112 104 32 112 104 32 112 104 32 112 104 32 112 104 32 112 104 32 112 104 32 112 104 32 112 104 32 112 104 32 112 104 32 112 104 32 112 104 32 112 104 32 112 104 32 112 104 32 112 104 32 112 104 32 112 104 32 112 104 32 112 104 32 112 104 32 112 104 32 112 104 32 112 104 32 112 104 32 112 104 32 48 80 32 48 80 32 48 80 32 48 80 32 48 80 32 48 80 32 48 80 32 48 80 32 48 80 32 48 80 32 48 80 32 48 80 32 48 80 32 48 80 32 48 80 32 48 80 32 48 80 32 48 80 32 48 80 32 48 80 32 48 80 32 48 80 32 48 80 32 48 80 32 48 80 32 48 80 32 48 80 32 48 80 32 48 80 32 48 80 32 48 80 32 48 80 32
240 88 16 240 88 16 240 88 16 240 88 16 240 88 16 240 88 16 240 88 16 240 88 16 240 88 16 240 88 16 240 88 16 240 88 16 240 88 16 240 88 16 240 88 16 240 88 16 240 88 16 240 88 16 240 88 16 240 88 16 240 88 16 240 88 16 240 88 16 240 88 16 240 88 16 240 88 16 240 88 16 240 88 16 240 88 16 240 88 16 240 88 16 240 88 16 240 88 16 240 88 16 240 88 16 240 88 16 240 88 16 240 88 16 240 88 16 240 88 16 240 88 16 240 88 16 240 88 16 240 88 16 240 88 16 240 88 16 240 88 16 240 88 16 240 88 16 240 88 16 240 88 16 240 88 16 240 88 16 240 88 16 240 88 16 240 88 16 240 88 16 240 88 16 240 88 16 240 88 16 240 88 16 240 88 16 240 88 16 240 88 16 112 104 32 112 104 32 112 104 32 112 104 32 112 104 32 112 104 32 112 104 32 112 104 32 112 104 32 112 104 32 112 104 32 112 104 32 112 104 32 112 104 32 112 104 32 112 104 32 112 104 32 112 104 32 112 104 32 112 104 32 112 104 32 112 104 32 112 104 32 112 104 32 112 104 32 112 104 32 112 104 32 112 104 32 112 104 32 112 104 32 112 104 32 112 104 32 48 80 32 48 80 32 48 80 32 48 80 32 48 80 32 48 80 32 48 80 32 48 80 32 48 80 32 48 80 32 48 80 32 48 80 32 48 80 32 48 80 32 48 80 32 48 80 32 48 80 32 48 80 32 48 80 32 48 80 32 48 80 32 48 80 32 48 80 32 48 80 32 48 80 32 48 80 32 48 80 32 48 80 32 48 80 32 48 80 32 48 80 32 48 80 32
48 80 32 48 80 32 48 80 32 48 80 32 48 80 32 48 80 32 48 80 32 48 80 32 48 80 32 48 80 32 48 80 32 48 80 32 48 80 32 48 80 32 48 80 32 48 80 32 48 80 32 48 80 32 48 80 32 48 80 32 48 80 32 48 80 32 48 80 32 48 80 32 48 80 32 48 80 32 48 80 32 48 80 32 48 80 32 48 80 32 48 80 32 48 80 32 112 104 32 112 104 32 112 104 32 112 104 32 112 104 32 112 104 32 112 104 32 112 104 32 112 104 32 112 104 32 112 104 32 112 104 32 112 104 32 112 104 32 112 104 32 112 104 32 112 104 32 112 104 32 112 104 32 112 104 32 112 104 32 112 104 32 112 104 32 112 104 32 112 104 32 112 104 32 112 104 32 112 104 32 112 104 32 112 104 32 112 104 32 112 104 32 120 104 32 120 104 32 120 104 32 120 104 32 120 104 32 120 104 32 120 104 32 120 104 32 120 104 32 120 104 32 120 104 32 120 104 32 120 104 32 120 104 32 120 104 32 120 104 32 120 104 32 120 104 32 120 104 32 120 104 32 120 104 32 120 104 32 120 104 32 120 104 32 120 104 32 120 104 32 120 104 32 120 104 32 120 104 32 120 104 32 120 104 32 120 104 32 48 88 32 48 88 32 48 88 32 48 88 32 48 88 32 48 88 32 48 88 32 48 88 32 48 88 32 48 88 32 48 88 32 48 88 32 48 88 32 48 88 32 48 88 32 48 88 32 48 88 32 48 88 32 48 88 32 48 88 32 48 88 32 48 88 32 48 88 32 48 88 32 48 88 32 48 88 32 48 88 32 48 88 32 48 88 32 48 88 32 48 88 32 48 88 32
48 80 32 48 80 32 48 80 32 48 80 32 48 80 32 48 80 32 48 80 32 48 80 32 48 80 32 48 80 32 48 80 32 48 80 32 48 80 32 48 80 32 48 80 32 48 80 32 48 80 32 48 80 32 48 80 32 48 80 32 48 80 32 48 80 32 48 80 32 48 80 32 48 80 32 48 80 32 48 80 32 48 80 32 48 80 32 48 80 32 48 80 32 48 80 32 112 104 32 112 104 32 112 104 32 112 104 32 112 104 32 112 104 32 112 104 32 112 104 32 112 104 32 112 104 32 112 104 32 112 104 32 112 104 32 112 104 32 112 104 32 112 104 32 112 104 32 112 104 32 112 104 32 112 104 32 112 104 32 112 104 32 112 104 32 112 104 32 112 104 32 112 104 32 112 104 32 112 104 32 112 104 32 112 104 32 112 104 32 112 104 32 120 104 32 120 104 32 120 104 32 120 104 32 120 104 32 120 104 32 120 104 32 120 104 32 120 104 32 120 104 32 120 104 32 120 104 32 120 104 32 120 104 32 120 104 32 120 104 32 120 104 32 120 104 32 120 104 32 120 104 32 120 104 32 120 104 32 120 104 32 120 104 32 120 104 32 120 104 32 120 104 32 120 104 32 120 104 32 120 104 32 120 104 32 120 104 32 48 88 32 48 88 32 48 88 32 48 88 32 48 88 32 48 88 32 48 88 32 48 88 32 48 88 32 48 88 32 48 88 32 48 88 32 48 88 32 48 88 32 48 88 32 48 88 32 48 88 32 48 88 32 48 88 32 48 88 32 48 88 32 48 88 32 48 88 32 48 88 32 48 88 32 48 88 32 48 88 32 48 88 32 48 88 32 48 88 32 48 88 32 48 88 32
48 80 32 48 80 32 48 80 32 48 80 32 48 80 32 48 80 32 48 80 32 48 80 32 48 80 32 48 80 32 48 80 32 48 80 32 48 80 32 48 80 32 48 80 32 48 80 32 48 80 32 48 80 32 48 80 32 48 80 32 48 80 32 48 80 32 48 80 32 48 80 32 48 80 32 48 80 32 48 80 32 48 80 32 48 80 32 48 80 32 48 80 32 48 80 32 112 104 32 112 104 32 112 104 32 112 104 32 112 104 32 112 104 32 112 104 32 112 104 32 112 104 32 112 104 32 112 104 32 112 104 32 112 104 32 112 104 32 112 104 32 112 104 32 112 104 32 112 104 32 112 104 32 112 104 32 112 104 32 112 104 32 112 104 32 112 104 32 112 104 32 112 104 32 112 104 32 112 104 32 112 104 32 112 104 32 112 104 32 112 104 32 120 104 32 120 104 32 120 104 32 120 104 32 120 104 32 120 104 32 120 104 32 120 104 32 120 104 32 120 104 32 120 104 32 120 104 32 120 104 32 120 104 32 120 104 32 120 104 32 120 104 32 120 104 32 120 104 32 120 104 32 120 104 32 120 104 32 120 104 32 120 104 32 120 104 32 120 104 32 120 104 32 120 104 32 120 104 32 120 104 32 120 104 32 120 104 32 48 88 32 48 88 32 48 88 32 48 88 32 48 88 32 48 88 32 48 88 32 48 88 32 48 88 32 48 88 32 48 88 32 48 88 32 48 88 32 48 88 32 48 88 32 48 88 32 48 88 32 48 88 32 48 88 32 48 88 32 48 88 32 48 88 32 48 88 32 48 88 32 48 88 32 48 88 32 48 88 32 48 88 32 48 88 32 48 88 32 48 88 32 48 88 32
48 80 32 48 80 32 48 80 32 48 80 32 48 80 32 48 80 32 48 80 32 48 80 32 48 80 32 48 80 32 48 80 32 48 80 32 48 80 32 48 80 32 48 80 32 48 80 32 48 80 32 48 80 32 48 80 32 48 80 32 48 80 32 48 80 32 48 80 32 48 80 32 48 80 32 48 80 32 48 80 32 48 80 32 48 80 32 48 80 32 48 80 32 48 80 32 112 104 32 112 104 32 112 104 32 112 104 32 112 104 32 112 104 32 112 104 32 112 104 32 112 104 32 112 104 32 112 104 32 112 104 32 112 104 32 112 104 32 112 104 32 112 104 32 112 104 32 112 104 32 112 104 32 112 104 32 112 104 32 112 104 32 112 104 32 112 104 32 112 104 32 112 104 32 112 104 32 112 104 32 112 104 32 112 104 32 112 104 32 112 104 32 120 104 32 120 104 32 120 104 32 120 104 32 120 104 32 120 104 32 120 104 32 120 104 32 120 104 32 120 104 32 120 104 32 120 104 32 120 104 32 120 104 32 120 104 32 120 104 32 120 104 32 120 104 32 120 104 32 120 104 32 120 104 32 120 104 32 120 104 32 120 104 32 120 104 32 120 104 32 120 104 32 120 104 32 120 104 32 120 104 32 120 104 32 120 104 32 48 88 32 48 88 32 48 88 32 48 88 32 48 88 32 48 88 32 48 88 32 48 88 32 48 88 32 48 88 32 48 88 32 48 88 32 48 88 32 48 88 32 48 88 32 48 88 32 48 88 32 48 88 32 48 88 32 48 88 32 48 88 32 48 88 32 48 88 32 48 88 32 48 88 32 48 88 32 48 88 32 48 88 32 48 88 32 48 88 32 48 88 32 48 88 32
48 80 32 48 80 32 48 80 32 48 80 32 48 80 32 48 80 32 48 80 32 48 80 32 48 80 32 48 80 32 48 80 32 48 80 32 48 80 32 48 80 32 48 80 32 48 80 32 48 80 32 48 80 32 48 80 32 48 80 32 48 80 32 48 80 32 48 80 32 48 80 32 48 80 32 48 80 32 48 80 32 48 80 32 48 80 32 48 80 32 48 80 32 48 80 32 112 104 32 112 104 32 112 104 32 112 104 32 112 104 32 112 104 32 112 104 32 112 104 32 112 104 32 112 104 32 112 104 32 112 104 32 112 104 32 112 104 32 112 104 32 112 104 32 112 104 32 112 104 32 112 104 32 112 104 32 112 104 32 112 104 32 112 104 32 112 104 32 112 104 32 112 104 32 112 104 32 112 104 32 112 104 32 112 104 32 112 104 32 112 104 32 120 104 32 120 104 32 120 104 32 120 104 32 120 104 32 120 104 32 120 104 32 120 104 32 120 104 32 120 104 32 120 104 32 120 104 32 120 104 32 120 104 32 120 104 32 120 104 32 120 104 32 120 104 32 120 104 32 120 104 32 120 104 32 120 104 32 120 104 32 120 104 32 120 104 32 120 104 32 120 104 32 120 104 32 120 104 32 120 104 32 120 104 32 120 104 32 48 88 32 48 88 32 48 88 32 48 88 32 48 88 32 48 88 32 48 88 32 48 88 32 48 88 32 48 88 32 48 88 32 48 88 32 48 88 32 48 88 32 48 88 32 48 88 32 48 88 32 48 88 32 48 88 32 48 88 32 48 88 32 48 88 32 48 88 32 48 88 32 48 88 32 48 88 32 48 88 32 48 88 32 48 88 32 48 88 32 48 88 32 48 88 32
48 80 32 48 80 32 48 80 32 48 80 32 48 80 32 48 80 32 48 80 32 48 80 32 48 80 32 48 80 32 48 80 32 48 80 32 48 80 32 48 80 32 48 80 32 48 80 32 48 80 32 48 80 32 48 80 32 48 80 32 48 80 32 48 80 32 48 80 32 48 80 32 48 80 32 48 80 32 48 80 32 48 80 32 48 80 32 48 80 32 48 80 32 48 80 32 112 104 32 112 104 32 112 104 32 112 104 32 112 104 32 112 104 32 112 104 32 112 104 32 112 104 32 112 104 32 112 104 32 112 104 32 112 104 32 112 104 32 112 104 32 112 104 32 112 104 32 112 104 32 112 104 32 112 104 32 112 104 32 112 104 32 112 104 32 112 104 32 112 104 32 112 104 32 112 104 32 112 104 32 112 104 32 112 104 32 112 104 32 112 104 32 120 104 32 120 104 32 120 104 32 120 104 32 120 104 32 120 104 32 120 104 32 120 104 32 120 104 32 120 104 32 120 104 32 120 104 32 120 104 32 120 104 32 120 104 32 120 104 32 120 104 32 120 104 32 120 104 32 120 104 32 120 104 32 120 104 32 120 104 32 120 104 32 120 104 32 120 104 32 120 104 32 120 104 32 120 104 32 120 104 32 120 104 32 120 104 32 48 88 32 48 88 32 48 88 32 48 88 32 48 88 32 48 88 32 48 88 32 48 88 32 48 88 32 48 88 32 48 88 32 48 88 32 48 88 32 48 88 32 48 88 32 48 88 32 48 88 32 48 88 32 48 88 32 48 88 32 48 88 32 48 88 32 48 88 32 48 88 32 48 88 32 48 88 32 48 88 32 48 88 32 48 88 32 48 88 32 48 88 32 48 88 32
48 80 32 48 80 32 48 80 32 48 80 32 48 80 32 48 80 32 48 80 32 48 80 32 48 80 32 48 80 32 48 80 32 48 80 32 48 80 32 48 80 32 48 80 32 48 80 32 48 80 32 48 80 32 48 80 32 48 80 32 48 80 32 48 80 32 48 80 32 48 80 32 48 80 32 48 80 32 48 80 32 48 80 32 48 80 32 48 80 32 48 80 32 48 80 32 112 104 32 112 104 32 112 104 32 112 104 32 112 104 32 112 104 32 112 104 32 112 104 32 112 104 32 112 104 32 112 104 32 112 104 32 112 104 32 112 104 32 112 104 32 112 104 32 112 104 32 112 104 32 112 104 32 112 104 32 112 104 32 112 104 32 112 104 32 112 104 32 112 104 32 112 104 32 112 104 32 112 104 32 112 104 32 112 104 32 112 104 32 112 104 32 120 104 32 120 104 32 120 104 32 120 104 32 120 104 32 120 104 32 120 104 32 120 104 32 120 104 32 120 104 32 120 104 32 120 104 32 120 104 32 120 104 32 120 104 32 120 104 32 120 104 32 120 104 32 120 104 32 120 104 32 120 104 32 120 104 32 120 104 32 120 104 32 120 104 32 120 104 32 120 104 32 120 104 32 120 104 32 120 104 32 120 104 32 120 104 32 48 88 32 48 88 32 48 88 32 48 88 32 48 88 32 48 88 32 48 88 32 48 88 32 48 88 32 48 88 32 48 88 32 48 88 32 48 88 32 48 88 32 48 88 32 48 88 32 48 88 32 48 88 32 48 88 32 48 88 32 48 88 32 48 88 32 48 88 32 48 88 32 48 88 32 48 88 32 48 88 32 48 88 32 48 88 32 48 88 32 48 88 32 48 88 32
48 80 32 48 80 32 48 80 32 48 80 32 48 80 32 48 80 32 48 80 32 48 80 32 48 80 32 48 80 32 48 80 32 48 80 32 48 80 32 48 80 32 48 80 32 48 80 32 48 80 32 48 80 32 48 80 32 48 80 32 48 80 32 48 80 32 48 80 32 48 80 32 48 80 32 48 80 32 48 80 32 48 80 32 48 80 32 48 80 32 48 80 32 48 80 32 112 104 32 112 104 32 112 104 32 112 104 32 112 104 32 112 104 32 112 104 32 112 104 32 112 104 32 112 104 32 112 104 32 112 104 32 112 104 32 112 104 32 112 104 32 112 104 32 112 104 32 112 104 32 112 104 32 112 104 32 112 104 32 112 104 32 112 104 32 112 104 32 112 104 32 112 104 32 112 104 32 112 104 32 112 104 32 112 104 32 112 104 32 112 104 32 120 104 32 120 104 32 120 104 32 120 104 32 120 104 32 120 104 32 120 104 32 120 104 32 120 104 32 120 104 32 120 104 32 120 104 32 120 104 32 120 104 32 120 104 32 120 104 32 120 104 32 120 104 32 120 104 32 120 104 32 120 104 32 120 104 32 120 104 32 120 104 32 120 104 32 120 104 32 120 104 32 120 104 32 120 104 32 120 104 32 120 104 32 120 104 32 48 88 32 48 88 32 48 88 32 48 88 32 48 88 32 48 88 32 48 88 32 48 88 32 48 88 32 48 88 32 48 88 32 48 88 32 48 88 32 48 88 32 48 88 32 48 88 32 48 88 32 48 88 32 48 88 32 48 88 32 48 88 32 48 88 32 48 88 32 48 88 32 48 88 32 48 88 32 48 88 32 48 88 32 48 88 32 48 88 32 48 88 32 48 88 32
48 80 32 48 80 32 48 80 32 48 80 32 48 80 32 48 80 32 48 80 32 48 80 32 48 80 32 48 80 32 48 80 32 48 80 32 48 80 32 48 80 32 48 80 32 48 80 32 48 80 32 48 80 32 48 80 32 48 80 32 48 80 32 48 80 32 48 80 32 48 80 32 48 80 32 48 80 32 48 80 32 48 80 32 48 80 32 48 80 32 48 80 32 48 80 32 112 104 32 112 104 32 112 104 32 112 104 32 112 104 32 112 104 32 112 104 32 112 104 32 112 104 32 112 104 32 112 104 32 112 104 32 112 104 32 112 104 32 112 104 32 112 104 32 112 104 32 112 104 32 112 104 32 112 104 32 112 104 32 112 104 32 112 104 32 112 104 32 112 104 32 112 104 32 112 104 32 112 104 32 112 104 32 112 104 32 112 104 32 112 104 32 120 104 32 120 104 32 120 104 32 120 104 32 120 104 32 120 104 32 120 104 32 120 104 32 120 104 32 120 104 32 120 104 32 120 104 32 120 104 32 120 104 32 120 104 32 120 104 32 120 104 32 120 104 32 120 104 32 120 104 32 120 104 32 120 104 32 120 104 32 120 104 32 120 104 32 120 104 32 120 104 32 120 104 32 120 104 32 120 104 32 120 104 32 120 104 32 48 88 32 48 88 32 48 88 32 48 88 32 48 88 32 48 88 32 48 88 32 48 88 32 48 88 32 48 88 32 48 88 32 48 88 32 48 88 32 48 88 32 48 88 32 48 88 32 48 88 32 48 88 32 48 88 32 48 88 32 48 88 32 48 88 32 48 88 32 48 88 32 48 88 32 48 88 32 48 88 32 48 88 32 48 88 32 48 88 32 48 88 32 48 88 32
48 80 32 48 80 32 48 80 32 48 80 32 48 80 32 48 80 32 48 80 32 48 80 32 48 80 32 48 80 32 48 80 32 48 80 32 48 80 32 48 80 32 48 80 32 48 80 32 48 80 32 48 80 32 48 80 32 48 80 32 48 80 32 48 80 32 48 80 32 48 80 32 48 80 32 48 80 32 48 80 32 48 80 32 48 80 32 48 80 32 48 80 32 48 80 32 112 104 32 112 104 32 112 104 32 112 104 32 112 104 32 112 104 32 112 104 32 112 104 32 112 104 32 112 104 32 112 104 32 112 104 32 112 104 32 112 104 32 112 104 32 112 104 32 112 104 32 112 104 32 112 104 32 112 104 32 112 104 32 112 104 32 112 104 32 112 104 32 112 104 32 112 104 32 112 104 32 112 104 32 112 104 32 112 104 32 112 104 32 112 104 32 120 104 32 120 104 32 120 104 32 120 104 32 120 104 32 120 104 32 120 104 32 120 104 32 120 104 32 120 104 32 120 104 32 120 104 32 120 104 32 120 104 32 120 104 32 120 104 32 120 104 32 120 104 32 120 104 32 120 104 32 120 104 32 120 104 32 120 104 32 120 104 32 120 104 32 120 104 32 120 104 32 120 104 32 120 104 32 120 104 32 120 104 32 120 104 32 48 88 32 48 88 32 48 88 32 48 88 32 48 88 32 48 88 32 48 88 32 48 88 32 48 88 32 48 88 32 48 88 32 48 88 32 48 88 32 48 88 32 48 88 32 48 88 32 48 88 32 48 88 32 48 88 32 48 88 32 48 88 32 48 88 32 48 88 32 48 88 32 48 88 32 48 88 32 48 88 32 48 88 32 48 88 32 48 88 32 48 88 32 48 88 32
48 80 32 48 80 32 48 80 32 48 80 32 48 80 32 48 80 32 48 80 32 48 80 32 48 80 32 48 80 32 48 80 32 48 80 32 48 80 32 48 80 32 48 80 32 48 80 32 48 80 32 48 80 32 48 80 32 48 80 32 48 80 32 48 80 32 48 80 32 48 80 32 48 80 32 48 80 32 48 80 32 48 80 32 48 80 32 48 80 32 48 80 32 48 80 32 112 104 32 112 104 32 112 104 32 112 104 32 112 104 32 112 104 32 112 104 32 112 104 32 112 104 32 112 104 32 112 104 32 112 104 32 112 104 32 112 104 32 112 104 32 112 104 32 112 104 32 112 104 32 112 104 32 112 104 32 112 104 32 112 104 32 112 104 32 112 104 32 112 104 32 112 104 32 112 104 32 112 104 32 112 104 32 112 104 32 112 104 32 112 104 32 120 104 32 120 104 32 120 104 32 120 104 32 120 104 32 120 104 32 120 104 32 120 104 32 120 104 32 120 104 32 120 104 32 120 104 32 120 104 32 120 104 32 120 104 32 120 104 32 120 104 32 120 104 32 120 104 32 120 104 32 120 104 32 120 104 32 120 104 32 120 104 32 120 104 32 120 104 32 120 104 32 120 104 32 120 104 32 120 104 32 120 104 32 120 104 32 48 88 32 48 88 32 48 88 32 48 88 32 48 88 32 48 88 32 48 88 32 48 88 32 48 88 32 48 88 32 48 88 32 48 88 32 48 88 32 48 88 32 48 88 32 48 88 32 48 88 32 48 88 32 48 88 32 48 88 32 48 88 32 48 88 32 48 88 32 48 88 32 48 88 32 48 88 32 48 88 32 48 88 32 48 88 32 48 88 32 48 88 32 48 88 32
48 80 32 48 80 32 48 80 32 48 80 32 48 80 32 48 80 32 48 80 32 48 80 32 48 80 32 48 80 32 48 80 32 48 80 32 48 80 32 48 80 32 48 80 32 48 80 32 48 80 32 48 80 32 48 80 32 48 80 32 48 80 32 48 80 32 48 80 32 48 80 32 48 80 32 48 80 32 48 80 32 48 80 32 48 80 32 48 80 32 48 80 32 48 80 32 112 104 32 112 104 32 112 104 32 112 104 32 112 104 32 112 104 32 112 104 32 112 104 32 112 104 32 112 104 32 112 104 32 112 104 32 112 104 32 112 104 32 112 104 32 112 104 32 112 104 32 112 104 32 112 104 32 112 104 32 112 104 32 112 104 32 112 104 32 112 104 32 112 104 32 112 104 32 112 104 32 112 104 32 112 104 32 112 104 32 112 104 32 112 104 32 120 104 32 120 104 32 120 104 32 120 104 32 120 104 32 120 104 32 120 104 32 120 104 32 120 104 32 120 104 32 120 104 32 120 104 32 120 104 32 120 104 32 120 104 32 120 104 32 120 104 32 120 104 32 120 104 32 120 104 32 120 104 32 120 104 32 120 104 32 120 104 32 120 104 32 120 104 32 120 104 32 120 104 32 120 104 32 120 104 32 120 104 32 120 104 32 48 88 32 48 88 32 48 88 32 48 88 32 48 88 32 48 88 32 48 88 32 48 88 32 48 88 32 48 88 32 48 88 32 48 88 32 48 88 32 48 88 32 48 88 32 48 88 32 48 88 32 48 88 32 48 88 32 48 88 32 48 88 32 48 88 32 48 88 32 48 88 32 48 88 32 48 88 32 48 88 32 48 88 32 48 88 32 48 88 32 48 88 32 48 88 32
48 80 32 48 80 32 48 80 32 48 80 32 48 80 32 48 80 32 48 80 32 48 80 32 48 80 32 48 80 32 48 80 32 48 80 32 48 80 32 48 80 32 48 80 32 48 80 32 48 80 32 48 80 32 48 80 32 48 80 32 48 80 32 48 80 32 48 80 32 48 80 32 48 80 32 48 80 32 48 80 32 48 80 32 48 80 32 48 80 32 48 80 32 48 80 32 112 104 32 112 104 32 112 104 32 112 104 32 112 104 32 112 104 32 112 104 32 112 104 32 112 104 32 112 104 32 112 104 32 112 104 32 112 104 32 112 104 32 112 104 32 112 104 32 112 104 32 112 104 32 112 104 32 112 104 32 112 104 32 112 104 32 112 104 32 112 104 32 112 104 32 112 104 32 112 104 32 112 104 32 112 104 32 112 104 32 112 104 32 112 104 32 120 104 32 120 104 32 120 104 32 120 104 32 120 104 32 120 104 32 120 104 32 120 104 32 120 104 32 120 104 32 120 104 32 120 104 32 120 104 32 120 104 32 120 104 32 120 104 32 120 104 32 120 104 32 120 104 32 120 104 32 120 104 32 120 104 32 120 104 32 120 104 32 120 104 32 120 104 32 120 104 32 120 104 32 120 104 32 120 104 32 120 104 32 120 104 32 48 88 32 48 88 32 48 88 32 48 88 32 48 88 32 48 88 32 48 88 32 48 88 32 48 88 32 48 88 32 48 88 32 48 88 32 48 88 32 48 88 32 48 88 32 48 88 32 48 88 32 48 88 32 48 88 32 48 88 32 48 88 32 48 88 32 48 88 32 48 88 32 48 88 32 48 88 32 48 88 32 48 88 32 48 88 32 48 88 32 48 88 32 48 88 32
48 80 32 48 80 32 48 80 32 48 80 32 48 80 32 48 80 32 48 80 32 48 80 32 48 80 32 48 80 32 48 80 32 48 80 32 48 80 32 48 80 32 48 80 32 48 80 32 48 80 32 48 80 32 48 80 32 48 80 32 48 80 32 48 80 32 48 80 32 48 80 32 48 80 32 48 80 32 48 80 32 48 80 32 48 80 32 48 80 32 48 80 32 48 80 32 112 104 32 112 104 32 112 104 32 112 104 32 112 104 32 112 104 32 112 104 32 112 104 32 112 104 32 112 104 32 112 104 32 112 104 32 112 104 32 112 104 32 112 104 32 112 104 32 112 104 32 112 104 32 112 104 32 112 104 32 112 104 32 112 104 32 112 104 32 112 104 32 112 104 32 112 104 32 112 104 32 112 104 32 112 104 32 112 104 32 112 104 32 112 104 32 120 104 32 120 104 32 120 104 32 120 104 32 120 104 32 120 104 32 120 104 32 120 104 32 120 104 32 120 104 32 120 104 32 120 104 32 120 104 32 120 104 32 120 104 32 120 104 32 120 104 32 120 104 32 120 104 32 120 104 32 120 104 32 120 104 32 120 104 32 120 104 32 120 104 32 120 104 32 120 104 32 120 104 32 120 104 32 120 104 32 120 104 32 120 104 32 48 88 32 48 88 32 48 88 32 48 88 32 48 88 32 48 88 32 48 88 32 48 88 32 48 88 32 48 88 32 48 88 32 48 88 32 48 88 32 48 88 32 48 88 32 48 88 32 48 88 32 48 88 32 48 88 32 48 88 32 48 88 32 48 88 32 48 88 32 48 88 32 48 88 32 48 88 32 48 88 32 48 88 32 48 88 32 48 88 32 48 88 32 48 88 32
48 80 32 48 80 32 48 80 32 48 80 32 48 80 32 48 80 32 48 80 32 48 80 32 48 80 32 48 80 32 48 80 32 48 80 32 48 80 32 48 80 32 48 80 32 48 80 32 48 80 32 48 80 32 48 80 32 48 80 32 48 80 32 48 80 32 48 80 32 48 80 32 48 80 32 48 80 32 48 80 32 48 80 32 48 80 32 48 80 32 48 80 32 48 80 32 112 104 32 112 104 32 112 104 32 112 104 32 112 104 32 112 104 32 112 104 32 112 104 32 112 104 32 112 104 32 112 104 32 112 104 32 112 104 32 112 104 32 112 104 32 112 104 32 112 104 32 112 104 32 112 104 32 112 104 32 112 104 32 112 104 32 112 104 32 112 104 32 112 104 32 112 104 32 112 104 32 112 104 32 112 104 32 112 104 32 112 104 32 112 104 32 120 104 32 120 104 32 120 104 32 120 104 32 120 104 32 120 104 32 120 104 32 120 104 32 120 104 32 120 104 32 120 104 32 120 104 32 120 104 32 120 104 32 120 104 32 120 104 32 120 104 32 120 104 32 120 104 32 120 104 32 120 104 32 120 104 32 120 104 32 120 104 32 120 104 32 120 104 32 120 104 32 120 104 32 120 104 32 120 104 32 120 104 32 120 104 32 48 88 32 48 88 32 48 88 32 48 88 32 48 88 32 48 88 32 48 88 32 48 88 32 48 88 32 48 88 32 48 88 32 48 88 32 48 88 32 48 88 32 48 88 32 48 88 32 48 88 32 48 88 32 48 88 32 48 88 32 48 88 32 48 88 32 48 88 32 48 88 32 48 88 32 48 88 32 48 88 32 48 88 32 48 88 32 48 88 32 48 88 32 48 88 32
48 80 32 48 80 32 48 80 32 48 80 32 48 80 32 48 80 32 48 80 32 48 80 32 48 80 32 48 80 32 48 80 32 48 80 32 48 80 32 48 80 32 48 80 32 48 80 32 48 80 32 48 80 32 48 80 32 48 80 32 48 80 32 48 80 32 48 80 32 48 80 32 48 80 32 48 80 32 48 80 32 48 80 32 48 80 32 48 80 32 48 80 32 48 80 32 112 104 32 112 104 32 112 104 32 112 104 32 112 104 32 112 104 32 112 104 32 112 104 32 112 104 32 112 104 32 112 104 32 112 104 32 112 104 32 112 104 32 112 104 32 112 104 32 112 104 32 112 104 32 112 104 32 112 104 32 112 104 32 112 104 32 112 104 32 112 104 32 112 104 32 112 104 32 112 104 32 112 104 32 112 104 32 112 104 32 112 104 32 112 104 32 120 104 32 120 104 32 120 104 32 120 104 32 120 104 32 120 104 32 120 104 32 120 104 32 120 104 32 120 104 32 120 104 32 120 104 32 120 104 32 120 104 32 120 104 32 120 104 32 120 104 32 120 104 32 120 104 32 120 104 32 120 104 32 120 104 32 120 104 32 120 104 32 120 104 32 120 104 32 120 104 32 120 104 32 120 104 32 120 104 32 120 104 32 120 104 32 48 88 32 48 88 32 48 88 32 48 88 32 48 88 32 48 88 32 48 88 32 48 88 32 48 88 32 48 88 32 48 88 32 48 88 32 48 88 32 48 88 32 48 88 32 48 88 32 48 88 32 48 88 32 48 88 32 48 88 32 48 88 32 48 88 32 48 88 32 48 88 32 48 88 32 48 88 32 48 88 32 48 88 32 48 88 32 48 88 32 48 88 32 48 88 32
48 80 32 48 80 32 48 80 32 48 80 32 48 80 32 48 80 32 48 80 32 48 80 32 48 80 32 48 80 32 48 80 32 48 80 32 48 80 32 48 80 32 48 80 32 48 80 32 48 80 32 48 80 32 48 80 32 48 80 32 48 80 32 48 80 32 48 80 32 48 80 32 48 80 32 48 80 32 48 80 32 48 80 32 48 80 32 48 80 32 48 80 32 48 80 32 112 104 32 112 104 32 112 104 32 112 104 32 112 104 32 112 104 32 112 104 32 112 104 32 112 104 32 112 104 32 112 104 32 112 104 32 112 104 32 112 104 32 112 104 32 112 104 32 112 104 32 112 104 32 112 104 32 112 104 32 112 104 32 112 104 32 112 104 32 112 104 32 112 104 32 112 104 32 112 104 32 112 104 32 112 104 32 112 104 32 112 104 32 112 104 32 120 104 32 120 104 32 120 104 32 120 104 32 120 104 32 120 104 32 120 104 32 120 104 32 120 104 32 120 104 32 120 104 32 120 104 32 120 104 32 120 104 32 120 104 32 120 104 32 120 104 32 120 104 32 120 104 32 120 104 32 120 104 32 120 104 32 120 104 32 120 104 32 120 104 32 120 104 32 120 104 32 120 104 32 120 104 32 120 104 32 120 104 32 120 104 32 48 88 32 48 88 32 48 88 32 48 88 32 48 88 32 48 88 32 48 88 32 48 88 32 48 88 32 48 88 32 48 88 32 48 88 32 48 88 32 48 88 32 48 88 32 48 88 32 48 88 32 48 88 32 48 88 32 48 88 32 48 88 32 48 88 32 48 88 32 48 88 32 48 88 32 48 88 32 48 88 32 48 88 32 48 88 32 48 88 32 48 88 32 48 88 32
48 80 32 48 80 32 48 80 32 48 80 32 48 80 32 48 80 32 48 80 32 48 80 32 48 80 32 48 80 32 48 80 32 48 80 32 48 80 32 48 80 32 48 80 32 48 80 32 48 80 32 48 80 32 48 80 32 48 80 32 48 80 32 48 80 32 48 80 32 48 80 32 48 80 32 48 80 32 48 80 32 48 80 32 48 80 32 48 80 32 48 80 32 48 80 32 112 104 32 112 104 32 112 104 32 112 104 32 112 104 32 112 104 32 112 104 32 112 104 32 112 104 32 112 104 32 112 104 32 112 104 32 112 104 32 112 104 32 112 104 32 112 104 32 112 104 32 112 104 32 112 104 32 112 104 32 112 104 32 112 104 32 112 104 32 112 104 32 112 104 32 112 104 32 112 104 32 112 104 32 112 104 32 112 104 32 112 104 32 112 104 32 120 104 32 120 104 32 120 104 32 120 104 32 120 104 32 120 104 32 120 104 32 120 104 32 120 104 32 120 104 32 120 104 32 120 104 32 120 104 32 120 104 32 120 104 32 120 104 32 120 104 32 120 104 32 120 104 32 120 104 32 120 104 32 120 104 32 120 104 32 120 104 32 120 104 32 120 104 32 120 104 32 120 104 32 120 104 32 120 104 32 120 104 32 120 104 32 48 88 32 48 88 32 48 88 32 48 88 32 48 88 32 48 88 32 48 88 32 48 88 32 48 88 32 48 88 32 48 88 32 48 88 32 48 88 32 48 88 32 48 88 32 48 88 32 48 88 32 48 88 32 48 88 32 48 88 32 48 88 32 48 88 32 48 88 32 48 88 32 48 88 32 48 88 32 48 88 32 48 88 32 48 88 32 48 88 32 48 88 32 48 88 32
48 80 32 48 80 32 48 80 32 48 80 32 48 80 32 48 80 32 48 80 32 48 80 32 48 80 32 48 80 32 48 80 32 48 80 32 48 80 32 48 80 32 48 80 32 48 80 32 48 80 32 48 80 32 48 80 32 48 80 32 48 80 32 48 80 32 48 80 32 48 80 32 48 80 32 48 80 32 48 80 32 48 80 32 48 80 32 48 80 32 48 80 32 48 80 32 112 104 32 112 104 32 112 104 32 112 104 32 112 104 32 112 104 32 112 104 32 112 104 32 112 104 32 112 104 32 112 104 32 112 104 32 112 104 32 112 104 32 112 104 32 112 104 32 112 104 32 112 104 32 112 104 32 112 104 32 112 104 32 112 104 32 112 104 32 112 104 32 112 104 32 112 104 32 112 104 32 112 104 32 112 104 32 112 104 32 112 104 32 112 104 32 120 104 32 120 104 32 120 104 32 120 104 32 120 104 32 120 104 32 120 104 32 120 104 32 120 104 32 120 104 32 120 104 32 120 104 32 120 104 32 120 104 32 120 104 32 120 104 32 120 104 32 120 104 32 120 104 32 120 104 32 120 104 32 120 104 32 120 104 32 120 104 32 120 104 32 120 104 32 120 104 32 120 104 32 120 104 32 120 104 32 120 104 32 120 104 32 48 88 32 48 88 32 48 88 32 48 88 32 48 88 32 48 88 32 48 88 32 48 88 32 48 88 32 48 88 32 48 88 32 48 88 32 48 88 32 48 88 32 48 88 32 48 88 32 48 88 32 48 88 32 48 88 32 48 88 32 48 88 32 48 88 32 48 88 32 48 88 32 48 88 32 48 88 32 48 88 32 48 88 32 48 88 32 48 88 32 48 88 32 48 88 32
48 80 32 48 80 32 48 80 32 48 80 32 48 80 32 48 80 32 48 80 32 48 80 32 48 80 32 48 80 32 48 80 32 48 80 32 48 80 32 48 80 32 48 80 32 48 80 32 48 80 32 48 80 32 48 80 32 48 80 32 48 80 32 48 80 32 48 80 32 48 80 32 48 80 32 48 80 32 48 80 32 48 80 32 48 80 32 48 80 32 48 80 32 48 80 32 112 104 32 112 104 32 112 104 32 112 104 32 112 104 32 112 104 32 112 104 32 112 104 32 112 104 32 112 104 32 112 104 32 112 104 32 112 104 32 112 104 32 112 104 32 112 104 32 112 104 32 112 104 32 112 104 32 112 104 32 112 104 32 112 104 32 112 104 32 112 104 32 112 104 32 112 104 32 112 104 32 112 104 32 112 104 32 112 104 32 112 104 32 112 104 32 120 104 32 120 104 32 120 104 32 120 104 32 120 104 32 120 104 32 120 104 32 120 104 32 120 104 32 120 104 32 120 104 32 120 104 32 120 104 32 120 104 32 120 104 32 120 104 32 120 104 32 120 104 32 120 104 32 120 104 32 120 104 32 120 104 32 120 104 32 120 104 32 120 104 32 120 104 32 120 104 32 120 104 32 120 104 32 120 104 32 120 104 32 120 104 32 48 88 32 48 88 32 48 88 32 48 88 32 48 88 32 48 88 32 48 88 32 48 88 32 48 88 32 48 88 32 48 88 32 48 88 32 48 88 32 48 88 32 48 88 32 48 88 32 48 88 32 48 88 32 48 88 32 48 88 32 48 88 32 48 88 32 48 88 32 48 88 32 48 88 32 48 88 32 48 88 32 48 88 32 48 88 32 48 88 32 48 88 32 48 88 32
48 80 32 48 80 32 48 80 32 48 80 32 48 80 32 48 80 32 48 80 32 48 80 32 48 80 32 48 80 32 48 80 32 48 80 32 48 80 32 48 80 32 48 80 32 48 80 32 48 80 32 48 80 32 48 80 32 48 80 32 48 80 32 48 80 32 48 80 32 48 80 32 48 80 32 48 80 32 48 80 32 48 80 32 48 80 32 48 80 32 48 80 32 48 80 32 112 104 32 112 104 32 112 104 32 112 104 32 112 104 32 112 104 32 112 104 32 112 104 32 112 104 32 112 104 32 112 104 32 112 104 32 112 104 32 112 104 32 112 104 32 112 104 32 112 104 32 112 104 32 112 104 32 112 104 32 112 104 32 112 104 32 112 104 32 112 104 32 112 104 32 112 104 32 112 104 32 112 104 32 112 104 32 112 104 32 112 104 32 112 104 32 120 104 32 120 104 32 120 104 32 120 104 32 120 104 32 120 104 32 120 104 32 120 104 32 120 104 32 120 104 32 120 104 32 120 104 32 120 104 32 120 104 32 120 104 32 120 104 32 120 104 32 120 104 32 120 104 32 120 104 32 120 104 32 120 104 32 120 104 32 120 104 32 120 104 32 120 104 32 120 104 32 120 104 32 120 104 32 120 104 32 120 104 32 120 104 32 48 88 32 48 88 32 48 88 32 48 88 32 48 88 32 48 88 32 48 88 32 48 88 32 48 88 32 48 88 32 48 88 32 48 88 32 48 88 32 48 88 32 48 88 32 48 88 32 48 88 32 48 88 32 48 88 32 48 88 32 48 88 32 48 88 32 48 88 32 48 88 32 48 88 32 48 88 32 48 88 32 48 88 32 48 88 32 48 88 32 48 88 32 48 88 32
48 80 32 48 80 32 48 80 32 48 80 32 48 80 32 48 80 32 48 80 32 48 80 32 48 80 32 48 80 32 48 80 32 48 80 32 48 80 32 48 80 32 48 80 32 48 80 32 48 80 32 48 80 32 48 80 32 48 80 32 48 80 32 48 80 32 48 80 32 48 80 32 48 80 32 48 80 32 48 80 32 48 80 32 48 80 32 48 80 32 48 80 32 48 80 32 112 104 32 112 104 32 112 104 32 112 104 32 112 104 32 112 104 32 112 104 32 112 104 32 112 104 32 112 104 32 112 104 32 112 104 32 112 104 32 112 104 32 112 104 32 112 104 32 112 104 32 112 104 32 112 104 32 112 104 32 112 104 32 112 104 32 112 104 32 112 104 32 112 104 32 112 104 32 112 104 32 112 104 32 112 104 32 112 104 32 112 104 32 112 104 32 120 104 32 120 104 32 120 104 32 120 104 32 120 104 32 120 104 32 120 104 32 120 104 32 120 104 32 120 104 32 120 104 32 120 104 32 120 104 32 120 104 32 120 104 32 120 104 32 120 104 32 120 104 32 120 104 32 120 104 32 120 104 32 120 104 32 120 104 32 120 104 32 120 104 32 120 104 32 120 104 32 120 104 32 120 104 32 120 104 32 120 104 32 120 104 32 48 88 32 48 88 32 48 88 32 48 88 32 48 88 32 48 88 32 48 88 32 48 88 32 48 88 32 48 88 32 48 88 32 48 88 32 48 88 32 48 88 32 48 88 32 48 88 32 48 88 32 48 88 32 48 88 32 48 88 32 48 88 32 48 88 32 48 88 32 48 88 32 48 88 32 48 88 32 48 88 32 48 88 32 48 88 32 48 88 32 48 88 32 48 88 32
48 80 32 48 80 32 48 80 32 48 80 32 48 80 32 48 80 32 48 80 32 48 80 32 48 80 32 48 80 32 48 80 32 48 80 32 48 80 32 48 80 32 48 80 32 48 80 32 48 80 32 48 80 32 48 80 32 48 80 32 48 80 32 48 80 32 48 80 32 48 80 32 48 80 32 48 80 32 48 80 32 48 80 32 48 80 32 48 80 32 48 80 32 48 80 32 112 104 32 112 104 32 112 104 32 112 104 32 112 104 32 112 104 32 112 104 32 112 104 32 112 104 32 112 104 32 112 104 32 112 104 32 112 104 32 112 104 32 112 104 32 112 104 32 112 104 32 112 104 32 112 104 32 112 104 32 112 104 32 112 104 32 112 104 32 112 104 32 112 104 32 112 104 32 112 104 32 112 104 32 112 104 32 112 104 32 112 104 32 112 104 32 120 104 32 120 104 32 120 104 32 120 104 32 120 104 32 120 104 32 120 104 32 120 104 32 120 104 32 120 104 32 120 104 32 120 104 32 120 104 32 120 104 32 120 104 32 120 104 32 120 104 32 120 104 32 120 104 32 120 104 32 120 104 32 120 104 32 120 104 32 120 104 32 120 104 32 120 104 32 120 104 32 120 104 32 120 104 32 120 104 32 120 104 32 120 104 32 48 88 32 48 88 32 48 88 32 48 88 32 48 88 32 48 88 32 48 88 32 48 88 32 48 88 32 48 88 32 48 88 32 48 88 32 48 88 32 48 88 32 48 88 32 48 88 32 48 88 32 48 88 32 48 88 32 48 88 32 48 88 32 48 88 32 48 88 32 48 88 32 48 88 32 48 88 32 48 88 32 48 88 32 48 88 32 48 88 32 48 88 32 48 88 32
48 80 32 48 80 32 48 80 32 48 80 32 48 80 32 48 80 32 48 80 32 48 80 32 48 80 32 48 80 32 48 80 32 48 80 32 48 80 32 48 80 32 48 80 32 48 80 32 48 80 32 48 80 32 48 80 32 48 80 32 48 80 32 48 80 32 48 80 32 48 80 32 48 80 32 48 80 32 48 80 32 48 80 32 48 80 32 48 80 32 48 80 32 48 80 32 112 104 32 112 104 32 112 104 32 112 104 32 112 104 32 112 104 32 112 104 32 112 104 32 112 104 32 112 104 32 112 104 32 112 104 32 112 104 32 112 104 32 112 104 32 112 104 32 112 104 32 112 104 32 112 104 32 112 104 32 112 104 32 112 104 32 112 104 32 112 104 32 112 104 32 112 104 32 112 104 32 112 104 32 112 104 32 112 104 32 112 104 32 112 104 32 120 104 32 120 104 32 120 104 32 120 104 32 120 104 32 120 104 32 120 104 32 120 104 32 120 104 32 120 104 32 120 104 32 120 104 32 120 104 32 120 104 32 120 104 32 120 104 32 120 104 32 120 104 32 120 104 32 120 104 32 120 104 32 120 104 32 120 104 32 120 104 32 120 104 32 120 104 32 120 104 32 120 104 32 120 104 32 120 104 32 120 104 32 120 104 32 48 88 32 48 88 32 48 88 32 48 88 32 48 88 32 48 88 32 48 88 32 48 88 32 48 88 32 48 88 32 48 88 32 48 88 32 48 88 32 48 88 32 48 88 32 48 88 32 48 88 32 48 88 32 48 88 32 48 88 32 48 88 32 48 88 32 48 88 32 48 88 32 48 88 32 48 88 32 48 88 32 48 88 32 48 88 32 48 88 32 48 88 32 48 88 32
48 80 32 48 80 32 48 80 32 48 80 32 48 80 32 48 80 32 48 80 32 48 80 32 48 80 32 48 80 32 48 80 32 48 80 32 48 80 32 48 80 32 48 80 32 48 80 32 48 80 32 48 80 32 48 80 32 48 80 32 48 80 32 48 80 32 48 80 32 48 80 32 48 80 32 48 80 32 48 80 32 48 80 32 48 80 32 48 80 32 48 80 32 48 80 32 112 104 32 112 104 32 112 104 32 112 104 32 112 104 32 112 104 32 112 104 32 112 104 32 112 104 32 112 104 32 112 104 32 112 104 32 112 104 32 112 104 32 112 104 32 112 104 32 112 104 32 112 104 32 112 104 32 112 104 32 112 104 32 112 104 32 112 104 32 112 104 32 112 104 32 112 104 32 112 104 32 112 104 32 112 104 32 112 104 32 112 104 32 112 104 32 120 104 32 120 104 32 120 104 32 120 104 32 120 104 32 120 104 32 120 104 32 120 104 32 120 104 32 120 104 32 120 104 32 120 104 32 120 104 32 120 104 32 120 104 32 120 104 32 120 104 32 120 104 32 120 104 32 120 104 32 120 104 32 120 104 32 120 104 32 120 104 32 120 104 32 120 104 32 120 104 32 120 104 32 120 104 32 120 104 32 120 104 32 120 104 32 48 88 32 48 88 32 48 88 32 48 88 32 48 88 32 48 88 32 48 88 32 48 88 32 48 88 32 48 88 32 48 88 32 48 88 32 48 88 32 48 88 32 48 88 32 48 88 32 48 88 32 48 88 32 48 88 32 48 88 32 48 88 32 48 88 32 48 88 32 48 88 32 48 88 32 48 88 32 48 88 32 48 88 32 48 88 32 48 88 32 48 88 32 48 88 32
48 80 32 48 80 32 48 80 32 48 80 32 48 80 32 48 80 32 48 80 32 48 80 32 48 80 32 48 80 32 48 80 32 48 80 32 48 80 32 48 80 32 48 80 32 48 80 32 48 80 32 48 80 32 48 80 32 48 80 32 48 80 32 48 80 32 48 80 32 48 80 32 48 80 32 48 80 32 48 80 32 48 80 32 48 80 32 48 80 32 48 80 32 48 80 32 112 104 32 112 104 32 112 104 32 112 104 32 112 104 32 112 104 32 112 104 32 112 104 32 112 104 32 112 104 32 112 104 32 112 104 32 112 104 32 112 104 32 112 104 32 112 104 32 112 104 32 112 104 32 112 104 32 112 104 32 112 104 32 112 104 32 112 104 32 112 104 32 112 104 32 112 104 32 112 104 32 112 104 32 112 104 32 112 104 32 112 104 32 112 104 32 120 104 32 120 104 32 120 104 32 120 104 32 120 104 32 120 104 32 120 104 32 120 104 32 120 104 32 120 104 32 120 104 32 120 104 32 120 104 32 120 104 32 120 104 32 120 104 32 120 104 32 120 104 32 120 104 32 120 104 32 120 104 32 120 104 32 120 104 32 120 104 32 120 104 32 120 104 32 120 104 32 120 104 32 120 104 32 120 104 32 120 104 32 120 104 32 48 88 32 48 88 32 48 88 32 48 88 32 48 88 32 48 88 32 48 88 32 48 88 32 48 88 32 48 88 32 48 88 32 48 88 32 48 88 32 48 88 32 48 88 32 48 88 32 48 88 32 48 88 32 48 88 32 48 88 32 48 88 32 48 88 32 48 88 32 48 88 32 48 88 32 48 88 32 48 88 32 48 88 32 48 88 32 48 88 32 48 88 32 48 88 32
48 80 32 48 80 32 48 80 32 48 80 32 48 80 32 48 80 32 48 80 32 48 80 32 48 80 32 48 80 32 48 80 32 48 80 32 48 80 32 48 80 32 48 80 32 48 80 32 48 80 32 48 80 32 48 80 32 48 80 32 48 80 32 48 80 32 48 80 32 48 80 32 48 80 32 48 80 32 48 80 32 48 80 32 48 80 32 48 80 32 48 80 32 48 80 32 112 104 32 112 104 32 112 104 32 112 104 32 112 104 32 112 104 32 112 104 32 112 104 32 112 104 32 112 104 32 112 104 32 112 104 32 112 104 32 112 104 32 112 104 32 112 104 32 112 104 32 112 104 32 112 104 32 112 104 32 112 104 32 112 104 32 112 104 32 112 104 32 112 104 32 112 104 32 112 104 32 112 104 32 112 104 32 112 104 32 112 104 32 112 104 32 120 104 32 120 104 32 120 104 32 120 104 32 120 104 32 120 104 32 120 104 32 120 104 32 120 104 32 120 104 32 120 104 32 120 104 32 120 104 32 120 104 32 120 104 32 120 104 32 120 104 32 120 104 32 120 104 32 120 104 32 120 104 32 120 104 32 120 104 32 120 104 32 120 104 32 120 104 32 120 104 32 120 104 32 120 104 32 120 104 32 120 104 32 120 104 32 48 88 32 48 88 32 48 88 32 48 88 32 48 88 32 48 88 32 48 88 32 48 88 32 48 88 32 48 88 32 48 88 32 48 88 32 48 88 32 48 88 32 48 88 32 48 88 32 48 88 32 48 88 32 48 88 32 48 88 32 48 88 32 48 88 32 48 88 32 48 88 32 48 88 32 48 88 32 48 88 32 48 88 32 48 88 32 48 88 32 48 88 32 48 88 32
48 80 32 48 80 32 48 80 32 48 80 32 48 80 32 48 80 32 48 80 32 48 80 32 48 80 32 48 80 32 48 80 32 48 80 32 48 80 32 48 80 32 48 80 32 48 80 32 48 80 32 48 80 32 48 80 32 48 80 32 48 80 32 48 80 32 48 80 32 48 80 32 48 80 32 48 80 32 48 80 32 48 80 32 48 80 32 48 80 32 48 80 32 48 80 32 112 104 32 112 104 32 112 104 32 112 104 32 112 104 32 112 104 32 112 104 32 112 104 32 112 104 32 112 104 32 112 104 32 112 104 32 112 104 32 112 104 32 112 104 32 112 104 32 112 104 32 112 104 32 112 104 32 112 104 32 112 104 32 112 104 32 112 104 32 112 104 32 112 104 32 112 104 32 112 104 32 112 104 32 112 104 32 112 104 32 112 104 32 112 104 32 120 104 32 120 104 32 120 104 32 120 104 32 120 104 32 120 104 32 120 104 32 120 104 32 120 104 32 120 104 32 120 104 32 120 104 32 120 104 32 120 104 32 120 104 32 120 104 32 120 104 32 120 104 32 120 104 32 120 104 32 120 104 32 120 104 32 120 104 32 120 104 32 120 104 32 120 104 32 120 104 32 120 104 32 120 104 32 120 104 32 120 104 32 120 104 32 48 88 32 48 88 32 48 88 32 48 88 32 48 88 32 48 88 32 48 88 32 48 88 32 48 88 32 48 88 32 48 88 32 48 88 32 48 88 32 48 88 32 48 88 32 48 88 32 48 88 32 48 88 32 48 88 32 48 88 32 48 88 32 48 88 32 48 88 32 48 88 32 48 88 32 48 88 32 48 88 32 48 88 32 48 88 32 48 88 32 48 88 32 48 88 32
48 80 32 48 80 32 48 80 32 48 80 32 48 80 32 48 80 32 48 80 32 48 80 32 48 80 32 48 80 32 48 80 32 48 80 32 48 80 32 48 80 32 48 80 32 48 80 32 48 80 32 48 80 32 48 80 32 48 80 32 48 80 32 48 80 32 48 80 32 48 80 32 48 80 32 48 80 32 48 80 32 48 80 32 48 80 32 48 80 32 48 80 32 48 80 32 112 104 32 112 104 32 112 104 32 112 104 32 112 104 32 112 104 32 112 104 32 112 104 32 112 104 32 112 104 32 112 104 32 112 104 32 112 104 32 112 104 32 112 104 32 112 104 32 112 104 32 112 104 32 112 104 32 112 104 32 112 104 32 112 104 32 112 104 32 112 104 32 112 104 32 112 104 32 112 104 32 112 104 32 112 104 32 112 104 32 112 104 32 112 104 32 120 104 32 120 104 32 120 104 32 120 104 32 120 104 32 120 104 32 120 104 32 120 104 32 120 104 32 120 104 32 120 104 32 120 104 32 120 104 32 120 104 32 120 104 32 120 104 32 120 104 32 120 104 32 120 104 32 120 104 32 120 104 32 120 104 32 120 104 32 120 104 32 120 104 32 120 104 32 120 104 32 120 104 32 120 104 32 120 104 32 120 104 32 120 104 32 48 88 32 48 88 32 48 88 32 48 88 32 48 88 32 48 88 32 48 88 32 48 88 32 48 88 32 48 88 32 48 88 32 48 88 32 48 88 32 48 88 32 48 88 32 48 88 32 48 88 32 48 88 32 48 88 32 48 88 32 48 88 32 48 88 32 48 88 32 48 88 32 48 88 32 48 88 32 48 88 32 48 88 32 48 88 32 48 88 32 48 88 32 48 88 32
48 80 32 48 80 32 48 80 32 48 80 32 48 80 32 48 80 32 48 80 32 48 80 32 48 80 32 48 80 32 48 80 32 48 80 32 48 80 32 48 80 32 48 80 32 48 80 32 48 80 32 48 80 32 48 80 32 48 80 32 48 80 32 48 80 32 48 80 32 48 80 32 48 80 32 48 80 32 48 80 32 48 80 32 48 80 32 48 80 32 48 80 32 48 80 32 112 104 32 112 104 32 112 104 32 112 104 32 112 104 32 112 104 32 112 104 32 112 104 32 112 104 32 112 104 32 112 104 32 112 104 32 112 104 32 112 104 32 112 104 32 112 104 32 112 104 32 112 104 32 112 104 32 112 104 32 112 104 32 112 104 32 112 104 32 112 104 32 112 104 32 112 104 32 112 104 32 112 104 32 112 104 32 112 104 32 112 104 32 112 104 32 120 104 32 120 104 32 120 104 32 120 104 32 120 104 32 120 104 32 120 104 32 120 104 32 120 104 32 120 104 32 120 104 32 120 104 32 120 104 32 120 104 32 120 104 32 120 104 32 120 104 32 120 104 32 120 104 32 120 104 32 120 104 32 120 104 32 120 104 32 120 104 32 120 104 32 120 104 32 120 104 32 120 104 32 120 104 32 120 104 32 120 104 32 120 104 32 48 88 32 48 88 32 48 88 32 48 88 32 48 88 32 48 88 32 48 88 32 48 88 32 48 88 32 48 88 32 48 88 32 48 88 32 48 88 32 48 88 32 48 88 32 48 88 32 48 88 32 48 88 32 48 88 32 48 88 32 48 88 32 48 88 32 48 88 32 48 88 32 48 88 32 48 88 32 48 88 32 48 88 32 48 88 32 48 88 32 48 88 32 48 88 32
48 80 32 48 80 32 48 80 32 48 80 32 48 80 32 48 80 32 48 80 32 48 80 32 48 80 32 48 80 32 48 80 32 48 80 32 48 80 32 48 80 32 48 80 32 48 80 32 48 80 32 48 80 32 48 80 32 48 80 32 48 80 32 48 80 32 48 80 32 48 80 32 48 80 32 48 80 32 48 80 32 48 80 32 48 80 32 48 80 32 48 80 32 48 80 32 112 104 32 112 104 32 112 104 32 112 104 32 112 104 32 112 104 32 112 104 32 112 104 32 112 104 32 112 104 32 112 104 32 112 104 32 112 104 32 112 104 32 112 104 32 112 104 32 112 104 32 112 104 32 112 104 32 112 104 32 112 104 32 112 104 32 112 104 32 112 104 32 112 104 32 112 104 32 112 104 32 112 104 32 112 104 32 112 104 32 112 104 32 112 104 32 120 104 32 120 104 32 120 104 32 120 104 32 120 104 32 120 104 32 120 104 32 120 104 32 120 104 32 120 104 32 120 104 32 120 104 32 120 104 32 120 104 32 120 104 32 120 104 32 120 104 32 120 104 32 120 104 32 120 104 32 120 104 32 120 104 32 120 104 32 120 104 32 120 104 32 120 104 32 120 104 32 120 104 32 120 104 32 120 104 32 120 104 32 120 104 32 48 88 32 48 88 32 48 88 32 48 88 32 48 88 32 48 88 32 48 88 32 48 88 32 48 88 32 48 88 32 48 88 32 48 88 32 48 88 32 48 88 32 48 88 32 48 88 32 48 88 32 48 88 32 48 88 32 48 88 32 48 88 32 48 88 32 48 88 32 48 88 32 48 88 32 48 88 32 48 88 32 48 88 32 48 88 32 48 88 32 48 88 32 48 88 32
48 80 32 48 80 32 48 80 32 48 80 32 48 80 32 48 80 32 48 80 32 48 80 32 48 80 32 48 80 32 48 80 32 48 80 32 48 80 32 48 80 32 48 80 32 48 80 32 48 80 32 48 80 32 48 80 32 48 80 32 48 80 32 48 80 32 48 80 32 48 80 32 48 80 32 48 80 32 48 80 32 48 80 32 48 80 32 48 80 32 48 80 32 48 80 32 112 104 32 112 104 32 112 104 32 112 104 32 112 104 32 112 104 32 112 104 32 112 104 32 112 104 32 112 104 32 112 104 32 112 104 32 112 104 32 112 104 32 112 104 32 112 104 32 112 104 32 112 104 32 112 104 32 112 104 32 112 104 32 112 104 32 112 104 32 112 104 32 112 104 32 112 104 32 112 104 32 112 104 32 112 104 32 112 104 32 112 104 32 112 104 32 120 104 32 120 104 32 120 104 32 120 104 32 120 104 32 120 104 32 120 104 32 120 104 32 120 104 32 120 104 32 120 104 32 120 104 32 120 104 32 120 104 32 120 104 32 120 104 32 120 104 32 120 104 32 120 104 32 120 104 32 120 104 32 120 104 32 120 104 32 120 104 32 120 104 32 120 104 32 120 104 32 120 104 32 120 104 32 120 104 32 120 104 32 120 104 32 48 88 32 48 88 32 48 88 32 48 88 32 48 88 32 48 88 32 48 88 32 48 88 32 48 88 32 48 88 32 48 88 32 48 88 32 48 88 32 48 88 32 48 88 32 48 88 32 48 88 32 48 88 32 48 88 32 48 88 32 48 88 32 48 88 32 48 88 32 48 88 32 48 88 32 48 88 32 48 88 32 48 88 32 48 88 32 48 88 32 48 88 32 48 88 32
48 88 32 48 88 32 48 88 32 48 88 32 48 88 32 48 88 32 48 88 32 48 88 32 48 88 32 48 88 32 48 88 32 48 88 32 48 88 32 48 88 32 48 88 32 48 88 32 48 88 32 48 88 32 48 88 32 48 88 32 48 88 32 48 88 32 48 88 32 48 88 32 48 88 32 48 88 32 48 88 32 48 88 32 48 88 32 48 88 32 48 88 32 48 88 32 120 104 32 120 104 32 120 104 32 120 104 32 120 104 32 120 104 32 120 104 32 120 104 32 120 104 32 120 104 32 120 104 32 120 104 32 120 104 32 120 104 32 120 104 32 120 104 32 120 104 32 120 104 32 120 104 32 120 104 32 120 104 32 120 104 32 120 104 32 120 104 32 120 104 32 120 104 32 120 104 32 120 104 32 120 104 32 120 104 32 120 104 32 120 104 32 176 80 32 176 80 32 176 80 32 176 80 32 176 80 32 176 80 32 176 80 32 176 80 32 176 80 32 176 80 32 176 80 32 176 80 32 176 80 32 176 80 32 176 80 32 176 80 32 176 80 32 176 80 32 176 80 32 176 80 32 176 80 32 176 80 32 176 80 32 176 80 32 176 80 32 176 80 32 176 80 32 176 80 32 176 80 32 176 80 32 176 80 32 176 80 32 176 80 32 176 80 32 176 80 32 176 80 32 176 80 32 176 80 32 176 80 32 176 80 32 176 80 32 176 80 32 176 80 32 176 80 32 176 80 32 176 80 32 176 80 32 176 80 32 176 80 32 176 80 32 176 80 32 176 80 32 176 80 32 176 80 32 176 80 32 176 80 32 176 80 32 176 80 32 176 80 32 176 80 32 176 80 32 176 80 32 176 80 32 176 80 32
48 88 32 48 88 32 48 88 32 48 88 32 48 88 32 48 88 32 48 88 32 48 88 32 48 88 32 48 88 32 48 88 32 48 88 32 48 88 32 48 88 32 48 88 32 48 88 32 48 88 32 48 88 32 48 88 32 48 88 32 48 88 32 48 88 32 48 88 32 48 88 32 48 88 32 48 88 32 48 88 32 48 88 32 48 88 32 48 88 32 48 88 32 48 88 32 120 104 32 120 104 32 120 104 32 120 104 32 120 104 32 120 104 32 120 104 32 120 104 32 120 104 32 120 104 32 120 104 32 120 104 32 120 104 32 120 104 32 120 104 32 120 104 32 120 104 32 120 104 32 120 104 32 120 104 32 120 104 32 120 104 32 120 104 32 120 104 32 120 104 32 120 104 32 120 104 32 120 104 32 120 104 32 120 104 32 120 104 32 120 104 32 176 80 32 176 80 32 176 80 32 176 80 32 176 80 32 176 80 32 176 80 32 176 80 32 176 80 32 176 80 32 176 80 32 176 80 32 176 80 32 176 80 32 176 80 32 176 80 32 176 80 32 176 80 32 176 80 32 176 80 32 176 80 32 176 80 32 176 80 32 176 80 32 176 80 32 176 80 32 176 80 32 176 80 32 176 80 32 176 80 32 176 80 32 176 80 32 176 80 32 176 80 32 176 80 32 176 80 32 176 80 32 176 80 32 176 80 32 176 80 32 176 80 32 176 80 32 176 80 32 176 80 32 176 80 32 176 80 32 176 80 32 176 80 32 176 80 32 176 80 32 176 80 32 176 80 32 176 80 32 176 80 32 176 80 32 176 80 32 176 80 32 176 80 32 176 80 32 176 80 32 176 80 32 176 80 32 176 80 32 176 80 32
48 88 32 48 88 32 48 88 32 48 88 32 48 88 32 48 88 32 48 88 32 48 88 32 48 88 32 48 88 32 48 88 32 48 88 32 48 88 32 48 88 32 48 88 32 48 88 32 48 88 32 48 88 32 48 88 32 48 88 32 48 88 32 48 88 32 48 88 32 48 88 32 48 88 32 48 88 32 48 88 32 48 88 32 48 88 32 48 88 32 48 88 32 48 88 32 120 104 32 120 104 32 120 104 32 120 104 32 120 104 32 120 104 32 120 104 32 120 104 32 120 104 32 120 104 32 120 104 32 120 104 32 120 104 32 120 104 32 120 104 32 120 104 32 120 104 32 120 104 32 120 104 32 120 104 32 120 104 32 120 104 32 120 104 32 120 104 32 120 104 32 120 104 32 120 104 32 120 104 32 120 104 32 120 104 32 120 104 32 120 104 32 176 80 32 176 80 32 176 80 32 176 80 32 176 80 32 176 80 32 176 80 32 176 80 32 176 80 32 176 80 32 176 80 32 176 80 32 176 80 32 176 80 32 176 80 32 176 80 32 176 80 32 176 80 32 176 80 32 176 80 32 176 80 32 176 80 32 176 80 32 176 80 32 176 80 32 176 80 32 176 80 32 176 80 32 176 80 32 176 80 32 176 80 32 176 80 32 176 80 32 176 80 32 176 80 32 176 80 32 176 80 32 176 80 32 176 80 32 176 80 32 176 80 32 176 80 32 176 80 32 176 80 32 176 80 32 176 80 32 176 80 32 176 80 32 176 80 32 176 80 32 176 80 32 176 80 32 176 80 32 176 80 32 176 80 32 176 80 32 176 80 32 176 80 32 176 80 32 176 80 32 176 80 32 176 80 32 176 80 32 176 80 32
48 88 32 48 88 32 48 88 32 48 88 32 48 88 32 48 88 32 48 88 32 48 88 32 48 88 32 48 88 32 48 88 32 48 88 32 48 88 32 48 88 32 48 88 32 48 88 32 48 88 32 48 88 32 48 88 32 48 88 32 48 88 32 48 88 32 48 88 32 48 88 32 48 88 32 48 88 32 48 88 32 48 88 32 48 88 32 48 88 32 48 88 32 48 88 32 120 104 32 120 104 32 120 104 32 120 104 32 120 104 32 120 104 32 120 104 32 120 104 32 120 104 32 120 104 32 120 104 32 120 104 32 120 104 32 120 104 32 120 104 32 120 104 32 120 104 32 120 104 32 120 104 32 120 104 32 120 104 32 120 104 32 120 104 32 120 104 32 120 104 32 120 104 32 120 104 32 120 104 32 120 104 32 120 104 32 120 104 32 120 104 32 176 80 32 176 80 32 176 80 32 176 80 32 176 80 32 176 80 32 176 80 32 176 80 32 176 80 32 176 80 32 176 80 32 176 80 32 176 80 32 176 80 32 176 80 32 176 80 32 176 80 32 176 80 32 176 80 32 176 80 32 176 80 32 176 80 32 176 80 32 176 80 32 176 80 32 176 80 32 176 80 32 176 80 32 176 80 32 176 80 32 176 80 32 176 80 32 176 80 32 176 80 32 176 80 32 176 80 32 176 80 32 176 80 32 176 80 32 176 80 32 176 80 32 176 80 32 176 80 32 176 80 32 176 80 32 176 80 32 176 80 32 176 80 32 176 80 32 176 80 32 176 80 32 176 80 32 176 80 32 176 80 32 176 80 32 176 80 32 176 80 32 176 80 32 176 80 32 176 80 32 176 80 32 176 80 32 176 80 32 176 80 32
48 88 32 48 88 32 48 88 32 48 88 32 48 88 32 48 88 32 48 88 32 48 88 32 48 88 32 48 88 32 48 88 32 48 88 32 48 88 32 48 88 32 48 88 32 48 88 32 48 88 32 48 88 32 48 88 32 48 88 32 48 88 32 48 88 32 48 88 32 48 88 32 48 88 32 48 88 32 48 88 32 48 88 32 48 88 32 48 88 32 48 88 32 48 88 32 120 104 32 120 104 32 120 104 32 120 104 32 120 104 32 120 104 32 120 104 32 120 104 32 120 104 32 120 104 32 120 104 32 120 104 32 120 104 32 120 104 32 120 104 32 120 104 32 120 104 32 120 104 32 120 104 32 120 104 32 120 104 32 120 104 32 120 104 32 120 104 32 120 104 32 120 104 32 120 104 32 120 104 32 120 104 32 120 104 32 120 104 32 120 104 32 176 80 32 176 80 32 176 80 32 176 80 32 176 80 32 176 80 32 176 80 32 176 80 32 176 80 32 176 80 32 176 80 32 176 80 32 176 80 32 176 80 32 176 80 32 176 80 32 176 80 32 176 80 32 176 80 32 176 80 32 176 80 32 176 80 32 176 80 32 176 80 32 176 80 32 176 80 32 176 80 32 176 80 32 176 80 32 176 80 32 176 80 32 176 80 32 176 80 32 176 80 32 176 80 32 176 80 32 176 80 32 176 80 32 176 80 32 176 80 32 176 80 32 176 80 32 176 80 32 176 80 32 176 80 32 176 80 32 176 80 32 176 80 32 176 80 32 176 80 32 176 80 32 176 80 32 176 80 32 176 80 32 176 80 32 176 80 32 176 80 32 176 80 32 176 80 32 176 80 32 176 80 32 176 80 32 176 80 32 176 80 32
48 88 32 48 88 32 48 88 32 48 88 32 48 88 32 48 88 32 48 88 32 48 88 32 48 88 32 48 88 32 48 88 32 48 88 32 48 88 32 48 88 32 48 88 32 48 88 32 48 88 32 48 88 32 48 88 32 48 88 32 48 88 32 48 88 32 48 88 32 48 88 32 48 88 32 48 88 32 48 88 32 48 88 32 48 88 32 48 88 32 48 88 32 48 88 32 120 104 32 120 104 32 120 104 32 120 104 32 120 104 32 120 104 32 120 104 32 120 104 32 120 104 32 120 104 32 120 104 32 120 104 32 120 104 32 120 104 32 120 104 32 120 104 32 120 104 32 120 104 32 120 104 32 120 104 32 120 104 32 120 104 32 120 104 32 120 104 32 120 104 32 120 104 32 120 104 32 120 104 32 120 104 32 120 104 32 120 104 32 120 104 32 176 80 32 176 80 32 176 80 32 176 80 32 176 80 32 176 80 32 176 80 32 176 80 32 176 80 32 176 80 32 176 80 32 176 80 32 176 80 32 176 80 32 176 80 32 176 80 32 176 80 32 176 80 32 176 80 32 176 80 32 176 80 32 176 80 32 176 80 32 176 80 32 176 80 32 176 80 32 176 80 32 176 80 32 176 80 32 176 80 32 176 80 32 176 80 32 176 80 32 176 80 32 176 80 32 176 80 32 176 80 32 176 80 32 176 80 32 176 80 32 176 80 32 176 80 32 176 80 32 176 80 32 176 80 32 176 80 32 176 80 32 176 80 32 176 80 32 176 80 32 176 80 32 176 80 32 176 80 32 176 80 32 176 80 32 176 80 32 176 80 32 176 80 32 176 80 32 176 80 32 176 80 32 176 80 32 176 80 32 176 80 32
48 88 32 48 88 32 48 88 32 48 88 32 48 88 32 48 88 32 48 88 32 48 88 32 48 88 32 48 88 32 48 88 32 48 88 32 48 88 32 48 88 32 48 88 32 48 88 32 48 88 32 48 88 32 48 88 32 48 88 32 48 88 32 48 88 32 48 88 32 48 88 32 48 88 32 48 88 32 48 88 32 48 88 32 48 88 32 48 88 32 48 88 32 48 88 32 120 104 32 120 104 32 120 104 32 120 104 32 120 104 32 120 104 32 120 104 32 120 104 32 120 104 32 120 104 32 120 104 32 120 104 32 120 104 32 120 104 32 120 104 32 120 104 32 120 104 32 120 104 32 120 104 32 120 104 32 120 104 32 120 104 32 120 104 32 120 104 32 120 104 32 120 104 32 120 104 32 120 104 32 120 104 32 120 104 32 120 104 32 120 104 32 176 80 32 176 80 32 176 80 32 176 80 32 176 80 32 176 80 32 176 80 32 176 80 32 176 80 32 176 80 32 176 80 32 176 80 32 176 80 32 176 80 32 176 80 32 176 80 32 176 80 32 176 80 32 176 80 32 176 80 32 176 80 32 176 80 32 176 80 32 176 80 32 176 80 32 176 80 32 176 80 32 176 80 32 176 80 32 176 80 32 176 80 32 176 80 32 176 80 32 176 80 32 176 80 32 176 80 32 176 80 32 176 80 32 176 80 32 176 80 32 176 80 32 176 80 32 176 80 32 176 80 32 176 80 32 176 80 32 176 80 32 176 80 32 176 80 32 176 80 32 176 80 32 176 80 32 176 80 32 176 80 32 176 80 32 176 80 32 176 80 32 176 80 32 176 80 32 176 80 32 176 80 32 176 80 32 176 80 32 176 80 32
48 88 32 48 88 32 48 88 32 48 88 32 48 88 32 48 88 32 48 88 32 48 88 32 48 88 32 48 88 32 48 88 32 48 88 32 48 88 32 48 88 32 48 88 32 48 88 32 48 88 32 48 88 32 48 88 32 48 88 32 48 88 32 48 88 32 48 88 32 48 88 32 48 88 32 48 88 32 48 88 32 48 88 32 48 88 32 48 88 32 48 88 32 48 88 32 120 104 32 120 104 32 120 104 32 120 104 32 120 104 32 120 104 32 120 104 32 120 104 32 120 104 32 120 104 32 120 104 32 120 104 32 120 104 32 120 104 32 120 104 32 120 104 32 120 104 32 120 104 32 120 104 32 120 104 32 120 104 32 120 104 32 120 104 32 120 104 32 120 104 32 120 104 32 120 104 32 120 104 32 120 104 32 120 104 32 120 104 32 120 104 32 176 80 32 176 80 32 176 80 32 176 80 32 176 80 32 176 80 32 176 80 32 176 80 32 176 80 32 176 80 32 176 80 32 176 80 32 176 80 32 176 80 32 176 80 32 176 80 32 176 80 32 176 80 32 176 80 32 176 80 32 176 80 32 176 80 32 176 80 32 176 80 32 176 80 32 176 80 32 176 80 32 176 80 32 176 80 32 176 80 32 176 80 32 176 80 32 176 80 32 176 80 32 176 80 32 176 80 32 176 80 32 176 80 32 176 80 32 176 80 32 176 80 32 176 80 32 176 80 32 176 80 32 176 80 32 176 80 32 176 80 32 176 80 32 176 80 32 176 80 32 176 80 32 176 80 32 176 80 32 176 80 32 176 80 32 176 80 32 176 80 32 176 80 32 176 80 32 176 80 32 176 80 32 176 80 32 176 80 32 176 80 32
48 88 32 48 88 32 48 88 32 48 88 32 48 88 32 48 88 32 48 88 32 48 88 32 48 88 32 48 88 32 48 88 32 48 88 32 48 88 32 48 88 32 48 88 32 48 88 32 48 88 32 48 88 32 48 88 32 48 88 32 48 88 32 48 88 32 48 88 32 48 88 32 48 88 32 48 88 32 48 88 32 48 88 32 48 88 32 48 88 32 48 88 32 48 88 32 120 104 32 120 104 32 120 104 32 120 104 32 120 104 32 120 104 32 120 104 32 120 104 32 120 104 32 120 104 32 120 104 32 120 104 32 120 104 32 120 104 32 120 104 32 120 104 32 120 104 32 120 104 32 120 104 32 120 104 32 120 104 32 120 104 32 120 104 32 120 104 32 120 104 32 120 104 32 120 104 32 120 104 32 120 104 32 120 104 32 120 104 32 120 104 32 176 80 32 176 80 32 176 80 32 176 80 32 176 80 32 176 80 32 176 80 32 176 80 32 176 80 32 176 80 32 176 80 32 176 80 32 176 80 32 176 80 32 176 80 32 176 80 32 176 80 32 176 80 32 176 80 32 176 80 32 176 80 32 176 80 32 176 80 32 176 80 32 176 80 32 176 80 32 176 80 32 176 80 32 176 80 32 176 80 32 176 80 32 176 80 32 176 80 32 176 80 32 176 80 32 176 80 32 176 80 32 176 80 32 176 80 32 176 80 32 176 80 32 176 80 32 176 80 32 176 80 32 176 80 32 176 80 32 176 80 32 176 80 32 176 80 32 176 80 32 176 80 32 176 80 32 176 80 32 176 80 32 176 80 32 176 80 32 176 80 32 176 80 32 176 80 32 176 80 32 176 80 32 176 80 32 176 80 32 176 80 32
48 88 32 48 88 32 48 88 32 48 88 32 48 88 32 48 88 32 48 88 32 48 88 32 48 88 32 48 88 32 48 88 32 48 88 32 48 88 32 48 88 32 48 88 32 48 88 32 48 88 32 48 88 32 48 88 32 48 88 32 48 88 32 48 88 32 48 88 32 48 88 32 48 88 32 48 88 32 48 88 32 48 88 32 48 88 32 48 88 32 48 88 32 48 88 32 120 104 32 120 104 32 120 104 32 120 104 32 120 104 32 120 104 32 120 104 32 120 104 32 120 104 32 120 104 32 120 104 32 120 104 32 120 104 32 120 104 32 120 104 32 120 104 32 120 104 32 120 104 32 120 104 32 120 104 32 120 104 32 120 104 32 120 104 32 120 104 32 120 104 32 120 104 32 120 104 32 120 104 32 120 104 32 120 104 32 120 104 32 120 104 32 176 80 32 176 80 32 176 80 32 176 80 32 176 80 32 176 80 32 176 80 32 176 80 32 176 80 32 176 80 32 176 80 32 176 80 32 176 80 32 176 80 32 176 80 32 176 80 32 176 80 32 176 80 32 176 80 32 176 80 32 176 80 32 176 80 32 176 80 32 176 80 32 176 80 32 176 80 32 176 80 32 176 80 32 176 80 32 176 80 32 176 80 32 176 80 32 176 80 32 176 80 32 176 80 32 176 80 32 176 80 32 176 80 32 176 80 32 176 80 32 176 80 32 176 80 32 176 80 32 176 80 32 176 80 32 176 80 32 176 80 32 176 80 32 176 80 32 176 80 32 176 80 32 176 80 32 176 80 32 176 80 32 176 80 32 176 80 32 176 80 32 176 80 32 176 80 32 176 80 32 176 80 32 176 80 32 176 80 32 176 80 32
48 88 32 48 88 32 48 88 32 48 88 32 48 88 32 48 88 32 48 88 32 48 88 32 48 88 32 48 88 32 48 88 32 48 88 32 48 88 32 48 88 32 48 88 32 48 88 32 48 88 32 48 88 32 48 88 32 48 88 32 48 88 32 48 88 32 48 88 32 48 88 32 48 88 32 48 88 32 48 88 32 48 88 32 48 88 32 48 88 32 48 88 32 48 88 32 120 104 32 120 104 32 120 104 32 120 104 32 120 104 32 120 104 32 120 104 32 120 104 32 120 104 32 120 104 32 120 104 32 120 104 32 120 104 32 120 104 32 120 104 32 120 104 32 120 104 32 120 104 32 120 104 32 120 104 32 120 104 32 120 104 32 120 104 32 120 104 32 120 104 32 120 104 32 120 104 32 120 104 32 120 104 32 120 104 32 120 104 32 120 104 32 176 80 32 176 80 32 176 80 32 176 80 32 176 80 32 176 80 32 176 80 32 176 80 32 176 80 32 176 80 32 176 80 32 176 80 32 176 80 32 176 80 32 176 80 32 176 80 32 176 80 32 176 80 32 176 80 32 176 80 32 176 80 32 176 80 32 176 80 32 176 80 32 176 80 32 176 80 32 176 80 32 176 80 32 176 80 32 176 80 32 176 80 32 176 80 32 176 80 32 176 80 32 176 80 32 176 80 32 176 80 32 176 80 32 176 80 32 176 80 32 176 80 32 176 80 32 176 80 32 176 80 32 176 80 32 176 80 32 176 80 32 176 80 32 176 80 32 176 80 32 176 80 32 176 80 32 176 80 32 176 80 32 176 80 32 176 80 32 176 80 32 176 80 32 176 80 32 176 80 32 176 80 32 176 80 32 176 80 32 176 80 32
48 88 32 48 88 32 48 88 32 48 88 32 48 88 32 48 88 32 48 88 32 48 88 32 48 88 32 48 88 32 48 88 32 48 88 32 48 88 32 48 88 32 48 88 32 48 88 32 48 88 32 48 88 32 48 88 32 48 88 32 48 88 32 48 88 32 48 88 32 48 88 32 48 88 32 48 88 32 48 88 32 48 88 32 48 88 32 48 88 32 48 88 32 48 88 32 120 104 32 120 104 32 120 104 32 120 104 32 120 104 32 120 104 32 120 104 32 120 104 32 120 104 32 120 104 32 120 104 32 120 104 32 120 104 32 120 104 32 120 104 32 120 104 32 120 104 32 120 104 32 120 104 32 120 104 32 120 104 32 120 104 32 120 104 32 120 104 32 120 104 32 120 104 32 120 104 32 120 104 32 120 104 32 120 104 32 120 104 32 120 104 32 176 80 32 176 80 32 176 80 32 176 80 32 176 80 32 176 80 32 176 80 32 176 80 32 176 80 32 176 80 32 176 80 32 176 80 32 176 80 32 176 80 32 176 80 32 176 80 32 176 80 32 176 80 32 176 80 32 176 80 32 176 80 32 176 80 32 176 80 32 176 80 32 176 80 32 176 80 32 176 80 32 176 80 32 176 80 32 176 80 32 176 80 32 176 80 32 176 80 32 176 80 32 176 80 32 176 80 32 176 80 32 176 80 32 176 80 32 176 80 32 176 80 32 176 80 32 176 80 32 176 80 32 176 80 32 176 80 32 176 80 32 176 80 32 176 80 32 176 80 32 176 80 32 176 80 32 176 80 32 176 80 32 176 80 32 176 80 32 176 80 32 176 80 32 176 80 32 176 80 32 176 80 32 176 80 32 176 80 32 176 80 32
48 88 32 48 88 32 48 88 32 48 88 32 48 88 32 48 88 32 48 88 32 48 88 32 48 88 32 48 88 32 48 88 32 48 88 32 48 88 32 48 88 32 48 88 32 48 88 32 48 88 32 48 88 32 48 88 32 48 88 32 48 88 32 48 88 32 48 88 32 48 88 32 48 88 32 48 88 32 48 88 32 48 88 32 48 88 32 48 88 32 48 88 32 48 88 32 120 104 32 120 104 32 120 104 32 120 104 32 120 104 32 120 104 32 120 104 32 120 104 32 120 104 32 120 104 32 120 104 32 120 104 32 120 104 32 120 104 32 120 104 32 120 104 32 120 104 32 120 104 32 120 104 32 120 104 32 120 104 32 120 104 32 120 104 32 120 104 32 120 104 32 120 104 32 120 104 32 120 104 32 120 104 32 120 104 32 120 104 32 120 104 32 176 80 32 176 80 32 176 80 32 176 80 32 176 80 32 176 80 32 176 80 32 176 80 32 176 80 32 176 80 32 176 80 32 176 80 32 176 80 32 176 80 32 176 80 32 176 80 32 176 80 32 176 80 32 176 80 32 176 80 32 176 80 32 176 80 32 176 80 32 176 80 32 176 80 32 176 80 32 176 80 32 176 80 32 176 80 32 176 80 32 176 80 32 176 80 32 176 80 32 176 80 32 176 80 32 176 80 32 176 80 32 176 80 32 176 80 32 176 80 32 176 80 32 176 80 32 176 80 32 176 80 32 176 80 32 176 80 32 176 80 32 176 80 32 176 80 32 176 80 32 176 80 32 176 80 32 176 80 32 176 80 32 176 80 32 176 80 32 176 80 32 176 80 32 176 80 32 176 80 32 176 80 32 176 80 32 176 80 32 176 80 32
48 88 32 48 88 32 48 88 32 48 88 32 48 88 32 48 88 32 48 88 32 48 88 32 48 88 32 48 88 32 48 88 32 48 88 32 48 88 32 48 88 32 48 88 32 48 88 32 48 88 32 48 88 32 48 88 32 48 88 32 48 88 32 48 88 32 48 88 32 48 88 32 48 88 32 48 88 32 48 88 32 48 88 32 48 88 32 48 88 32 48 88 32 48 88 32 120 104 32 120 104 32 120 104 32 120 104 32 120 104 32 120 104 32 120 104 32 120 104 32 120 104 32 120 104 32 120 104 32 120 104 32 120 104 32 120 104 32 120 104 32 120 104 32 120 104 32 120 104 32 120 104 32 120 104 32 120 104 32 120 104 32 120 104 32 120 104 32 120 104 32 120 104 32 120 104 32 120 104 32 120 104 32 120 104 32 120 104 32 120 104 32 176 80 32 176 80 32 176 80 32 176 80 32 176 80 32 176 80 32 176 80 32 176 80 32 176 80 32 176 80 32 176 80 32 176 80 32 176 80 32 176 80 32 176 80 32 176 80 32 176 80 32 176 80 32 176 80 32 176 80 32 176 80 32 176 80 32 176 80 32 176 80 32 176 80 32 176 80 32 176 80 32 176 80 32 176 80 32 176 80 32 176 80 32 176 80 32 176 80 32 176 80 32 176 80 32 176 80 32 176 80 32 176 80 32 176 80 32 176 80 32 176 80 32 176 80 32 176 80 32 176 80 32 176 80 32 176 80 32 176 80 32 176 80 32 176 80 32 176 80 32 176 80 32 176 80 32 176 80 32 176 80 32 176 80 32 176 80 32 176 80 32 176 80 32 176 80 32 176 80 32 176 80 32 176 80 32 176 80 32 176 80 32
48 88 32 48 88 32 48 88 32 48 88 32 48 88 32 48 88 32 48 88 32 48 88 32 48 88 32 48 88 32 48 88 32 48 88 32 48 88 32 48 88 32 48 88 32 48 88 32 48 88 32 48 88 32 48 88 32 48 88 32 48 88 32 48 88 32 48 88 32 48 88 32 48 88 32 48 88 32 48 88 32 48 88 32 48 88 32 48 88 32 48 88 32 48 88 32 120 104 32 120 104 32 120 104 32 120 104 32 120 104 32 120 104 32 120 104 32 120 104 32 120 104 32 120 104 32 120 104 32 120 104 32 120 104 32 120 104 32 120 104 32 120 104 32 120 104 32 120 104 32 120 104 32 120 104 32 120 104 32 120 104 32 120 104 32 120 104 32 120 104 32 120 104 32 120 104 32 120 104 32 120 104 32 120 104 32 120 104 32 120 104 32 176 80 32 176 80 32 176 80 32 176 80 32 176 80 32 176 80 32 176 80 32 176 80 32 176 80 32 176 80 32 176 80 32 176 80 32 176 80 32 176 80 32 176 80 32 176 80 32 176 80 32 176 80 32 176 80 32 176 80 32 176 80 32 176 80 32 176 80 32 176 80 32 176 80 32 176 80 32 176 80 32 176 80 32 176 80 32 176 80 32 176 80 32 176 80 32 176 80 32 176 80 32 176 80 32 176 80 32 176 80 32 176 80 32 176 80 32 176 80 32 176 80 32 176 80 32 176 80 32 176 80 32 176 80 32 176 80 32 176 80 32 176 80 32 176 80 32 176 80 32 176 80 32 176 80 32 176 80 32 176 80 32 176 80 32 176 80 32 176 80 32 176 80 32 176 80 32 176 80 32 176 80 32 176 80 32 176 80 32 176 80 32
48 88 32 48 88 32 48 88 32 48 88 32 48 88 32 48 88 32 48 88 32 48 88 32 48 88 32 48 88 32 48 88 32 48 88 32 48 88 32 48 88 32 48 88 32 48 88 32 48 88 32 48 88 32 48 88 32 48 88 32 48 88 32 48 88 32 48 88 32 48 88 32 48 88 32 48 88 32 48 88 32 48 88 32 48 88 32 48 88 32 48 88 32 48 88 32 120 104 32 120 104 32 120 104 32 120 104 32 120 104 32 120 104 32 120 104 32 120 104 32 120 104 32 120 104 32 120 104 32 120 104 32 120 104 32 120 104 32 120 104 32 120 104 32 120 104 32 120 104 32 120 104 32 120 104 32 120 104 32 120 104 32 120 104 32 120 104 32 120 104 32 120 104 32 120 104 32 120 104 32 120 104 32 120 104 32 120 104 32 120 104 32 176 80 32 176 80 32 176 80 32 176 80 32 176 80 32 176 80 32 176 80 32 176 80 32 176 80 32 176 80 32 176 80 32 176 80 32 176 80 32 176 80 32 176 80 32 176 80 32 176 80 32 176 80 32 176 80 32 176 80 32 176 80 32 176 80 32 176 80 32 176 80 32 176 80 32 176 80 32 176 80 32 176 80 32 176 80 32 176 80 32 176 80 32 176 80 32 176 80 32 176 80 32 176 80 32 176 80 32 176 80 32 176 80 32 176 80 32 176 80 32 176 80 32 176 80 32 176 80 32 176 80 32 176 80 32 176 80 32 176 80 32 176 80 32 176 80 32 176 80 32 176 80 32 176 80 32 176 80 32 176 80 32 176 80 32 176 80 32 176 80 32 176 80 32 176 80 32 176 80 32 176 80 32 176 80 32 176 80 32 176 80 32
48 88 32 48 88 32 48 88 32 48 88 32 48 88 32 48 88 32 48 88 32 48 88 32 48 88 32 48 88 32 48 88 32 48 88 32 48 88 32 48 88 32 48 88 32 48 88 32 48 88 32 48 88 32 48 88 32 48 88 32 48 88 32 48 88 32 48 88 32 48 88 32 48 88 32 48 88 32 48 88 32 48 88 32 48 88 32 48 88 32 48 88 32 48 88 32 120 104 32 120 104 32 120 104 32 120 104 32 120 104 32 120 104 32 120 104 32 120 104 32 120 104 32 120 104 32 120 104 32 120 104 32 120 104 32 120 104 32 120 104 32 120 104 32 120 104 32 120 104 32 120 104 32 120 104 32 120 104 32 120 104 32 120 104 32 120 104 32 120 104 32 120 104 32 120 104 32 120 104 32 120 104 32 120 104 32 120 104 32 120 104 32 176 80 32 176 80 32 176 80 32 176 80 32 176 80 32 176 80 32 176 80 32 176 80 32 176 80 32 176 80 32 176 80 32 176 80 32 176 80 32 176 80 32 176 80 32 176 80 32 176 80 32 176 80 32 176 80 32 176 80 32 176 80 32 176 80 32 176 80 32 176 80 32 176 80 32 176 80 32 176 80 32 176 80 32 176 80 32 176 80 32 176 80 32 176 80 32 176 80 32 176 80 32 176 80 32 176 80 32 176 80 32 176 80 32 176 80 32 176 80 32 176 80 32 176 80 32 176 80 32 176 80 32 176 80 32 176 80 32 176 80 32 176 80 32 176 80 32 176 80 32 176 80 32 176 80 32 176 80 32 176 80 32 176 80 32 176 80 32 176 80 32 176 80 32 176 80 32 176 80 32 176 80 32 176 80 32 176 80 32 176 80 32
48 88 32 48 88 32 48 88 32 48 88 32 48 88 32 48 88 32 48 88 32 48 88 32 48 88 32 48 88 32 48 88 32 48 88 32 48 88 32 48 88 32 48 88 32 48 88 32 48 88 32 48 88 32 48 88 32 48 88 32 48 88 32 48 88 32 48 88 32 48 88 32 48 88 32 48 88 32 48 88 32 48 88 32 48 88 32 48 88 32 48 88 32 48 88 32 120 104 32 120 104 32 120 104 32 120 104 32 120 104 32 120 104 32 120 104 32 120 104 32 120 104 32 120 104 32 120 104 32 120 104 32 120 104 32 120 104 32 120 104 32 120 104 32 120 104 32 120 104 32 120 104 32 120 104 32 120 104 32 120 104 32 120 104 32 120 104 32 120 104 32 120 104 32 120 104 32 120 104 32 120 104 32 120 104 32 120 104 32 120 104 32 176 80 32 176 80 32 176 80 32 176 80 32 176 80 32 176 80 32 176 80 32 176 80 32 176 80 32 176 80 32 176 80 32 176 80 32 176 80 32 176 80 32 176 80 32 176 80 32 176 80 32 176 80 32 176 80 32 176 80 32 176 80 32 176 80 32 176 80 32 176 80 32 176 80 32 176 80 32 176 80 32 176 80 32 176 80 32 176 80 32 176 80 32 176 80 32 176 80 32 176 80 32 176 80 32 176 80 32 176 80 32 176 80 32 176 80 32 176 80 32 176 80 32 176 80 32 176 80 32 176 80 32 176 80 32 176 80 32 176 80 32 176 80 32 176 80 32 176 80 32 176 80 32 176 80 32 176 80 32 176 80 32 176 80 32 176 80 32 176 80 32 176 80 32 176 80 32 176 80 32 176 80 32 176 80 32 176 80 32 176 80 32
48 88 32 48 88 32 48 88 32 48 88 32 48 88 32 48 88 32 48 88 32 48 88 32 48 88 32 48 88 32 48 88 32 48 88 32 48 88 32 48 88 32 48 88 32 48 88 32 48 88 32 48 88 32 48 88 32 48 88 32 48 88 32 48 88 32 48 88 32 48 88 32 48 88 32 48 88 32 48 88 32 48 88 32 48 88 32 48 88 32 48 88 32 48 88 32 120 104 32 120 104 32 120 104 32 120 104 32 120 104 32 120 104 32 120 104 32 120 104 32 120 104 32 120 104 32 120 104 32 120 104 32 120 104 32 120 104 32 120 104 32 120 104 32 120 104 32 120 104 32 120 104 32 120 104 32 120 104 32 120 104 32 120 104 32 120 104 32 120 104 32 120 104 32 120 104 32 120 104 32 120 104 32 120 104 32 120 104 32 120 104 32 176 80 32 176 80 32 176 80 32 176 80 32 176 80 32 176 80 32 176 80 32 176 80 32 176 80 32 176 80 32 176 80 32 176 80 32 176 80 32 176 80 32 176 80 32 176 80 32 176 80 32 176 80 32 176 80 32 176 80 32 176 80 32 176 80 32 176 80 32 176 80 32 176 80 32 176 80 32 176 80 32 176 80 32 176 80 32 176 80 32 176 80 32 176 80 32 176 80 32 176 80 32 176 80 32 176 80 32 176 80 32 176 80 32 176 80 32 176 80 32 176 80 32 176 80 32 176 80 32 176 80 32 176 80 32 176 80 32 176 80 32 176 80 32 176 80 32 176 80 32 176 80 32 176 80 32 176 80 32 176 80 32 176 80 32 176 80 32 176 80 32 176 80 32 176 80 32 176 80 32 176 80 32 176 80 32 176 80 32 176 80 32
48 88 32 48 88 32 48 88 32 48 88 32 48 88 32 48 88 32 48 88 32 48 88 32 48 88 32 48 88 32 48 88 32 48 88 32 48 88 32 48 88 32 48 88 32 48 88 32 48 88 32 48 88 32 48 88 32 48 88 32 48 88 32 48 88 32 48 88 32 48 88 32 48 88 32 48 88 32 48 88 32 48 88 32 48 88 32 48 88 32 48 88 32 48 88 32 120 104 32 120 104 32 120 104 32 120 104 32 120 104 32 120 104 32 120 104 32 120 104 32 120 104 32 120 104 32 120 104 32 120 104 32 120 104 32 120 104 32 120 104 32 120 104 32 120 104 32 120 104 32 120 104 32 120 104 32 120 104 32 120 104 32 120 104 32 120 104 32 120 104 32 120 104 32 120 104 32 120 104 32 120 104 32 120 104 32 120 104 32 120 104 32 176 80 32 176 80 32 176 80 32 176 80 32 176 80 32 176 80 32 176 80 32 176 80 32 176 80 32 176 80 32 176 80 32 176 80 32 176 80 32 176 80 32 176 80 32 176 80 32 176 80 32 176 80 32 176 80 32 176 80 32 176 80 32 176 80 32 176 80 32 176 80 32 176 80 32 176 80 32 176 80 32 176 80 32 176 80 32 176 80 32 176 80 32 176 80 32 176 80 32 176 80 32 176 80 32 176 80 32 176 80 32 176 80 32 176 80 32 176 80 32 176 80 32 176 80 32 176 80 32 176 80 32 176 80 32 176 80 32 176 80 32 176 80 32 176 80 32 176 80 32 176 80 32 176 80 32 176 80 32 176 80 32 176 80 32 176 80 32 176 80 32 176 80 32 176 80 32 176 80 32 176 80 32 176 80 32 176 80 32 176 80 32
48 88 32 48 88 32 48 88 32 48 88 32 48 88 32 48 88 32 48 88 32 48 88 32 48 88 32 48 88 32 48 88 32 48 88 32 48 88 32 48 88 32 48 88 32 48 88 32 48 88 32 48 88 32 48 88 32 48 88 32 48 88 32 48 88 32 48 88 32 48 88 32 48 88 32 48 88 32 48 88 32 48 88 32 48 88 32 48 88 32 48 88 32 48 88 32 120 104 32 120 104 32 120 104 32 120 104 32 120 104 32 120 104 32 120 104 32 120 104 32 120 104 32 120 104 32 120 104 32 120 104 32 120 104 32 120 104 32 120 104 32 120 104 32 120 104 32 120 104 32 120 104 32 120 104 32 120 104 32 120 104 32 120 104 32 120 104 32 120 104 32 120 104 32 120 104 32 120 104 32 120 104 32 120 104 32 120 104 32 120 104 32 176 80 32 176 80 32 176 80 32 176 80 32 176 80 32 176 80 32 176 80 32 176 80 32 176 80 32 176 80 32 176 80 32 176 80 32 176 80 32 176 80 32 176 80 32 176 80 32 176 80 32 176 80 32 176 80 32 176 80 32 176 80 32 176 80 32 176 80 32 176 80 32 176 80 32 176 80 32 176 80 32 176 80 32 176 80 32 176 80 32 176 80 32 176 80 32 176 80 32 176 80 32 176 80 32 176 80 32 176 80 32 176 80 32 176 80 32 176 80 32 176 80 32 176 80 32 176 80 32 176 80 32 176 80 32 176 80 32 176 80 32 176 80 32 176 80 32 176 80 32 176 80 32 176 80 32 176 80 32 176 80 32 176 80 32 176 80 32 176 80 32 176 80 32 176 80 32 176 80 32 176 80 32 176 80 32 176 80 32 176 80 32
48 88 32 48 88 32 48 88 32 48 88 32 48 88 32 48 88 32 48 88 32 48 88 32 48 88 32 48 88 32 48 88 32 48 88 32 48 88 32 48 88 32 48 88 32 48 88 32 48 88 32 48 88 32 48 88 32 48 88 32 48 88 32 48 88 32 48 88 32 48 88 32 48 88 32 48 88 32 48 88 32 48 88 32 48 88 32 48 88 32 48 88 32 48 88 32 120 104 32 120 104 32 120 104 32 120 104 32 120 104 32 120 104 32 120 104 32 120 104 32 120 104 32 120 104 32 120 104 32 120 104 32 120 104 32 120 104 32 120 104 32 120 104 32 120 104 32 120 104 32 120 104 32 120 104 32 120 104 32 120 104 32 120 104 32 120 104 32 120 104 32 120 104 32 120 104 32 120 104 32 120 104 32 120 104 32 120 104 32 120 104 32 176 80 32 176 80 32 176 80 32 176 80 32 176 80 32 176 80 32 176 80 32 176 80 32 176 80 32 176 80 32 176 80 32 176 80 32 176 80 32 176 80 32 176 80 32 176 80 32 176 80 32 176 80 32 176 80 32 176 80 32 176 80 32 176 80 32 176 80 32 176 80 32 176 80 32 176 80 32 176 80 32 176 80 32 176 80 32 176 80 32 176 80 32 176 80 32 176 80 32 176 80 32 176 80 32 176 80 32 176 80 32 176 80 32 176 80 32 176 80 32 176 80 32 176 80 32 176 80 32 176 80 32 176 80 32 176 80 32 176 80 32 176 80 32 176 80 32 176 80 32 176 80 32 176 80 32 176 80 32 176 80 32 176 80 32 176 80 32 176 80 32 176 80 32 176 80 32 176 80 32 176 80 32 176 80 32 176 80 32 176 80 32
48 88 32 48 88 32 48 88 32 48 88 32 48 88 32 48 88 32 48 88 32 48 88 32 48 88 32 48 88 32 48 88 32 48 88 32 48 88 32 48 88 32 48 88 32 48 88 32 48 88 32 48 88 32 48 88 32 48 88 32 48 88 32 48 88 32 48 88 32 48 88 32 48 88 32 48 88 32 48 88 32 48 88 32 48 88 32 48 88 32 48 88 32 48 88 32 120 104 32 120 104 32 120 104 32 120 104 32 120 104 32 120 104 32 120 104 32 120 104 32 120 104 32 120 104 32 120 104 32 120 104 32 120 104 32 120 104 32 120 104 32 120 104 32 120 104 32 120 104 32 120 104 32 120 104 32 120 104 32 120 104 32 120 104 32 120 104 32 120 104 32 120 104 32 120 104 32 120 104 32 120 104 32 120 104 32 120 104 32 120 104 32 176 80 32 176 80 32 176 80 32 176 80 32 176 80 32 176 80 32 176 80 32 176 80 32 176 80 32 176 80 32 176 80 32 176 80 32 176 80 32 176 80 32 176 80 32 176 80 32 176 80 32 176 80 32 176 80 32 176 80 32 176 80 32 176 80 32 176 80 32 176 80 32 176 80 32 176 80 32 176 80 32 176 80 32 176 80 32 176 80 32 176 80 32 176 80 32 176 80 32 176 80 32 176 80 32 176 80 32 176 80 32 176 80 32 176 80 32 176 80 32 176 80 32 176 80 32 176 80 32 176 80 32 176 80 32 176 80 32 176 80 32 176 80 32 176 80 32 176 80 32 176 80 32 176 80 32 176 80 32 176 80 32 176 80 32 176 80 32 176 80 32 176 80 32 176 80 32 176 80 32 176 80 32 176 80 32 176 80 32 176 80 32
48 88 32 48 88 32 48 88 32 48 88 32 48 88 32 48 88 32 48 88 32 48 88 32 48 88 32 48 88 32 48 88 32 48 88 32 48 88 32 48 88 32 48 88 32 48 88 32 48 88 32 48 88 32 48 88 32 48 88 32 48 88 32 48 88 32 48 88 32 48 88 32 48 88 32 48 88 32 48 88 32 48 88 32 48 88 32 48 88 32 48 88 32 48 88 32 120 104 32 120 104 32 120 104 32 120 104 32 120 104 32 120 104 32 120 104 32 120 104 32 120 104 32 120 104 32 120 104 32 120 104 32 120 104 32 120 104 32 120 104 32 120 104 32 120 104 32 120 104 32 120 104 32 120 104 32 120 104 32 120 104 32 120 104 32 120 104 32 120 104 32 120 104 32 120 104 32 120 104 32 120 104 32 120 104 32 120 104 32 120 104 32 176 80 32 176 80 32 176 80 32 176 80 32 176 80 32 176 80 32 176 80 32 176 80 32 176 80 32 176 80 32 176 80 32 176 80 32 176 80 32 176 80 32 176 80 32 176 80 32 176 80 32 176 80 32 176 80 32 176 80 32 176 80 32 176 80 32 176 80 32 176 80 32 176 80 32 176 80 32 176 80 32 176 80 32 176 80 32 176 80 32 176 80 32 176 80 32 176 80 32 176 80 32 176 80 32 176 80 32 176 80 32 176 80 32 176 80 32 176 80 32 176 80 32 176 80 32 176 80 32 176 80 32 176 80 32 176 80 32 176 80 32 176 80 32 176 80 32 176 80 32 176 80 32 176 80 32 176 80 32 176 80 32 176 80 32 176 80 32 176 80 32 176 80 32 176 80 32 176 80 32 176 80 32 176 80 32 176 80 32 176 80 32
48 88 32 48 88 32 48 88 32 48 88 32 48 88 32 48 88 32 48 88 32 48 88 32 48 88 32 48 88 32 48 88 32 48 88 32 48 88 32 48 88 32 48 88 32 48 88 32 48 88 32 48 88 32 48 88 32 48 88 32 48 88 32 48 88 32 48 88 32 48 88 32 48 88 32 48 88 32 48 88 32 48 88 32 48 88 32 48 88 32 48 88 32 48 88 32 120 104 32 120 104 32 120 104 32 120 104 32 120 104 32 120 104 32 120 104 32 120 104 32 120 104 32 120 104 32 120 104 32 120 104 32 120 104 32 120 104 32 120 104 32 120 104 32 120 104 32 120 104 32 120 104 32 120 104 32 120 104 32 120 104 32 120 104 32 120 104 32 120 104 32 120 104 32 120 104 32 120 104 32 120 104 32 120 104 32 120 104 32 120 104 32 176 80 32 176 80 32 176 80 32 176 80 32 176 80 32 176 80 32 176 80 32 176 80 32 176 80 32 176 80 32 176 80 32 176 80 32 176 80 32 176 80 32 176 80 32 176 80 32 176 80 32 176 80 32 176 80 32 176 80 32 176 80 32 176 80 32 176 80 32 176 80 32 176 80 32 176 80 32 176 80 32 176 80 32 176 80 32 176 80 32 176 80 32 176 80 32 176 80 32 176 80 32 176 80 32 176 80 32 176 80 32 176 80 32 176 80 32 176 80 32 176 80 32 176 80 32 176 80 32 176 80 32 176 80 32 176 80 32 176 80 32 176 80 32 176 80 32 176 80 32 176 80 32 176 80 32 176 80 32 176 80 32 176 80 32 176 80 32 176 80 32 176 80 32 176 80 32 176 80 32 176 80 32 176 80 32 176 80 32 176 80 32
48 88 32 48 88 32 48 88 32 48 88 32 48 88 32 48 88 32 48 88 32 48 88 32 48 88 32 48 88 32 48 88 32 48 88 32 48 88 32 48 88 32 48 88 32 48 88 32 48 88 32 48 88 32 48 88 32 48 88 32 48 88 32 48 88 32 48 88 32 48 88 32 48 88 32 48 88 32 48 88 32 48 88 32 48 88 32 48 88 32 48 88 32 48 88 32 120 104 32 120 104 32 120 104 32 120 104 32 120 104 32 120 104 32 120 104 32 120 104 32 120 104 32 120 104 32 120 104 32 120 104 32 120 104 32 120 104 32 120 104 32 120 104 32 120 104 32 120 104 32 120 104 32 120 104 32 120 104 32 120 104 32 120 104 32 120 104 32 120 104 32 120 104 32 120 104 32 120 104 32 120 104 32 120 104 32 120 104 32 120 104 32 176 80 32 176 80 32 176 80 32 176 80 32 176 80 32 176 80 32 176 80 32 176 80 32 176 80 32 176 80 32 176 80 32 176 80 32 176 80 32 176 80 32 176 80 32 176 80 32 176 80 32 176 80 32 176 80 32 176 80 32 176 80 32 176 80 32 176 80 32 176 80 32 176 80 32 176 80 32 176 80 32 176 80 32 176 80 32 176 80 32 176 80 32 176 80 32 176 80 32 176 80 32 176 80 32 176 80 32 176 80 32 176 80 32 176 80 32 176 80 32 176 80 32 176 80 32 176 80 32 176 80 32 176 80 32 176 80 32 176 80 32 176 80 32 176 80 32 176 80 32 176 80 32 176 80 32 176 80 32 176 80 32 176 80 32 176 80 32 176 80 32 176 80 32 176 80 32 176 80 32 176 80 32 176 80 32 176 80 32 176 80 32
48 88 32 48 88 32 48 88 32 48 88 32 48 88 32 48 88 32 48 88 32 48 88 32 48 88 32 48 88 32 48 88 32 48 88 32 48 88 32 48 88 32 48 88 32 48 88 32 48 88 32 48 88 32 48 88 32 48 88 32 48 88 32 48 88 32 48 88 32 48 88 32 48 88 32 48 88 32 48 88 32 48 88 32 48 88 32 48 88 32 48 88 32 48 88 32 120 104 32 120 104 32 120 104 32 120 104 32 120 104 32 120 104 32 120 104 32 120 104 32 120 104 32 120 104 32 120 104 32 120 104 32 120 104 32 120 104 32 120 104 32 120 104 32 120 104 32 120 104 32 120 104 32 120 104 32 120 104 32 120 104 32 120 104 32 120 104 32 120 104 32 120 104 32 120 104 32 120 104 32 120 104 32 120 104 32 120 104 32 120 104 32 176 80 32 176 80 32 176 80 32 176 80 32 176 80 32 176 80 32 176 80 32 176 80 32 176 80 32 176 80 32 176 80 32 176 80 32 176 80 32 176 80 32 176 80 32 176 80 32 176 80 32 176 80 32 176 80 32 176 80 32 176 80 32 176 80 32 176 80 32 176 80 32 176 80 32 176 80 32 176 80 32 176 80 32 176 80 32 176 80 32 176 80 32 176 80 32 176 80 32 176 80 32 176 80 32 176 80 32 176 80 32 176 80 32 176 80 32 176 80 32 176 80 32 176 80 32 176 80 32 176 80 32 176 80 32 176 80 32 176 80 32 176 80 32 176 80 32 176 80 32 176 80 32 176 80 32 176 80 32 176 80 32 176 80 32 176 80 32 176 80 32 176 80 32 176 80 32 176 80 32 176 80 32 176 80 32 176 80 32 176 80 32
48 88 32 48 88 32 48 88 32 48 88 32 48 88 32 48 88 32 48 88 32 48 88 32 48 88 32 48 88 32 48 88 32 48 88 32 48 88 32 48 88 32 48 88 32 48 88 32 48 88 32 48 88 32 48 88 32 48 88 32 48 88 32 48 88 32 48 88 32 48 88 32 48 88 32 48 88 32 48 88 32 48 88 32 48 88 32 48 88 32 48 88 32 48 88 32 120 104 32 120 104 32 120 104 32 120 104 32 120 104 32 120 104 32 120 104 32 120 104 32 120 104 32 120 104 32 120 104 32 120 104 32 120 104 32 120 104 32 120 104 32 120 104 32 120 104 32 120 104 32 120 104 32 120 104 32 120 104 32 120 104 32 120 104 32 120 104 32 120 104 32 120 104 32 120 104 32 120 104 32 120 104 32 120 104 32 120 104 32 120 104 32 176 80 32 176 80 32 176 80 32 176 80 32 176 80 32 176 80 32 176 80 32 176 80 32 176 80 32 176 80 32 176 80 32 176 80 32 176 80 32 176 80 32 176 80 32 176 80 32 176 80 32 176 80 32 176 80 32 176 80 32 176 80 32 176 80 32 176 80 32 176 80 32 176 80 32 176 80 32 176 80 32 176 80 32 176 80 32 176 80 32 176 80 32 176 80 32 176 80 32 176 80 32 176 80 32 176 80 32 176 80 32 176 80 32 176 80 32 176 80 32 176 80 32 176 80 32 176 80 32 176 80 32 176 80 32 176 80 32 176 80 32 176 80 32 176 80 32 176 80 32 176 80 32 176 80 32 176 80 32 176 80 32 176 80 32 176 80 32 176 80 32 176 80 32 176 80 32 176 80 32 176 80 32 176 80 32 176 80 32 176 80 32
48 88 32 48 88 32 48 88 32 48 88 32 48 88 32 48 88 32 48 88 32 48 88 32 48 88 32 48 88 32 48 88 32 48 88 32 48 88 32 48 88 32 48 88 32 48 88 32 48 88 32 48 88 32 48 88 32 48 88 32 48 88 32 48 88 32 48 88 32 48 88 32 48 88 32 48 88 32 48 88 32 48 88 32 48 88 32 48 88 32 48 88 32 48 88 32 120 104 32 120 104 32 120 104 32 120 104 32 120 104 32 120 104 32 120 104 32 120 104 32 120 104 32 120 104 32 120 104 32 120 104 32 120 104 32 120 104 32 120 104 32 120 104 32 120 104 32 120 104 32 120 104 32 120 104 32 120 104 32 120 104 32 120 104 32 120 104 32 120 104 32 120 104 32 120 104 32 120 104 32 120 104 32 120 104 32 120 104 32 120 104 32 176 80 32 176 80 32 176 80 32 176 80 32 176 80 32 176 80 32 176 80 32 176 80 32 176 80 32 176 80 32 176 80 32 176 80 32 176 80 32 176 80 32 176 80 32 176 80 32 176 80 32 176 80 32 176 80 32 176 80 32 176 80 32 176 80 32 176 80 32 176 80 32 176 80 32 176 80 32 176 80 32 176 80 32 176 80 32 176 80 32 176 80 32 176 80 32 176 80 32 176 80 32 176 80 32 176 80 32 176 80 32 176 80 32 176 80 32 176 80 32 176 80 32 176 80 32 176 80 32 176 80 32 176 80 32 176 80 32 176 80 32 176 80 32 176 80 32 176 80 32 176 80 32 176 80 32 176 80 32 176 80 32 176 80 32 176 80 32 176 80 32 176 80 32 176 80 32 176 80 32 176 80 32 176 80 32 176 80 32 176 80 32
48 88 32 48 88 32 48 88 32 48 88 32 48 88 32 48 88 32 48 88 32 48 88 32 48 88 32 48 88 32 48 88 32 48 88 32 48 88 32 48 88 32 48 88 32 48 88 32 48 88 32 48 88 32 48 88 32 48 88 32 48 88 32 48 88 32 48 88 32 48 88 32 48 88 32 48 88 32 48 88 32 48 88 32 48 88 32 48 88 32 48 88 32 48 88 32 120 104 32 120 104 32 120 104 32 120 104 32 120 104 32 120 104 32 120 104 32 120 104 32 120 104 32 120 104 32 120 104 32 120 104 32 120 104 32 120 104 32 120 104 32 120 104 32 120 104 32 120 104 32 120 104 32 120 104 32 120 104 32 120 104 32 120 104 32 120 104 32 120 104 32 120 104 32 120 104 32 120 104 32 120 104 32 120 104 32 120 104 32 120 104 32 176 80 32 176 80 32 176 80 32 176 80 32 176 80 32 176 80 32 176 80 32 176 80 32 176 80 32 176 80 32 176 80 32 176 80 32 176 80 32 176 80 32 176 80 32 176 80 32 176 80 32 176 80 32 176 80 32 176 80 32 176 80 32 176 80 32 176 80 32 176 80 32 176 80 32 176 80 32 176 80 32 176 80 32 176 80 32 176 80 32 176 80 32 176 80 32 176 80 32 176 80 32 176 80 32 176 80 32 176 80 32 176 80 32 176 80 32 176 80 32 176 80 32 176 80 32 176 80 32 176 80 32 176 80 32 176 80 32 176 80 32 176 80 32 176 80 32 176 80 32 176 80 32 176 80 32 176 80 32 176 80 32 176 80 32 176 80 32 176 80 32 176 80 32 176 80 32 176 80 32 176 80 32 176 80 32 176 80 32 176 80 32
48 88 32 48 88 32 48 88 32 48 88 32 48 88 32 48 88 32 48 88 32 48 88 32 48 88 32 48 88 32 48 88 32 48 88 32 48 88 32 48 88 32 48 88 32 48 88 32 48 88 32 48 88 32 48 88 32 48 88 32 48 88 32 48 88 32 48 88 32 48 88 32 48 88 32 48 88 32 48 88 32 48 88 32 48 88 32 48 88 32 48 88 32 48 88 32 120 104 32 120 104 32 120 104 32 120 104 32 120 104 32 120 104 32 120 104 32 120 104 32 120 104 32 120 104 32 120 104 32 120 104 32 120 104 32 120 104 32 120 104 32 120 104 32 120 104 32 120 104 32 120 104 32 120 104 32 120 104 32 120 104 32 120 104 32 120 104 32 120 104 32 120 104 32 120 104 32 120 104 32 120 104 32 120 104 32 120 104 32 120 104 32 176 80 32 176 80 32 176 80 32 176 80 32 176 80 32 176 80 32 176 80 32 176 80 32 176 80 32 176 80 32 176 80 32 176 80 32 176 80 32 176 80 32 176 80 32 176 80 32 176 80 32 176 80 32 176 80 32 176 80 32 176 80 32 176 80 32 176 80 32 176 80 32 176 80 32 176 80 32 176 80 32 176 80 32 176 80 32 176 80 32 176 80 32 176 80 32 176 80 32 176 80 32 176 80 32 176 80 32 176 80 32 176 80 32 176 80 32 176 80 32 176 80 32 176 80 32 176 80 32 176 80 32 176 80 32 176 80 32 176 80 32 176 80 32 176 80 32 176 80 32 176 80 32 176 80 32 176 80 32 176 80 32 176 80 32 176 80 32 176 80 32 176 80 32 176 80 32 176 80 32 176 80 32 176 80 32 176 80 32 176 80 32
48 88 32 48 88 32 48 88 32 48 88 32 48 88 32 48 88 32 48 88 32 48 88 32 48 88 32 48 88 32 48 88 32 48 88 32 48 88 32 48 88 32 48 88 32 48 88 32 48 88 32 48 88 32 48 88 32 48 88 32 48 88 32 48 88 32 48 88 32 48 88 32 48 88 32 48 88 32 48 88 32 48 88 32 48 88 32 48 88 32 48 88 32 48 88 32 120 104 32 120 104 32 120 104 32 120 104 32 120 104 32 120 104 32 120 104 32 120 104 32 120 104 32 120 104 32 120 104 32 120 104 32 120 104 32 120 104 32 120 104 32 120 104 32 120 104 32 120 104 32 120 104 32 120 104 32 120 104 32 120 104 32 120 104 32 120 104 32 120 104 32 120 104 32 120 104 32 120 104 32 120 104 32 120 104 32 120 104 32 120 104 32 176 80 32 176 80 32 176 80 32 176 80 32 176 80 32 176 80 32 176 80 32 176 80 32 176 80 32 176 80 32 176 80 32 176 80 32 176 80 32 176 80 32 176 80 32 176 80 32 176 80 32 176 80 32 176 80 32 176 80 32 176 80 32 176 80 32 176 80 32 176 80 32 176 80 32 176 80 32 176 80 32 176 80 32 176 80 32 176 80 32 176 80 32 176 80 32 176 80 32 176 80 32 176 80 32 176 80 32 176 80 32 176 80 32 176 80 32 176 80 32 176 80 32 176 80 32 176 80 32 176 80 32 176 80 32 176 80 32 176 80 32 176 80 32 176 80 32 176 80 32 176 80 32 176 80 32 176 80 32 176 80 32 176 80 32 176 80 32 176 80 32 176 80 32 176 80 32 176 80 32 176 80 32 176 80 32 176 80 32 176 80 32
176 80 32 176 80 32 176 80 32 176 80 32 176 80 32 176 80 32 176 80 32 176 80 32 176 80 32 176 80 32 176 80 32 176 80 32 176 80 32 176 80 32 176 80 32 176 80 32 176 80 32 176 80 32 176 80 32 176 80 32 176 80 32 176 80 32 176 80 32 176 80 32 176 80 32 176 80 32 176 80 32 176 80 32 176 80 32 176 80 32 176 80 32 176 80 32 176 80 32 176 80 32 176 80 32 176 80 32 176 80 32 176 80 32 176 80 32 176 80 32 176 80 32 176 80 32 176 80 32 176 80 32 176 80 32 176 80 32 176 80 32 176 80 32 176 80 32 176 80 32 176 80 32 176 80 32 176 80 32 176 80 32 176 80 32 176 80 32 176 80 32 176 80 32 176 80 32 176 80 32 176 80 32 176 80 32 176 80 32 176 80 32 176 80 160 176 80 160 176 80 160 176 80 160 176 80 160 176 80 160 176 80 160 176 80 160 176 80 160 176 80 160 176 80 160 176 80 160 176 80 160 176 80 160 176 80 160 176 80 160 176 80 160 176 80 160 176 80 160 176 80 160 176 80 160 176 80 160 176 80 160 176 80 160 176 80 160 176 80 160 176 80 160 176 80 160 176 80 160 176 80 160 176 80 160 176 80 160 176 80 160 176 80 160 176 80 160 176 80 160 176 80 160 176 80 160 176 80 160 176 80 160 176 80 160 176 80 160 176 80 160 176 80 160 176 80 160 176 80 160 176 80 160 176 80 160 176 80 160 176 80 160 176 80 160 176 80 160 176 80 160 176 80 160 176 80 160 176 80 160 176 80 160 176 80 160 176 80 160 176 80 160 176 80 160 176 80 160 176 80 160 176 80 160
176 80 32 176 80 32 176 80 32 176 80 32 176 80 32 176 80 32 176 80 32 176 80 32 176 80 32 176 80 32 176 80 32 176 80 32 176 80 32 176 80 32 176 80 32 176 80 32 176 80 32 176 80 32 176 80 32 176 80 32 176 80 32 176 80 32 176 80 32 176 80 32 176 80 32 176 80 32 176 80 32 176 80 32 176 80 32 176 80 32 176 80 32 176 80 32 176 80 32 176 80 32 176 80 32 176 80 32 176 80 32 176 80 32 176 80 32 176 80 32 176 80 32 176 80 32 176 80 32 176 80 32 176 80 32 176 80 32 176 80 32 176 80 32 176 80 32 176 80 32 176 80 32 176 80 32 176 80 32 176 80 32 176 80 32 176 80 32 176 80 32 176 80 32 176 80 32 176 80 32 176 80 32 176 80 32 176 80 32 176 80 32 176 80 160 176 80 160 176 80 160 176 80 160 176 80 160 176 80 160 176 80 160 176 80 160 176 80 160 176 80 160 176 80 160 176 80 160 176 80 160 176 80 160 176 80 160 176 80 160 176 80 160 176 80 160 176 80 160 176 80 160 176 80 160 176 80 160 176 80 160 176 80 160 176 80 160 176 80 160 176 80 160 176 80 160 176 80 160 176 80 160 176 80 160 176 80 160 176 80 160 176 80 160 176 80 160 176 80 160 176 80 160 176 80 160 176 80 160 176 80 160 176 80 160 176 80 160 176 80 160 176 80 160 176 80 160 176 80 160 176 80 160 176 80 160 176 80 160 176 80 160 176 80 160 176 80 160 176 80 160 176 80 160 176 80 160 176 80 160 176 80 160 176 80 160 176 80 160 176 80 160 176 80 160 176 80 160 176 80 160 176 80 160
176 80 32 176 80 32 176 80 32 176 80 32 176 80 32 176 80 32 176 80 32 176 80 32 176 80 32 176 80 32 176 80 32 176 80 32 176 80 32 176 80 32 176 80 32 176 80 32 176 80 32 176 80 32 176 80 32 176 80 32 176 80 32 176 80 32 176 80 32 176 80 32 176 80 32 176 80 32 176 80 32 176 80 32 176 80 32 176 80 32 176 80 32 176 80 32 176 80 32 176 80 32 176 80 32 176 80 32 176 80 32 176 80 32 176 80 32 176 80 32 176 80 32 176 80 32 176 80 32 176 80 32 176 80 32 176 80 32 176 80 32 176 80 32 176 80 32 176 80 32 176 80 32 176 80 32 176 80 32 176 80 32 176 80 32 176 80 32 176 80 32 176 80 32 176 80 32 176 80 32 176 80 32 176 80 32 176 80 32 176 80 32 176 80 160 176 80 160 176 80 160 176 80 160 176 80 160 176 80 160 176 80 160 176 80 160 176 80 160 176 80 160 176 80 160 176 80 160 176 80 160 176 80 160 176 80 160 176 80 160 176 80 160 176 80 160 176 80 160 176 80 160 176 80 160 176 80 160 176 80 160 176 80 160 176 80 160 176 80 160 176 80 160 176 80 160 176 80 160 176 80 160 176 80 160 176 80 160 176 80 160 176 80 160 176 80 160 176 80 160 176 80 160 176 80 160 176 80 160 176 80 160 176 80 160 176 80 160 176 80 160 176 80 160 176 80 160 176 80 160 176 80 160 176 80 160 176 80 160 176 80 160 176 80 160 176 80 160 176 80 160 176 80 160 176 80 160 176 80 160 176 80 160 176 80 160 176 80 160 176 80 160 176 80 160 176 80 160 176 80 160 176 80 160
176 80 32 176 80 32 176 80 32 176 80 32 176 80 32 176 80 32 176 80 32 176 80 32 176 80 32 176 80 32 176 80 32 176 80 32 176 80 32 176 80 32 176 80 32 176 80 32 176 80 32 176 80 32 176 80 32 176 80 32 176 80 32 176 80 32 176 80 32 176 80 32 176 80 32 176 80 32 176 80 32 176 80 32 176 80 32 176 80 32 176 80 32 176 80 32 176 80 32 176 80 32 176 80 32 176 80 32 176 80 32 176 80 32 176 80 32 176 80 32 176 80 32 176 80 32 176 80 32 176 80 32 176 80 32 176 80 32 176 80 32 176 80 32 176 80 32 176 80 32 176 80 32 176 80 32 176 80 32 176 80 32 176 80 32 176 80 32 176 80 32 176 80 32 176 80 32 176 80 32 176 80 32 176 80 32 176 80 32 176 80 32 176 80 160 176 80 160 176 80 160 176 80 160 176 80 160 176 80 160 176 80 160 176 80 160 176 80 160 176 80 160 176 80 160 176 80 160 176 80 160 176 80 160 176 80 160 176 80 160 176 80 160 176 80 160 176 80 160 176 80 160 176 80 160 176 80 160 176 80 160 176 80 160 176 80 160 176 80 160 176 80 160 176 80 160 176 80 160 176 80 160 176 80 160 176 80 160 176 80 160 176 80 160 176 80 160 176 80 160 176 80 160 176 80 160 176 80 160 176 80 160 176 80 160 176 80 160 176 80 160 176 80 160 176 80 160 176 80 160 176 80 160 176 80 160 176 80 160 176 80 160 176 80 160 176 80 160 176 80 160 176 80 160 176 80 160 176 80 160 176 80 160 176 80 160 176 80 160 176 80 160 176 80 160 176 80 160 176 80 160 176 80 160
176 80 32 176 80 32 176 80 32 176 80 32 176 80 32 176 80 32 176 80 32 176 80 32 176 80 32 176 80 32 176 80 32 176 80 32 176 80 32 176 80 32 176 80 32 176 80 32 176 80 32 176 80 32 176 80 32 176 80 32 176 80 32 176 80 32 176 80 32 176 80 32 176 80 32 176 80 32 176 80 32 176 80 32 176 80 32 176 80 32 176 80 32 176 80 32 176 80 32 176 80 32 176 80 32 176 80 32 176 80 32 176 80 32 176 80 32 176 80 32 176 80 32 176 80 32 176 80 32 176 80 32 176 80 32 176 80 32 176 80 32 176 80 32 176 80 32 176 80 32 176 80 32 176 80 32 176 80 32 176 80 32 176 80 32 176 80 32 176 80 32 176 80 32 176 80 32 176 80 32 176 80 32 176 80 32 176 80 32 176 80 32 176 80 160 176 80 160 176 80 160 176 80 160 176 80 160 176 80 160 176 80 160 176 80 160 176 80 160 176 80 160 176 80 160 176 80 160 176 80 160 176 80 160 176 80 160 176 80 160 176 80 160 176 80 160 176 80 160 176 80 160 176 80 160 176 80 160 176 80 160 176 80 160 176 80 160 176 80 160 176 80 160 176 80 160 176 80 160 176 80 160 176 80 160 176 80 160 176 80 160 176 80 160 176 80 160 176 80 160 176 80 160 176 80 160 176 80 160 176 80 160 176 80 160 176 80 160 176 80 160 176 80 160 176 80 160 176 80 160 176 80 160 176 80 160 176 80 160 176 80 160 176 80 160 176 80 160 176 80 160 176 80 160 176 80 160 176 80 160 176 80 160 176 80 160 176 80 160 176 80 160 176 80 160 176 80 160 176 80 160 176 80 160
176 80 32 176 80 32 176 80 32 176 80 32 176 80 32 176 80 32 176 80 32 176 80 32 176 80 32 176 80 32 176 80 32 176 80 32 176 80 32 176 80 32 176 80 32 176 80 32 176 80 32 176 80 32 176 80 32 176 80 32 176 80 32 176 80 32 176 80 32 176 80 32 176 80 32 176 80 32 176 80 32 176 80 32 176 80 32 176 80 32 176 80 32 176 80 32 176 80 32 176 80 32 176 80 32 176 80 32 176 80 32 176 80 32 176 80 32 176 80 32 176 80 32 176 80 32 176 80 32 176 80 32 176 80 32 176 80 32 176 80 32 176 80 32 176 80 32 176 80 32 176 80 32 176 80 32 176 80 32 176 80 32 176 80 32 176 80 32 176 80 32 176 80 32 176 80 32 176 80 32 176 80 32 176 80 32 176 80 32 176 80 32 176 80 160 176 80 160 176 80 160 176 80 160 176 80 160 176 80 160 176 80 160 176 80 160 176 80 160 176 80 160 176 80 160 176 80 160 176 80 160 176 80 160 176 80 160 176 80 160 176 80 160 176 80 160 176 80 160 176 80 160 176 80 160 176 80 160 176 80 160 176 80 160 176 80 160 176 80 160 176 80 160 176 80 160 176 80 160 176 80 160 176 80 160 176 80 160 176 80 160 176 80 160 176 80 160 176 80 160 176 80 160 176 80 160 176 80 160 176 80 160 176 80 160 176 80 160 176 80 160 176 80 160 176 80 160 176 80 160 176 80 160 176 80 160 176 80 160 176 80 160 176 80 160 176 80 160 176 80 160 176 80 160 176 80 160 176 80 160 176 80 160 176 80 160 176 80 160 176 80 160 176 80 160 176 80 160 176 80 160 176 80 160
176 80 32 176 80 32 176 80 32 176 80 32 176 80 32 176 80 32 176 80 32 176 80 32 176 80 32 176 80 32 176 80 32 176 80 32 176 80 32 176 80 32 176 80 32 176 80 32 176 80 32 176 80 32 176 80 32 176 80 32 176 80 32 176 80 32 176 80 32 176 80 32 176 80 32 176 80 32 176 80 32 176 80 32 176 80 32 176 80 32 176 80 32 176 80 32 176 80 32 176 80 32 176 80 32 176 80 32 176 80 32 176 80 32 176 80 32 176 80 32 176 80 32 176 80 32 176 80 32 176 80 32 176 80 32 176 80 32 176 80 32 176 80 32 176 80 32 176 80 32 176 80 32 176 80 32 176 80 32 176 80 32 176 80 32 176 80 32 176 80 32 176 80 32 176 80 32 176 80 32 176 80 32 176 80 32 176 80 32 176 80 32 176 80 160 176 80 160 176 80 160 176 80 160 176 80 160 176 80 160 176 80 160 176 80 160 176 80 160 176 80 160 176 80 160 176 80 160 176 80 160 176 80 160 176 80 160 176 80 160 176 80 160 176 80 160 176 80 160 176 80 160 176 80 160 176 80 160 176 80 160 176 80 160 176 80 160 176 80 160 176 80 160 176 80 160 176 80 160 176 80 160 176 80 160 176 80 160 176 80 160 176 80 160 176 80 160 176 80 160 176 80 160 176 80 160 176 80 160 176 80 160 176 80 160 176 80 160 176 80 160 176 80 160 176 80 160 176 80 160 176 80 160 176 80 160 176 80 160 176 80 160 176 80 160 176 80 160 176 80 160 176 80 160 176 80 160 176 80 160 176 80 160 176 80 160 176 80 160 176 80 160 176 80 160 176 80 160 176 80 160 176 80 160
176 80 32 176 80 32 176 80 32 176 80 32 176 80 32 176 80 32 176 80 32 176 80 32 176 80 32 176 80 32 176 80 32 176 80 32 176 80 32 176 80 32 176 80 32 176 80 32 176 80 32 176 80 32 176 80 32 176 80 32 176 80 32 176 80 32 176 80 32 176 80 32 176 80 32 176 80 32 176 80 32 176 80 32 176 80 32 176 80 32 176 80 32 176 80 32 176 80 32 176 80 32 176 80 32 176 80 32 176 80 32 176 80 32 176 80 32 176 80 32 176 80 32 176 80 32 176 80 32 176 80 32 176 80 32 176 80 32 176 80 32 176 80 32 176 80 32 176 80 32 176 80 32 176 80 32 176 80 32 176 80 32 176 80 32 176 80 32 176 80 32 176 80 32 176 80 32 176 80 32 176 80 32 176 80 32 176 80 32 176 80 32 176 80 160 176 80 160 176 80 160 176 80 160 176 80 160 176 80 160 176 80 160 176 80 160 176 80 160 176 80 160 176 80 160 176 80 160 176 80 160 176 80 160 176 80 160 176 80 160 176 80 160 176 80 160 176 80 160 176 80 160 176 80 160 176 80 160 176 80 160 176 80 160 176 80 160 176 80 160 176 80 160 176 80 160 176 80 160 176 80 160 176 80 160 176 80 160 176 80 160 176 80 160 176 80 160 176 80 160 176 80 160 176 80 160 176 80 160 176 80 160 176 80 160 176 80 160 176 80 160 176 80 160 176 80 160 176 80 160 176 80 160 176 80 160 176 80 160 176 80 160 176 80 160 176 80 160 176 80 160 176 80 160 176 80 160 176 80 160 176 80 160 176 80 160 176 80 160 176 80 160 176 80 160 176 80 160 176 80 160 176 80 160
176 80 32 176 80 32 176 80 32 176 80 32 176 80 32 176 80 32 176 80 32 176 80 32 176 80 32 176 80 32 176 80 32 176 80 32 176 80 32 176 80 32 176 80 32 176 80 32 176 80 32 176 80 32 176 80 32 176 80 32 176 80 32 176 80 32 176 80 32 176 80 32 176 80 32 176 80 32 176 80 32 176 80 32 176 80 32 176 80 32 176 80 32 176 80 32 176 80 32 176 80 32 176 80 32 176 80 32 176 80 32 176 80 32 176 80 32 176 80 32 176 80 32 176 80 32 176 80 32 176 80 32 176 80 32 176 80 32 176 80 32 176 80 32 176 80 32 176 80 32 176 80 32 176 80 32 176 80 32 176 80 32 176 80 32 176 80 32 176 80 32 176 80 32 176 80 32 176 80 32 176 80 32 176 80 32 176 80 32 176 80 32 176 80 160 176 80 160 176 80 160 176 80 160 176 80 160 176 80 160 176 80 160 176 80 160 176 80 160 176 80 160 176 80 160 176 80 160 176 80 160 176 80 160 176 80 160 176 80 160 176 80 160 176 80 160 176 80 160 176 80 160 176 80 160 176 80 160 176 80 160 176 80 160 176 80 160 176 80 160 176 80 160 176 80 160 176 80 160 176 80 160 176 80 160 176 80 160 176 80 160 176 80 160 176 80 160 176 80 160 176 80 160 176 80 160 176 80 160 176 80 160 176 80 160 176 80 160 176 80 160 176 80 160 176 80 160 176 80 160 176 80 160 176 80 160 176 80 160 176 80 160 176 80 160 176 80 160 176 80 160 176 80 160 176 80 160 176 80 160 176 80 160 176 80 160 176 80 160 176 80 160 176 80 160 176 80 160 176 80 160 176 80 160
176 80 32 176 80 32 176 80 32 176 80 32 176 80 32 176 80 32 176 80 32 176 80 32 176 80 32 176 80 32 176 80 32 176 80 32 176 80 32 176 80 32 176 80 32 176 80 32 176 80 32 176 80 32 176 80 32 176 80 32 176 80 32 176 80 32 176 80 32 176 80 32 176 80 32 176 80 32 176 80 32 176 80 32 176 80 32 176 80 32 176 80 32 176 80 32 176 80 32 176 80 32 176 80 32 176 80 32 176 80 32 176 80 32 176 80 32 176 80 32 176 80 32 176 80 32 176 80 32 176 80 32 176 80 32 176 80 32 176 80 32 176 80 32 176 80 32 176 80 32 176 80 32 176 80 32 176 80 32 176 80 32 176 80 32 176 80 32 176 80 32 176 80 32 176 80 32 176 80 32 176 80 32 176 80 32 176 80 32 176 80 32 176 80 160 176 80 160 176 80 160 176 80 160 176 80 160 176 80 160 176 80 160 176 80 160 176 80 160 176 80 160 176 80 160 176 80 160 176 80 160 176 80 160 176 80 160 176 80 160 176 80 160 176 80 160 176 80 160 176 80 160 176 80 160 176 80 160 176 80 160 176 80 160 176 80 160 176 80 160 176 80 160 176 80 160 176 80 160 176 80 160 176 80 160 176 80 160 176 80 160 176 80 160 176 80 160 176 80 160 176 80 160 176 80 160 176 80 160 176 80 160 176 80 160 176 80 160 176 80 160 176 80 160 176 80 160 176 80 160 176 80 160 176 80 160 176 80 160 176 80 160 176 80 160 176 80 160 176 80 160 176 80 160 176 80 160 176 80 160 176 80 160 176 80 160 176 80 160 176 80 160 176 80 160 176 80 160 176 80 160 176 80 160
176 80 32 176 80 32 176 80 32 176 80 32 176 80 32 176 80 32 176 80 32 176 80 32 176 80 32 176 80 32 176 80 32 176 80 32 176 80 32 176 80 32 176 80 32 176 80 32 176 80 32 176 80 32 176 80 32 176 80 32 176 80 32 176 80 32 176 80 32 176 80 32 176 80 32 176 80 32 176 80 32 176 80 32 176 80 32 176 80 32 176 80 32 176 80 32 176 80 32 176 80 32 176 80 32 176 80 32 176 80 32 176 80 32 176 80 32 176 80 32 176 80 32 176 80 32 176 80 32 176 80 32 176 80 32 176 80 32 176 80 32 176 80 32 176 80 32 176 80 32 176 80 32 176 80 32 176 80 32 176 80 32 176 80 32 176 80 32 176 80 32 176 80 32 176 80 32 176 80 32 176 80 32 176 80 32 176 80 32 176 80 32 176 80 160 176 80 160 176 80 160 176 80 160 176 80 160 176 80 160 176 80 160 176 80 160 176 80 160 176 80 160 176 80 160 176 80 160 176 80 160 176 80 160 176 80 160 176 80 160 176 80 160 176 80 160 176 80 160 176 80 160 176 80 160 176 80 160 176 80 160 176 80 160 176 80 160 176 80 160 176 80 160 176 80 160 176 80 160 176 80 160 176 80 160 176 80 160 176 80 160 176 80 160 176 80 160 176 80 160 176 80 160 176 80 160 176 80 160 176 80 160 176 80 160 176 80 160 176 80 160 176 80 160 176 80 160 176 80 160 176 80 160 176 80 160 176 80 160 176 80 160 176 80 160 176 80 160 176 80 160 176 80 160 176 80 160 176 80 160 176 80 160 176 80 160 176 80 160 176 80 160 176 80 160 176 80 160 176 80 160 176 80 160
176 80 32 176 80 32 176 80 32 176 80 32 176 80 32 176 80 32 176 80 32 176 80 32 176 80 32 176 80 32 176 80 32 176 80 32 176 80 32 176 80 32 176 80 32 176 80 32 176 80 32 176 80 32 176 80 32 176 80 32 176 80 32 176 80 32 176 80 32 176 80 32 176 80 32 176 80 32 176 80 32 176 80 32 176 80 32 176 80 32 176 80 32 176 80 32 176 80 32 176 80 32 176 80 32 176 80 32 176 80 32 176 80 32 176 80 32 176 80 32 176 80 32 176 80 32 176 80 32 176 80 32 176 80 32 176 80 32 176 80 32 176 80 32 176 80 32 176 80 32 176 80 32 176 80 32 176 80 32 176 80 32 176 80 32 176 80 32 176 80 32 176 80 32 176 80 32 176 80 32 176 80 32 176 80 32 176 80 32 176 80 32 176 80 160 176 80 160 176 80 160 176 80 160 176 80 160 176 80 160 176 80 160 176 80 160 176 80 160 176 80 160 176 80 160 176 80 160 176 80 160 176 80 160 176 80 160 176 80 160 176 80 160 176 80 160 176 80 160 176 80 160 176 80 160 176 80 160 176 80 160 176 80 160 176 80 160 176 80 160 176 80 160 176 80 160 176 80 160 176 80 160 176 80 160 176 80 160 176 80 160 176 80 160 176 80 160 176 80 160 176 80 160 176 80 160 176 80 160 176 80 160 176 80 160 176 80 160 176 80 160 176 80 160 176 80 160 176 80 160 176 80 160 176 80 160 176 80 160 176 80 160 176 80 160 176 80 160 176 80 160 176 80 160 176 80 160 176 80 160 176 80 160 176 80 160 176 80 160 176 80 160 176 80 160 176 80 160 176 80 160 176 80 160
176 80 32 176 80 32 176 80 32 176 80 32 176 80 32 176 80 32 176 80 32 176 80 32 176 80 32 176 80 32 176 80 32 176 80 32 176 80 32 176 80 32 176 80 32 176 80 32 176 80 32 176 80 32 176 80 32 176 80 32 176 80 32 176 80 32 176 80 32 176 80 32 176 80 32 176 80 32 176 80 32 176 80 32 176 80 32 176 80 32 176 80 32 176 80 32 176 80 32 176 80 32 176 80 32 176 80 32 176 80 32 176 80 32 176 80 32 176 80 32 176 80 32 176 80 32 176 80 32 176 80 32 176 80 32 176 80 32 176 80 32 176 80 32 176 80 32 176 80 32 176 80 32 176 80 32 176 80 32 176 80 32 176 80 32 176 80 32 176 80 32 176 80 32 176 80 32 176 80 32 176 80 32 176 80 32 176 80 32 176 80 32 176 80 160 176 80 160 176 80 160 176 80 160 176 80 160 176 80 160 176 80 160 176 80 160 176 80 160 176 80 160 176 80 160 176 80 160 176 80 160 176 80 160 176 80 160 176 80 160 176 80 160 176 80 160 176 80 160 176 80 160 176 80 160 176 80 160 176 80 160 176 80 160 176 80 160 176 80 160 176 80 160 176 80 160 176 80 160 176 80 160 176 80 160 176 80 160 176 80 160 176 80 160 176 80 160 176 80 160 176 80 160 176 80 160 176 80 160 176 80 160 176 80 160 176 80 160 176 80 160 176 80 160 176 80 160 176 80 160 176 80 160 176 80 160 176 80 160 176 80 160 176 80 160 176 80 160 176 80 160 176 80 160 176 80 160 176 80 160 176 80 160 176 80 160 176 80 160 176 80 160 176 80 160 176 80 160 176 80 160 176 80 160
176 80 32 176 80 32 176 80 32 176 80 32 176 80 32 176 80 32 176 80 32 176 80 32 176 80 32 176 80 32 176 80 32 176 80 32 176 80 32 176 80 32 176 80 32 176 80 32 176 80 32 176 80 32 176 80 32 176 80 32 176 80 32 176 80 32 176 80 32 176 80 32 176 80 32 176 80 32 176 80 32 176 80 32 176 80 32 176 80 32 176 80 32 176 80 32 176 80 32 176 80 32 176 80 32 176 80 32 176 80 32 176 80 32 176 80 32 176 80 32 176 80 32 176 80 32 176 80 32 176 80 32 176 80 32 176 80 32 176 80 32 176 80 32 176 80 32 176 80 32 176 80 32 176 80 32 176 80 32 176 80 32 176 80 32 176 80 32 176 80 32 176 80 32 176 80 32 176 80 32 176 80 32 176 80 32 176 80 32 176 80 32 176 80 160 176 80 160 176 80 160 176 80 160 176 80 160 176 80 160 176 80 160 176 80 160 176 80 160 176 80 160 176 80 160 176 80 160 176 80 160 176 80 160 176 80 160 176 80 160 176 80 160 176 80 160 176 80 160 176 80 160 176 80 160 176 80 160 176 80 160 176 80 160 176 80 160 176 80 160 176 80 160 176 80 160 176 80 160 176 80 160 176 80 160 176 80 160 176 80 160 176 80 160 176 80 160 176 80 160 176 80 160 176 80 160 176 80 160 176 80 160 176 80 160 176 80 160 176 80 160 176 80 160 176 80 160 176 80 160 176 80 160 176 80 160 176 80 160 176 80 160 176 80 160 176 80 160 176 80 160 176 80 160 176 80 160 176 80 160 176 80 160 176 80 160 176 80 160 176 80 160 176 80 160 176 80 160 176 80 160 176 80 160
176 80 32 176 80 32 176 80 32 176 80 32 176 80 32 176 80 32 176 80 32 176 80 32 176 80 32 176 80 32 176 80 32 176 80 32 176 80 32 176 80 32 176 80 32 176 80 32 176 80 32 176 80 32 176 80 32 176 80 32 176 80 32 176 80 32 176 80 32 176 80 32 176 80 32 176 80 32 176 80 32 176 80 32 176 80 32 176 80 32 176 80 32 176 80 32 176 80 32 176 80 32 176 80 32 176 80 32 176 80 32 176 80 32 176 80 32 176 80 32 176 80 32 176 80 32 176 80 32 176 80 32 176 80 32 176 80 32 176 80 32 176 80 32 176 80 32 176 80 32 176 80 32 176 80 32 176 80 32 176 80 32 176 80 32 176 80 32 176 80 32 176 80 32 176 80 32 176 80 32 176 80 32 176 80 32 176 80 32 176 80 32 176 80 160 176 80 160 176 80 160 176 80 160 176 80 160 176 80 160 176 80 160 176 80 160 176 80 160 176 80 160 176 80 160 176 80 160 176 80 160 176 80 160 176 80 160 176 80 160 176 80 160 176 80 160 176 80 160 176 80 160 176 80 160 176 80 160 176 80 160 176 80 160 176 80 160 176 80 160 176 80 160 176 80 160 176 80 160 176 80 160 176 80 160 176 80 160 176 80 160 176 80 160 176 80 160 176 80 160 176 80 160 176 80 160 176 80 160 176 80 160 176 80 160 176 80 160 176 80 160 176 80 160 176 80 160 176 80 160 176 80 160 176 80 160 176 80 160 176 80 160 176 80 160 176 80 160 176 80 160 176 80 160 176 80 160 176 80 160 176 80 160 176 80 160 176 80 160 176 80 160 176 80 160 176 80 160 176 80 160 176 80 160
176 80 32 176 80 32 176 80 32 176 80 32 176 80 32 176 80 32 176 80 32 176 80 32 176 80 32 176 80 32 176 80 32 176 80 32 176 80 32 176 80 32 176 80 32 176 80 32 176 80 32 176 80 32 176 80 32 176 80 32 176 80 32 176 80 32 176 80 32 176 80 32 176 80 32 176 80 32 176 80 32 176 80 32 176 80 32 176 80 32 176 80 32 176 80 32 176 80 32 176 80 32 176 80 32 176 80 32 176 80 32 176 80 32 176 80 32 176 80 32 176 80 32 176 80 32 176 80 32 176 80 32 176 80 32 176 80 32 176 80 32 176 80 32 176 80 32 176 80 32 176 80 32 176 80 32 176 80 32 176 80 32 176 80 32 176 80 32 176 80 32 176 80 32 176 80 32 176 80 32 176 80 32 176 80 32 176 80 32 176 80 32 176 80 160 176 80 160 176 80 160 176 80 160 176 80 160 176 80 160 176 80 160 176 80 160 176 80 160 176 80 160 176 80 160 176 80 160 176 80 160 176 80 160 176 80 160 176 80 160 176 80 160 176 80 160 176 80 160 176 80 160 176 80 160 176 80 160 176 80 160 176 80 160 176 80 160 176 80 160 176 80 160 176 80 160 176 80 160 176 80 160 176 80 160 176 80 160 176 80 160 176 80 160 176 80 160 176 80 160 176 80 160 176 80 160 176 80 160 176 80 160 176 80 160 176 80 160 176 80 160 176 80 160 176 80 160 176 80 160 176 80 160 176 80 160 176 80 160 176 80 160 176 80 160 176 80 160 176 80 160 176 80 160 176 80 160 176 80 160 176 80 160 176 80 160 176 80 160 176 80 160 176 80 160 176 80 160 176 80 160 176 80 160
176 80 32 176 80 32 176 80 32 176 80 32 176 80 32 176 80 32 176 80 32 176 80 32 176 80 32 176 80 32 176 80 32 176 80 32 176 80 32 176 80 32 176 80 32 176 80 32 176 80 32 176 80 32 176 80 32 176 80 32 176 80 32 176 80 32 176 80 32 176 80 32 176 80 32 176 80 32 176 80 32 176 80 32 176 80 32 176 80 32 176 80 32 176 80 32 176 80 32 176 80 32 176 80 32 176 80 32 176 80 32 176 80 32 176 80 32 176 80 32 176 80 32 176 80 32 176 80 32 176 80 32 176 80 32 176 80 32 176 80 32 176 80 32 176 80 32 176 80 32 176 80 32 176 80 32 176 80 32 176 80 32 176 80 32 176 80 32 176 80 32 176 80 32 176 80 32 176 80 32 176 80 32 176 80 32 176 80 32 176 80 32 176 80 160 176 80 160 176 80 160 176 80 160 176 80 160 176 80 160 176 80 160 176 80 160 176 80 160 176 80 160 176 80 160 176 80 160 176 80 160 176 80 160 176 80 160 176 80 160 176 80 160 176 80 160 176 80 160 176 80 160 176 80 160 176 80 160 176 80 160 176 80 160 176 80 160 176 80 160 176 80 160 176 80 160 176 80 160 176 80 160 176 80 160 176 80 160 176 80 160 176 80 160 176 80 160 176 80 160 176 80 160 176 80 160 176 80 160 176 80 160 176 80 160 176 80 160 176 80 160 176 80 160 176 80 160 176 80 160 176 80 160 176 80 160 176 80 160 176 80 160 176 80 160 176 80 160 176 80 160 176 80 160 176 80 160 176 80 160 176 80 160 176 80 160 176 80 160 176 80 160 176 80 160 176 80 160 176 80 160 176 80 160
176 80 32 176 80 32 176 80 32 176 80 32 176 80 32 176 80 32 176 80 32 176 80 32 176 80 32 176 80 32 176 80 32 176 80 32 176 80 32 176 80 32 176 80 32 176 80 32 176 80 32 176 80 32 176 80 32 176 80 32 176 80 32 176 80 32 176 80 32 176 80 32 176 80 32 176 80 32 176 80 32 176 80 32 176 80 32 176 80 32 176 80 32 176 80 32 176 80 32 176 80 32 176 80 32 176 80 32 176 80 32 176 80 32 176 80 32 176 80 32 176 80 32 176 80 32 176 80 32 176 80 32 176 80 32 176 80 32 176 80 32 176 80 32 176 80 32 176 80 32 176 80 32 176 80 32 176 80 32 176 80 32 176 80 32 176 80 32 176 80 32 176 80 32 176 80 32 176 80 32 176 80 32 176 80 32 176 80 32 176 80 32 176 80 160 176 80 160 176 80 160 176 80 160 176 80 160 176 80 160 176 80 160 176 80 160 176 80 160 176 80 160 176 80 160 176 80 160 176 80 160 176 80 160 176 80 160 176 80 160 176 80 160 176 80 160 176 80 160 176 80 160 176 80 160 176 80 160 176 80 160 176 80 160 176 80 160 176 80 160 176 80 160 176 80 160 176 80 160 176 80 160 176 80 160 176 80 160 176 80 160 176 80 160 176 80 160 176 80 160 176 80 160 176 80 160 176 80 160 176 80 160 176 80 160 176 80 160 176 80 160 176 80 160 176 80 160 176 80 160 176 80 160 176 80 160 176 80 160 176 80 160 176 80 160 176 80 160 176 80 160 176 80 160 176 80 160 176 80 160 176 80 160 176 80 160 176 80 160 176 80 160 176 80 160 176 80 160 176 80 160 176 80 160
176 80 32 176 80 32 176 80 32 176 80 32 176 80 32 176 80 32 176 80 32 176 80 32 176 80 32 176 80 32 176 80 32 176 80 32 176 80 32 176 80 32 176 80 32 176 80 32 176 80 32 176 80 32 176 80 32 176 80 32 176 80 32 176 80 32 176 80 32 176 80 32 176 80 32 176 80 32 176 80 32 176 80 32 176 80 32 176 80 32 176 80 32 176 80 32 176 80 32 176 80 32 176 80 32 176 80 32 176 80 32 176 80 32 176 80 32 176 80 32 176 80 32 176 80 32 176 80 32 176 80 32 176 80 32 176 80 32 176 80 32 176 80 32 176 80 32 176 80 32 176 80 32 176 80 32 176 80 32 176 80 32 176 80 32 176 80 32 176 80 32 176 80 32 176 80 32 176 80 32 176 80 32 176 80 32 176 80 32 176 80 32 176 80 160 176 80 160 176 80 160 176 80 160 176 80 160 176 80 160 176 80 160 176 80 160 176 80 160 176 80 160 176 80 160 176 80 160 176 80 160 176 80 160 176 80 160 176 80 160 176 80 160 176 80 160 176 80 160 176 80 160 176 80 160 176 80 160 176 80 160 176 80 160 176 80 160 176 80 160 176 80 160 176 80 160 176 80 160 176 80 160 176 80 160 176 80 160 176 80 160 176 80 160 176 80 160 176 80 160 176 80 160 176 80 160 176 80 160 176 80 160 176 80 160 176 80 160 176 80 160 176 80 160 176 80 160 176 80 160 176 80 160 176 80 160 176 80 160 176 80 160 176 80 160 176 80 160 176 80 160 176 80 160 176 80 160 176 80 160 176 80 160 176 80 160 176 80 160 176 80 160 176 80 160 176 80 160 176 80 160 176 80 160
176 80 32 176 80 32 176 80 32 176 80 32 176 80 32 176 80 32 176 80 32 176 80 32 176 80 32 176 80 32 176 80 32 176 80 32 176 80 32 176 80 32 176 80 32 176 80 32 176 80 32 176 80 32 176 80 32 176 80 32 176 80 32 176 80 32 176 80 32 176 80 32 176 80 32 176 80 32 176 80 32 176 80 32 176 80 32 176 80 32 176 80 32 176 80 32 176 80 32 176 80 32 176 80 32 176 80 32 176 80 32 176 80 32 176 80 32 176 80 32 176 80 32 176 80 32 176 80 32 176 80 32 176 80 32 176 80 32 176 80 32 176 80 32 176 80 32 176 80 32 176 80 32 176 80 32 176 80 32 176 80 32 176 80 32 176 80 32 176 80 32 176 80 32 176 80 32 176 80 32 176 80 32 176 80 32 176 80 32 176 80 32 176 80 160 176 80 160 176 80 160 176 80 160 176 80 160 176 80 160 176 80 160 176 80 160 176 80 160 176 80 160 176 80 160 176 80 160 176 80 160 176 80 160 176 80 160 176 80 160 176 80 160 176 80 160 176 80 160 176 80 160 176 80 160 176 80 160 176 80 160 176 80 160 176 80 160 176 80 160 176 80 160 176 80 160 176 80 160 176 80 160 176 80 160 176 80 160 176 80 160 176 80 160 176 80 160 176 80 160 176 80 160 176 80 160 176 80 160 176 80 160 176 80 160 176 80 160 176 80 160 176 80 160 176 80 160 176 80 160 176 80 160 176 80 160 176 80 160 176 80 160 176 80 160 176 80 160 176 80 160 176 80 160 176 80 160 176 80 160 176 80 160 176 80 160 176 80 160 176 80 160 176 80 160 176 80 160 176 80 160 176 80 160
176 80 32 176 80 32 176 80 32 176 80 32 176 80 32 176 80 32 176 80 32 176 80 32 176 80 32 176 80 32 176 80 32 176 80 32 176 80 32 176 80 32 176 80 32 176 80 32 176 80 32 176 80 32 176 80 32 176 80 32 176 80 32 176 80 32 176 80 32 176 80 32 176 80 32 176 80 32 176 80 32 176 80 32 176 80 32 176 80 32 176 80 32 176 80 32 176 80 32 176 80 32 176 80 32 176 80 32 176 80 32 176 80 32 176 80 32 176 80 32 176 80 32 176 80 32 176 80 32 176 80 32 176 80 32 176 80 32 176 80 32 176 80 32 176 80 32 176 80 32 176 80 32 176 80 32 176 80 32 176 80 32 176 80 32 176 80 32 176 80 32 176 80 32 176 80 32 176 80 32 176 80 32 176 80 32 176 80 32 176 80 32 176 80 160 176 80 160 176 80 160 176 80 160 176 80 160 176 80 160 176 80 160 176 80 160 176 80 160 176 80 160 176 80 160 176 80 160 176 80 160 176 80 160 176 80 160 176 80 160 176 80 160 176 80 160 176 80 160 176 80 160 176 80 160 176 80 160 176 80 160 176 80 160 176 80 160 176 80 160 176 80 160 176 80 160 176 80 160 176 80 160 176 80 160 176 80 160 176 80 160 176 80 160 176 80 160 176 80 160 176 80 160 176 80 160 176 80 160 176 80 160 176 80 160 176 80 160 176 80 160 176 80 160 176 80 160 176 80 160 176 80 160 176 80 160 176 80 160 176 80 160 176 80 160 176 80 160 176 80 160 176 80 160 176 80 160 176 80 160 176 80 160 176 80 160 176 80 160 176 80 160 176 80 160 176 80 160 176 80 160 176 80 160
176 80 32 176 80 32 176 80 32 176 80 32 176 80 32 176 80 32 176 80 32 176 80 32 176 80 32 176 80 32 176 80 32 176 80 32 176 80 32 176 80 32 176 80 32 176 80 32 176 80 32 176 80 32 176 80 32 176 80 32 176 80 32 176 80 32 176 80 32 176 80 32 176 80 32 176 80 32 176 80 32 176 80 32 176 80 32 176 80 32 176 80 32 176 80 32 176 80 32 176 80 32 176 80 32 176 80 32 176 80 32 176 80 32 176 80 32 176 80 32 176 80 32 176 80 32 176 80 32 176 80 32 176 80 32 176 80 32 176 80 32 176 80 32 176 80 32 176 80 32 176 80 32 176 80 32 176 80 32 176 80 32 176 80 32 176 80 32 176 80 32 176 80 32 176 80 32 176 80 32 176 80 32 176 80 32 176 80 32 176 80 32 176 80 160 176 80 160 176 80 160 176 80 160 176 80 160 176 80 160 176 80 160 176 80 160 176 80 160 176 80 160 176 80 160 176 80 160 176 80 160 176 80 160 176 80 160 176 80 160 176 80 160 176 80 160 176 80 160 176 80 160 176 80 160 176 80 160 176 80 160 176 80 160 176 80 160 176 80 160 176 80 160 176 80 160 176 80 160 176 80 160 176 80 160 176 80 160 176 80 160 176 80 160 176 80 160 176 80 160 176 80 160 176 80 160 176 80 160 176 80 160 176 80 160 176 80 160 176 80 160 176 80 160 176 80 160 176 80 160 176 80 160 176 80 160 176 80 160 176 80 160 176 80 160 176 80 160 176 80 160 176 80 160 176 80 160 176 80 160 176 80 160 176 80 160 176 80 160 176 80 160 176 80 160 176 80 160 176 80 160 176 80 160
176 80 32 176 80 32 176 80 32 176 80 32 176 80 32 176 80 32 176 80 32 176 80 32 176 80 32 176 80 32 176 80 32 176 80 32 176 80 32 176 80 32 176 80 32 176 80 32 176 80 32 176 80 32 176 80 32 176 80 32 176 80 32 176 80 32 176 80 32 176 80 32 176 80 32 176 80 32 176 80 32 176 80 32 176 80 32 176 80 32 176 80 32 176 80 32 176 80 32 176 80 32 176 80 32 176 80 32 176 80 32 176 80 32 176 80 32 176 80 32 176 80 32 176 80 32 176 80 32 176 80 32 176 80 32 176 80 32 176 80 32 176 80 32 176 80 32 176 80 32 176 80 32 176 80 32 176 80 32 176 80 32 176 80 32 176 80 32 176 80 32 176 80 32 176 80 32 176 80 32 176 80 32 176 80 32 176 80 32 176 80 32 176 80 160 176 80 160 176 80 160 176 80 160 176 80 160 176 80 160 176 80 160 176 80 160 176 80 160 176 80 160 176 80 160 176 80 160 176 80 160 176 80 160 176 80 160 176 80 160 176 80 160 176 80 160 176 80 160 176 80 160 176 80 160 176 80 160 176 80 160 176 80 160 176 80 160 176 80 160 176 80 160 176 80 160 176 80 160 176 80 160 176 80 160 176 80 160 176 80 160 176 80 160 176 80 160 176 80 160 176 80 160 176 80 160 176 80 160 176 80 160 176 80 160 176 80 160 176 80 160 176 80 160 176 80 160 176 80 160 176 80 160 176 80 160 176 80 160 176 80 160 176 80 160 176 80 160 176 80 160 176 80 160 176 80 160 176 80 160 176 80 160 176 80 160 176 80 160 176 80 160 176 80 160 176 80 160 176 80 160 176 80 160
176 80 32 176 80 32 176 80 32 176 80 32 176 80 32 176 80 32 176 80 32 176 80 32 176 80 32 176 80 32 176 80 32 176 80 32 176 80 32 176 80 32 176 80 32 176 80 32 176 80 32 176 80 32 176 80 32 176 80 32 176 80 32 176 80 32 176 80 32 176 80 32 176 80 32 176 80 32 176 80 32 176 80 32 176 80 32 176 80 32 176 80 32 176 80 32 176 80 32 176 80 32 176 80 32 176 80 32 176 80 32 176 80 32 176 80 32 176 80 32 176 80 32 176 80 32 176 80 32 176 80 32 176 80 32 176 80 32 176 80 32 176 80 32 176 80 32 176 80 32 176 80 32 176 80 32 176 80 32 176 80 32 176 80 32 176 80 32 176 80 32 176 80 32 176 80 32 176 80 32 176 80 32 176 80 32 176 80 32 176 80 32 176 80 160 176 80 160 176 80 160 176 80 160 176 80 160 176 80 160 176 80 160 176 80 160 176 80 160 176 80 160 176 80 160 176 80 160 176 80 160 176 80 160 176 80 160 176 80 160 176 80 160 176 80 160 176 80 160 176 80 160 176 80 160 176 80 160 176 80 160 176 80 160 176 80 160 176 80 160 176 80 160 176 80 160 176 80 160 176 80 160 176 80 160 176 80 160 176 80 160 176 80 160 176 80 160 176 80 160 176 80 160 176 80 160 176 80 160 176 80 160 176 80 160 176 80 160 176 80 160 176 80 160 176 80 160 176 80 160 176 80 160 176 80 160 176 80 160 176 80 160 176 80 160 176 80 160 176 80 160 176 80 160 176 80 160 176 80 160 176 80 160 176 80 160 176 80 160 176 80 160 176 80 160 176 80 160 176 80 160 176 80 160
176 80 32 176 80 32 176 80 32 176 80 32 176 80 32 176 80 32 176 80 32 176 80 32 176 80 32 176 80 32 176 80 32 176 80 32 176 80 32 176 80 32 176 80 32 176 80 32 176 80 32 176 80 32 176 80 32 176 80 32 176 80 32 176 80 32 176 80 32 176 80 32 176 80 32 176 80 32 176 80 32 176 80 32 176 80 32 176 80 32 176 80 32 176 80 32 176 80 32 176 80 32 176 80 32 176 80 32 176 80 32 176 80 32 176 80 32 176 80 32 176 80 32 176 80 32 176 80 32 176 80 32 176 80 32 176 80 32 176 80 32 176 80 32 176 80 32 176 80 32 176 80 32 176 80 32 176 80 32 176 80 32 176 80 32 176 80 32 176 80 32 176 80 32 176 80 32 176 80 32 176 80 32 176 80 32 176 80 32 176 80 32 176 80 160 176 80 160 176 80 160 176 80 160 176 80 160 176 80 160 176 80 160 176 80 160 176 80 160 176 80 160 176 80 160 176 80 160 176 80 160 176 80 160 176 80 160 176 80 160 176 80 160 176 80 160 176 80 160 176 80 160 176 80 160 176 80 160 176 80 160 176 80 160 176 80 160 176 80 160 176 80 160 176 80 160 176 80 160 176 80 160 176 80 160 176 80 160 176 80 160 176 80 160 176 80 160 176 80 160 176 80 160 176 80 160 176 80 160 176 80 160 176 80 160 176 80 160 176 80 160 176 80 160 176 80 160 176 80 160 176 80 160 176 80 160 176 80 160 176 80 160 176 80 160 176 80 160 176 80 160 176 80 160 176 80 160 176 80 160 176 80 160 176 80 160 176 80 160 176 80 160 176 80 160 176 80 160 176 80 160 176 80 160
176 80 32 176 80 32 176 80 32 176 80 32 176 80 32 176 80 32 176 80 32 176 80 32 176 80 32 176 80 32 176 80 32 176 80 32 176 80 32 176 80 32 176 80 32 176 80 32 176 80 32 176 80 32 176 80 32 176 80 32 176 80 32 176 80 32 176 80 32 176 80 32 176 80 32 176 80 32 176 80 32 176 80 32 176 80 32 176 80 32 176 80 32 176 80 32 176 80 32 176 80 32 176 80 32 176 80 32 176 80 32 176 80 32 176 80 32 176 80 32 176 80 32 176 80 32 176 80 32 176 80 32 176 80 32 176 80 32 176 80 32 176 80 32 176 80 32 176 80 32 176 80 32 176 80 32 176 80 32 176 80 32 176 80 32 176 80 32 176 80 32 176 80 32 176 80 32 176 80 32 176 80 32 176 80 32 176 80 32 176 80 32 176 80 160 176 80 160 176 80 160 176 80 160 176 80 160 176 80 160 176 80 160 176 80 160 176 80 160 176 80 160 176 80 160 176 80 160 176 80 160 176 80 160 176 80 160 176 80 160 176 80 160 176 80 160 176 80 160 176 80 160 176 80 160 176 80 160 176 80 160 176 80 160 176 80 160 176 80 160 176 80 160 176 80 160 176 80 160 176 80 160 176 80 160 176 80 160 176 80 160 176 80 160 176 80 160 176 80 160 176 80 160 176 80 160 176 80 160 176 80 160 176 80 160 176 80 160 176 80 160 176 80 160 176 80 160 176 80 160 176 80 160 176 80 160 176 80 160 176 80 160 176 80 160 176 80 160 176 80 160 176 80 160 176 80 160 176 80 160 176 80 160 176 80 160 176 80 160 176 80 160 176 80 160 176 80 160 176 80 160 176 80 160
176 80 32 176 80 32 176 80 32 176 80 32 176 80 32 176 80 32 176 80 32 176 80 32 176 80 32 176 80 32 176 80 32 176 80 32 176 80 32 176 80 32 176 80 32 176 80 32 176 80 32 176 80 32 176 80 32 176 80 32 176 80 32 176 80 32 176 80 32 176 80 32 176 80 32 176 80 32 176 80 32 176 80 32 176 80 32 176 80 32 176 80 32 176 80 32 176 80 32 176 80 32 176 80 32 176 80 32 176 80 32 176 80 32 176 80 32 176 80 32 176 80 32 176 80 32 176 80 32 176 80 32 176 80 32 176 80 32 176 80 32 176 80 32 176 80 32 176 80 32 176 80 32 176 80 32 176 80 32 176 80 32 176 80 32 176 80 32 176 80 32 176 80 32 176 80 32 176 80 32 176 80 32 176 80 32 176 80 32 176 80 32 176 80 160 176 80 160 176 80 160 176 80 160 176 80 160 176 80 160 176 80 160 176 80 160 176 80 160 176 80 160 176 80 160 176 80 160 176 80 160 176 80 160 176 80 160 176 80 160 176 80 160 176 80 160 176 80 160 176 80 160 176 80 160 176 80 160 176 80 160 176 80 160 176 80 160 176 80 160 176 80 160 176 80 160 176 80 160 176 80 160 176 80 160 176 80 160 176 80 160 176 80 160 176 80 160 176 80 160 176 80 160 176 80 160 176 80 160 176 80 160 176 80 160 176 80 160 176 80 160 176 80 160 176 80 160 176 80 160 176 80 160 176 80 160 176 80 160 176 80 160 176 80 160 176 80 160 176 80 160 176 80 160 176 80 160 176 80 160 176 80 160 176 80 160 176 80 160 176 80 160 176 80 160 176 80 160 176 80 160 176 80 160
176 80 32 176 80 32 176 80 32 176 80 32 176 80 32 176 80 32 176 80 32 176 80 32 176 80 32 176 80 32 176 80 32 176 80 32 176 80 32 176 80 32 176 80 32 176 80 32 176 80 32 176 80 32 176 80 32 176 80 32 176 80 32 176 80 32 176 80 32 176 80 32 176 80 32 176 80 32 176 80 32 176 80 32 176 80 32 176 80 32 176 80 32 176 80 32 176 80 32 176 80 32 176 80 32 176 80 32 176 80 32 176 80 32 176 80 32 176 80 32 176 80 32 176 80 32 176 80 32 176 80 32 176 80 32 176 80 32 176 80 32 176 80 32 176 80 32 176 80 32 176 80 32 176 80 32 176 80 32 176 80 32 176 80 32 176 80 32 176 80 32 176 80 32 176 80 32 176 80 32 176 80 32 176 80 32 176 80 32 176 80 32 176 80 160 176 80 160 176 80 160 176 80 160 176 80 160 176 80 160 176 80 160 176 80 160 176 80 160 176 80 160 176 80 160 176 80 160 176 80 160 176 80 160 176 80 160 176 80 160 176 80 160 176 80 160 176 80 160 176 80 160 176 80 160 176 80 160 176 80 160 176 80 160 176 80 160 176 80 160 176 80 160 176 80 160 176 80 160 176 80 160 176 80 160 176 80 160 176 80 160 176 80 160 176 80 160 176 80 160 176 80 160 176 80 160 176 80 160 176 80 160 176 80 160 176 80 160 176 80 160 176 80 160 176 80 160 176 80 160 176 80 160 176 80 160 176 80 160 176 80 160 176 80 160 176 80 160 176 80 160 176 80 160 176 80 160 176 80 160 176 80 160 176 80 160 176 80 160 176 80 160 176 80 160 176 80 160 176 80 160 176 80 160
176 80 32 176 80 32 176 80 32 176 80 32 176 80 32 176 80 32 176 80 32 176 80 32 176 80 32 176 80 32 176 80 32 176 80 32 176 80 32 176 80 32 176 80 32 176 80 32 176 80 32 176 80 32 176 80 32 176 80 32 176 80 32 176 80 32 176 80 32 176 80 32 176 80 32 176 80 32 176 80 32 176 80 32 176 80 32 176 80 32 176 80 32 176 80 32 176 80 32 176 80 32 176 80 32 176 80 32 176 80 32 176 80 32 176 80 32 176 80 32 176 80 32 176 80 32 176 80 32 176 80 32 176 80 32 176 80 32 176 80 32 176 80 32 176 80 32 176 80 32 176 80 32 176 80 32 176 80 32 176 80 32 176 80 32 176 80 32 176 80 32 176 80 32 176 80 32 176 80 32 176 80 32 176 80 32 176 80 32 176 80 32 176 80 160 176 80 160 176 80 160 176 80 160 176 80 160 176 80 160 176 80 160 176 80 160 176 80 160 176 80 160 176 80 160 176 80 160 176 80 160 176 80 160 176 80 160 176 80 160 176 80 160 176 80 160 176 80 160 176 80 160 176 80 160 176 80 160 176 80 160 176 80 160 176 80 160 176 80 160 176 80 160 176 80 160 176 80 160 176 80 160 176 80 160 176 80 160 176 80 160 176 80 160 176 80 160 176 80 160 176 80 160 176 80 160 176 80 160 176 80 160 176 80 160 176 80 160 176 80 160 176 80 160 176 80 160 176 80 160 176 80 160 176 80 160 176 80 160 176 80 160 176 80 160 176 80 160 176 80 160 176 80 160 176 80 160 176 80 160 176 80 160 176 80 160 176 80 160 176 80 160 176 80 160 176 80 160 176 80 160 176 80 160
176 80 32 176 80 32 176 80 32 176 80 32 176 80 32 176 80 32 176 80 32 176 80 32 176 80 32 176 80 32 176 80 32 176 80 32 176 80 32 176 80 32 176 80 32 176 80 32 176 80 32 176 80 32 176 80 32 176 80 32 176 80 32 176 80 32 176 80 32 176 80 32 176 80 32 176 80 32 176 80 32 176 80 32 176 80 32 176 80 32 176 80 32 176 80 32 176 80 32 176 80 32 176 80 32 176 80 32 176 80 32 176 80 32 176 80 32 176 80 32 176 80 32 176 80 32 176 80 32 176 80 32 176 80 32 176 80 32 176 80 32 176 80 32 176 80 32 176 80 32 176 80 32 176 80 32 176 80 32 176 80 32 176 80 32 176 80 32 176 80 32 176 80 32 176 80 32 176 80 32 176 80 32 176 80 32 176 80 32 176 80 32 176 80 160 176 80 160 176 80 160 176 80 160 176 80 160 176 80 160 176 80 160 176 80 160 176 80 160 176 80 160 176 80 160 176 80 160 176 80 160 176 80 160 176 80 160 176 80 160 176 80 160 176 80 160 176 80 160 176 80 160 176 80 160 176 80 160 176 80 160 176 80 160 176 80 160 176 80 160 176 80 160 176 80 160 176 80 160 176 80 160 176 80 160 176 80 160 176 80 160 176 80 160 176 80 160 176 80 160 176 80 160 176 80 160 176 80 160 176 80 160 176 80 160 176 80 160 176 80 160 176 80 160 176 80 160 176 80 160 176 80 160 176 80 160 176 80 160 176 80 160 176 80 160 176 80 160 176 80 160 176 80 160 176 80 160 176 80 160 176 80 160 176 80 160 176 80 160 176 80 160 176 80 160 176 80 160 176 80 160 176 80 160
176 80 32 176 80 32 176 80 32 176 80 32 176 80 32 176 80 32 176 80 32 176 80 32 176 80 32 176 80 32 176 80 32 176 80 32 176 80 32 176 80 32 176 80 32 176 80 32 176 80 32 176 80 32 176 80 32 176 80 32 176 80 32 176 80 32 176 80 32 176 80 32 176 80 32 176 80 32 176 80 32 176 80 32 176 80 32 176 80 32 176 80 32 176 80 32 176 80 32 176 80 32 176 80 32 176 80 32 176 80 32 176 80 32 176 80 32 176 80 32 176 80 32 176 80 32 176 80 32 176 80 32 176 80 32 176 80 32 176 80 32 176 80 32 176 80 32 176 80 32 176 80 32 176 80 32 176 80 32 176 80 32 176 80 32 176 80 32 176 80 32 176 80 32 176 80 32 176 80 32 176 80 32 176 80 32 176 80 32 176 80 32 176 80 160 176 80 160 176 80 160 176 80 160 176 80 160 176 80 160 176 80 160 176 80 160 176 80 160 176 80 160 176 80 160 176 80 160 176 80 160 176 80 160 176 80 160 176 80 160 176 80 160 176 80 160 176 80 160 176 80 160 176 80 160 176 80 160 176 80 160 176 80 160 176 80 160 176 80 160 176 80 160 176 80 160 176 80 160 176 80 160 176 80 160 176 80 160 176 80 160 176 80 160 176 80 160 176 80 160 176 80 160 176 80 160 176 80 160 176 80 160 176 80 160 176 80 160 176 80 160 176 80 160 176 80 160 176 80 160 176 80 160 176 80 160 176 80 160 176 80 160 176 80 160 176 80 160 176 80 160 176 80 160 176 80 160 176 80 160 176 80 160 176 80 160 176 80 160 176 80 160 176 80 160 176 80 160 176 80 160 176 80 160
176 80 32 176 80 32 176 80 32 176 80 32 176 80 32 176 80 32 176 80 32 176 80 32 176 80 32 176 80 32 176 80 32 176 80 32 176 80 32 176 80 32 176 80 32 176 80 32 176 80 32 176 80 32 176 80 32 176 80 32 176 80 32 176 80 32 176 80 32 176 80 32 176 80 32 176 80 32 176 80 32 176 80 32 176 80 32 176 80 32 176 80 32 176 80 32 176 80 32 176 80 32 176 80 32 176 80 32 176 80 32 176 80 32 176 80 32 176 80 32 176 80 32 176 80 32 176 80 32 176 80 32 176 80 32 176 80 32 176 80 32 176 80 32 176 80 32 176 80 32 176 80 32 176 80 32 176 80 32 176 80 32 176 80 32 176 80 32 176 80 32 176 80 32 176 80 32 176 80 32 176 80 32 176 80 32 176 80 32 176 80 32 176 80 160 176 80 160 176 80 160 176 80 160 176 80 160 176 80 160 176 80 160 176 80 160 176 80 160 176 80 160 176 80 160 176 80 160 176 80 160 176 80 160 176 80 160 176 80 160 176 80 160 176 80 160 176 80 160 176 80 160 176 80 160 176 80 160 176 80 160 176 80 160 176 80 160 176 80 160 176 80 160 176 80 160 176 80 160 176 80 160 176 80 160 176 80 160 176 80 160 176 80 160 176 80 160 176 80 160 176 80 160 176 80 160 176 80 160 176 80 160 176 80 160 176 80 160 176 80 160 176 80 160 176 80 160 176 80 160 176 80 160 176 80 160 176 80 160 176 80 160 176 80 160 176 80 160 176 80 160 176 80 160 176 80 160 176 80 160 176 80 160 176 80 160 176 80 160 176 80 160 176 80 160 176 80 160 176 80 160 176 80 160