P3
128 128
255
232 56 32 232 56 32 232 56 32 232 56 32 232 56 32 232 56 32 232 56 32 232 56 32 232 56 32 232 56 32 232 56 32 232 56 32 232 56 32 232 56 32 232 56 32 232 56 32 232 56 32 232 56 32 232 56 32 232 56 32 232 56 32 232 56 32 232 56 32 232 56 32 232 56 32 232 56 32 232 56 32 232 56 32 232 56 32 232 56 32 232 56 32 232 56 32 96 64 16 96 64 16 96 64 16 96 64 16 96 64 16 96 64 16 96 64 16 96 64 16 96 64 16 96 64 16 96 64 16 96 64 16 96 64 16 96 64 16 96 64 16 96 64 16 96 64 16 96 64 16 96 64 16 96 64 16 96 64 16 96 64 16 96 64 16 96 64 16 96 64 16 96 64 16 96 64 16 96 64 16 96 64 16 96 64 16 96 64 16 96 64 16 96 64 144 96 64 144 96 64 144 96 64 144 96 64 144 96 64 144 96 64 144 96 64 144 96 64 144 96 64 144 96 64 144 96 64 144 96 64 144 96 64 144 96 64 144 96 64 144 96 64 144 96 64 144 96 64 144 96 64 144 96 64 144 96 64 144 96 64 144 96 64 144 96 64 144 96 64 144 96 64 144 96 64 144 96 64 144 96 64 144 96 64 144 96 64 144 96 64 16 96 64 16 96 64 16 96 64 16 96 64 16 96 64 16 96 64 16 96 64 16 96 64 16 96 64 16 96 64 16 96 64 16 96 64 16 96 64 16 96 64 16 96 64 16 96 64 16 96 64 16 96 64 16 96 64 16 96 64 16 96 64 16 96 64 16 96 64 16 96 64 16 96 64 16 96 64 16 96 64 16 96 64 16 96 64 16 96 64 16 96 64 16
232 56 32 232 56 32 232 56 32 232 56 32 232 56 32 232 56 32 232 56 32 232 56 32 232 56 32 232 56 32 232 56 32 232 56 32 232 56 32 232 56 32 232 56 32 232 56 32 232 56 32 232 56 32 232 56 32 232 56 32 232 56 32 232 56 32 232 56 32 232 56 32 232 56 32 232 56 32 232 56 32 232 56 32 232 56 32 232 56 32 232 56 32 232 56 32 96 64 16 96 64 16 96 64 16 96 64 16 96 64 16 96 64 16 96 64 16 96 64 16 96 64 16 96 64 16 96 64 16 96 64 16 96 64 16 96 64 16 96 64 16 96 64 16 96 64 16 96 64 16 96 64 16 96 64 16 96 64 16 96 64 16 96 64 16 96 64 16 96 64 16 96 64 16 96 64 16 96 64 16 96 64 16 96 64 16 96 64 16 96 64 16 96 64 144 96 64 144 96 64 144 96 64 144 96 64 144 96 64 144 96 64 144 96 64 144 96 64 144 96 64 144 96 64 144 96 64 144 96 64 144 96 64 144 96 64 144 96 64 144 96 64 144 96 64 144 96 64 144 96 64 144 96 64 144 96 64 144 96 64 144 96 64 144 96 64 144 96 64 144 96 64 144 96 64 144 96 64 144 96 64 144 96 64 144 96 64 144 96 64 16 96 64 16 96 64 16 96 64 16 96 64 16 96 64 16 96 64 16 96 64 16 96 64 16 96 64 16 96 64 16 96 64 16 96 64 16 96 64 16 96 64 16 96 64 16 96 64 16 96 64 16 96 64 16 96 64 16 96 64 16 96 64 16 96 64 16 96 64 16 96 64 16 96 64 16 96 64 16 96 64 16 96 64 16 96 64 16 96 64 16 96 64 16
232 56 32 232 56 32 232 56 32 232 56 32 232 56 32 232 56 32 232 56 32 232 56 32 232 56 32 232 56 32 232 56 32 232 56 32 232 56 32 232 56 32 232 56 32 232 56 32 232 56 32 232 56 32 232 56 32 232 56 32 232 56 32 232 56 32 232 56 32 232 56 32 232 56 32 232 56 32 232 56 32 232 56 32 232 56 32 232 56 32 232 56 32 232 56 32 96 64 16 96 64 16 96 64 16 96 64 16 96 64 16 96 64 16 96 64 16 96 64 16 96 64 16 96 64 16 96 64 16 96 64 16 96 64 16 96 64 16 96 64 16 96 64 16 96 64 16 96 64 16 96 64 16 96 64 16 96 64 16 96 64 16 96 64 16 96 64 16 96 64 16 96 64 16 96 64 16 96 64 16 96 64 16 96 64 16 96 64 16 96 64 16 96 64 144 96 64 144 96 64 144 96 64 144 96 64 144 96 64 144 96 64 144 96 64 144 96 64 144 96 64 144 96 64 144 96 64 144 96 64 144 96 64 144 96 64 144 96 64 144 96 64 144 96 64 144 96 64 144 96 64 144 96 64 144 96 64 144 96 64 144 96 64 144 96 64 144 96 64 144 96 64 144 96 64 144 96 64 144 96 64 144 96 64 144 96 64 144 96 64 16 96 64 16 96 64 16 96 64 16 96 64 16 96 64 16 96 64 16 96 64 16 96 64 16 96 64 16 96 64 16 96 64 16 96 64 16 96 64 16 96 64 16 96 64 16 96 64 16 96 64 16 96 64 16 96 64 16 96 64 16 96 64 16 96 64 16 96 64 16 96 64 16 96 64 16 96 64 16 96 64 16 96 64 16 96 64 16 96 64 16 96 64 16
232 56 32 232 56 32 232 56 32 232 56 32 232 56 32 232 56 32 232 56 32 232 56 32 232 56 32 232 56 32 232 56 32 232 56 32 232 56 32 232 56 32 232 56 32 232 56 32 232 56 32 232 56 32 232 56 32 232 56 32 232 56 32 232 56 32 232 56 32 232 56 32 232 56 32 232 56 32 232 56 32 232 56 32 232 56 32 232 56 32 232 56 32 232 56 32 96 64 16 96 64 16 96 64 16 96 64 16 96 64 16 96 64 16 96 64 16 96 64 16 96 64 16 96 64 16 96 64 16 96 64 16 96 64 16 96 64 16 96 64 16 96 64 16 96 64 16 96 64 16 96 64 16 96 64 16 96 64 16 96 64 16 96 64 16 96 64 16 96 64 16 96 64 16 96 64 16 96 64 16 96 64 16 96 64 16 96 64 16 96 64 16 96 64 144 96 64 144 96 64 144 96 64 144 96 64 144 96 64 144 96 64 144 96 64 144 96 64 144 96 64 144 96 64 144 96 64 144 96 64 144 96 64 144 96 64 144 96 64 144 96 64 144 96 64 144 96 64 144 96 64 144 96 64 144 96 64 144 96 64 144 96 64 144 96 64 144 96 64 144 96 64 144 96 64 144 96 64 144 96 64 144 96 64 144 96 64 144 96 64 16 96 64 16 96 64 16 96 64 16 96 64 16 96 64 16 96 64 16 96 64 16 96 64 16 96 64 16 96 64 16 96 64 16 96 64 16 96 64 16 96 64 16 96 64 16 96 64 16 96 64 16 96 64 16 96 64 16 96 64 16 96 64 16 96 64 16 96 64 16 96 64 16 96 64 16 96 64 16 96 64 16 96 64 16 96 64 16 96 64 16 96 64 16
232 56 32 232 56 32 232 56 32 232 56 32 232 56 32 232 56 32 232 56 32 232 56 32 232 56 32 232 56 32 232 56 32 232 56 32 232 56 32 232 56 32 232 56 32 232 56 32 232 56 32 232 56 32 232 56 32 232 56 32 232 56 32 232 56 32 232 56 32 232 56 32 232 56 32 232 56 32 232 56 32 232 56 32 232 56 32 232 56 32 232 56 32 232 56 32 96 64 16 96 64 16 96 64 16 96 64 16 96 64 16 96 64 16 96 64 16 96 64 16 96 64 16 96 64 16 96 64 16 96 64 16 96 64 16 96 64 16 96 64 16 96 64 16 96 64 16 96 64 16 96 64 16 96 64 16 96 64 16 96 64 16 96 64 16 96 64 16 96 64 16 96 64 16 96 64 16 96 64 16 96 64 16 96 64 16 96 64 16 96 64 16 96 64 144 96 64 144 96 64 144 96 64 144 96 64 144 96 64 144 96 64 144 96 64 144 96 64 144 96 64 144 96 64 144 96 64 144 96 64 144 96 64 144 96 64 144 96 64 144 96 64 144 96 64 144 96 64 144 96 64 144 96 64 144 96 64 144 96 64 144 96 64 144 96 64 144 96 64 144 96 64 144 96 64 144 96 64 144 96 64 144 96 64 144 96 64 144 96 64 16 96 64 16 96 64 16 96 64 16 96 64 16 96 64 16 96 64 16 96 64 16 96 64 16 96 64 16 96 64 16 96 64 16 96 64 16 96 64 16 96 64 16 96 64 16 96 64 16 96 64 16 96 64 16 96 64 16 96 64 16 96 64 16 96 64 16 96 64 16 96 64 16 96 64 16 96 64 16 96 64 16 96 64 16 96 64 16 96 64 16 96 64 16
232 56 32 232 56 32 232 56 32 232 56 32 232 56 32 232 56 32 232 56 32 232 56 32 232 56 32 232 56 32 232 56 32 232 56 32 232 56 32 232 56 32 232 56 32 232 56 32 232 56 32 232 56 32 232 56 32 232 56 32 232 56 32 232 56 32 232 56 32 232 56 32 232 56 32 232 56 32 232 56 32 232 56 32 232 56 32 232 56 32 232 56 32 232 56 32 96 64 16 96 64 16 96 64 16 96 64 16 96 64 16 96 64 16 96 64 16 96 64 16 96 64 16 96 64 16 96 64 16 96 64 16 96 64 16 96 64 16 96 64 16 96 64 16 96 64 16 96 64 16 96 64 16 96 64 16 96 64 16 96 64 16 96 64 16 96 64 16 96 64 16 96 64 16 96 64 16 96 64 16 96 64 16 96 64 16 96 64 16 96 64 16 96 64 144 96 64 144 96 64 144 96 64 144 96 64 144 96 64 144 96 64 144 96 64 144 96 64 144 96 64 144 96 64 144 96 64 144 96 64 144 96 64 144 96 64 144 96 64 144 96 64 144 96 64 144 96 64 144 96 64 144 96 64 144 96 64 144 96 64 144 96 64 144 96 64 144 96 64 144 96 64 144 96 64 144 96 64 144 96 64 144 96 64 144 96 64 144 96 64 16 96 64 16 96 64 16 96 64 16 96 64 16 96 64 16 96 64 16 96 64 16 96 64 16 96 64 16 96 64 16 96 64 16 96 64 16 96 64 16 96 64 16 96 64 16 96 64 16 96 64 16 96 64 16 96 64 16 96 64 16 96 64 16 96 64 16 96 64 16 96 64 16 96 64 16 96 64 16 96 64 16 96 64 16 96 64 16 96 64 16 96 64 16
232 56 32 232 56 32 232 56 32 232 56 32 232 56 32 232 56 32 232 56 32 232 56 32 232 56 32 232 56 32 232 56 32 232 56 32 232 56 32 232 56 32 232 56 32 232 56 32 232 56 32 232 56 32 232 56 32 232 56 32 232 56 32 232 56 32 232 56 32 232 56 32 232 56 32 232 56 32 232 56 32 232 56 32 232 56 32 232 56 32 232 56 32 232 56 32 96 64 16 96 64 16 96 64 16 96 64 16 96 64 16 96 64 16 96 64 16 96 64 16 96 64 16 96 64 16 96 64 16 96 64 16 96 64 16 96 64 16 96 64 16 96 64 16 96 64 16 96 64 16 96 64 16 96 64 16 96 64 16 96 64 16 96 64 16 96 64 16 96 64 16 96 64 16 96 64 16 96 64 16 96 64 16 96 64 16 96 64 16 96 64 16 96 64 144 96 64 144 96 64 144 96 64 144 96 64 144 96 64 144 96 64 144 96 64 144 96 64 144 96 64 144 96 64 144 96 64 144 96 64 144 96 64 144 96 64 144 96 64 144 96 64 144 96 64 144 96 64 144 96 64 144 96 64 144 96 64 144 96 64 144 96 64 144 96 64 144 96 64 144 96 64 144 96 64 144 96 64 144 96 64 144 96 64 144 96 64 144 96 64 16 96 64 16 96 64 16 96 64 16 96 64 16 96 64 16 96 64 16 96 64 16 96 64 16 96 64 16 96 64 16 96 64 16 96 64 16 96 64 16 96 64 16 96 64 16 96 64 16 96 64 16 96 64 16 96 64 16 96 64 16 96 64 16 96 64 16 96 64 16 96 64 16 96 64 16 96 64 16 96 64 16 96 64 16 96 64 16 96 64 16 96 64 16
232 56 32 232 56 32 232 56 32 232 56 32 232 56 32 232 56 32 232 56 32 232 56 32 232 56 32 232 56 32 232 56 32 232 56 32 232 56 32 232 56 32 232 56 32 232 56 32 232 56 32 232 56 32 232 56 32 232 56 32 232 56 32 232 56 32 232 56 32 232 56 32 232 56 32 232 56 32 232 56 32 232 56 32 232 56 32 232 56 32 232 56 32 232 56 32 96 64 16 96 64 16 96 64 16 96 64 16 96 64 16 96 64 16 96 64 16 96 64 16 96 64 16 96 64 16 96 64 16 96 64 16 96 64 16 96 64 16 96 64 16 96 64 16 96 64 16 96 64 16 96 64 16 96 64 16 96 64 16 96 64 16 96 64 16 96 64 16 96 64 16 96 64 16 96 64 16 96 64 16 96 64 16 96 64 16 96 64 16 96 64 16 96 64 144 96 64 144 96 64 144 96 64 144 96 64 144 96 64 144 96 64 144 96 64 144 96 64 144 96 64 144 96 64 144 96 64 144 96 64 144 96 64 144 96 64 144 96 64 144 96 64 144 96 64 144 96 64 144 96 64 144 96 64 144 96 64 144 96 64 144 96 64 144 96 64 144 96 64 144 96 64 144 96 64 144 96 64 144 96 64 144 96 64 144 96 64 144 96 64 16 96 64 16 96 64 16 96 64 16 96 64 16 96 64 16 96 64 16 96 64 16 96 64 16 96 64 16 96 64 16 96 64 16 96 64 16 96 64 16 96 64 16 96 64 16 96 64 16 96 64 16 96 64 16 96 64 16 96 64 16 96 64 16 96 64 16 96 64 16 96 64 16 96 64 16 96 64 16 96 64 16 96 64 16 96 64 16 96 64 16 96 64 16
232 56 32 232 56 32 232 56 32 232 56 32 232 56 32 232 56 32 232 56 32 232 56 32 232 56 32 232 56 32 232 56 32 232 56 32 232 56 32 232 56 32 232 56 32 232 56 32 232 56 32 232 56 32 232 56 32 232 56 32 232 56 32 232 56 32 232 56 32 232 56 32 232 56 32 232 56 32 232 56 32 232 56 32 232 56 32 232 56 32 232 56 32 232 56 32 96 64 16 96 64 16 96 64 16 96 64 16 96 64 16 96 64 16 96 64 16 96 64 16 96 64 16 96 64 16 96 64 16 96 64 16 96 64 16 96 64 16 96 64 16 96 64 16 96 64 16 96 64 16 96 64 16 96 64 16 96 64 16 96 64 16 96 64 16 96 64 16 96 64 16 96 64 16 96 64 16 96 64 16 96 64 16 96 64 16 96 64 16 96 64 16 96 64 144 96 64 144 96 64 144 96 64 144 96 64 144 96 64 144 96 64 144 96 64 144 96 64 144 96 64 144 96 64 144 96 64 144 96 64 144 96 64 144 96 64 144 96 64 144 96 64 144 96 64 144 96 64 144 96 64 144 96 64 144 96 64 144 96 64 144 96 64 144 96 64 144 96 64 144 96 64 144 96 64 144 96 64 144 96 64 144 96 64 144 96 64 144 96 64 16 96 64 16 96 64 16 96 64 16 96 64 16 96 64 16 96 64 16 96 64 16 96 64 16 96 64 16 96 64 16 96 64 16 96 64 16 96 64 16 96 64 16 96 64 16 96 64 16 96 64 16 96 64 16 96 64 16 96 64 16 96 64 16 96 64 16 96 64 16 96 64 16 96 64 16 96 64 16 96 64 16 96 64 16 96 64 16 96 64 16 96 64 16
232 56 32 232 56 32 232 56 32 232 56 32 232 56 32 232 56 32 232 56 32 232 56 32 232 56 32 232 56 32 232 56 32 232 56 32 232 56 32 232 56 32 232 56 32 232 56 32 232 56 32 232 56 32 232 56 32 232 56 32 232 56 32 232 56 32 232 56 32 232 56 32 232 56 32 232 56 32 232 56 32 232 56 32 232 56 32 232 56 32 232 56 32 232 56 32 96 64 16 96 64 16 96 64 16 96 64 16 96 64 16 96 64 16 96 64 16 96 64 16 96 64 16 96 64 16 96 64 16 96 64 16 96 64 16 96 64 16 96 64 16 96 64 16 96 64 16 96 64 16 96 64 16 96 64 16 96 64 16 96 64 16 96 64 16 96 64 16 96 64 16 96 64 16 96 64 16 96 64 16 96 64 16 96 64 16 96 64 16 96 64 16 96 64 144 96 64 144 96 64 144 96 64 144 96 64 144 96 64 144 96 64 144 96 64 144 96 64 144 96 64 144 96 64 144 96 64 144 96 64 144 96 64 144 96 64 144 96 64 144 96 64 144 96 64 144 96 64 144 96 64 144 96 64 144 96 64 144 96 64 144 96 64 144 96 64 144 96 64 144 96 64 144 96 64 144 96 64 144 96 64 144 96 64 144 96 64 144 96 64 16 96 64 16 96 64 16 96 64 16 96 64 16 96 64 16 96 64 16 96 64 16 96 64 16 96 64 16 96 64 16 96 64 16 96 64 16 96 64 16 96 64 16 96 64 16 96 64 16 96 64 16 96 64 16 96 64 16 96 64 16 96 64 16 96 64 16 96 64 16 96 64 16 96 64 16 96 64 16 96 64 16 96 64 16 96 64 16 96 64 16 96 64 16
232 56 32 232 56 32 232 56 32 232 56 32 232 56 32 232 56 32 232 56 32 232 56 32 232 56 32 232 56 32 232 56 32 232 56 32 232 56 32 232 56 32 232 56 32 232 56 32 232 56 32 232 56 32 232 56 32 232 56 32 232 56 32 232 56 32 232 56 32 232 56 32 232 56 32 232 56 32 232 56 32 232 56 32 232 56 32 232 56 32 232 56 32 232 56 32 96 64 16 96 64 16 96 64 16 96 64 16 96 64 16 96 64 16 96 64 16 96 64 16 96 64 16 96 64 16 96 64 16 96 64 16 96 64 16 96 64 16 96 64 16 96 64 16 96 64 16 96 64 16 96 64 16 96 64 16 96 64 16 96 64 16 96 64 16 96 64 16 96 64 16 96 64 16 96 64 16 96 64 16 96 64 16 96 64 16 96 64 16 96 64 16 96 64 144 96 64 144 96 64 144 96 64 144 96 64 144 96 64 144 96 64 144 96 64 144 96 64 144 96 64 144 96 64 144 96 64 144 96 64 144 96 64 144 96 64 144 96 64 144 96 64 144 96 64 144 96 64 144 96 64 144 96 64 144 96 64 144 96 64 144 96 64 144 96 64 144 96 64 144 96 64 144 96 64 144 96 64 144 96 64 144 96 64 144 96 64 144 96 64 16 96 64 16 96 64 16 96 64 16 96 64 16 96 64 16 96 64 16 96 64 16 96 64 16 96 64 16 96 64 16 96 64 16 96 64 16 96 64 16 96 64 16 96 64 16 96 64 16 96 64 16 96 64 16 96 64 16 96 64 16 96 64 16 96 64 16 96 64 16 96 64 16 96 64 16 96 64 16 96 64 16 96 64 16 96 64 16 96 64 16 96 64 16
232 56 32 232 56 32 232 56 32 232 56 32 232 56 32 232 56 32 232 56 32 232 56 32 232 56 32 232 56 32 232 56 32 232 56 32 232 56 32 232 56 32 232 56 32 232 56 32 232 56 32 232 56 32 232 56 32 232 56 32 232 56 32 232 56 32 232 56 32 232 56 32 232 56 32 232 56 32 232 56 32 232 56 32 232 56 32 232 56 32 232 56 32 232 56 32 96 64 16 96 64 16 96 64 16 96 64 16 96 64 16 96 64 16 96 64 16 96 64 16 96 64 16 96 64 16 96 64 16 96 64 16 96 64 16 96 64 16 96 64 16 96 64 16 96 64 16 96 64 16 96 64 16 96 64 16 96 64 16 96 64 16 96 64 16 96 64 16 96 64 16 96 64 16 96 64 16 96 64 16 96 64 16 96 64 16 96 64 16 96 64 16 96 64 144 96 64 144 96 64 144 96 64 144 96 64 144 96 64 144 96 64 144 96 64 144 96 64 144 96 64 144 96 64 144 96 64 144 96 64 144 96 64 144 96 64 144 96 64 144 96 64 144 96 64 144 96 64 144 96 64 144 96 64 144 96 64 144 96 64 144 96 64 144 96 64 144 96 64 144 96 64 144 96 64 144 96 64 144 96 64 144 96 64 144 96 64 144 96 64 16 96 64 16 96 64 16 96 64 16 96 64 16 96 64 16 96 64 16 96 64 16 96 64 16 96 64 16 96 64 16 96 64 16 96 64 16 96 64 16 96 64 16 96 64 16 96 64 16 96 64 16 96 64 16 96 64 16 96 64 16 96 64 16 96 64 16 96 64 16 96 64 16 96 64 16 96 64 16 96 64 16 96 64 16 96 64 16 96 64 16 96 64 16
232 56 32 232 56 32 232 56 32 232 56 32 232 56 32 232 56 32 232 56 32 232 56 32 232 56 32 232 56 32 232 56 32 232 56 32 232 56 32 232 56 32 232 56 32 232 56 32 232 56 32 232 56 32 232 56 32 232 56 32 232 56 32 232 56 32 232 56 32 232 56 32 232 56 32 232 56 32 232 56 32 232 56 32 232 56 32 232 56 32 232 56 32 232 56 32 96 64 16 96 64 16 96 64 16 96 64 16 96 64 16 96 64 16 96 64 16 96 64 16 96 64 16 96 64 16 96 64 16 96 64 16 96 64 16 96 64 16 96 64 16 96 64 16 96 64 16 96 64 16 96 64 16 96 64 16 96 64 16 96 64 16 96 64 16 96 64 16 96 64 16 96 64 16 96 64 16 96 64 16 96 64 16 96 64 16 96 64 16 96 64 16 96 64 144 96 64 144 96 64 144 96 64 144 96 64 144 96 64 144 96 64 144 96 64 144 96 64 144 96 64 144 96 64 144 96 64 144 96 64 144 96 64 144 96 64 144 96 64 144 96 64 144 96 64 144 96 64 144 96 64 144 96 64 144 96 64 144 96 64 144 96 64 144 96 64 144 96 64 144 96 64 144 96 64 144 96 64 144 96 64 144 96 64 144 96 64 144 96 64 16 96 64 16 96 64 16 96 64 16 96 64 16 96 64 16 96 64 16 96 64 16 96 64 16 96 64 16 96 64 16 96 64 16 96 64 16 96 64 16 96 64 16 96 64 16 96 64 16 96 64 16 96 64 16 96 64 16 96 64 16 96 64 16 96 64 16 96 64 16 96 64 16 96 64 16 96 64 16 96 64 16 96 64 16 96 64 16 96 64 16 96 64 16
232 56 32 232 56 32 232 56 32 232 56 32 232 56 32 232 56 32 232 56 32 232 56 32 232 56 32 232 56 32 232 56 32 232 56 32 232 56 32 232 56 32 232 56 32 232 56 32 232 56 32 232 56 32 232 56 32 232 56 32 232 56 32 232 56 32 232 56 32 232 56 32 232 56 32 232 56 32 232 56 32 232 56 32 232 56 32 232 56 32 232 56 32 232 56 32 96 64 16 96 64 16 96 64 16 96 64 16 96 64 16 96 64 16 96 64 16 96 64 16 96 64 16 96 64 16 96 64 16 96 64 16 96 64 16 96 64 16 96 64 16 96 64 16 96 64 16 96 64 16 96 64 16 96 64 16 96 64 16 96 64 16 96 64 16 96 64 16 96 64 16 96 64 16 96 64 16 96 64 16 96 64 16 96 64 16 96 64 16 96 64 16 96 64 144 96 64 144 96 64 144 96 64 144 96 64 144 96 64 144 96 64 144 96 64 144 96 64 144 96 64 144 96 64 144 96 64 144 96 64 144 96 64 144 96 64 144 96 64 144 96 64 144 96 64 144 96 64 144 96 64 144 96 64 144 96 64 144 96 64 144 96 64 144 96 64 144 96 64 144 96 64 144 96 64 144 96 64 144 96 64 144 96 64 144 96 64 144 96 64 16 96 64 16 96 64 16 96 64 16 96 64 16 96 64 16 96 64 16 96 64 16 96 64 16 96 64 16 96 64 16 96 64 16 96 64 16 96 64 16 96 64 16 96 64 16 96 64 16 96 64 16 96 64 16 96 64 16 96 64 16 96 64 16 96 64 16 96 64 16 96 64 16 96 64 16 96 64 16 96 64 16 96 64 16 96 64 16 96 64 16 96 64 16
232 56 32 232 56 32 232 56 32 232 56 32 232 56 32 232 56 32 232 56 32 232 56 32 232 56 32 232 56 32 232 56 32 232 56 32 232 56 32 232 56 32 232 56 32 232 56 32 232 56 32 232 56 32 232 56 32 232 56 32 232 56 32 232 56 32 232 56 32 232 56 32 232 56 32 232 56 32 232 56 32 232 56 32 232 56 32 232 56 32 232 56 32 232 56 32 96 64 16 96 64 16 96 64 16 96 64 16 96 64 16 96 64 16 96 64 16 96 64 16 96 64 16 96 64 16 96 64 16 96 64 16 96 64 16 96 64 16 96 64 16 96 64 16 96 64 16 96 64 16 96 64 16 96 64 16 96 64 16 96 64 16 96 64 16 96 64 16 96 64 16 96 64 16 96 64 16 96 64 16 96 64 16 96 64 16 96 64 16 96 64 16 96 64 144 96 64 144 96 64 144 96 64 144 96 64 144 96 64 144 96 64 144 96 64 144 96 64 144 96 64 144 96 64 144 96 64 144 96 64 144 96 64 144 96 64 144 96 64 144 96 64 144 96 64 144 96 64 144 96 64 144 96 64 144 96 64 144 96 64 144 96 64 144 96 64 144 96 64 144 96 64 144 96 64 144 96 64 144 96 64 144 96 64 144 96 64 144 96 64 16 96 64 16 96 64 16 96 64 16 96 64 16 96 64 16 96 64 16 96 64 16 96 64 16 96 64 16 96 64 16 96 64 16 96 64 16 96 64 16 96 64 16 96 64 16 96 64 16 96 64 16 96 64 16 96 64 16 96 64 16 96 64 16 96 64 16 96 64 16 96 64 16 96 64 16 96 64 16 96 64 16 96 64 16 96 64 16 96 64 16 96 64 16
232 56 32 232 56 32 232 56 32 232 56 32 232 56 32 232 56 32 232 56 32 232 56 32 232 56 32 232 56 32 232 56 32 232 56 32 232 56 32 232 56 32 232 56 32 232 56 32 232 56 32 232 56 32 232 56 32 232 56 32 232 56 32 232 56 32 232 56 32 232 56 32 232 56 32 232 56 32 232 56 32 232 56 32 232 56 32 232 56 32 232 56 32 232 56 32 96 64 16 96 64 16 96 64 16 96 64 16 96 64 16 96 64 16 96 64 16 96 64 16 96 64 16 96 64 16 96 64 16 96 64 16 96 64 16 96 64 16 96 64 16 96 64 16 96 64 16 96 64 16 96 64 16 96 64 16 96 64 16 96 64 16 96 64 16 96 64 16 96 64 16 96 64 16 96 64 16 96 64 16 96 64 16 96 64 16 96 64 16 96 64 16 96 64 144 96 64 144 96 64 144 96 64 144 96 64 144 96 64 144 96 64 144 96 64 144 96 64 144 96 64 144 96 64 144 96 64 144 96 64 144 96 64 144 96 64 144 96 64 144 96 64 144 96 64 144 96 64 144 96 64 144 96 64 144 96 64 144 96 64 144 96 64 144 96 64 144 96 64 144 96 64 144 96 64 144 96 64 144 96 64 144 96 64 144 96 64 144 96 64 16 96 64 16 96 64 16 96 64 16 96 64 16 96 64 16 96 64 16 96 64 16 96 64 16 96 64 16 96 64 16 96 64 16 96 64 16 96 64 16 96 64 16 96 64 16 96 64 16 96 64 16 96 64 16 96 64 16 96 64 16 96 64 16 96 64 16 96 64 16 96 64 16 96 64 16 96 64 16 96 64 16 96 64 16 96 64 16 96 64 16 96 64 16
232 56 32 232 56 32 232 56 32 232 56 32 232 56 32 232 56 32 232 56 32 232 56 32 232 56 32 232 56 32 232 56 32 232 56 32 232 56 32 232 56 32 232 56 32 232 56 32 232 56 32 232 56 32 232 56 32 232 56 32 232 56 32 232 56 32 232 56 32 232 56 32 232 56 32 232 56 32 232 56 32 232 56 32 232 56 32 232 56 32 232 56 32 232 56 32 96 64 16 96 64 16 96 64 16 96 64 16 96 64 16 96 64 16 96 64 16 96 64 16 96 64 16 96 64 16 96 64 16 96 64 16 96 64 16 96 64 16 96 64 16 96 64 16 96 64 16 96 64 16 96 64 16 96 64 16 96 64 16 96 64 16 96 64 16 96 64 16 96 64 16 96 64 16 96 64 16 96 64 16 96 64 16 96 64 16 96 64 16 96 64 16 96 64 144 96 64 144 96 64 144 96 64 144 96 64 144 96 64 144 96 64 144 96 64 144 96 64 144 96 64 144 96 64 144 96 64 144 96 64 144 96 64 144 96 64 144 96 64 144 96 64 144 96 64 144 96 64 144 96 64 144 96 64 144 96 64 144 96 64 144 96 64 144 96 64 144 96 64 144 96 64 144 96 64 144 96 64 144 96 64 144 96 64 144 96 64 144 96 64 16 96 64 16 96 64 16 96 64 16 96 64 16 96 64 16 96 64 16 96 64 16 96 64 16 96 64 16 96 64 16 96 64 16 96 64 16 96 64 16 96 64 16 96 64 16 96 64 16 96 64 16 96 64 16 96 64 16 96 64 16 96 64 16 96 64 16 96 64 16 96 64 16 96 64 16 96 64 16 96 64 16 96 64 16 96 64 16 96 64 16 96 64 16
232 56 32 232 56 32 232 56 32 232 56 32 232 56 32 232 56 32 232 56 32 232 56 32 232 56 32 232 56 32 232 56 32 232 56 32 232 56 32 232 56 32 232 56 32 232 56 32 232 56 32 232 56 32 232 56 32 232 56 32 232 56 32 232 56 32 232 56 32 232 56 32 232 56 32 232 56 32 232 56 32 232 56 32 232 56 32 232 56 32 232 56 32 232 56 32 96 64 16 96 64 16 96 64 16 96 64 16 96 64 16 96 64 16 96 64 16 96 64 16 96 64 16 96 64 16 96 64 16 96 64 16 96 64 16 96 64 16 96 64 16 96 64 16 96 64 16 96 64 16 96 64 16 96 64 16 96 64 16 96 64 16 96 64 16 96 64 16 96 64 16 96 64 16 96 64 16 96 64 16 96 64 16 96 64 16 96 64 16 96 64 16 96 64 144 96 64 144 96 64 144 96 64 144 96 64 144 96 64 144 96 64 144 96 64 144 96 64 144 96 64 144 96 64 144 96 64 144 96 64 144 96 64 144 96 64 144 96 64 144 96 64 144 96 64 144 96 64 144 96 64 144 96 64 144 96 64 144 96 64 144 96 64 144 96 64 144 96 64 144 96 64 144 96 64 144 96 64 144 96 64 144 96 64 144 96 64 144 96 64 16 96 64 16 96 64 16 96 64 16 96 64 16 96 64 16 96 64 16 96 64 16 96 64 16 96 64 16 96 64 16 96 64 16 96 64 16 96 64 16 96 64 16 96 64 16 96 64 16 96 64 16 96 64 16 96 64 16 96 64 16 96 64 16 96 64 16 96 64 16 96 64 16 96 64 16 96 64 16 96 64 16 96 64 16 96 64 16 96 64 16 96 64 16
232 56 32 232 56 32 232 56 32 232 56 32 232 56 32 232 56 32 232 56 32 232 56 32 232 56 32 232 56 32 232 56 32 232 56 32 232 56 32 232 56 32 232 56 32 232 56 32 232 56 32 232 56 32 232 56 32 232 56 32 232 56 32 232 56 32 232 56 32 232 56 32 232 56 32 232 56 32 232 56 32 232 56 32 232 56 32 232 56 32 232 56 32 232 56 32 96 64 16 96 64 16 96 64 16 96 64 16 96 64 16 96 64 16 96 64 16 96 64 16 96 64 16 96 64 16 96 64 16 96 64 16 96 64 16 96 64 16 96 64 16 96 64 16 96 64 16 96 64 16 96 64 16 96 64 16 96 64 16 96 64 16 96 64 16 96 64 16 96 64 16 96 64 16 96 64 16 96 64 16 96 64 16 96 64 16 96 64 16 96 64 16 96 64 144 96 64 144 96 64 144 96 64 144 96 64 144 96 64 144 96 64 144 96 64 144 96 64 144 96 64 144 96 64 144 96 64 144 96 64 144 96 64 144 96 64 144 96 64 144 96 64 144 96 64 144 96 64 144 96 64 144 96 64 144 96 64 144 96 64 144 96 64 144 96 64 144 96 64 144 96 64 144 96 64 144 96 64 144 96 64 144 96 64 144 96 64 144 96 64 16 96 64 16 96 64 16 96 64 16 96 64 16 96 64 16 96 64 16 96 64 16 96 64 16 96 64 16 96 64 16 96 64 16 96 64 16 96 64 16 96 64 16 96 64 16 96 64 16 96 64 16 96 64 16 96 64 16 96 64 16 96 64 16 96 64 16 96 64 16 96 64 16 96 64 16 96 64 16 96 64 16 96 64 16 96 64 16 96 64 16 96 64 16
232 56 32 232 56 32 232 56 32 232 56 32 232 56 32 232 56 32 232 56 32 232 56 32 232 56 32 232 56 32 232 56 32 232 56 32 232 56 32 232 56 32 232 56 32 232 56 32 232 56 32 232 56 32 232 56 32 232 56 32 232 56 32 232 56 32 232 56 32 232 56 32 232 56 32 232 56 32 232 56 32 232 56 32 232 56 32 232 56 32 232 56 32 232 56 32 96 64 16 96 64 16 96 64 16 96 64 16 96 64 16 96 64 16 96 64 16 96 64 16 96 64 16 96 64 16 96 64 16 96 64 16 96 64 16 96 64 16 96 64 16 96 64 16 96 64 16 96 64 16 96 64 16 96 64 16 96 64 16 96 64 16 96 64 16 96 64 16 96 64 16 96 64 16 96 64 16 96 64 16 96 64 16 96 64 16 96 64 16 96 64 16 96 64 144 96 64 144 96 64 144 96 64 144 96 64 144 96 64 144 96 64 144 96 64 144 96 64 144 96 64 144 96 64 144 96 64 144 96 64 144 96 64 144 96 64 144 96 64 144 96 64 144 96 64 144 96 64 144 96 64 144 96 64 144 96 64 144 96 64 144 96 64 144 96 64 144 96 64 144 96 64 144 96 64 144 96 64 144 96 64 144 96 64 144 96 64 144 96 64 16 96 64 16 96 64 16 96 64 16 96 64 16 96 64 16 96 64 16 96 64 16 96 64 16 96 64 16 96 64 16 96 64 16 96 64 16 96 64 16 96 64 16 96 64 16 96 64 16 96 64 16 96 64 16 96 64 16 96 64 16 96 64 16 96 64 16 96 64 16 96 64 16 96 64 16 96 64 16 96 64 16 96 64 16 96 64 16 96 64 16 96 64 16
232 56 32 232 56 32 232 56 32 232 56 32 232 56 32 232 56 32 232 56 32 232 56 32 232 56 32 232 56 32 232 56 32 232 56 32 232 56 32 232 56 32 232 56 32 232 56 32 232 56 32 232 56 32 232 56 32 232 56 32 232 56 32 232 56 32 232 56 32 232 56 32 232 56 32 232 56 32 232 56 32 232 56 32 232 56 32 232 56 32 232 56 32 232 56 32 96 64 16 96 64 16 96 64 16 96 64 16 96 64 16 96 64 16 96 64 16 96 64 16 96 64 16 96 64 16 96 64 16 96 64 16 96 64 16 96 64 16 96 64 16 96 64 16 96 64 16 96 64 16 96 64 16 96 64 16 96 64 16 96 64 16 96 64 16 96 64 16 96 64 16 96 64 16 96 64 16 96 64 16 96 64 16 96 64 16 96 64 16 96 64 16 96 64 144 96 64 144 96 64 144 96 64 144 96 64 144 96 64 144 96 64 144 96 64 144 96 64 144 96 64 144 96 64 144 96 64 144 96 64 144 96 64 144 96 64 144 96 64 144 96 64 144 96 64 144 96 64 144 96 64 144 96 64 144 96 64 144 96 64 144 96 64 144 96 64 144 96 64 144 96 64 144 96 64 144 96 64 144 96 64 144 96 64 144 96 64 144 96 64 16 96 64 16 96 64 16 96 64 16 96 64 16 96 64 16 96 64 16 96 64 16 96 64 16 96 64 16 96 64 16 96 64 16 96 64 16 96 64 16 96 64 16 96 64 16 96 64 16 96 64 16 96 64 16 96 64 16 96 64 16 96 64 16 96 64 16 96 64 16 96 64 16 96 64 16 96 64 16 96 64 16 96 64 16 96 64 16 96 64 16 96 64 16
232 56 32 232 56 32 232 56 32 232 56 32 232 56 32 232 56 32 232 56 32 232 56 32 232 56 32 232 56 32 232 56 32 232 56 32 232 56 32 232 56 32 232 56 32 232 56 32 232 56 32 232 56 32 232 56 32 232 56 32 232 56 32 232 56 32 232 56 32 232 56 32 232 56 32 232 56 32 232 56 32 232 56 32 232 56 32 232 56 32 232 56 32 232 56 32 96 64 16 96 64 16 96 64 16 96 64 16 96 64 16 96 64 16 96 64 16 96 64 16 96 64 16 96 64 16 96 64 16 96 64 16 96 64 16 96 64 16 96 64 16 96 64 16 96 64 16 96 64 16 96 64 16 96 64 16 96 64 16 96 64 16 96 64 16 96 64 16 96 64 16 96 64 16 96 64 16 96 64 16 96 64 16 96 64 16 96 64 16 96 64 16 96 64 144 96 64 144 96 64 144 96 64 144 96 64 144 96 64 144 96 64 144 96 64 144 96 64 144 96 64 144 96 64 144 96 64 144 96 64 144 96 64 144 96 64 144 96 64 144 96 64 144 96 64 144 96 64 144 96 64 144 96 64 144 96 64 144 96 64 144 96 64 144 96 64 144 96 64 144 96 64 144 96 64 144 96 64 144 96 64 144 96 64 144 96 64 144 96 64 16 96 64 16 96 64 16 96 64 16 96 64 16 96 64 16 96 64 16 96 64 16 96 64 16 96 64 16 96 64 16 96 64 16 96 64 16 96 64 16 96 64 16 96 64 16 96 64 16 96 64 16 96 64 16 96 64 16 96 64 16 96 64 16 96 64 16 96 64 16 96 64 16 96 64 16 96 64 16 96 64 16 96 64 16 96 64 16 96 64 16 96 64 16
232 56 32 232 56 32 232 56 32 232 56 32 232 56 32 232 56 32 232 56 32 232 56 32 232 56 32 232 56 32 232 56 32 232 56 32 232 56 32 232 56 32 232 56 32 232 56 32 232 56 32 232 56 32 232 56 32 232 56 32 232 56 32 232 56 32 232 56 32 232 56 32 232 56 32 232 56 32 232 56 32 232 56 32 232 56 32 232 56 32 232 56 32 232 56 32 96 64 16 96 64 16 96 64 16 96 64 16 96 64 16 96 64 16 96 64 16 96 64 16 96 64 16 96 64 16 96 64 16 96 64 16 96 64 16 96 64 16 96 64 16 96 64 16 96 64 16 96 64 16 96 64 16 96 64 16 96 64 16 96 64 16 96 64 16 96 64 16 96 64 16 96 64 16 96 64 16 96 64 16 96 64 16 96 64 16 96 64 16 96 64 16 96 64 144 96 64 144 96 64 144 96 64 144 96 64 144 96 64 144 96 64 144 96 64 144 96 64 144 96 64 144 96 64 144 96 64 144 96 64 144 96 64 144 96 64 144 96 64 144 96 64 144 96 64 144 96 64 144 96 64 144 96 64 144 96 64 144 96 64 144 96 64 144 96 64 144 96 64 144 96 64 144 96 64 144 96 64 144 96 64 144 96 64 144 96 64 144 96 64 16 96 64 16 96 64 16 96 64 16 96 64 16 96 64 16 96 64 16 96 64 16 96 64 16 96 64 16 96 64 16 96 64 16 96 64 16 96 64 16 96 64 16 96 64 16 96 64 16 96 64 16 96 64 16 96 64 16 96 64 16 96 64 16 96 64 16 96 64 16 96 64 16 96 64 16 96 64 16 96 64 16 96 64 16 96 64 16 96 64 16 96 64 16
232 56 32 232 56 32 232 56 32 232 56 32 232 56 32 232 56 32 232 56 32 232 56 32 232 56 32 232 56 32 232 56 32 232 56 32 232 56 32 232 56 32 232 56 32 232 56 32 232 56 32 232 56 32 232 56 32 232 56 32 232 56 32 232 56 32 232 56 32 232 56 32 232 56 32 232 56 32 232 56 32 232 56 32 232 56 32 232 56 32 232 56 32 232 56 32 96 64 16 96 64 16 96 64 16 96 64 16 96 64 16 96 64 16 96 64 16 96 64 16 96 64 16 96 64 16 96 64 16 96 64 16 96 64 16 96 64 16 96 64 16 96 64 16 96 64 16 96 64 16 96 64 16 96 64 16 96 64 16 96 64 16 96 64 16 96 64 16 96 64 16 96 64 16 96 64 16 96 64 16 96 64 16 96 64 16 96 64 16 96 64 16 96 64 144 96 64 144 96 64 144 96 64 144 96 64 144 96 64 144 96 64 144 96 64 144 96 64 144 96 64 144 96 64 144 96 64 144 96 64 144 96 64 144 96 64 144 96 64 144 96 64 144 96 64 144 96 64 144 96 64 144 96 64 144 96 64 144 96 64 144 96 64 144 96 64 144 96 64 144 96 64 144 96 64 144 96 64 144 96 64 144 96 64 144 96 64 144 96 64 16 96 64 16 96 64 16 96 64 16 96 64 16 96 64 16 96 64 16 96 64 16 96 64 16 96 64 16 96 64 16 96 64 16 96 64 16 96 64 16 96 64 16 96 64 16 96 64 16 96 64 16 96 64 16 96 64 16 96 64 16 96 64 16 96 64 16 96 64 16 96 64 16 96 64 16 96 64 16 96 64 16 96 64 16 96 64 16 96 64 16 96 64 16
232 56 32 232 56 32 232 56 32 232 56 32 232 56 32 232 56 32 232 56 32 232 56 32 232 56 32 232 56 32 232 56 32 232 56 32 232 56 32 232 56 32 232 56 32 232 56 32 232 56 32 232 56 32 232 56 32 232 56 32 232 56 32 232 56 32 232 56 32 232 56 32 232 56 32 232 56 32 232 56 32 232 56 32 232 56 32 232 56 32 232 56 32 232 56 32 96 64 16 96 64 16 96 64 16 96 64 16 96 64 16 96 64 16 96 64 16 96 64 16 96 64 16 96 64 16 96 64 16 96 64 16 96 64 16 96 64 16 96 64 16 96 64 16 96 64 16 96 64 16 96 64 16 96 64 16 96 64 16 96 64 16 96 64 16 96 64 16 96 64 16 96 64 16 96 64 16 96 64 16 96 64 16 96 64 16 96 64 16 96 64 16 96 64 144 96 64 144 96 64 144 96 64 144 96 64 144 96 64 144 96 64 144 96 64 144 96 64 144 96 64 144 96 64 144 96 64 144 96 64 144 96 64 144 96 64 144 96 64 144 96 64 144 96 64 144 96 64 144 96 64 144 96 64 144 96 64 144 96 64 144 96 64 144 96 64 144 96 64 144 96 64 144 96 64 144 96 64 144 96 64 144 96 64 144 96 64 144 96 64 16 96 64 16 96 64 16 96 64 16 96 64 16 96 64 16 96 64 16 96 64 16 96 64 16 96 64 16 96 64 16 96 64 16 96 64 16 96 64 16 96 64 16 96 64 16 96 64 16 96 64 16 96 64 16 96 64 16 96 64 16 96 64 16 96 64 16 96 64 16 96 64 16 96 64 16 96 64 16 96 64 16 96 64 16 96 64 16 96 64 16 96 64 16
232 56 32 232 56 32 232 56 32 232 56 32 232 56 32 232 56 32 232 56 32 232 56 32 232 56 32 232 56 32 232 56 32 232 56 32 232 56 32 232 56 32 232 56 32 232 56 32 232 56 32 232 56 32 232 56 32 232 56 32 232 56 32 232 56 32 232 56 32 232 56 32 232 56 32 232 56 32 232 56 32 232 56 32 232 56 32 232 56 32 232 56 32 232 56 32 96 64 16 96 64 16 96 64 16 96 64 16 96 64 16 96 64 16 96 64 16 96 64 16 96 64 16 96 64 16 96 64 16 96 64 16 96 64 16 96 64 16 96 64 16 96 64 16 96 64 16 96 64 16 96 64 16 96 64 16 96 64 16 96 64 16 96 64 16 96 64 16 96 64 16 96 64 16 96 64 16 96 64 16 96 64 16 96 64 16 96 64 16 96 64 16 96 64 144 96 64 144 96 64 144 96 64 144 96 64 144 96 64 144 96 64 144 96 64 144 96 64 144 96 64 144 96 64 144 96 64 144 96 64 144 96 64 144 96 64 144 96 64 144 96 64 144 96 64 144 96 64 144 96 64 144 96 64 144 96 64 144 96 64 144 96 64 144 96 64 144 96 64 144 96 64 144 96 64 144 96 64 144 96 64 144 96 64 144 96 64 144 96 64 16 96 64 16 96 64 16 96 64 16 96 64 16 96 64 16 96 64 16 96 64 16 96 64 16 96 64 16 96 64 16 96 64 16 96 64 16 96 64 16 96 64 16 96 64 16 96 64 16 96 64 16 96 64 16 96 64 16 96 64 16 96 64 16 96 64 16 96 64 16 96 64 16 96 64 16 96 64 16 96 64 16 96 64 16 96 64 16 96 64 16 96 64 16
232 56 32 232 56 32 232 56 32 232 56 32 232 56 32 232 56 32 232 56 32 232 56 32 232 56 32 232 56 32 232 56 32 232 56 32 232 56 32 232 56 32 232 56 32 232 56 32 232 56 32 232 56 32 232 56 32 232 56 32 232 56 32 232 56 32 232 56 32 232 56 32 232 56 32 232 56 32 232 56 32 232 56 32 232 56 32 232 56 32 232 56 32 232 56 32 96 64 16 96 64 16 96 64 16 96 64 16 96 64 16 96 64 16 96 64 16 96 64 16 96 64 16 96 64 16 96 64 16 96 64 16 96 64 16 96 64 16 96 64 16 96 64 16 96 64 16 96 64 16 96 64 16 96 64 16 96 64 16 96 64 16 96 64 16 96 64 16 96 64 16 96 64 16 96 64 16 96 64 16 96 64 16 96 64 16 96 64 16 96 64 16 96 64 144 96 64 144 96 64 144 96 64 144 96 64 144 96 64 144 96 64 144 96 64 144 96 64 144 96 64 144 96 64 144 96 64 144 96 64 144 96 64 144 96 64 144 96 64 144 96 64 144 96 64 144 96 64 144 96 64 144 96 64 144 96 64 144 96 64 144 96 64 144 96 64 144 96 64 144 96 64 144 96 64 144 96 64 144 96 64 144 96 64 144 96 64 144 96 64 16 96 64 16 96 64 16 96 64 16 96 64 16 96 64 16 96 64 16 96 64 16 96 64 16 96 64 16 96 64 16 96 64 16 96 64 16 96 64 16 96 64 16 96 64 16 96 64 16 96 64 16 96 64 16 96 64 16 96 64 16 96 64 16 96 64 16 96 64 16 96 64 16 96 64 16 96 64 16 96 64 16 96 64 16 96 64 16 96 64 16 96 64 16
232 56 32 232 56 32 232 56 32 232 56 32 232 56 32 232 56 32 232 56 32 232 56 32 232 56 32 232 56 32 232 56 32 232 56 32 232 56 32 232 56 32 232 56 32 232 56 32 232 56 32 232 56 32 232 56 32 232 56 32 232 56 32 232 56 32 232 56 32 232 56 32 232 56 32 232 56 32 232 56 32 232 56 32 232 56 32 232 56 32 232 56 32 232 56 32 96 64 16 96 64 16 96 64 16 96 64 16 96 64 16 96 64 16 96 64 16 96 64 16 96 64 16 96 64 16 96 64 16 96 64 16 96 64 16 96 64 16 96 64 16 96 64 16 96 64 16 96 64 16 96 64 16 96 64 16 96 64 16 96 64 16 96 64 16 96 64 16 96 64 16 96 64 16 96 64 16 96 64 16 96 64 16 96 64 16 96 64 16 96 64 16 96 64 144 96 64 144 96 64 144 96 64 144 96 64 144 96 64 144 96 64 144 96 64 144 96 64 144 96 64 144 96 64 144 96 64 144 96 64 144 96 64 144 96 64 144 96 64 144 96 64 144 96 64 144 96 64 144 96 64 144 96 64 144 96 64 144 96 64 144 96 64 144 96 64 144 96 64 144 96 64 144 96 64 144 96 64 144 96 64 144 96 64 144 96 64 144 96 64 16 96 64 16 96 64 16 96 64 16 96 64 16 96 64 16 96 64 16 96 64 16 96 64 16 96 64 16 96 64 16 96 64 16 96 64 16 96 64 16 96 64 16 96 64 16 96 64 16 96 64 16 96 64 16 96 64 16 96 64 16 96 64 16 96 64 16 96 64 16 96 64 16 96 64 16 96 64 16 96 64 16 96 64 16 96 64 16 96 64 16 96 64 16
232 56 32 232 56 32 232 56 32 232 56 32 232 56 32 232 56 32 232 56 32 232 56 32 232 56 32 232 56 32 232 56 32 232 56 32 232 56 32 232 56 32 232 56 32 232 56 32 232 56 32 232 56 32 232 56 32 232 56 32 232 56 32 232 56 32 232 56 32 232 56 32 232 56 32 232 56 32 232 56 32 232 56 32 232 56 32 232 56 32 232 56 32 232 56 32 96 64 16 96 64 16 96 64 16 96 64 16 96 64 16 96 64 16 96 64 16 96 64 16 96 64 16 96 64 16 96 64 16 96 64 16 96 64 16 96 64 16 96 64 16 96 64 16 96 64 16 96 64 16 96 64 16 96 64 16 96 64 16 96 64 16 96 64 16 96 64 16 96 64 16 96 64 16 96 64 16 96 64 16 96 64 16 96 64 16 96 64 16 96 64 16 96 64 144 96 64 144 96 64 144 96 64 144 96 64 144 96 64 144 96 64 144 96 64 144 96 64 144 96 64 144 96 64 144 96 64 144 96 64 144 96 64 144 96 64 144 96 64 144 96 64 144 96 64 144 96 64 144 96 64 144 96 64 144 96 64 144 96 64 144 96 64 144 96 64 144 96 64 144 96 64 144 96 64 144 96 64 144 96 64 144 96 64 144 96 64 144 96 64 16 96 64 16 96 64 16 96 64 16 96 64 16 96 64 16 96 64 16 96 64 16 96 64 16 96 64 16 96 64 16 96 64 16 96 64 16 96 64 16 96 64 16 96 64 16 96 64 16 96 64 16 96 64 16 96 64 16 96 64 16 96 64 16 96 64 16 96 64 16 96 64 16 96 64 16 96 64 16 96 64 16 96 64 16 96 64 16 96 64 16 96 64 16
232 56 32 232 56 32 232 56 32 232 56 32 232 56 32 232 56 32 232 56 32 232 56 32 232 56 32 232 56 32 232 56 32 232 56 32 232 56 32 232 56 32 232 56 32 232 56 32 232 56 32 232 56 32 232 56 32 232 56 32 232 56 32 232 56 32 232 56 32 232 56 32 232 56 32 232 56 32 232 56 32 232 56 32 232 56 32 232 56 32 232 56 32 232 56 32 96 64 16 96 64 16 96 64 16 96 64 16 96 64 16 96 64 16 96 64 16 96 64 16 96 64 16 96 64 16 96 64 16 96 64 16 96 64 16 96 64 16 96 64 16 96 64 16 96 64 16 96 64 16 96 64 16 96 64 16 96 64 16 96 64 16 96 64 16 96 64 16 96 64 16 96 64 16 96 64 16 96 64 16 96 64 16 96 64 16 96 64 16 96 64 16 96 64 144 96 64 144 96 64 144 96 64 144 96 64 144 96 64 144 96 64 144 96 64 144 96 64 144 96 64 144 96 64 144 96 64 144 96 64 144 96 64 144 96 64 144 96 64 144 96 64 144 96 64 144 96 64 144 96 64 144 96 64 144 96 64 144 96 64 144 96 64 144 96 64 144 96 64 144 96 64 144 96 64 144 96 64 144 96 64 144 96 64 144 96 64 144 96 64 16 96 64 16 96 64 16 96 64 16 96 64 16 96 64 16 96 64 16 96 64 16 96 64 16 96 64 16 96 64 16 96 64 16 96 64 16 96 64 16 96 64 16 96 64 16 96 64 16 96 64 16 96 64 16 96 64 16 96 64 16 96 64 16 96 64 16 96 64 16 96 64 16 96 64 16 96 64 16 96 64 16 96 64 16 96 64 16 96 64 16 96 64 16
232 56 32 232 56 32 232 56 32 232 56 32 232 56 32 232 56 32 232 56 32 232 56 32 232 56 32 232 56 32 232 56 32 232 56 32 232 56 32 232 56 32 232 56 32 232 56 32 232 56 32 232 56 32 232 56 32 232 56 32 232 56 32 232 56 32 232 56 32 232 56 32 232 56 32 232 56 32 232 56 32 232 56 32 232 56 32 232 56 32 232 56 32 232 56 32 96 64 16 96 64 16 96 64 16 96 64 16 96 64 16 96 64 16 96 64 16 96 64 16 96 64 16 96 64 16 96 64 16 96 64 16 96 64 16 96 64 16 96 64 16 96 64 16 96 64 16 96 64 16 96 64 16 96 64 16 96 64 16 96 64 16 96 64 16 96 64 16 96 64 16 96 64 16 96 64 16 96 64 16 96 64 16 96 64 16 96 64 16 96 64 16 96 64 144 96 64 144 96 64 144 96 64 144 96 64 144 96 64 144 96 64 144 96 64 144 96 64 144 96 64 144 96 64 144 96 64 144 96 64 144 96 64 144 96 64 144 96 64 144 96 64 144 96 64 144 96 64 144 96 64 144 96 64 144 96 64 144 96 64 144 96 64 144 96 64 144 96 64 144 96 64 144 96 64 144 96 64 144 96 64 144 96 64 144 96 64 144 96 64 16 96 64 16 96 64 16 96 64 16 96 64 16 96 64 16 96 64 16 96 64 16 96 64 16 96 64 16 96 64 16 96 64 16 96 64 16 96 64 16 96 64 16 96 64 16 96 64 16 96 64 16 96 64 16 96 64 16 96 64 16 96 64 16 96 64 16 96 64 16 96 64 16 96 64 16 96 64 16 96 64 16 96 64 16 96 64 16 96 64 16 96 64 16
232 56 32 232 56 32 232 56 32 232 56 32 232 56 32 232 56 32 232 56 32 232 56 32 232 56 32 232 56 32 232 56 32 232 56 32 232 56 32 232 56 32 232 56 32 232 56 32 232 56 32 232 56 32 232 56 32 232 56 32 232 56 32 232 56 32 232 56 32 232 56 32 232 56 32 232 56 32 232 56 32 232 56 32 232 56 32 232 56 32 232 56 32 232 56 32 96 64 16 96 64 16 96 64 16 96 64 16 96 64 16 96 64 16 96 64 16 96 64 16 96 64 16 96 64 16 96 64 16 96 64 16 96 64 16 96 64 16 96 64 16 96 64 16 96 64 16 96 64 16 96 64 16 96 64 16 96 64 16 96 64 16 96 64 16 96 64 16 96 64 16 96 64 16 96 64 16 96 64 16 96 64 16 96 64 16 96 64 16 96 64 16 96 64 144 96 64 144 96 64 144 96 64 144 96 64 144 96 64 144 96 64 144 96 64 144 96 64 144 96 64 144 96 64 144 96 64 144 96 64 144 96 64 144 96 64 144 96 64 144 96 64 144 96 64 144 96 64 144 96 64 144 96 64 144 96 64 144 96 64 144 96 64 144 96 64 144 96 64 144 96 64 144 96 64 144 96 64 144 96 64 144 96 64 144 96 64 144 96 64 16 96 64 16 96 64 16 96 64 16 96 64 16 96 64 16 96 64 16 96 64 16 96 64 16 96 64 16 96 64 16 96 64 16 96 64 16 96 64 16 96 64 16 96 64 16 96 64 16 96 64 16 96 64 16 96 64 16 96 64 16 96 64 16 96 64 16 96 64 16 96 64 16 96 64 16 96 64 16 96 64 16 96 64 16 96 64 16 96 64 16 96 64 16
96 64 144 96 64 144 96 64 144 96 64 144 96 64 144 96 64 144 96 64 144 96 64 144 96 64 144 96 64 144 96 64 144 96 64 144 96 64 144 96 64 144 96 64 144 96 64 144 96 64 144 96 64 144 96 64 144 96 64 144 96 64 144 96 64 144 96 64 144 96 64 144 96 64 144 96 64 144 96 64 144 96 64 144 96 64 144 96 64 144 96 64 144 96 64 144 96 64 16 96 64 16 96 64 16 96 64 16 96 64 16 96 64 16 96 64 16 96 64 16 96 64 16 96 64 16 96 64 16 96 64 16 96 64 16 96 64 16 96 64 16 96 64 16 96 64 16 96 64 16 96 64 16 96 64 16 96 64 16 96 64 16 96 64 16 96 64 16 96 64 16 96 64 16 96 64 16 96 64 16 96 64 16 96 64 16 96 64 16 96 64 16 96 64 144 96 64 144 96 64 144 96 64 144 96 64 144 96 64 144 96 64 144 96 64 144 96 64 144 96 64 144 96 64 144 96 64 144 96 64 144 96 64 144 96 64 144 96 64 144 96 64 144 96 64 144 96 64 144 96 64 144 96 64 144 96 64 144 96 64 144 96 64 144 96 64 144 96 64 144 96 64 144 96 64 144 96 64 144 96 64 144 96 64 144 96 64 144 96 64 16 96 64 16 96 64 16 96 64 16 96 64 16 96 64 16 96 64 16 96 64 16 96 64 16 96 64 16 96 64 16 96 64 16 96 64 16 96 64 16 96 64 16 96 64 16 96 64 16 96 64 16 96 64 16 96 64 16 96 64 16 96 64 16 96 64 16 96 64 16 96 64 16 96 64 16 96 64 16 96 64 16 96 64 16 96 64 16 96 64 16 96 64 16
96 64 144 96 64 144 96 64 144 96 64 144 96 64 144 96 64 144 96 64 144 96 64 144 96 64 144 96 64 144 96 64 144 96 64 144 96 64 144 96 64 144 96 64 144 96 64 144 96 64 144 96 64 144 96 64 144 96 64 144 96 64 144 96 64 144 96 64 144 96 64 144 96 64 144 96 64 144 96 64 144 96 64 144 96 64 144 96 64 144 96 64 144 96 64 144 96 64 16 96 64 16 96 64 16 96 64 16 96 64 16 96 64 16 96 64 16 96 64 16 96 64 16 96 64 16 96 64 16 96 64 16 96 64 16 96 64 16 96 64 16 96 64 16 96 64 16 96 64 16 96 64 16 96 64 16 96 64 16 96 64 16 96 64 16 96 64 16 96 64 16 96 64 16 96 64 16 96 64 16 96 64 16 96 64 16 96 64 16 96 64 16 96 64 144 96 64 144 96 64 144 96 64 144 96 64 144 96 64 144 96 64 144 96 64 144 96 64 144 96 64 144 96 64 144 96 64 144 96 64 144 96 64 144 96 64 144 96 64 144 96 64 144 96 64 144 96 64 144 96 64 144 96 64 144 96 64 144 96 64 144 96 64 144 96 64 144 96 64 144 96 64 144 96 64 144 96 64 144 96 64 144 96 64 144 96 64 144 96 64 16 96 64 16 96 64 16 96 64 16 96 64 16 96 64 16 96 64 16 96 64 16 96 64 16 96 64 16 96 64 16 96 64 16 96 64 16 96 64 16 96 64 16 96 64 16 96 64 16 96 64 16 96 64 16 96 64 16 96 64 16 96 64 16 96 64 16 96 64 16 96 64 16 96 64 16 96 64 16 96 64 16 96 64 16 96 64 16 96 64 16 96 64 16
96 64 144 96 64 144 96 64 144 96 64 144 96 64 144 96 64 144 96 64 144 96 64 144 96 64 144 96 64 144 96 64 144 96 64 144 96 64 144 96 64 144 96 64 144 96 64 144 96 64 144 96 64 144 96 64 144 96 64 144 96 64 144 96 64 144 96 64 144 96 64 144 96 64 144 96 64 144 96 64 144 96 64 144 96 64 144 96 64 144 96 64 144 96 64 144 96 64 16 96 64 16 96 64 16 96 64 16 96 64 16 96 64 16 96 64 16 96 64 16 96 64 16 96 64 16 96 64 16 96 64 16 96 64 16 96 64 16 96 64 16 96 64 16 96 64 16 96 64 16 96 64 16 96 64 16 96 64 16 96 64 16 96 64 16 96 64 16 96 64 16 96 64 16 96 64 16 96 64 16 96 64 16 96 64 16 96 64 16 96 64 16 96 64 144 96 64 144 96 64 144 96 64 144 96 64 144 96 64 144 96 64 144 96 64 144 96 64 144 96 64 144 96 64 144 96 64 144 96 64 144 96 64 144 96 64 144 96 64 144 96 64 144 96 64 144 96 64 144 96 64 144 96 64 144 96 64 144 96 64 144 96 64 144 96 64 144 96 64 144 96 64 144 96 64 144 96 64 144 96 64 144 96 64 144 96 64 144 96 64 16 96 64 16 96 64 16 96 64 16 96 64 16 96 64 16 96 64 16 96 64 16 96 64 16 96 64 16 96 64 16 96 64 16 96 64 16 96 64 16 96 64 16 96 64 16 96 64 16 96 64 16 96 64 16 96 64 16 96 64 16 96 64 16 96 64 16 96 64 16 96 64 16 96 64 16 96 64 16 96 64 16 96 64 16 96 64 16 96 64 16 96 64 16
96 64 144 96 64 144 96 64 144 96 64 144 96 64 144 96 64 144 96 64 144 96 64 144 96 64 144 96 64 144 96 64 144 96 64 144 96 64 144 96 64 144 96 64 144 96 64 144 96 64 144 96 64 144 96 64 144 96 64 144 96 64 144 96 64 144 96 64 144 96 64 144 96 64 144 96 64 144 96 64 144 96 64 144 96 64 144 96 64 144 96 64 144 96 64 144 96 64 16 96 64 16 96 64 16 96 64 16 96 64 16 96 64 16 96 64 16 96 64 16 96 64 16 96 64 16 96 64 16 96 64 16 96 64 16 96 64 16 96 64 16 96 64 16 96 64 16 96 64 16 96 64 16 96 64 16 96 64 16 96 64 16 96 64 16 96 64 16 96 64 16 96 64 16 96 64 16 96 64 16 96 64 16 96 64 16 96 64 16 96 64 16 96 64 144 96 64 144 96 64 144 96 64 144 96 64 144 96 64 144 96 64 144 96 64 144 96 64 144 96 64 144 96 64 144 96 64 144 96 64 144 96 64 144 96 64 144 96 64 144 96 64 144 96 64 144 96 64 144 96 64 144 96 64 144 96 64 144 96 64 144 96 64 144 96 64 144 96 64 144 96 64 144 96 64 144 96 64 144 96 64 144 96 64 144 96 64 144 96 64 16 96 64 16 96 64 16 96 64 16 96 64 16 96 64 16 96 64 16 96 64 16 96 64 16 96 64 16 96 64 16 96 64 16 96 64 16 96 64 16 96 64 16 96 64 16 96 64 16 96 64 16 96 64 16 96 64 16 96 64 16 96 64 16 96 64 16 96 64 16 96 64 16 96 64 16 96 64 16 96 64 16 96 64 16 96 64 16 96 64 16 96 64 16
96 64 144 96 64 144 96 64 144 96 64 144 96 64 144 96 64 144 96 64 144 96 64 144 96 64 144 96 64 144 96 64 144 96 64 144 96 64 144 96 64 144 96 64 144 96 64 144 96 64 144 96 64 144 96 64 144 96 64 144 96 64 144 96 64 144 96 64 144 96 64 144 96 64 144 96 64 144 96 64 144 96 64 144 96 64 144 96 64 144 96 64 144 96 64 144 96 64 16 96 64 16 96 64 16 96 64 16 96 64 16 96 64 16 96 64 16 96 64 16 96 64 16 96 64 16 96 64 16 96 64 16 96 64 16 96 64 16 96 64 16 96 64 16 96 64 16 96 64 16 96 64 16 96 64 16 96 64 16 96 64 16 96 64 16 96 64 16 96 64 16 96 64 16 96 64 16 96 64 16 96 64 16 96 64 16 96 64 16 96 64 16 96 64 144 96 64 144 96 64 144 96 64 144 96 64 144 96 64 144 96 64 144 96 64 144 96 64 144 96 64 144 96 64 144 96 64 144 96 64 144 96 64 144 96 64 144 96 64 144 96 64 144 96 64 144 96 64 144 96 64 144 96 64 144 96 64 144 96 64 144 96 64 144 96 64 144 96 64 144 96 64 144 96 64 144 96 64 144 96 64 144 96 64 144 96 64 144 96 64 16 96 64 16 96 64 16 96 64 16 96 64 16 96 64 16 96 64 16 96 64 16 96 64 16 96 64 16 96 64 16 96 64 16 96 64 16 96 64 16 96 64 16 96 64 16 96 64 16 96 64 16 96 64 16 96 64 16 96 64 16 96 64 16 96 64 16 96 64 16 96 64 16 96 64 16 96 64 16 96 64 16 96 64 16 96 64 16 96 64 16 96 64 16
96 64 144 96 64 144 96 64 144 96 64 144 96 64 144 96 64 144 96 64 144 96 64 144 96 64 144 96 64 144 96 64 144 96 64 144 96 64 144 96 64 144 96 64 144 96 64 144 96 64 144 96 64 144 96 64 144 96 64 144 96 64 144 96 64 144 96 64 144 96 64 144 96 64 144 96 64 144 96 64 144 96 64 144 96 64 144 96 64 144 96 64 144 96 64 144 96 64 16 96 64 16 96 64 16 96 64 16 96 64 16 96 64 16 96 64 16 96 64 16 96 64 16 96 64 16 96 64 16 96 64 16 96 64 16 96 64 16 96 64 16 96 64 16 96 64 16 96 64 16 96 64 16 96 64 16 96 64 16 96 64 16 96 64 16 96 64 16 96 64 16 96 64 16 96 64 16 96 64 16 96 64 16 96 64 16 96 64 16 96 64 16 96 64 144 96 64 144 96 64 144 96 64 144 96 64 144 96 64 144 96 64 144 96 64 144 96 64 144 96 64 144 96 64 144 96 64 144 96 64 144 96 64 144 96 64 144 96 64 144 96 64 144 96 64 144 96 64 144 96 64 144 96 64 144 96 64 144 96 64 144 96 64 144 96 64 144 96 64 144 96 64 144 96 64 144 96 64 144 96 64 144 96 64 144 96 64 144 96 64 16 96 64 16 96 64 16 96 64 16 96 64 16 96 64 16 96 64 16 96 64 16 96 64 16 96 64 16 96 64 16 96 64 16 96 64 16 96 64 16 96 64 16 96 64 16 96 64 16 96 64 16 96 64 16 96 64 16 96 64 16 96 64 16 96 64 16 96 64 16 96 64 16 96 64 16 96 64 16 96 64 16 96 64 16 96 64 16 96 64 16 96 64 16
96 64 144 96 64 144 96 64 144 96 64 144 96 64 144 96 64 144 96 64 144 96 64 144 96 64 144 96 64 144 96 64 144 96 64 144 96 64 144 96 64 144 96 64 144 96 64 144 96 64 144 96 64 144 96 64 144 96 64 144 96 64 144 96 64 144 96 64 144 96 64 144 96 64 144 96 64 144 96 64 144 96 64 144 96 64 144 96 64 144 96 64 144 96 64 144 96 64 16 96 64 16 96 64 16 96 64 16 96 64 16 96 64 16 96 64 16 96 64 16 96 64 16 96 64 16 96 64 16 96 64 16 96 64 16 96 64 16 96 64 16 96 64 16 96 64 16 96 64 16 96 64 16 96 64 16 96 64 16 96 64 16 96 64 16 96 64 16 96 64 16 96 64 16 96 64 16 96 64 16 96 64 16 96 64 16 96 64 16 96 64 16 96 64 144 96 64 144 96 64 144 96 64 144 96 64 144 96 64 144 96 64 144 96 64 144 96 64 144 96 64 144 96 64 144 96 64 144 96 64 144 96 64 144 96 64 144 96 64 144 96 64 144 96 64 144 96 64 144 96 64 144 96 64 144 96 64 144 96 64 144 96 64 144 96 64 144 96 64 144 96 64 144 96 64 144 96 64 144 96 64 144 96 64 144 96 64 144 96 64 16 96 64 16 96 64 16 96 64 16 96 64 16 96 64 16 96 64 16 96 64 16 96 64 16 96 64 16 96 64 16 96 64 16 96 64 16 96 64 16 96 64 16 96 64 16 96 64 16 96 64 16 96 64 16 96 64 16 96 64 16 96 64 16 96 64 16 96 64 16 96 64 16 96 64 16 96 64 16 96 64 16 96 64 16 96 64 16 96 64 16 96 64 16
96 64 144 96 64 144 96 64 144 96 64 144 96 64 144 96 64 144 96 64 144 96 64 144 96 64 144 96 64 144 96 64 144 96 64 144 96 64 144 96 64 144 96 64 144 96 64 144 96 64 144 96 64 144 96 64 144 96 64 144 96 64 144 96 64 144 96 64 144 96 64 144 96 64 144 96 64 144 96 64 144 96 64 144 96 64 144 96 64 144 96 64 144 96 64 144 96 64 16 96 64 16 96 64 16 96 64 16 96 64 16 96 64 16 96 64 16 96 64 16 96 64 16 96 64 16 96 64 16 96 64 16 96 64 16 96 64 16 96 64 16 96 64 16 96 64 16 96 64 16 96 64 16 96 64 16 96 64 16 96 64 16 96 64 16 96 64 16 96 64 16 96 64 16 96 64 16 96 64 16 96 64 16 96 64 16 96 64 16 96 64 16 96 64 144 96 64 144 96 64 144 96 64 144 96 64 144 96 64 144 96 64 144 96 64 144 96 64 144 96 64 144 96 64 144 96 64 144 96 64 144 96 64 144 96 64 144 96 64 144 96 64 144 96 64 144 96 64 144 96 64 144 96 64 144 96 64 144 96 64 144 96 64 144 96 64 144 96 64 144 96 64 144 96 64 144 96 64 144 96 64 144 96 64 144 96 64 144 96 64 16 96 64 16 96 64 16 96 64 16 96 64 16 96 64 16 96 64 16 96 64 16 96 64 16 96 64 16 96 64 16 96 64 16 96 64 16 96 64 16 96 64 16 96 64 16 96 64 16 96 64 16 96 64 16 96 64 16 96 64 16 96 64 16 96 64 16 96 64 16 96 64 16 96 64 16 96 64 16 96 64 16 96 64 16 96 64 16 96 64 16 96 64 16
96 64 144 96 64 144 96 64 144 96 64 144 96 64 144 96 64 144 96 64 144 96 64 144 96 64 144 96 64 144 96 64 144 96 64 144 96 64 144 96 64 144 96 64 144 96 64 144 96 64 144 96 64 144 96 64 144 96 64 144 96 64 144 96 64 144 96 64 144 96 64 144 96 64 144 96 64 144 96 64 144 96 64 144 96 64 144 96 64 144 96 64 144 96 64 144 96 64 16 96 64 16 96 64 16 96 64 16 96 64 16 96 64 16 96 64 16 96 64 16 96 64 16 96 64 16 96 64 16 96 64 16 96 64 16 96 64 16 96 64 16 96 64 16 96 64 16 96 64 16 96 64 16 96 64 16 96 64 16 96 64 16 96 64 16 96 64 16 96 64 16 96 64 16 96 64 16 96 64 16 96 64 16 96 64 16 96 64 16 96 64 16 96 64 144 96 64 144 96 64 144 96 64 144 96 64 144 96 64 144 96 64 144 96 64 144 96 64 144 96 64 144 96 64 144 96 64 144 96 64 144 96 64 144 96 64 144 96 64 144 96 64 144 96 64 144 96 64 144 96 64 144 96 64 144 96 64 144 96 64 144 96 64 144 96 64 144 96 64 144 96 64 144 96 64 144 96 64 144 96 64 144 96 64 144 96 64 144 96 64 16 96 64 16 96 64 16 96 64 16 96 64 16 96 64 16 96 64 16 96 64 16 96 64 16 96 64 16 96 64 16 96 64 16 96 64 16 96 64 16 96 64 16 96 64 16 96 64 16 96 64 16 96 64 16 96 64 16 96 64 16 96 64 16 96 64 16 96 64 16 96 64 16 96 64 16 96 64 16 96 64 16 96 64 16 96 64 16 96 64 16 96 64 16
96 64 144 96 64 144 96 64 144 96 64 144 96 64 144 96 64 144 96 64 144 96 64 144 96 64 144 96 64 144 96 64 144 96 64 144 96 64 144 96 64 144 96 64 144 96 64 144 96 64 144 96 64 144 96 64 144 96 64 144 96 64 144 96 64 144 96 64 144 96 64 144 96 64 144 96 64 144 96 64 144 96 64 144 96 64 144 96 64 144 96 64 144 96 64 144 96 64 16 96 64 16 96 64 16 96 64 16 96 64 16 96 64 16 96 64 16 96 64 16 96 64 16 96 64 16 96 64 16 96 64 16 96 64 16 96 64 16 96 64 16 96 64 16 96 64 16 96 64 16 96 64 16 96 64 16 96 64 16 96 64 16 96 64 16 96 64 16 96 64 16 96 64 16 96 64 16 96 64 16 96 64 16 96 64 16 96 64 16 96 64 16 96 64 144 96 64 144 96 64 144 96 64 144 96 64 144 96 64 144 96 64 144 96 64 144 96 64 144 96 64 144 96 64 144 96 64 144 96 64 144 96 64 144 96 64 144 96 64 144 96 64 144 96 64 144 96 64 144 96 64 144 96 64 144 96 64 144 96 64 144 96 64 144 96 64 144 96 64 144 96 64 144 96 64 144 96 64 144 96 64 144 96 64 144 96 64 144 96 64 16 96 64 16 96 64 16 96 64 16 96 64 16 96 64 16 96 64 16 96 64 16 96 64 16 96 64 16 96 64 16 96 64 16 96 64 16 96 64 16 96 64 16 96 64 16 96 64 16 96 64 16 96 64 16 96 64 16 96 64 16 96 64 16 96 64 16 96 64 16 96 64 16 96 64 16 96 64 16 96 64 16 96 64 16 96 64 16 96 64 16 96 64 16
96 64 144 96 64 144 96 64 144 96 64 144 96 64 144 96 64 144 96 64 144 96 64 144 96 64 144 96 64 144 96 64 144 96 64 144 96 64 144 96 64 144 96 64 144 96 64 144 96 64 144 96 64 144 96 64 144 96 64 144 96 64 144 96 64 144 96 64 144 96 64 144 96 64 144 96 64 144 96 64 144 96 64 144 96 64 144 96 64 144 96 64 144 96 64 144 96 64 16 96 64 16 96 64 16 96 64 16 96 64 16 96 64 16 96 64 16 96 64 16 96 64 16 96 64 16 96 64 16 96 64 16 96 64 16 96 64 16 96 64 16 96 64 16 96 64 16 96 64 16 96 64 16 96 64 16 96 64 16 96 64 16 96 64 16 96 64 16 96 64 16 96 64 16 96 64 16 96 64 16 96 64 16 96 64 16 96 64 16 96 64 16 96 64 144 96 64 144 96 64 144 96 64 144 96 64 144 96 64 144 96 64 144 96 64 144 96 64 144 96 64 144 96 64 144 96 64 144 96 64 144 96 64 144 96 64 144 96 64 144 96 64 144 96 64 144 96 64 144 96 64 144 96 64 144 96 64 144 96 64 144 96 64 144 96 64 144 96 64 144 96 64 144 96 64 144 96 64 144 96 64 144 96 64 144 96 64 144 96 64 16 96 64 16 96 64 16 96 64 16 96 64 16 96 64 16 96 64 16 96 64 16 96 64 16 96 64 16 96 64 16 96 64 16 96 64 16 96 64 16 96 64 16 96 64 16 96 64 16 96 64 16 96 64 16 96 64 16 96 64 16 96 64 16 96 64 16 96 64 16 96 64 16 96 64 16 96 64 16 96 64 16 96 64 16 96 64 16 96 64 16 96 64 16
96 64 144 96 64 144 96 64 144 96 64 144 96 64 144 96 64 144 96 64 144 96 64 144 96 64 144 96 64 144 96 64 144 96 64 144 96 64 144 96 64 144 96 64 144 96 64 144 96 64 144 96 64 144 96 64 144 96 64 144 96 64 144 96 64 144 96 64 144 96 64 144 96 64 144 96 64 144 96 64 144 96 64 144 96 64 144 96 64 144 96 64 144 96 64 144 96 64 16 96 64 16 96 64 16 96 64 16 96 64 16 96 64 16 96 64 16 96 64 16 96 64 16 96 64 16 96 64 16 96 64 16 96 64 16 96 64 16 96 64 16 96 64 16 96 64 16 96 64 16 96 64 16 96 64 16 96 64 16 96 64 16 96 64 16 96 64 16 96 64 16 96 64 16 96 64 16 96 64 16 96 64 16 96 64 16 96 64 16 96 64 16 96 64 144 96 64 144 96 64 144 96 64 144 96 64 144 96 64 144 96 64 144 96 64 144 96 64 144 96 64 144 96 64 144 96 64 144 96 64 144 96 64 144 96 64 144 96 64 144 96 64 144 96 64 144 96 64 144 96 64 144 96 64 144 96 64 144 96 64 144 96 64 144 96 64 144 96 64 144 96 64 144 96 64 144 96 64 144 96 64 144 96 64 144 96 64 144 96 64 16 96 64 16 96 64 16 96 64 16 96 64 16 96 64 16 96 64 16 96 64 16 96 64 16 96 64 16 96 64 16 96 64 16 96 64 16 96 64 16 96 64 16 96 64 16 96 64 16 96 64 16 96 64 16 96 64 16 96 64 16 96 64 16 96 64 16 96 64 16 96 64 16 96 64 16 96 64 16 96 64 16 96 64 16 96 64 16 96 64 16 96 64 16
96 64 144 96 64 144 96 64 144 96 64 144 96 64 144 96 64 144 96 64 144 96 64 144 96 64 144 96 64 144 96 64 144 96 64 144 96 64 144 96 64 144 96 64 144 96 64 144 96 64 144 96 64 144 96 64 144 96 64 144 96 64 144 96 64 144 96 64 144 96 64 144 96 64 144 96 64 144 96 64 144 96 64 144 96 64 144 96 64 144 96 64 144 96 64 144 96 64 16 96 64 16 96 64 16 96 64 16 96 64 16 96 64 16 96 64 16 96 64 16 96 64 16 96 64 16 96 64 16 96 64 16 96 64 16 96 64 16 96 64 16 96 64 16 96 64 16 96 64 16 96 64 16 96 64 16 96 64 16 96 64 16 96 64 16 96 64 16 96 64 16 96 64 16 96 64 16 96 64 16 96 64 16 96 64 16 96 64 16 96 64 16 96 64 144 96 64 144 96 64 144 96 64 144 96 64 144 96 64 144 96 64 144 96 64 144 96 64 144 96 64 144 96 64 144 96 64 144 96 64 144 96 64 144 96 64 144 96 64 144 96 64 144 96 64 144 96 64 144 96 64 144 96 64 144 96 64 144 96 64 144 96 64 144 96 64 144 96 64 144 96 64 144 96 64 144 96 64 144 96 64 144 96 64 144 96 64 144 96 64 16 96 64 16 96 64 16 96 64 16 96 64 16 96 64 16 96 64 16 96 64 16 96 64 16 96 64 16 96 64 16 96 64 16 96 64 16 96 64 16 96 64 16 96 64 16 96 64 16 96 64 16 96 64 16 96 64 16 96 64 16 96 64 16 96 64 16 96 64 16 96 64 16 96 64 16 96 64 16 96 64 16 96 64 16 96 64 16 96 64 16 96 64 16
96 64 144 96 64 144 96 64 144 96 64 144 96 64 144 96 64 144 96 64 144 96 64 144 96 64 144 96 64 144 96 64 144 96 64 144 96 64 144 96 64 144 96 64 144 96 64 144 96 64 144 96 64 144 96 64 144 96 64 144 96 64 144 96 64 144 96 64 144 96 64 144 96 64 144 96 64 144 96 64 144 96 64 144 96 64 144 96 64 144 96 64 144 96 64 144 96 64 16 96 64 16 96 64 16 96 64 16 96 64 16 96 64 16 96 64 16 96 64 16 96 64 16 96 64 16 96 64 16 96 64 16 96 64 16 96 64 16 96 64 16 96 64 16 96 64 16 96 64 16 96 64 16 96 64 16 96 64 16 96 64 16 96 64 16 96 64 16 96 64 16 96 64 16 96 64 16 96 64 16 96 64 16 96 64 16 96 64 16 96 64 16 96 64 144 96 64 144 96 64 144 96 64 144 96 64 144 96 64 144 96 64 144 96 64 144 96 64 144 96 64 144 96 64 144 96 64 144 96 64 144 96 64 144 96 64 144 96 64 144 96 64 144 96 64 144 96 64 144 96 64 144 96 64 144 96 64 144 96 64 144 96 64 144 96 64 144 96 64 144 96 64 144 96 64 144 96 64 144 96 64 144 96 64 144 96 64 144 96 64 16 96 64 16 96 64 16 96 64 16 96 64 16 96 64 16 96 64 16 96 64 16 96 64 16 96 64 16 96 64 16 96 64 16 96 64 16 96 64 16 96 64 16 96 64 16 96 64 16 96 64 16 96 64 16 96 64 16 96 64 16 96 64 16 96 64 16 96 64 16 96 64 16 96 64 16 96 64 16 96 64 16 96 64 16 96 64 16 96 64 16 96 64 16
96 64 144 96 64 144 96 64 144 96 64 144 96 64 144 96 64 144 96 64 144 96 64 144 96 64 144 96 64 144 96 64 144 96 64 144 96 64 144 96 64 144 96 64 144 96 64 144 96 64 144 96 64 144 96 64 144 96 64 144 96 64 144 96 64 144 96 64 144 96 64 144 96 64 144 96 64 144 96 64 144 96 64 144 96 64 144 96 64 144 96 64 144 96 64 144 96 64 16 96 64 16 96 64 16 96 64 16 96 64 16 96 64 16 96 64 16 96 64 16 96 64 16 96 64 16 96 64 16 96 64 16 96 64 16 96 64 16 96 64 16 96 64 16 96 64 16 96 64 16 96 64 16 96 64 16 96 64 16 96 64 16 96 64 16 96 64 16 96 64 16 96 64 16 96 64 16 96 64 16 96 64 16 96 64 16 96 64 16 96 64 16 96 64 144 96 64 144 96 64 144 96 64 144 96 64 144 96 64 144 96 64 144 96 64 144 96 64 144 96 64 144 96 64 144 96 64 144 96 64 144 96 64 144 96 64 144 96 64 144 96 64 144 96 64 144 96 64 144 96 64 144 96 64 144 96 64 144 96 64 144 96 64 144 96 64 144 96 64 144 96 64 144 96 64 144 96 64 144 96 64 144 96 64 144 96 64 144 96 64 16 96 64 16 96 64 16 96 64 16 96 64 16 96 64 16 96 64 16 96 64 16 96 64 16 96 64 16 96 64 16 96 64 16 96 64 16 96 64 16 96 64 16 96 64 16 96 64 16 96 64 16 96 64 16 96 64 16 96 64 16 96 64 16 96 64 16 96 64 16 96 64 16 96 64 16 96 64 16 96 64 16 96 64 16 96 64 16 96 64 16 96 64 16
96 64 144 96 64 144 96 64 144 96 64 144 96 64 144 96 64 144 96 64 144 96 64 144 96 64 144 96 64 144 96 64 144 96 64 144 96 64 144 96 64 144 96 64 144 96 64 144 96 64 144 96 64 144 96 64 144 96 64 144 96 64 144 96 64 144 96 64 144 96 64 144 96 64 144 96 64 144 96 64 144 96 64 144 96 64 144 96 64 144 96 64 144 96 64 144 96 64 16 96 64 16 96 64 16 96 64 16 96 64 16 96 64 16 96 64 16 96 64 16 96 64 16 96 64 16 96 64 16 96 64 16 96 64 16 96 64 16 96 64 16 96 64 16 96 64 16 96 64 16 96 64 16 96 64 16 96 64 16 96 64 16 96 64 16 96 64 16 96 64 16 96 64 16 96 64 16 96 64 16 96 64 16 96 64 16 96 64 16 96 64 16 96 64 144 96 64 144 96 64 144 96 64 144 96 64 144 96 64 144 96 64 144 96 64 144 96 64 144 96 64 144 96 64 144 96 64 144 96 64 144 96 64 144 96 64 144 96 64 144 96 64 144 96 64 144 96 64 144 96 64 144 96 64 144 96 64 144 96 64 144 96 64 144 96 64 144 96 64 144 96 64 144 96 64 144 96 64 144 96 64 144 96 64 144 96 64 144 96 64 16 96 64 16 96 64 16 96 64 16 96 64 16 96 64 16 96 64 16 96 64 16 96 64 16 96 64 16 96 64 16 96 64 16 96 64 16 96 64 16 96 64 16 96 64 16 96 64 16 96 64 16 96 64 16 96 64 16 96 64 16 96 64 16 96 64 16 96 64 16 96 64 16 96 64 16 96 64 16 96 64 16 96 64 16 96 64 16 96 64 16 96 64 16
96 64 144 96 64 144 96 64 144 96 64 144 96 64 144 96 64 144 96 64 144 96 64 144 96 64 144 96 64 144 96 64 144 96 64 144 96 64 144 96 64 144 96 64 144 96 64 144 96 64 144 96 64 144 96 64 144 96 64 144 96 64 144 96 64 144 96 64 144 96 64 144 96 64 144 96 64 144 96 64 144 96 64 144 96 64 144 96 64 144 96 64 144 96 64 144 96 64 16 96 64 16 96 64 16 96 64 16 96 64 16 96 64 16 96 64 16 96 64 16 96 64 16 96 64 16 96 64 16 96 64 16 96 64 16 96 64 16 96 64 16 96 64 16 96 64 16 96 64 16 96 64 16 96 64 16 96 64 16 96 64 16 96 64 16 96 64 16 96 64 16 96 64 16 96 64 16 96 64 16 96 64 16 96 64 16 96 64 16 96 64 16 96 64 144 96 64 144 96 64 144 96 64 144 96 64 144 96 64 144 96 64 144 96 64 144 96 64 144 96 64 144 96 64 144 96 64 144 96 64 144 96 64 144 96 64 144 96 64 144 96 64 144 96 64 144 96 64 144 96 64 144 96 64 144 96 64 144 96 64 144 96 64 144 96 64 144 96 64 144 96 64 144 96 64 144 96 64 144 96 64 144 96 64 144 96 64 144 96 64 16 96 64 16 96 64 16 96 64 16 96 64 16 96 64 16 96 64 16 96 64 16 96 64 16 96 64 16 96 64 16 96 64 16 96 64 16 96 64 16 96 64 16 96 64 16 96 64 16 96 64 16 96 64 16 96 64 16 96 64 16 96 64 16 96 64 16 96 64 16 96 64 16 96 64 16 96 64 16 96 64 16 96 64 16 96 64 16 96 64 16 96 64 16
96 64 144 96 64 144 96 64 144 96 64 144 96 64 144 96 64 144 96 64 144 96 64 144 96 64 144 96 64 144 96 64 144 96 64 144 96 64 144 96 64 144 96 64 144 96 64 144 96 64 144 96 64 144 96 64 144 96 64 144 96 64 144 96 64 144 96 64 144 96 64 144 96 64 144 96 64 144 96 64 144 96 64 144 96 64 144 96 64 144 96 64 144 96 64 144 96 64 16 96 64 16 96 64 16 96 64 16 96 64 16 96 64 16 96 64 16 96 64 16 96 64 16 96 64 16 96 64 16 96 64 16 96 64 16 96 64 16 96 64 16 96 64 16 96 64 16 96 64 16 96 64 16 96 64 16 96 64 16 96 64 16 96 64 16 96 64 16 96 64 16 96 64 16 96 64 16 96 64 16 96 64 16 96 64 16 96 64 16 96 64 16 96 64 144 96 64 144 96 64 144 96 64 144 96 64 144 96 64 144 96 64 144 96 64 144 96 64 144 96 64 144 96 64 144 96 64 144 96 64 144 96 64 144 96 64 144 96 64 144 96 64 144 96 64 144 96 64 144 96 64 144 96 64 144 96 64 144 96 64 144 96 64 144 96 64 144 96 64 144 96 64 144 96 64 144 96 64 144 96 64 144 96 64 144 96 64 144 96 64 16 96 64 16 96 64 16 96 64 16 96 64 16 96 64 16 96 64 16 96 64 16 96 64 16 96 64 16 96 64 16 96 64 16 96 64 16 96 64 16 96 64 16 96 64 16 96 64 16 96 64 16 96 64 16 96 64 16 96 64 16 96 64 16 96 64 16 96 64 16 96 64 16 96 64 16 96 64 16 96 64 16 96 64 16 96 64 16 96 64 16 96 64 16
96 64 144 96 64 144 96 64 144 96 64 144 96 64 144 96 64 144 96 64 144 96 64 144 96 64 144 96 64 144 96 64 144 96 64 144 96 64 144 96 64 144 96 64 144 96 64 144 96 64 144 96 64 144 96 64 144 96 64 144 96 64 144 96 64 144 96 64 144 96 64 144 96 64 144 96 64 144 96 64 144 96 64 144 96 64 144 96 64 144 96 64 144 96 64 144 96 64 16 96 64 16 96 64 16 96 64 16 96 64 16 96 64 16 96 64 16 96 64 16 96 64 16 96 64 16 96 64 16 96 64 16 96 64 16 96 64 16 96 64 16 96 64 16 96 64 16 96 64 16 96 64 16 96 64 16 96 64 16 96 64 16 96 64 16 96 64 16 96 64 16 96 64 16 96 64 16 96 64 16 96 64 16 96 64 16 96 64 16 96 64 16 96 64 144 96 64 144 96 64 144 96 64 144 96 64 144 96 64 144 96 64 144 96 64 144 96 64 144 96 64 144 96 64 144 96 64 144 96 64 144 96 64 144 96 64 144 96 64 144 96 64 144 96 64 144 96 64 144 96 64 144 96 64 144 96 64 144 96 64 144 96 64 144 96 64 144 96 64 144 96 64 144 96 64 144 96 64 144 96 64 144 96 64 144 96 64 144 96 64 16 96 64 16 96 64 16 96 64 16 96 64 16 96 64 16 96 64 16 96 64 16 96 64 16 96 64 16 96 64 16 96 64 16 96 64 16 96 64 16 96 64 16 96 64 16 96 64 16 96 64 16 96 64 16 96 64 16 96 64 16 96 64 16 96 64 16 96 64 16 96 64 16 96 64 16 96 64 16 96 64 16 96 64 16 96 64 16 96 64 16 96 64 16
96 64 144 96 64 144 96 64 144 96 64 144 96 64 144 96 64 144 96 64 144 96 64 144 96 64 144 96 64 144 96 64 144 96 64 144 96 64 144 96 64 144 96 64 144 96 64 144 96 64 144 96 64 144 96 64 144 96 64 144 96 64 144 96 64 144 96 64 144 96 64 144 96 64 144 96 64 144 96 64 144 96 64 144 96 64 144 96 64 144 96 64 144 96 64 144 96 64 16 96 64 16 96 64 16 96 64 16 96 64 16 96 64 16 96 64 16 96 64 16 96 64 16 96 64 16 96 64 16 96 64 16 96 64 16 96 64 16 96 64 16 96 64 16 96 64 16 96 64 16 96 64 16 96 64 16 96 64 16 96 64 16 96 64 16 96 64 16 96 64 16 96 64 16 96 64 16 96 64 16 96 64 16 96 64 16 96 64 16 96 64 16 96 64 144 96 64 144 96 64 144 96 64 144 96 64 144 96 64 144 96 64 144 96 64 144 96 64 144 96 64 144 96 64 144 96 64 144 96 64 144 96 64 144 96 64 144 96 64 144 96 64 144 96 64 144 96 64 144 96 64 144 96 64 144 96 64 144 96 64 144 96 64 144 96 64 144 96 64 144 96 64 144 96 64 144 96 64 144 96 64 144 96 64 144 96 64 144 96 64 16 96 64 16 96 64 16 96 64 16 96 64 16 96 64 16 96 64 16 96 64 16 96 64 16 96 64 16 96 64 16 96 64 16 96 64 16 96 64 16 96 64 16 96 64 16 96 64 16 96 64 16 96 64 16 96 64 16 96 64 16 96 64 16 96 64 16 96 64 16 96 64 16 96 64 16 96 64 16 96 64 16 96 64 16 96 64 16 96 64 16 96 64 16
96 64 144 96 64 144 96 64 144 96 64 144 96 64 144 96 64 144 96 64 144 96 64 144 96 64 144 96 64 144 96 64 144 96 64 144 96 64 144 96 64 144 96 64 144 96 64 144 96 64 144 96 64 144 96 64 144 96 64 144 96 64 144 96 64 144 96 64 144 96 64 144 96 64 144 96 64 144 96 64 144 96 64 144 96 64 144 96 64 144 96 64 144 96 64 144 96 64 16 96 64 16 96 64 16 96 64 16 96 64 16 96 64 16 96 64 16 96 64 16 96 64 16 96 64 16 96 64 16 96 64 16 96 64 16 96 64 16 96 64 16 96 64 16 96 64 16 96 64 16 96 64 16 96 64 16 96 64 16 96 64 16 96 64 16 96 64 16 96 64 16 96 64 16 96 64 16 96 64 16 96 64 16 96 64 16 96 64 16 96 64 16 96 64 144 96 64 144 96 64 144 96 64 144 96 64 144 96 64 144 96 64 144 96 64 144 96 64 144 96 64 144 96 64 144 96 64 144 96 64 144 96 64 144 96 64 144 96 64 144 96 64 144 96 64 144 96 64 144 96 64 144 96 64 144 96 64 144 96 64 144 96 64 144 96 64 144 96 64 144 96 64 144 96 64 144 96 64 144 96 64 144 96 64 144 96 64 144 96 64 16 96 64 16 96 64 16 96 64 16 96 64 16 96 64 16 96 64 16 96 64 16 96 64 16 96 64 16 96 64 16 96 64 16 96 64 16 96 64 16 96 64 16 96 64 16 96 64 16 96 64 16 96 64 16 96 64 16 96 64 16 96 64 16 96 64 16 96 64 16 96 64 16 96 64 16 96 64 16 96 64 16 96 64 16 96 64 16 96 64 16 96 64 16
96 64 144 96 64 144 96 64 144 96 64 144 96 64 144 96 64 144 96 64 144 96 64 144 96 64 144 96 64 144 96 64 144 96 64 144 96 64 144 96 64 144 96 64 144 96 64 144 96 64 144 96 64 144 96 64 144 96 64 144 96 64 144 96 64 144 96 64 144 96 64 144 96 64 144 96 64 144 96 64 144 96 64 144 96 64 144 96 64 144 96 64 144 96 64 144 96 64 16 96 64 16 96 64 16 96 64 16 96 64 16 96 64 16 96 64 16 96 64 16 96 64 16 96 64 16 96 64 16 96 64 16 96 64 16 96 64 16 96 64 16 96 64 16 96 64 16 96 64 16 96 64 16 96 64 16 96 64 16 96 64 16 96 64 16 96 64 16 96 64 16 96 64 16 96 64 16 96 64 16 96 64 16 96 64 16 96 64 16 96 64 16 96 64 144 96 64 144 96 64 144 96 64 144 96 64 144 96 64 144 96 64 144 96 64 144 96 64 144 96 64 144 96 64 144 96 64 144 96 64 144 96 64 144 96 64 144 96 64 144 96 64 144 96 64 144 96 64 144 96 64 144 96 64 144 96 64 144 96 64 144 96 64 144 96 64 144 96 64 144 96 64 144 96 64 144 96 64 144 96 64 144 96 64 144 96 64 144 96 64 16 96 64 16 96 64 16 96 64 16 96 64 16 96 64 16 96 64 16 96 64 16 96 64 16 96 64 16 96 64 16 96 64 16 96 64 16 96 64 16 96 64 16 96 64 16 96 64 16 96 64 16 96 64 16 96 64 16 96 64 16 96 64 16 96 64 16 96 64 16 96 64 16 96 64 16 96 64 16 96 64 16 96 64 16 96 64 16 96 64 16 96 64 16
96 64 144 96 64 144 96 64 144 96 64 144 96 64 144 96 64 144 96 64 144 96 64 144 96 64 144 96 64 144 96 64 144 96 64 144 96 64 144 96 64 144 96 64 144 96 64 144 96 64 144 96 64 144 96 64 144 96 64 144 96 64 144 96 64 144 96 64 144 96 64 144 96 64 144 96 64 144 96 64 144 96 64 144 96 64 144 96 64 144 96 64 144 96 64 144 96 64 16 96 64 16 96 64 16 96 64 16 96 64 16 96 64 16 96 64 16 96 64 16 96 64 16 96 64 16 96 64 16 96 64 16 96 64 16 96 64 16 96 64 16 96 64 16 96 64 16 96 64 16 96 64 16 96 64 16 96 64 16 96 64 16 96 64 16 96 64 16 96 64 16 96 64 16 96 64 16 96 64 16 96 64 16 96 64 16 96 64 16 96 64 16 96 64 144 96 64 144 96 64 144 96 64 144 96 64 144 96 64 144 96 64 144 96 64 144 96 64 144 96 64 144 96 64 144 96 64 144 96 64 144 96 64 144 96 64 144 96 64 144 96 64 144 96 64 144 96 64 144 96 64 144 96 64 144 96 64 144 96 64 144 96 64 144 96 64 144 96 64 144 96 64 144 96 64 144 96 64 144 96 64 144 96 64 144 96 64 144 96 64 16 96 64 16 96 64 16 96 64 16 96 64 16 96 64 16 96 64 16 96 64 16 96 64 16 96 64 16 96 64 16 96 64 16 96 64 16 96 64 16 96 64 16 96 64 16 96 64 16 96 64 16 96 64 16 96 64 16 96 64 16 96 64 16 96 64 16 96 64 16 96 64 16 96 64 16 96 64 16 96 64 16 96 64 16 96 64 16 96 64 16 96 64 16
96 64 144 96 64 144 96 64 144 96 64 144 96 64 144 96 64 144 96 64 144 96 64 144 96 64 144 96 64 144 96 64 144 96 64 144 96 64 144 96 64 144 96 64 144 96 64 144 96 64 144 96 64 144 96 64 144 96 64 144 96 64 144 96 64 144 96 64 144 96 64 144 96 64 144 96 64 144 96 64 144 96 64 144 96 64 144 96 64 144 96 64 144 96 64 144 96 64 16 96 64 16 96 64 16 96 64 16 96 64 16 96 64 16 96 64 16 96 64 16 96 64 16 96 64 16 96 64 16 96 64 16 96 64 16 96 64 16 96 64 16 96 64 16 96 64 16 96 64 16 96 64 16 96 64 16 96 64 16 96 64 16 96 64 16 96 64 16 96 64 16 96 64 16 96 64 16 96 64 16 96 64 16 96 64 16 96 64 16 96 64 16 96 64 144 96 64 144 96 64 144 96 64 144 96 64 144 96 64 144 96 64 144 96 64 144 96 64 144 96 64 144 96 64 144 96 64 144 96 64 144 96 64 144 96 64 144 96 64 144 96 64 144 96 64 144 96 64 144 96 64 144 96 64 144 96 64 144 96 64 144 96 64 144 96 64 144 96 64 144 96 64 144 96 64 144 96 64 144 96 64 144 96 64 144 96 64 144 96 64 16 96 64 16 96 64 16 96 64 16 96 64 16 96 64 16 96 64 16 96 64 16 96 64 16 96 64 16 96 64 16 96 64 16 96 64 16 96 64 16 96 64 16 96 64 16 96 64 16 96 64 16 96 64 16 96 64 16 96 64 16 96 64 16 96 64 16 96 64 16 96 64 16 96 64 16 96 64 16 96 64 16 96 64 16 96 64 16 96 64 16 96 64 16
96 64 144 96 64 144 96 64 144 96 64 144 96 64 144 96 64 144 96 64 144 96 64 144 96 64 144 96 64 144 96 64 144 96 64 144 96 64 144 96 64 144 96 64 144 96 64 144 96 64 144 96 64 144 96 64 144 96 64 144 96 64 144 96 64 144 96 64 144 96 64 144 96 64 144 96 64 144 96 64 144 96 64 144 96 64 144 96 64 144 96 64 144 96 64 144 96 64 16 96 64 16 96 64 16 96 64 16 96 64 16 96 64 16 96 64 16 96 64 16 96 64 16 96 64 16 96 64 16 96 64 16 96 64 16 96 64 16 96 64 16 96 64 16 96 64 16 96 64 16 96 64 16 96 64 16 96 64 16 96 64 16 96 64 16 96 64 16 96 64 16 96 64 16 96 64 16 96 64 16 96 64 16 96 64 16 96 64 16 96 64 16 96 64 144 96 64 144 96 64 144 96 64 144 96 64 144 96 64 144 96 64 144 96 64 144 96 64 144 96 64 144 96 64 144 96 64 144 96 64 144 96 64 144 96 64 144 96 64 144 96 64 144 96 64 144 96 64 144 96 64 144 96 64 144 96 64 144 96 64 144 96 64 144 96 64 144 96 64 144 96 64 144 96 64 144 96 64 144 96 64 144 96 64 144 96 64 144 96 64 16 96 64 16 96 64 16 96 64 16 96 64 16 96 64 16 96 64 16 96 64 16 96 64 16 96 64 16 96 64 16 96 64 16 96 64 16 96 64 16 96 64 16 96 64 16 96 64 16 96 64 16 96 64 16 96 64 16 96 64 16 96 64 16 96 64 16 96 64 16 96 64 16 96 64 16 96 64 16 96 64 16 96 64 16 96 64 16 96 64 16 96 64 16
96 64 144 96 64 144 96 64 144 96 64 144 96 64 144 96 64 144 96 64 144 96 64 144 96 64 144 96 64 144 96 64 144 96 64 144 96 64 144 96 64 144 96 64 144 96 64 144 96 64 144 96 64 144 96 64 144 96 64 144 96 64 144 96 64 144 96 64 144 96 64 144 96 64 144 96 64 144 96 64 144 96 64 144 96 64 144 96 64 144 96 64 144 96 64 144 96 64 16 96 64 16 96 64 16 96 64 16 96 64 16 96 64 16 96 64 16 96 64 16 96 64 16 96 64 16 96 64 16 96 64 16 96 64 16 96 64 16 96 64 16 96 64 16 96 64 16 96 64 16 96 64 16 96 64 16 96 64 16 96 64 16 96 64 16 96 64 16 96 64 16 96 64 16 96 64 16 96 64 16 96 64 16 96 64 16 96 64 16 96 64 16 96 64 144 96 64 144 96 64 144 96 64 144 96 64 144 96 64 144 96 64 144 96 64 144 96 64 144 96 64 144 96 64 144 96 64 144 96 64 144 96 64 144 96 64 144 96 64 144 96 64 144 96 64 144 96 64 144 96 64 144 96 64 144 96 64 144 96 64 144 96 64 144 96 64 144 96 64 144 96 64 144 96 64 144 96 64 144 96 64 144 96 64 144 96 64 144 96 64 16 96 64 16 96 64 16 96 64 16 96 64 16 96 64 16 96 64 16 96 64 16 96 64 16 96 64 16 96 64 16 96 64 16 96 64 16 96 64 16 96 64 16 96 64 16 96 64 16 96 64 16 96 64 16 96 64 16 96 64 16 96 64 16 96 64 16 96 64 16 96 64 16 96 64 16 96 64 16 96 64 16 96 64 16 96 64 16 96 64 16 96 64 16
96 64 144 96 64 144 96 64 144 96 64 144 96 64 144 96 64 144 96 64 144 96 64 144 96 64 144 96 64 144 96 64 144 96 64 144 96 64 144 96 64 144 96 64 144 96 64 144 96 64 144 96 64 144 96 64 144 96 64 144 96 64 144 96 64 144 96 64 144 96 64 144 96 64 144 96 64 144 96 64 144 96 64 144 96 64 144 96 64 144 96 64 144 96 64 144 96 64 16 96 64 16 96 64 16 96 64 16 96 64 16 96 64 16 96 64 16 96 64 16 96 64 16 96 64 16 96 64 16 96 64 16 96 64 16 96 64 16 96 64 16 96 64 16 96 64 16 96 64 16 96 64 16 96 64 16 96 64 16 96 64 16 96 64 16 96 64 16 96 64 16 96 64 16 96 64 16 96 64 16 96 64 16 96 64 16 96 64 16 96 64 16 96 64 144 96 64 144 96 64 144 96 64 144 96 64 144 96 64 144 96 64 144 96 64 144 96 64 144 96 64 144 96 64 144 96 64 144 96 64 144 96 64 144 96 64 144 96 64 144 96 64 144 96 64 144 96 64 144 96 64 144 96 64 144 96 64 144 96 64 144 96 64 144 96 64 144 96 64 144 96 64 144 96 64 144 96 64 144 96 64 144 96 64 144 96 64 144 96 64 16 96 64 16 96 64 16 96 64 16 96 64 16 96 64 16 96 64 16 96 64 16 96 64 16 96 64 16 96 64 16 96 64 16 96 64 16 96 64 16 96 64 16 96 64 16 96 64 16 96 64 16 96 64 16 96 64 16 96 64 16 96 64 16 96 64 16 96 64 16 96 64 16 96 64 16 96 64 16 96 64 16 96 64 16 96 64 16 96 64 16 96 64 16
96 64 144 96 64 144 96 64 144 96 64 144 96 64 144 96 64 144 96 64 144 96 64 144 96 64 144 96 64 144 96 64 144 96 64 144 96 64 144 96 64 144 96 64 144 96 64 144 96 64 144 96 64 144 96 64 144 96 64 144 96 64 144 96 64 144 96 64 144 96 64 144 96 64 144 96 64 144 96 64 144 96 64 144 96 64 144 96 64 144 96 64 144 96 64 144 96 64 16 96 64 16 96 64 16 96 64 16 96 64 16 96 64 16 96 64 16 96 64 16 96 64 16 96 64 16 96 64 16 96 64 16 96 64 16 96 64 16 96 64 16 96 64 16 96 64 16 96 64 16 96 64 16 96 64 16 96 64 16 96 64 16 96 64 16 96 64 16 96 64 16 96 64 16 96 64 16 96 64 16 96 64 16 96 64 16 96 64 16 96 64 16 96 64 144 96 64 144 96 64 144 96 64 144 96 64 144 96 64 144 96 64 144 96 64 144 96 64 144 96 64 144 96 64 144 96 64 144 96 64 144 96 64 144 96 64 144 96 64 144 96 64 144 96 64 144 96 64 144 96 64 144 96 64 144 96 64 144 96 64 144 96 64 144 96 64 144 96 64 144 96 64 144 96 64 144 96 64 144 96 64 144 96 64 144 96 64 144 96 64 16 96 64 16 96 64 16 96 64 16 96 64 16 96 64 16 96 64 16 96 64 16 96 64 16 96 64 16 96 64 16 96 64 16 96 64 16 96 64 16 96 64 16 96 64 16 96 64 16 96 64 16 96 64 16 96 64 16 96 64 16 96 64 16 96 64 16 96 64 16 96 64 16 96 64 16 96 64 16 96 64 16 96 64 16 96 64 16 96 64 16 96 64 16
96 64 144 96 64 144 96 64 144 96 64 144 96 64 144 96 64 144 96 64 144 96 64 144 96 64 144 96 64 144 96 64 144 96 64 144 96 64 144 96 64 144 96 64 144 96 64 144 96 64 144 96 64 144 96 64 144 96 64 144 96 64 144 96 64 144 96 64 144 96 64 144 96 64 144 96 64 144 96 64 144 96 64 144 96 64 144 96 64 144 96 64 144 96 64 144 96 64 16 96 64 16 96 64 16 96 64 16 96 64 16 96 64 16 96 64 16 96 64 16 96 64 16 96 64 16 96 64 16 96 64 16 96 64 16 96 64 16 96 64 16 96 64 16 96 64 16 96 64 16 96 64 16 96 64 16 96 64 16 96 64 16 96 64 16 96 64 16 96 64 16 96 64 16 96 64 16 96 64 16 96 64 16 96 64 16 96 64 16 96 64 16 96 64 144 96 64 144 96 64 144 96 64 144 96 64 144 96 64 144 96 64 144 96 64 144 96 64 144 96 64 144 96 64 144 96 64 144 96 64 144 96 64 144 96 64 144 96 64 144 96 64 144 96 64 144 96 64 144 96 64 144 96 64 144 96 64 144 96 64 144 96 64 144 96 64 144 96 64 144 96 64 144 96 64 144 96 64 144 96 64 144 96 64 144 96 64 144 96 64 16 96 64 16 96 64 16 96 64 16 96 64 16 96 64 16 96 64 16 96 64 16 96 64 16 96 64 16 96 64 16 96 64 16 96 64 16 96 64 16 96 64 16 96 64 16 96 64 16 96 64 16 96 64 16 96 64 16 96 64 16 96 64 16 96 64 16 96 64 16 96 64 16 96 64 16 96 64 16 96 64 16 96 64 16 96 64 16 96 64 16 96 64 16
96 64 144 96 64 144 96 64 144 96 64 144 96 64 144 96 64 144 96 64 144 96 64 144 96 64 144 96 64 144 96 64 144 96 64 144 96 64 144 96 64 144 96 64 144 96 64 144 96 64 144 96 64 144 96 64 144 96 64 144 96 64 144 96 64 144 96 64 144 96 64 144 96 64 144 96 64 144 96 64 144 96 64 144 96 64 144 96 64 144 96 64 144 96 64 144 96 64 16 96 64 16 96 64 16 96 64 16 96 64 16 96 64 16 96 64 16 96 64 16 96 64 16 96 64 16 96 64 16 96 64 16 96 64 16 96 64 16 96 64 16 96 64 16 96 64 16 96 64 16 96 64 16 96 64 16 96 64 16 96 64 16 96 64 16 96 64 16 96 64 16 96 64 16 96 64 16 96 64 16 96 64 16 96 64 16 96 64 16 96 64 16 96 64 144 96 64 144 96 64 144 96 64 144 96 64 144 96 64 144 96 64 144 96 64 144 96 64 144 96 64 144 96 64 144 96 64 144 96 64 144 96 64 144 96 64 144 96 64 144 96 64 144 96 64 144 96 64 144 96 64 144 96 64 144 96 64 144 96 64 144 96 64 144 96 64 144 96 64 144 96 64 144 96 64 144 96 64 144 96 64 144 96 64 144 96 64 144 96 64 16 96 64 16 96 64 16 96 64 16 96 64 16 96 64 16 96 64 16 96 64 16 96 64 16 96 64 16 96 64 16 96 64 16 96 64 16 96 64 16 96 64 16 96 64 16 96 64 16 96 64 16 96 64 16 96 64 16 96 64 16 96 64 16 96 64 16 96 64 16 96 64 16 96 64 16 96 64 16 96 64 16 96 64 16 96 64 16 96 64 16 96 64 16
96 64 144 96 64 144 96 64 144 96 64 144 96 64 144 96 64 144 96 64 144 96 64 144 96 64 144 96 64 144 96 64 144 96 64 144 96 64 144 96 64 144 96 64 144 96 64 144 96 64 144 96 64 144 96 64 144 96 64 144 96 64 144 96 64 144 96 64 144 96 64 144 96 64 144 96 64 144 96 64 144 96 64 144 96 64 144 96 64 144 96 64 144 96 64 144 96 64 16 96 64 16 96 64 16 96 64 16 96 64 16 96 64 16 96 64 16 96 64 16 96 64 16 96 64 16 96 64 16 96 64 16 96 64 16 96 64 16 96 64 16 96 64 16 96 64 16 96 64 16 96 64 16 96 64 16 96 64 16 96 64 16 96 64 16 96 64 16 96 64 16 96 64 16 96 64 16 96 64 16 96 64 16 96 64 16 96 64 16 96 64 16 96 64 144 96 64 144 96 64 144 96 64 144 96 64 144 96 64 144 96 64 144 96 64 144 96 64 144 96 64 144 96 64 144 96 64 144 96 64 144 96 64 144 96 64 144 96 64 144 96 64 144 96 64 144 96 64 144 96 64 144 96 64 144 96 64 144 96 64 144 96 64 144 96 64 144 96 64 144 96 64 144 96 64 144 96 64 144 96 64 144 96 64 144 96 64 144 96 64 16 96 64 16 96 64 16 96 64 16 96 64 16 96 64 16 96 64 16 96 64 16 96 64 16 96 64 16 96 64 16 96 64 16 96 64 16 96 64 16 96 64 16 96 64 16 96 64 16 96 64 16 96 64 16 96 64 16 96 64 16 96 64 16 96 64 16 96 64 16 96 64 16 96 64 16 96 64 16 96 64 16 96 64 16 96 64 16 96 64 16 96 64 16
96 64 144 96 64 144 96 64 144 96 64 144 96 64 144 96 64 144 96 64 144 96 64 144 96 64 144 96 64 144 96 64 144 96 64 144 96 64 144 96 64 144 96 64 144 96 64 144 96 64 144 96 64 144 96 64 144 96 64 144 96 64 144 96 64 144 96 64 144 96 64 144 96 64 144 96 64 144 96 64 144 96 64 144 96 64 144 96 64 144 96 64 144 96 64 144 96 64 16 96 64 16 96 64 16 96 64 16 96 64 16 96 64 16 96 64 16 96 64 16 96 64 16 96 64 16 96 64 16 96 64 16 96 64 16 96 64 16 96 64 16 96 64 16 96 64 16 96 64 16 96 64 16 96 64 16 96 64 16 96 64 16 96 64 16 96 64 16 96 64 16 96 64 16 96 64 16 96 64 16 96 64 16 96 64 16 96 64 16 96 64 16 96 64 144 96 64 144 96 64 144 96 64 144 96 64 144 96 64 144 96 64 144 96 64 144 96 64 144 96 64 144 96 64 144 96 64 144 96 64 144 96 64 144 96 64 144 96 64 144 96 64 144 96 64 144 96 64 144 96 64 144 96 64 144 96 64 144 96 64 144 96 64 144 96 64 144 96 64 144 96 64 144 96 64 144 96 64 144 96 64 144 96 64 144 96 64 144 96 64 16 96 64 16 96 64 16 96 64 16 96 64 16 96 64 16 96 64 16 96 64 16 96 64 16 96 64 16 96 64 16 96 64 16 96 64 16 96 64 16 96 64 16 96 64 16 96 64 16 96 64 16 96 64 16 96 64 16 96 64 16 96 64 16 96 64 16 96 64 16 96 64 16 96 64 16 96 64 16 96 64 16 96 64 16 96 64 16 96 64 16 96 64 16
96 64 144 96 64 144 96 64 144 96 64 144 96 64 144 96 64 144 96 64 144 96 64 144 96 64 144 96 64 144 96 64 144 96 64 144 96 64 144 96 64 144 96 64 144 96 64 144 96 64 144 96 64 144 96 64 144 96 64 144 96 64 144 96 64 144 96 64 144 96 64 144 96 64 144 96 64 144 96 64 144 96 64 144 96 64 144 96 64 144 96 64 144 96 64 144 120 64 48 120 64 48 120 64 48 120 64 48 120 64 48 120 64 48 120 64 48 120 64 48 120 64 48 120 64 48 120 64 48 120 64 48 120 64 48 120 64 48 120 64 48 120 64 48 120 64 48 120 64 48 120 64 48 120 64 48 120 64 48 120 64 48 120 64 48 120 64 48 120 64 48 120 64 48 120 64 48 120 64 48 120 64 48 120 64 48 120 64 48 120 64 48 120 64 48 120 64 48 120 64 48 120 64 48 120 64 48 120 64 48 120 64 48 120 64 48 120 64 48 120 64 48 120 64 48 120 64 48 120 64 48 120 64 48 120 64 48 120 64 48 120 64 48 120 64 48 120 64 48 120 64 48 120 64 48 120 64 48 120 64 48 120 64 48 120 64 48 120 64 48 120 64 48 120 64 48 120 64 48 120 64 48 120 64 48 120 64 48 120 64 48 120 64 48 120 64 48 120 64 48 120 64 48 120 64 48 120 64 48 120 64 48 120 64 48 120 64 48 120 64 48 120 64 48 120 64 48 120 64 48 120 64 48 120 64 48 120 64 48 120 64 48 120 64 48 120 64 48 120 64 48 120 64 48 120 64 48 120 64 48 120 64 48 120 64 48 120 64 48 120 64 48 120 64 48 120 64 48 120 64 48 120 64 48
96 64 144 96 64 144 96 64 144 96 64 144 96 64 144 96 64 144 96 64 144 96 64 144 96 64 144 96 64 144 96 64 144 96 64 144 96 64 144 96 64 144 96 64 144 96 64 144 96 64 144 96 64 144 96 64 144 96 64 144 96 64 144 96 64 144 96 64 144 96 64 144 96 64 144 96 64 144 96 64 144 96 64 144 96 64 144 96 64 144 96 64 144 96 64 144 120 64 48 120 64 48 120 64 48 120 64 48 120 64 48 120 64 48 120 64 48 120 64 48 120 64 48 120 64 48 120 64 48 120 64 48 120 64 48 120 64 48 120 64 48 120 64 48 120 64 48 120 64 48 120 64 48 120 64 48 120 64 48 120 64 48 120 64 48 120 64 48 120 64 48 120 64 48 120 64 48 120 64 48 120 64 48 120 64 48 120 64 48 120 64 48 120 64 48 120 64 48 120 64 48 120 64 48 120 64 48 120 64 48 120 64 48 120 64 48 120 64 48 120 64 48 120 64 48 120 64 48 120 64 48 120 64 48 120 64 48 120 64 48 120 64 48 120 64 48 120 64 48 120 64 48 120 64 48 120 64 48 120 64 48 120 64 48 120 64 48 120 64 48 120 64 48 120 64 48 120 64 48 120 64 48 120 64 48 120 64 48 120 64 48 120 64 48 120 64 48 120 64 48 120 64 48 120 64 48 120 64 48 120 64 48 120 64 48 120 64 48 120 64 48 120 64 48 120 64 48 120 64 48 120 64 48 120 64 48 120 64 48 120 64 48 120 64 48 120 64 48 120 64 48 120 64 48 120 64 48 120 64 48 120 64 48 120 64 48 120 64 48 120 64 48 120 64 48 120 64 48 120 64 48 120 64 48
96 64 144 96 64 144 96 64 144 96 64 144 96 64 144 96 64 144 96 64 144 96 64 144 96 64 144 96 64 144 96 64 144 96 64 144 96 64 144 96 64 144 96 64 144 96 64 144 96 64 144 96 64 144 96 64 144 96 64 144 96 64 144 96 64 144 96 64 144 96 64 144 96 64 144 96 64 144 96 64 144 96 64 144 96 64 144 96 64 144 96 64 144 96 64 144 120 64 48 120 64 48 120 64 48 120 64 48 120 64 48 120 64 48 120 64 48 120 64 48 120 64 48 120 64 48 120 64 48 120 64 48 120 64 48 120 64 48 120 64 48 120 64 48 120 64 48 120 64 48 120 64 48 120 64 48 120 64 48 120 64 48 120 64 48 120 64 48 120 64 48 120 64 48 120 64 48 120 64 48 120 64 48 120 64 48 120 64 48 120 64 48 120 64 48 120 64 48 120 64 48 120 64 48 120 64 48 120 64 48 120 64 48 120 64 48 120 64 48 120 64 48 120 64 48 120 64 48 120 64 48 120 64 48 120 64 48 120 64 48 120 64 48 120 64 48 120 64 48 120 64 48 120 64 48 120 64 48 120 64 48 120 64 48 120 64 48 120 64 48 120 64 48 120 64 48 120 64 48 120 64 48 120 64 48 120 64 48 120 64 48 120 64 48 120 64 48 120 64 48 120 64 48 120 64 48 120 64 48 120 64 48 120 64 48 120 64 48 120 64 48 120 64 48 120 64 48 120 64 48 120 64 48 120 64 48 120 64 48 120 64 48 120 64 48 120 64 48 120 64 48 120 64 48 120 64 48 120 64 48 120 64 48 120 64 48 120 64 48 120 64 48 120 64 48 120 64 48 120 64 48 120 64 48
96 64 144 96 64 144 96 64 144 96 64 144 96 64 144 96 64 144 96 64 144 96 64 144 96 64 144 96 64 144 96 64 144 96 64 144 96 64 144 96 64 144 96 64 144 96 64 144 96 64 144 96 64 144 96 64 144 96 64 144 96 64 144 96 64 144 96 64 144 96 64 144 96 64 144 96 64 144 96 64 144 96 64 144 96 64 144 96 64 144 96 64 144 96 64 144 120 64 48 120 64 48 120 64 48 120 64 48 120 64 48 120 64 48 120 64 48 120 64 48 120 64 48 120 64 48 120 64 48 120 64 48 120 64 48 120 64 48 120 64 48 120 64 48 120 64 48 120 64 48 120 64 48 120 64 48 120 64 48 120 64 48 120 64 48 120 64 48 120 64 48 120 64 48 120 64 48 120 64 48 120 64 48 120 64 48 120 64 48 120 64 48 120 64 48 120 64 48 120 64 48 120 64 48 120 64 48 120 64 48 120 64 48 120 64 48 120 64 48 120 64 48 120 64 48 120 64 48 120 64 48 120 64 48 120 64 48 120 64 48 120 64 48 120 64 48 120 64 48 120 64 48 120 64 48 120 64 48 120 64 48 120 64 48 120 64 48 120 64 48 120 64 48 120 64 48 120 64 48 120 64 48 120 64 48 120 64 48 120 64 48 120 64 48 120 64 48 120 64 48 120 64 48 120 64 48 120 64 48 120 64 48 120 64 48 120 64 48 120 64 48 120 64 48 120 64 48 120 64 48 120 64 48 120 64 48 120 64 48 120 64 48 120 64 48 120 64 48 120 64 48 120 64 48 120 64 48 120 64 48 120 64 48 120 64 48 120 64 48 120 64 48 120 64 48 120 64 48 120 64 48 120 64 48
96 64 144 96 64 144 96 64 144 96 64 144 96 64 144 96 64 144 96 64 144 96 64 144 96 64 144 96 64 144 96 64 144 96 64 144 96 64 144 96 64 144 96 64 144 96 64 144 96 64 144 96 64 144 96 64 144 96 64 144 96 64 144 96 64 144 96 64 144 96 64 144 96 64 144 96 64 144 96 64 144 96 64 144 96 64 144 96 64 144 96 64 144 96 64 144 120 64 48 120 64 48 120 64 48 120 64 48 120 64 48 120 64 48 120 64 48 120 64 48 120 64 48 120 64 48 120 64 48 120 64 48 120 64 48 120 64 48 120 64 48 120 64 48 120 64 48 120 64 48 120 64 48 120 64 48 120 64 48 120 64 48 120 64 48 120 64 48 120 64 48 120 64 48 120 64 48 120 64 48 120 64 48 120 64 48 120 64 48 120 64 48 120 64 48 120 64 48 120 64 48 120 64 48 120 64 48 120 64 48 120 64 48 120 64 48 120 64 48 120 64 48 120 64 48 120 64 48 120 64 48 120 64 48 120 64 48 120 64 48 120 64 48 120 64 48 120 64 48 120 64 48 120 64 48 120 64 48 120 64 48 120 64 48 120 64 48 120 64 48 120 64 48 120 64 48 120 64 48 120 64 48 120 64 48 120 64 48 120 64 48 120 64 48 120 64 48 120 64 48 120 64 48 120 64 48 120 64 48 120 64 48 120 64 48 120 64 48 120 64 48 120 64 48 120 64 48 120 64 48 120 64 48 120 64 48 120 64 48 120 64 48 120 64 48 120 64 48 120 64 48 120 64 48 120 64 48 120 64 48 120 64 48 120 64 48 120 64 48 120 64 48 120 64 48 120 64 48 120 64 48 120 64 48
96 64 144 96 64 144 96 64 144 96 64 144 96 64 144 96 64 144 96 64 144 96 64 144 96 64 144 96 64 144 96 64 144 96 64 144 96 64 144 96 64 144 96 64 144 96 64 144 96 64 144 96 64 144 96 64 144 96 64 144 96 64 144 96 64 144 96 64 144 96 64 144 96 64 144 96 64 144 96 64 144 96 64 144 96 64 144 96 64 144 96 64 144 96 64 144 120 64 48 120 64 48 120 64 48 120 64 48 120 64 48 120 64 48 120 64 48 120 64 48 120 64 48 120 64 48 120 64 48 120 64 48 120 64 48 120 64 48 120 64 48 120 64 48 120 64 48 120 64 48 120 64 48 120 64 48 120 64 48 120 64 48 120 64 48 120 64 48 120 64 48 120 64 48 120 64 48 120 64 48 120 64 48 120 64 48 120 64 48 120 64 48 120 64 48 120 64 48 120 64 48 120 64 48 120 64 48 120 64 48 120 64 48 120 64 48 120 64 48 120 64 48 120 64 48 120 64 48 120 64 48 120 64 48 120 64 48 120 64 48 120 64 48 120 64 48 120 64 48 120 64 48 120 64 48 120 64 48 120 64 48 120 64 48 120 64 48 120 64 48 120 64 48 120 64 48 120 64 48 120 64 48 120 64 48 120 64 48 120 64 48 120 64 48 120 64 48 120 64 48 120 64 48 120 64 48 120 64 48 120 64 48 120 64 48 120 64 48 120 64 48 120 64 48 120 64 48 120 64 48 120 64 48 120 64 48 120 64 48 120 64 48 120 64 48 120 64 48 120 64 48 120 64 48 120 64 48 120 64 48 120 64 48 120 64 48 120 64 48 120 64 48 120 64 48 120 64 48 120 64 48 120 64 48
96 64 144 96 64 144 96 64 144 96 64 144 96 64 144 96 64 144 96 64 144 96 64 144 96 64 144 96 64 144 96 64 144 96 64 144 96 64 144 96 64 144 96 64 144 96 64 144 96 64 144 96 64 144 96 64 144 96 64 144 96 64 144 96 64 144 96 64 144 96 64 144 96 64 144 96 64 144 96 64 144 96 64 144 96 64 144 96 64 144 96 64 144 96 64 144 120 64 48 120 64 48 120 64 48 120 64 48 120 64 48 120 64 48 120 64 48 120 64 48 120 64 48 120 64 48 120 64 48 120 64 48 120 64 48 120 64 48 120 64 48 120 64 48 120 64 48 120 64 48 120 64 48 120 64 48 120 64 48 120 64 48 120 64 48 120 64 48 120 64 48 120 64 48 120 64 48 120 64 48 120 64 48 120 64 48 120 64 48 120 64 48 120 64 48 120 64 48 120 64 48 120 64 48 120 64 48 120 64 48 120 64 48 120 64 48 120 64 48 120 64 48 120 64 48 120 64 48 120 64 48 120 64 48 120 64 48 120 64 48 120 64 48 120 64 48 120 64 48 120 64 48 120 64 48 120 64 48 120 64 48 120 64 48 120 64 48 120 64 48 120 64 48 120 64 48 120 64 48 120 64 48 120 64 48 120 64 48 120 64 48 120 64 48 120 64 48 120 64 48 120 64 48 120 64 48 120 64 48 120 64 48 120 64 48 120 64 48 120 64 48 120 64 48 120 64 48 120 64 48 120 64 48 120 64 48 120 64 48 120 64 48 120 64 48 120 64 48 120 64 48 120 64 48 120 64 48 120 64 48 120 64 48 120 64 48 120 64 48 120 64 48 120 64 48 120 64 48 120 64 48 120 64 48
96 64 144 96 64 144 96 64 144 96 64 144 96 64 144 96 64 144 96 64 144 96 64 144 96 64 144 96 64 144 96 64 144 96 64 144 96 64 144 96 64 144 96 64 144 96 64 144 96 64 144 96 64 144 96 64 144 96 64 144 96 64 144 96 64 144 96 64 144 96 64 144 96 64 144 96 64 144 96 64 144 96 64 144 96 64 144 96 64 144 96 64 144 96 64 144 120 64 48 120 64 48 120 64 48 120 64 48 120 64 48 120 64 48 120 64 48 120 64 48 120 64 48 120 64 48 120 64 48 120 64 48 120 64 48 120 64 48 120 64 48 120 64 48 120 64 48 120 64 48 120 64 48 120 64 48 120 64 48 120 64 48 120 64 48 120 64 48 120 64 48 120 64 48 120 64 48 120 64 48 120 64 48 120 64 48 120 64 48 120 64 48 120 64 48 120 64 48 120 64 48 120 64 48 120 64 48 120 64 48 120 64 48 120 64 48 120 64 48 120 64 48 120 64 48 120 64 48 120 64 48 120 64 48 120 64 48 120 64 48 120 64 48 120 64 48 120 64 48 120 64 48 120 64 48 120 64 48 120 64 48 120 64 48 120 64 48 120 64 48 120 64 48 120 64 48 120 64 48 120 64 48 120 64 48 120 64 48 120 64 48 120 64 48 120 64 48 120 64 48 120 64 48 120 64 48 120 64 48 120 64 48 120 64 48 120 64 48 120 64 48 120 64 48 120 64 48 120 64 48 120 64 48 120 64 48 120 64 48 120 64 48 120 64 48 120 64 48 120 64 48 120 64 48 120 64 48 120 64 48 120 64 48 120 64 48 120 64 48 120 64 48 120 64 48 120 64 48 120 64 48 120 64 48
96 64 144 96 64 144 96 64 144 96 64 144 96 64 144 96 64 144 96 64 144 96 64 144 96 64 144 96 64 144 96 64 144 96 64 144 96 64 144 96 64 144 96 64 144 96 64 144 96 64 144 96 64 144 96 64 144 96 64 144 96 64 144 96 64 144 96 64 144 96 64 144 96 64 144 96 64 144 96 64 144 96 64 144 96 64 144 96 64 144 96 64 144 96 64 144 120 64 48 120 64 48 120 64 48 120 64 48 120 64 48 120 64 48 120 64 48 120 64 48 120 64 48 120 64 48 120 64 48 120 64 48 120 64 48 120 64 48 120 64 48 120 64 48 120 64 48 120 64 48 120 64 48 120 64 48 120 64 48 120 64 48 120 64 48 120 64 48 120 64 48 120 64 48 120 64 48 120 64 48 120 64 48 120 64 48 120 64 48 120 64 48 120 64 48 120 64 48 120 64 48 120 64 48 120 64 48 120 64 48 120 64 48 120 64 48 120 64 48 120 64 48 120 64 48 120 64 48 120 64 48 120 64 48 120 64 48 120 64 48 120 64 48 120 64 48 120 64 48 120 64 48 120 64 48 120 64 48 120 64 48 120 64 48 120 64 48 120 64 48 120 64 48 120 64 48 120 64 48 120 64 48 120 64 48 120 64 48 120 64 48 120 64 48 120 64 48 120 64 48 120 64 48 120 64 48 120 64 48 120 64 48 120 64 48 120 64 48 120 64 48 120 64 48 120 64 48 120 64 48 120 64 48 120 64 48 120 64 48 120 64 48 120 64 48 120 64 48 120 64 48 120 64 48 120 64 48 120 64 48 120 64 48 120 64 48 120 64 48 120 64 48 120 64 48 120 64 48 120 64 48 120 64 48
96 64 144 96 64 144 96 64 144 96 64 144 96 64 144 96 64 144 96 64 144 96 64 144 96 64 144 96 64 144 96 64 144 96 64 144 96 64 144 96 64 144 96 64 144 96 64 144 96 64 144 96 64 144 96 64 144 96 64 144 96 64 144 96 64 144 96 64 144 96 64 144 96 64 144 96 64 144 96 64 144 96 64 144 96 64 144 96 64 144 96 64 144 96 64 144 120 64 48 120 64 48 120 64 48 120 64 48 120 64 48 120 64 48 120 64 48 120 64 48 120 64 48 120 64 48 120 64 48 120 64 48 120 64 48 120 64 48 120 64 48 120 64 48 120 64 48 120 64 48 120 64 48 120 64 48 120 64 48 120 64 48 120 64 48 120 64 48 120 64 48 120 64 48 120 64 48 120 64 48 120 64 48 120 64 48 120 64 48 120 64 48 120 64 48 120 64 48 120 64 48 120 64 48 120 64 48 120 64 48 120 64 48 120 64 48 120 64 48 120 64 48 120 64 48 120 64 48 120 64 48 120 64 48 120 64 48 120 64 48 120 64 48 120 64 48 120 64 48 120 64 48 120 64 48 120 64 48 120 64 48 120 64 48 120 64 48 120 64 48 120 64 48 120 64 48 120 64 48 120 64 48 120 64 48 120 64 48 120 64 48 120 64 48 120 64 48 120 64 48 120 64 48 120 64 48 120 64 48 120 64 48 120 64 48 120 64 48 120 64 48 120 64 48 120 64 48 120 64 48 120 64 48 120 64 48 120 64 48 120 64 48 120 64 48 120 64 48 120 64 48 120 64 48 120 64 48 120 64 48 120 64 48 120 64 48 120 64 48 120 64 48 120 64 48 120 64 48 120 64 48 120 64 48
96 64 144 96 64 144 96 64 144 96 64 144 96 64 144 96 64 144 96 64 144 96 64 144 96 64 144 96 64 144 96 64 144 96 64 144 96 64 144 96 64 144 96 64 144 96 64 144 96 64 144 96 64 144 96 64 144 96 64 144 96 64 144 96 64 144 96 64 144 96 64 144 96 64 144 96 64 144 96 64 144 96 64 144 96 64 144 96 64 144 96 64 144 96 64 144 120 64 48 120 64 48 120 64 48 120 64 48 120 64 48 120 64 48 120 64 48 120 64 48 120 64 48 120 64 48 120 64 48 120 64 48 120 64 48 120 64 48 120 64 48 120 64 48 120 64 48 120 64 48 120 64 48 120 64 48 120 64 48 120 64 48 120 64 48 120 64 48 120 64 48 120 64 48 120 64 48 120 64 48 120 64 48 120 64 48 120 64 48 120 64 48 120 64 48 120 64 48 120 64 48 120 64 48 120 64 48 120 64 48 120 64 48 120 64 48 120 64 48 120 64 48 120 64 48 120 64 48 120 64 48 120 64 48 120 64 48 120 64 48 120 64 48 120 64 48 120 64 48 120 64 48 120 64 48 120 64 48 120 64 48 120 64 48 120 64 48 120 64 48 120 64 48 120 64 48 120 64 48 120 64 48 120 64 48 120 64 48 120 64 48 120 64 48 120 64 48 120 64 48 120 64 48 120 64 48 120 64 48 120 64 48 120 64 48 120 64 48 120 64 48 120 64 48 120 64 48 120 64 48 120 64 48 120 64 48 120 64 48 120 64 48 120 64 48 120 64 48 120 64 48 120 64 48 120 64 48 120 64 48 120 64 48 120 64 48 120 64 48 120 64 48 120 64 48 120 64 48 120 64 48 120 64 48
96 64 144 96 64 144 96 64 144 96 64 144 96 64 144 96 64 144 96 64 144 96 64 144 96 64 144 96 64 144 96 64 144 96 64 144 96 64 144 96 64 144 96 64 144 96 64 144 96 64 144 96 64 144 96 64 144 96 64 144 96 64 144 96 64 144 96 64 144 96 64 144 96 64 144 96 64 144 96 64 144 96 64 144 96 64 144 96 64 144 96 64 144 96 64 144 120 64 48 120 64 48 120 64 48 120 64 48 120 64 48 120 64 48 120 64 48 120 64 48 120 64 48 120 64 48 120 64 48 120 64 48 120 64 48 120 64 48 120 64 48 120 64 48 120 64 48 120 64 48 120 64 48 120 64 48 120 64 48 120 64 48 120 64 48 120 64 48 120 64 48 120 64 48 120 64 48 120 64 48 120 64 48 120 64 48 120 64 48 120 64 48 120 64 48 120 64 48 120 64 48 120 64 48 120 64 48 120 64 48 120 64 48 120 64 48 120 64 48 120 64 48 120 64 48 120 64 48 120 64 48 120 64 48 120 64 48 120 64 48 120 64 48 120 64 48 120 64 48 120 64 48 120 64 48 120 64 48 120 64 48 120 64 48 120 64 48 120 64 48 120 64 48 120 64 48 120 64 48 120 64 48 120 64 48 120 64 48 120 64 48 120 64 48 120 64 48 120 64 48 120 64 48 120 64 48 120 64 48 120 64 48 120 64 48 120 64 48 120 64 48 120 64 48 120 64 48 120 64 48 120 64 48 120 64 48 120 64 48 120 64 48 120 64 48 120 64 48 120 64 48 120 64 48 120 64 48 120 64 48 120 64 48 120 64 48 120 64 48 120 64 48 120 64 48 120 64 48 120 64 48 120 64 48
96 64 144 96 64 144 96 64 144 96 64 144 96 64 144 96 64 144 96 64 144 96 64 144 96 64 144 96 64 144 96 64 144 96 64 144 96 64 144 96 64 144 96 64 144 96 64 144 96 64 144 96 64 144 96 64 144 96 64 144 96 64 144 96 64 144 96 64 144 96 64 144 96 64 144 96 64 144 96 64 144 96 64 144 96 64 144 96 64 144 96 64 144 96 64 144 120 64 48 120 64 48 120 64 48 120 64 48 120 64 48 120 64 48 120 64 48 120 64 48 120 64 48 120 64 48 120 64 48 120 64 48 120 64 48 120 64 48 120 64 48 120 64 48 120 64 48 120 64 48 120 64 48 120 64 48 120 64 48 120 64 48 120 64 48 120 64 48 120 64 48 120 64 48 120 64 48 120 64 48 120 64 48 120 64 48 120 64 48 120 64 48 120 64 48 120 64 48 120 64 48 120 64 48 120 64 48 120 64 48 120 64 48 120 64 48 120 64 48 120 64 48 120 64 48 120 64 48 120 64 48 120 64 48 120 64 48 120 64 48 120 64 48 120 64 48 120 64 48 120 64 48 120 64 48 120 64 48 120 64 48 120 64 48 120 64 48 120 64 48 120 64 48 120 64 48 120 64 48 120 64 48 120 64 48 120 64 48 120 64 48 120 64 48 120 64 48 120 64 48 120 64 48 120 64 48 120 64 48 120 64 48 120 64 48 120 64 48 120 64 48 120 64 48 120 64 48 120 64 48 120 64 48 120 64 48 120 64 48 120 64 48 120 64 48 120 64 48 120 64 48 120 64 48 120 64 48 120 64 48 120 64 48 120 64 48 120 64 48 120 64 48 120 64 48 120 64 48 120 64 48 120 64 48
96 64 144 96 64 144 96 64 144 96 64 144 96 64 144 96 64 144 96 64 144 96 64 144 96 64 144 96 64 144 96 64 144 96 64 144 96 64 144 96 64 144 96 64 144 96 64 144 96 64 144 96 64 144 96 64 144 96 64 144 96 64 144 96 64 144 96 64 144 96 64 144 96 64 144 96 64 144 96 64 144 96 64 144 96 64 144 96 64 144 96 64 144 96 64 144 120 64 48 120 64 48 120 64 48 120 64 48 120 64 48 120 64 48 120 64 48 120 64 48 120 64 48 120 64 48 120 64 48 120 64 48 120 64 48 120 64 48 120 64 48 120 64 48 120 64 48 120 64 48 120 64 48 120 64 48 120 64 48 120 64 48 120 64 48 120 64 48 120 64 48 120 64 48 120 64 48 120 64 48 120 64 48 120 64 48 120 64 48 120 64 48 120 64 48 120 64 48 120 64 48 120 64 48 120 64 48 120 64 48 120 64 48 120 64 48 120 64 48 120 64 48 120 64 48 120 64 48 120 64 48 120 64 48 120 64 48 120 64 48 120 64 48 120 64 48 120 64 48 120 64 48 120 64 48 120 64 48 120 64 48 120 64 48 120 64 48 120 64 48 120 64 48 120 64 48 120 64 48 120 64 48 120 64 48 120 64 48 120 64 48 120 64 48 120 64 48 120 64 48 120 64 48 120 64 48 120 64 48 120 64 48 120 64 48 120 64 48 120 64 48 120 64 48 120 64 48 120 64 48 120 64 48 120 64 48 120 64 48 120 64 48 120 64 48 120 64 48 120 64 48 120 64 48 120 64 48 120 64 48 120 64 48 120 64 48 120 64 48 120 64 48 120 64 48 120 64 48 120 64 48 120 64 48
96 64 144 96 64 144 96 64 144 96 64 144 96 64 144 96 64 144 96 64 144 96 64 144 96 64 144 96 64 144 96 64 144 96 64 144 96 64 144 96 64 144 96 64 144 96 64 144 96 64 144 96 64 144 96 64 144 96 64 144 96 64 144 96 64 144 96 64 144 96 64 144 96 64 144 96 64 144 96 64 144 96 64 144 96 64 144 96 64 144 96 64 144 96 64 144 120 64 48 120 64 48 120 64 48 120 64 48 120 64 48 120 64 48 120 64 48 120 64 48 120 64 48 120 64 48 120 64 48 120 64 48 120 64 48 120 64 48 120 64 48 120 64 48 120 64 48 120 64 48 120 64 48 120 64 48 120 64 48 120 64 48 120 64 48 120 64 48 120 64 48 120 64 48 120 64 48 120 64 48 120 64 48 120 64 48 120 64 48 120 64 48 120 64 48 120 64 48 120 64 48 120 64 48 120 64 48 120 64 48 120 64 48 120 64 48 120 64 48 120 64 48 120 64 48 120 64 48 120 64 48 120 64 48 120 64 48 120 64 48 120 64 48 120 64 48 120 64 48 120 64 48 120 64 48 120 64 48 120 64 48 120 64 48 120 64 48 120 64 48 120 64 48 120 64 48 120 64 48 120 64 48 120 64 48 120 64 48 120 64 48 120 64 48 120 64 48 120 64 48 120 64 48 120 64 48 120 64 48 120 64 48 120 64 48 120 64 48 120 64 48 120 64 48 120 64 48 120 64 48 120 64 48 120 64 48 120 64 48 120 64 48 120 64 48 120 64 48 120 64 48 120 64 48 120 64 48 120 64 48 120 64 48 120 64 48 120 64 48 120 64 48 120 64 48 120 64 48 120 64 48 120 64 48
96 64 144 96 64 144 96 64 144 96 64 144 96 64 144 96 64 144 96 64 144 96 64 144 96 64 144 96 64 144 96 64 144 96 64 144 96 64 144 96 64 144 96 64 144 96 64 144 96 64 144 96 64 144 96 64 144 96 64 144 96 64 144 96 64 144 96 64 144 96 64 144 96 64 144 96 64 144 96 64 144 96 64 144 96 64 144 96 64 144 96 64 144 96 64 144 120 64 48 120 64 48 120 64 48 120 64 48 120 64 48 120 64 48 120 64 48 120 64 48 120 64 48 120 64 48 120 64 48 120 64 48 120 64 48 120 64 48 120 64 48 120 64 48 120 64 48 120 64 48 120 64 48 120 64 48 120 64 48 120 64 48 120 64 48 120 64 48 120 64 48 120 64 48 120 64 48 120 64 48 120 64 48 120 64 48 120 64 48 120 64 48 120 64 48 120 64 48 120 64 48 120 64 48 120 64 48 120 64 48 120 64 48 120 64 48 120 64 48 120 64 48 120 64 48 120 64 48 120 64 48 120 64 48 120 64 48 120 64 48 120 64 48 120 64 48 120 64 48 120 64 48 120 64 48 120 64 48 120 64 48 120 64 48 120 64 48 120 64 48 120 64 48 120 64 48 120 64 48 120 64 48 120 64 48 120 64 48 120 64 48 120 64 48 120 64 48 120 64 48 120 64 48 120 64 48 120 64 48 120 64 48 120 64 48 120 64 48 120 64 48 120 64 48 120 64 48 120 64 48 120 64 48 120 64 48 120 64 48 120 64 48 120 64 48 120 64 48 120 64 48 120 64 48 120 64 48 120 64 48 120 64 48 120 64 48 120 64 48 120 64 48 120 64 48 120 64 48 120 64 48 120 64 48
96 64 144 96 64 144 96 64 144 96 64 144 96 64 144 96 64 144 96 64 144 96 64 144 96 64 144 96 64 144 96 64 144 96 64 144 96 64 144 96 64 144 96 64 144 96 64 144 96 64 144 96 64 144 96 64 144 96 64 144 96 64 144 96 64 144 96 64 144 96 64 144 96 64 144 96 64 144 96 64 144 96 64 144 96 64 144 96 64 144 96 64 144 96 64 144 120 64 48 120 64 48 120 64 48 120 64 48 120 64 48 120 64 48 120 64 48 120 64 48 120 64 48 120 64 48 120 64 48 120 64 48 120 64 48 120 64 48 120 64 48 120 64 48 120 64 48 120 64 48 120 64 48 120 64 48 120 64 48 120 64 48 120 64 48 120 64 48 120 64 48 120 64 48 120 64 48 120 64 48 120 64 48 120 64 48 120 64 48 120 64 48 120 64 48 120 64 48 120 64 48 120 64 48 120 64 48 120 64 48 120 64 48 120 64 48 120 64 48 120 64 48 120 64 48 120 64 48 120 64 48 120 64 48 120 64 48 120 64 48 120 64 48 120 64 48 120 64 48 120 64 48 120 64 48 120 64 48 120 64 48 120 64 48 120 64 48 120 64 48 120 64 48 120 64 48 120 64 48 120 64 48 120 64 48 120 64 48 120 64 48 120 64 48 120 64 48 120 64 48 120 64 48 120 64 48 120 64 48 120 64 48 120 64 48 120 64 48 120 64 48 120 64 48 120 64 48 120 64 48 120 64 48 120 64 48 120 64 48 120 64 48 120 64 48 120 64 48 120 64 48 120 64 48 120 64 48 120 64 48 120 64 48 120 64 48 120 64 48 120 64 48 120 64 48 120 64 48 120 64 48 120 64 48
96 64 144 96 64 144 96 64 144 96 64 144 96 64 144 96 64 144 96 64 144 96 64 144 96 64 144 96 64 144 96 64 144 96 64 144 96 64 144 96 64 144 96 64 144 96 64 144 96 64 144 96 64 144 96 64 144 96 64 144 96 64 144 96 64 144 96 64 144 96 64 144 96 64 144 96 64 144 96 64 144 96 64 144 96 64 144 96 64 144 96 64 144 96 64 144 120 64 48 120 64 48 120 64 48 120 64 48 120 64 48 120 64 48 120 64 48 120 64 48 120 64 48 120 64 48 120 64 48 120 64 48 120 64 48 120 64 48 120 64 48 120 64 48 120 64 48 120 64 48 120 64 48 120 64 48 120 64 48 120 64 48 120 64 48 120 64 48 120 64 48 120 64 48 120 64 48 120 64 48 120 64 48 120 64 48 120 64 48 120 64 48 120 64 48 120 64 48 120 64 48 120 64 48 120 64 48 120 64 48 120 64 48 120 64 48 120 64 48 120 64 48 120 64 48 120 64 48 120 64 48 120 64 48 120 64 48 120 64 48 120 64 48 120 64 48 120 64 48 120 64 48 120 64 48 120 64 48 120 64 48 120 64 48 120 64 48 120 64 48 120 64 48 120 64 48 120 64 48 120 64 48 120 64 48 120 64 48 120 64 48 120 64 48 120 64 48 120 64 48 120 64 48 120 64 48 120 64 48 120 64 48 120 64 48 120 64 48 120 64 48 120 64 48 120 64 48 120 64 48 120 64 48 120 64 48 120 64 48 120 64 48 120 64 48 120 64 48 120 64 48 120 64 48 120 64 48 120 64 48 120 64 48 120 64 48 120 64 48 120 64 48 120 64 48 120 64 48 120 64 48 120 64 48
96 64 144 96 64 144 96 64 144 96 64 144 96 64 144 96 64 144 96 64 144 96 64 144 96 64 144 96 64 144 96 64 144 96 64 144 96 64 144 96 64 144 96 64 144 96 64 144 96 64 144 96 64 144 96 64 144 96 64 144 96 64 144 96 64 144 96 64 144 96 64 144 96 64 144 96 64 144 96 64 144 96 64 144 96 64 144 96 64 144 96 64 144 96 64 144 120 64 48 120 64 48 120 64 48 120 64 48 120 64 48 120 64 48 120 64 48 120 64 48 120 64 48 120 64 48 120 64 48 120 64 48 120 64 48 120 64 48 120 64 48 120 64 48 120 64 48 120 64 48 120 64 48 120 64 48 120 64 48 120 64 48 120 64 48 120 64 48 120 64 48 120 64 48 120 64 48 120 64 48 120 64 48 120 64 48 120 64 48 120 64 48 120 64 48 120 64 48 120 64 48 120 64 48 120 64 48 120 64 48 120 64 48 120 64 48 120 64 48 120 64 48 120 64 48 120 64 48 120 64 48 120 64 48 120 64 48 120 64 48 120 64 48 120 64 48 120 64 48 120 64 48 120 64 48 120 64 48 120 64 48 120 64 48 120 64 48 120 64 48 120 64 48 120 64 48 120 64 48 120 64 48 120 64 48 120 64 48 120 64 48 120 64 48 120 64 48 120 64 48 120 64 48 120 64 48 120 64 48 120 64 48 120 64 48 120 64 48 120 64 48 120 64 48 120 64 48 120 64 48 120 64 48 120 64 48 120 64 48 120 64 48 120 64 48 120 64 48 120 64 48 120 64 48 120 64 48 120 64 48 120 64 48 120 64 48 120 64 48 120 64 48 120 64 48 120 64 48 120 64 48 120 64 48
96 64 144 96 64 144 96 64 144 96 64 144 96 64 144 96 64 144 96 64 144 96 64 144 96 64 144 96 64 144 96 64 144 96 64 144 96 64 144 96 64 144 96 64 144 96 64 144 96 64 144 96 64 144 96 64 144 96 64 144 96 64 144 96 64 144 96 64 144 96 64 144 96 64 144 96 64 144 96 64 144 96 64 144 96 64 144 96 64 144 96 64 144 96 64 144 120 64 48 120 64 48 120 64 48 120 64 48 120 64 48 120 64 48 120 64 48 120 64 48 120 64 48 120 64 48 120 64 48 120 64 48 120 64 48 120 64 48 120 64 48 120 64 48 120 64 48 120 64 48 120 64 48 120 64 48 120 64 48 120 64 48 120 64 48 120 64 48 120 64 48 120 64 48 120 64 48 120 64 48 120 64 48 120 64 48 120 64 48 120 64 48 120 64 48 120 64 48 120 64 48 120 64 48 120 64 48 120 64 48 120 64 48 120 64 48 120 64 48 120 64 48 120 64 48 120 64 48 120 64 48 120 64 48 120 64 48 120 64 48 120 64 48 120 64 48 120 64 48 120 64 48 120 64 48 120 64 48 120 64 48 120 64 48 120 64 48 120 64 48 120 64 48 120 64 48 120 64 48 120 64 48 120 64 48 120 64 48 120 64 48 120 64 48 120 64 48 120 64 48 120 64 48 120 64 48 120 64 48 120 64 48 120 64 48 120 64 48 120 64 48 120 64 48 120 64 48 120 64 48 120 64 48 120 64 48 120 64 48 120 64 48 120 64 48 120 64 48 120 64 48 120 64 48 120 64 48 120 64 48 120 64 48 120 64 48 120 64 48 120 64 48 120 64 48 120 64 48 120 64 48 120 64 48
96 64 144 96 64 144 96 64 144 96 64 144 96 64 144 96 64 144 96 64 144 96 64 144 96 64 144 96 64 144 96 64 144 96 64 144 96 64 144 96 64 144 96 64 144 96 64 144 96 64 144 96 64 144 96 64 144 96 64 144 96 64 144 96 64 144 96 64 144 96 64 144 96 64 144 96 64 144 96 64 144 96 64 144 96 64 144 96 64 144 96 64 144 96 64 144 120 64 48 120 64 48 120 64 48 120 64 48 120 64 48 120 64 48 120 64 48 120 64 48 120 64 48 120 64 48 120 64 48 120 64 48 120 64 48 120 64 48 120 64 48 120 64 48 120 64 48 120 64 48 120 64 48 120 64 48 120 64 48 120 64 48 120 64 48 120 64 48 120 64 48 120 64 48 120 64 48 120 64 48 120 64 48 120 64 48 120 64 48 120 64 48 120 64 48 120 64 48 120 64 48 120 64 48 120 64 48 120 64 48 120 64 48 120 64 48 120 64 48 120 64 48 120 64 48 120 64 48 120 64 48 120 64 48 120 64 48 120 64 48 120 64 48 120 64 48 120 64 48 120 64 48 120 64 48 120 64 48 120 64 48 120 64 48 120 64 48 120 64 48 120 64 48 120 64 48 120 64 48 120 64 48 120 64 48 120 64 48 120 64 48 120 64 48 120 64 48 120 64 48 120 64 48 120 64 48 120 64 48 120 64 48 120 64 48 120 64 48 120 64 48 120 64 48 120 64 48 120 64 48 120 64 48 120 64 48 120 64 48 120 64 48 120 64 48 120 64 48 120 64 48 120 64 48 120 64 48 120 64 48 120 64 48 120 64 48 120 64 48 120 64 48 120 64 48 120 64 48 120 64 48 120 64 48
96 64 144 96 64 144 96 64 144 96 64 144 96 64 144 96 64 144 96 64 144 96 64 144 96 64 144 96 64 144 96 64 144 96 64 144 96 64 144 96 64 144 96 64 144 96 64 144 96 64 144 96 64 144 96 64 144 96 64 144 96 64 144 96 64 144 96 64 144 96 64 144 96 64 144 96 64 144 96 64 144 96 64 144 96 64 144 96 64 144 96 64 144 96 64 144 120 64 48 120 64 48 120 64 48 120 64 48 120 64 48 120 64 48 120 64 48 120 64 48 120 64 48 120 64 48 120 64 48 120 64 48 120 64 48 120 64 48 120 64 48 120 64 48 120 64 48 120 64 48 120 64 48 120 64 48 120 64 48 120 64 48 120 64 48 120 64 48 120 64 48 120 64 48 120 64 48 120 64 48 120 64 48 120 64 48 120 64 48 120 64 48 120 64 48 120 64 48 120 64 48 120 64 48 120 64 48 120 64 48 120 64 48 120 64 48 120 64 48 120 64 48 120 64 48 120 64 48 120 64 48 120 64 48 120 64 48 120 64 48 120 64 48 120 64 48 120 64 48 120 64 48 120 64 48 120 64 48 120 64 48 120 64 48 120 64 48 120 64 48 120 64 48 120 64 48 120 64 48 120 64 48 120 64 48 120 64 48 120 64 48 120 64 48 120 64 48 120 64 48 120 64 48 120 64 48 120 64 48 120 64 48 120 64 48 120 64 48 120 64 48 120 64 48 120 64 48 120 64 48 120 64 48 120 64 48 120 64 48 120 64 48 120 64 48 120 64 48 120 64 48 120 64 48 120 64 48 120 64 48 120 64 48 120 64 48 120 64 48 120 64 48 120 64 48 120 64 48 120 64 48 120 64 48
96 64 144 96 64 144 96 64 144 96 64 144 96 64 144 96 64 144 96 64 144 96 64 144 96 64 144 96 64 144 96 64 144 96 64 144 96 64 144 96 64 144 96 64 144 96 64 144 96 64 144 96 64 144 96 64 144 96 64 144 96 64 144 96 64 144 96 64 144 96 64 144 96 64 144 96 64 144 96 64 144 96 64 144 96 64 144 96 64 144 96 64 144 96 64 144 120 64 48 120 64 48 120 64 48 120 64 48 120 64 48 120 64 48 120 64 48 120 64 48 120 64 48 120 64 48 120 64 48 120 64 48 120 64 48 120 64 48 120 64 48 120 64 48 120 64 48 120 64 48 120 64 48 120 64 48 120 64 48 120 64 48 120 64 48 120 64 48 120 64 48 120 64 48 120 64 48 120 64 48 120 64 48 120 64 48 120 64 48 120 64 48 120 64 48 120 64 48 120 64 48 120 64 48 120 64 48 120 64 48 120 64 48 120 64 48 120 64 48 120 64 48 120 64 48 120 64 48 120 64 48 120 64 48 120 64 48 120 64 48 120 64 48 120 64 48 120 64 48 120 64 48 120 64 48 120 64 48 120 64 48 120 64 48 120 64 48 120 64 48 120 64 48 120 64 48 120 64 48 120 64 48 120 64 48 120 64 48 120 64 48 120 64 48 120 64 48 120 64 48 120 64 48 120 64 48 120 64 48 120 64 48 120 64 48 120 64 48 120 64 48 120 64 48 120 64 48 120 64 48 120 64 48 120 64 48 120 64 48 120 64 48 120 64 48 120 64 48 120 64 48 120 64 48 120 64 48 120 64 48 120 64 48 120 64 48 120 64 48 120 64 48 120 64 48 120 64 48 120 64 48 120 64 48
96 64 144 96 64 144 96 64 144 96 64 144 96 64 144 96 64 144 96 64 144 96 64 144 96 64 144 96 64 144 96 64 144 96 64 144 96 64 144 96 64 144 96 64 144 96 64 144 96 64 144 96 64 144 96 64 144 96 64 144 96 64 144 96 64 144 96 64 144 96 64 144 96 64 144 96 64 144 96 64 144 96 64 144 96 64 144 96 64 144 96 64 144 96 64 144 120 64 48 120 64 48 120 64 48 120 64 48 120 64 48 120 64 48 120 64 48 120 64 48 120 64 48 120 64 48 120 64 48 120 64 48 120 64 48 120 64 48 120 64 48 120 64 48 120 64 48 120 64 48 120 64 48 120 64 48 120 64 48 120 64 48 120 64 48 120 64 48 120 64 48 120 64 48 120 64 48 120 64 48 120 64 48 120 64 48 120 64 48 120 64 48 120 64 48 120 64 48 120 64 48 120 64 48 120 64 48 120 64 48 120 64 48 120 64 48 120 64 48 120 64 48 120 64 48 120 64 48 120 64 48 120 64 48 120 64 48 120 64 48 120 64 48 120 64 48 120 64 48 120 64 48 120 64 48 120 64 48 120 64 48 120 64 48 120 64 48 120 64 48 120 64 48 120 64 48 120 64 48 120 64 48 120 64 48 120 64 48 120 64 48 120 64 48 120 64 48 120 64 48 120 64 48 120 64 48 120 64 48 120 64 48 120 64 48 120 64 48 120 64 48 120 64 48 120 64 48 120 64 48 120 64 48 120 64 48 120 64 48 120 64 48 120 64 48 120 64 48 120 64 48 120 64 48 120 64 48 120 64 48 120 64 48 120 64 48 120 64 48 120 64 48 120 64 48 120 64 48 120 64 48 120 64 48
96 64 144 96 64 144 96 64 144 96 64 144 96 64 144 96 64 144 96 64 144 96 64 144 96 64 144 96 64 144 96 64 144 96 64 144 96 64 144 96 64 144 96 64 144 96 64 144 96 64 144 96 64 144 96 64 144 96 64 144 96 64 144 96 64 144 96 64 144 96 64 144 96 64 144 96 64 144 96 64 144 96 64 144 96 64 144 96 64 144 96 64 144 96 64 144 120 64 48 120 64 48 120 64 48 120 64 48 120 64 48 120 64 48 120 64 48 120 64 48 120 64 48 120 64 48 120 64 48 120 64 48 120 64 48 120 64 48 120 64 48 120 64 48 120 64 48 120 64 48 120 64 48 120 64 48 120 64 48 120 64 48 120 64 48 120 64 48 120 64 48 120 64 48 120 64 48 120 64 48 120 64 48 120 64 48 120 64 48 120 64 48 120 64 48 120 64 48 120 64 48 120 64 48 120 64 48 120 64 48 120 64 48 120 64 48 120 64 48 120 64 48 120 64 48 120 64 48 120 64 48 120 64 48 120 64 48 120 64 48 120 64 48 120 64 48 120 64 48 120 64 48 120 64 48 120 64 48 120 64 48 120 64 48 120 64 48 120 64 48 120 64 48 120 64 48 120 64 48 120 64 48 120 64 48 120 64 48 120 64 48 120 64 48 120 64 48 120 64 48 120 64 48 120 64 48 120 64 48 120 64 48 120 64 48 120 64 48 120 64 48 120 64 48 120 64 48 120 64 48 120 64 48 120 64 48 120 64 48 120 64 48 120 64 48 120 64 48 120 64 48 120 64 48 120 64 48 120 64 48 120 64 48 120 64 48 120 64 48 120 64 48 120 64 48 120 64 48 120 64 48 120 64 48
96 64 144 96 64 144 96 64 144 96 64 144 96 64 144 96 64 144 96 64 144 96 64 144 96 64 144 96 64 144 96 64 144 96 64 144 96 64 144 96 64 144 96 64 144 96 64 144 96 64 144 96 64 144 96 64 144 96 64 144 96 64 144 96 64 144 96 64 144 96 64 144 96 64 144 96 64 144 96 64 144 96 64 144 96 64 144 96 64 144 96 64 144 96 64 144 120 64 48 120 64 48 120 64 48 120 64 48 120 64 48 120 64 48 120 64 48 120 64 48 120 64 48 120 64 48 120 64 48 120 64 48 120 64 48 120 64 48 120 64 48 120 64 48 120 64 48 120 64 48 120 64 48 120 64 48 120 64 48 120 64 48 120 64 48 120 64 48 120 64 48 120 64 48 120 64 48 120 64 48 120 64 48 120 64 48 120 64 48 120 64 48 120 64 48 120 64 48 120 64 48 120 64 48 120 64 48 120 64 48 120 64 48 120 64 48 120 64 48 120 64 48 120 64 48 120 64 48 120 64 48 120 64 48 120 64 48 120 64 48 120 64 48 120 64 48 120 64 48 120 64 48 120 64 48 120 64 48 120 64 48 120 64 48 120 64 48 120 64 48 120 64 48 120 64 48 120 64 48 120 64 48 120 64 48 120 64 48 120 64 48 120 64 48 120 64 48 120 64 48 120 64 48 120 64 48 120 64 48 120 64 48 120 64 48 120 64 48 120 64 48 120 64 48 120 64 48 120 64 48 120 64 48 120 64 48 120 64 48 120 64 48 120 64 48 120 64 48 120 64 48 120 64 48 120 64 48 120 64 48 120 64 48 120 64 48 120 64 48 120 64 48 120 64 48 120 64 48 120 64 48 120 64 48
96 64 144 96 64 144 96 64 144 96 64 144 96 64 144 96 64 144 96 64 144 96 64 144 96 64 144 96 64 144 96 64 144 96 64 144 96 64 144 96 64 144 96 64 144 96 64 144 96 64 144 96 64 144 96 64 144 96 64 144 96 64 144 96 64 144 96 64 144 96 64 144 96 64 144 96 64 144 96 64 144 96 64 144 96 64 144 96 64 144 96 64 144 96 64 144 120 64 48 120 64 48 120 64 48 120 64 48 120 64 48 120 64 48 120 64 48 120 64 48 120 64 48 120 64 48 120 64 48 120 64 48 120 64 48 120 64 48 120 64 48 120 64 48 120 64 48 120 64 48 120 64 48 120 64 48 120 64 48 120 64 48 120 64 48 120 64 48 120 64 48 120 64 48 120 64 48 120 64 48 120 64 48 120 64 48 120 64 48 120 64 48 120 64 48 120 64 48 120 64 48 120 64 48 120 64 48 120 64 48 120 64 48 120 64 48 120 64 48 120 64 48 120 64 48 120 64 48 120 64 48 120 64 48 120 64 48 120 64 48 120 64 48 120 64 48 120 64 48 120 64 48 120 64 48 120 64 48 120 64 48 120 64 48 120 64 48 120 64 48 120 64 48 120 64 48 120 64 48 120 64 48 120 64 48 120 64 48 120 64 48 120 64 48 120 64 48 120 64 48 120 64 48 120 64 48 120 64 48 120 64 48 120 64 48 120 64 48 120 64 48 120 64 48 120 64 48 120 64 48 120 64 48 120 64 48 120 64 48 120 64 48 120 64 48 120 64 48 120 64 48 120 64 48 120 64 48 120 64 48 120 64 48 120 64 48 120 64 48 120 64 48 120 64 48 120 64 48 120 64 48 120 64 48
96 64 144 96 64 144 96 64 144 96 64 144 96 64 144 96 64 144 96 64 144 96 64 144 96 64 144 96 64 144 96 64 144 96 64 144 96 64 144 96 64 144 96 64 144 96 64 144 96 64 144 96 64 144 96 64 144 96 64 144 96 64 144 96 64 144 96 64 144 96 64 144 96 64 144 96 64 144 96 64 144 96 64 144 96 64 144 96 64 144 96 64 144 96 64 144 120 64 48 120 64 48 120 64 48 120 64 48 120 64 48 120 64 48 120 64 48 120 64 48 120 64 48 120 64 48 120 64 48 120 64 48 120 64 48 120 64 48 120 64 48 120 64 48 120 64 48 120 64 48 120 64 48 120 64 48 120 64 48 120 64 48 120 64 48 120 64 48 120 64 48 120 64 48 120 64 48 120 64 48 120 64 48 120 64 48 120 64 48 120 64 48 120 64 48 120 64 48 120 64 48 120 64 48 120 64 48 120 64 48 120 64 48 120 64 48 120 64 48 120 64 48 120 64 48 120 64 48 120 64 48 120 64 48 120 64 48 120 64 48 120 64 48 120 64 48 120 64 48 120 64 48 120 64 48 120 64 48 120 64 48 120 64 48 120 64 48 120 64 48 120 64 48 120 64 48 120 64 48 120 64 48 120 64 48 120 64 48 120 64 48 120 64 48 120 64 48 120 64 48 120 64 48 120 64 48 120 64 48 120 64 48 120 64 48 120 64 48 120 64 48 120 64 48 120 64 48 120 64 48 120 64 48 120 64 48 120 64 48 120 64 48 120 64 48 120 64 48 120 64 48 120 64 48 120 64 48 120 64 48 120 64 48 120 64 48 120 64 48 120 64 48 120 64 48 120 64 48 120 64 48 120 64 48
96 64 144 96 64 144 96 64 144 96 64 144 96 64 144 96 64 144 96 64 144 96 64 144 96 64 144 96 64 144 96 64 144 96 64 144 96 64 144 96 64 144 96 64 144 96 64 144 96 64 144 96 64 144 96 64 144 96 64 144 96 64 144 96 64 144 96 64 144 96 64 144 96 64 144 96 64 144 96 64 144 96 64 144 96 64 144 96 64 144 96 64 144 96 64 144 120 64 48 120 64 48 120 64 48 120 64 48 120 64 48 120 64 48 120 64 48 120 64 48 120 64 48 120 64 48 120 64 48 120 64 48 120 64 48 120 64 48 120 64 48 120 64 48 120 64 48 120 64 48 120 64 48 120 64 48 120 64 48 120 64 48 120 64 48 120 64 48 120 64 48 120 64 48 120 64 48 120 64 48 120 64 48 120 64 48 120 64 48 120 64 48 120 64 48 120 64 48 120 64 48 120 64 48 120 64 48 120 64 48 120 64 48 120 64 48 120 64 48 120 64 48 120 64 48 120 64 48 120 64 48 120 64 48 120 64 48 120 64 48 120 64 48 120 64 48 120 64 48 120 64 48 120 64 48 120 64 48 120 64 48 120 64 48 120 64 48 120 64 48 120 64 48 120 64 48 120 64 48 120 64 48 120 64 48 120 64 48 120 64 48 120 64 48 120 64 48 120 64 48 120 64 48 120 64 48 120 64 48 120 64 48 120 64 48 120 64 48 120 64 48 120 64 48 120 64 48 120 64 48 120 64 48 120 64 48 120 64 48 120 64 48 120 64 48 120 64 48 120 64 48 120 64 48 120 64 48 120 64 48 120 64 48 120 64 48 120 64 48 120 64 48 120 64 48 120 64 48 120 64 48 120 64 48
96 64 144 96 64 144 96 64 144 96 64 144 96 64 144 96 64 144 96 64 144 96 64 144 96 64 144 96 64 144 96 64 144 96 64 144 96 64 144 96 64 144 96 64 144 96 64 144 96 64 144 96 64 144 96 64 144 96 64 144 96 64 144 96 64 144 96 64 144 96 64 144 96 64 144 96 64 144 96 64 144 96 64 144 96 64 144 96 64 144 96 64 144 96 64 144 120 64 48 120 64 48 120 64 48 120 64 48 120 64 48 120 64 48 120 64 48 120 64 48 120 64 48 120 64 48 120 64 48 120 64 48 120 64 48 120 64 48 120 64 48 120 64 48 120 64 48 120 64 48 120 64 48 120 64 48 120 64 48 120 64 48 120 64 48 120 64 48 120 64 48 120 64 48 120 64 48 120 64 48 120 64 48 120 64 48 120 64 48 120 64 48 120 64 48 120 64 48 120 64 48 120 64 48 120 64 48 120 64 48 120 64 48 120 64 48 120 64 48 120 64 48 120 64 48 120 64 48 120 64 48 120 64 48 120 64 48 120 64 48 120 64 48 120 64 48 120 64 48 120 64 48 120 64 48 120 64 48 120 64 48 120 64 48 120 64 48 120 64 48 120 64 48 120 64 48 120 64 48 120 64 48 120 64 48 120 64 48 120 64 48 120 64 48 120 64 48 120 64 48 120 64 48 120 64 48 120 64 48 120 64 48 120 64 48 120 64 48 120 64 48 120 64 48 120 64 48 120 64 48 120 64 48 120 64 48 120 64 48 120 64 48 120 64 48 120 64 48 120 64 48 120 64 48 120 64 48 120 64 48 120 64 48 120 64 48 120 64 48 120 64 48 120 64 48 120 64 48 120 64 48 120 64 48
96 64 144 96 64 144 96 64 144 96 64 144 96 64 144 96 64 144 96 64 144 96 64 144 96 64 144 96 64 144 96 64 144 96 64 144 96 64 144 96 64 144 96 64 144 96 64 144 96 64 144 96 64 144 96 64 144 96 64 144 96 64 144 96 64 144 96 64 144 96 64 144 96 64 144 96 64 144 96 64 144 96 64 144 96 64 144 96 64 144 96 64 144 96 64 144 120 64 48 120 64 48 120 64 48 120 64 48 120 64 48 120 64 48 120 64 48 120 64 48 120 64 48 120 64 48 120 64 48 120 64 48 120 64 48 120 64 48 120 64 48 120 64 48 120 64 48 120 64 48 120 64 48 120 64 48 120 64 48 120 64 48 120 64 48 120 64 48 120 64 48 120 64 48 120 64 48 120 64 48 120 64 48 120 64 48 120 64 48 120 64 48 120 64 48 120 64 48 120 64 48 120 64 48 120 64 48 120 64 48 120 64 48 120 64 48 120 64 48 120 64 48 120 64 48 120 64 48 120 64 48 120 64 48 120 64 48 120 64 48 120 64 48 120 64 48 120 64 48 120 64 48 120 64 48 120 64 48 120 64 48 120 64 48 120 64 48 120 64 48 120 64 48 120 64 48 120 64 48 120 64 48 120 64 48 120 64 48 120 64 48 120 64 48 120 64 48 120 64 48 120 64 48 120 64 48 120 64 48 120 64 48 120 64 48 120 64 48 120 64 48 120 64 48 120 64 48 120 64 48 120 64 48 120 64 48 120 64 48 120 64 48 120 64 48 120 64 48 120 64 48 120 64 48 120 64 48 120 64 48 120 64 48 120 64 48 120 64 48 120 64 48 120 64 48 120 64 48 120 64 48 120 64 48
96 64 144 96 64 144 96 64 144 96 64 144 96 64 144 96 64 144 96 64 144 96 64 144 96 64 144 96 64 144 96 64 144 96 64 144 96 64 144 96 64 144 96 64 144 96 64 144 96 64 144 96 64 144 96 64 144 96 64 144 96 64 144 96 64 144 96 64 144 96 64 144 96 64 144 96 64 144 96 64 144 96 64 144 96 64 144 96 64 144 96 64 144 96 64 144 120 64 48 120 64 48 120 64 48 120 64 48 120 64 48 120 64 48 120 64 48 120 64 48 120 64 48 120 64 48 120 64 48 120 64 48 120 64 48 120 64 48 120 64 48 120 64 48 120 64 48 120 64 48 120 64 48 120 64 48 120 64 48 120 64 48 120 64 48 120 64 48 120 64 48 120 64 48 120 64 48 120 64 48 120 64 48 120 64 48 120 64 48 120 64 48 120 64 48 120 64 48 120 64 48 120 64 48 120 64 48 120 64 48 120 64 48 120 64 48 120 64 48 120 64 48 120 64 48 120 64 48 120 64 48 120 64 48 120 64 48 120 64 48 120 64 48 120 64 48 120 64 48 120 64 48 120 64 48 120 64 48 120 64 48 120 64 48 120 64 48 120 64 48 120 64 48 120 64 48 120 64 48 120 64 48 120 64 48 120 64 48 120 64 48 120 64 48 120 64 48 120 64 48 120 64 48 120 64 48 120 64 48 120 64 48 120 64 48 120 64 48 120 64 48 120 64 48 120 64 48 120 64 48 120 64 48 120 64 48 120 64 48 120 64 48 120 64 48 120 64 48 120 64 48 120 64 48 120 64 48 120 64 48 120 64 48 120 64 48 120 64 48 120 64 48 120 64 48 120 64 48 120 64 48 120 64 48
120 64 48 120 64 48 120 64 48 120 64 48 120 64 48 120 64 48 120 64 48 120 64 48 120 64 48 120 64 48 120 64 48 120 64 48 120 64 48 120 64 48 120 64 48 120 64 48 120 64 48 120 64 48 120 64 48 120 64 48 120 64 48 120 64 48 120 64 48 120 64 48 120 64 48 120 64 48 120 64 48 120 64 48 120 64 48 120 64 48 120 64 48 120 64 48 120 64 48 120 64 48 120 64 48 120 64 48 120 64 48 120 64 48 120 64 48 120 64 48 120 64 48 120 64 48 120 64 48 120 64 48 120 64 48 120 64 48 120 64 48 120 64 48 120 64 48 120 64 48 120 64 48 120 64 48 120 64 48 120 64 48 120 64 48 120 64 48 120 64 48 120 64 48 120 64 48 120 64 48 120 64 48 120 64 48 120 64 48 120 64 48 120 64 48 120 64 48 120 64 48 120 64 48 120 64 48 120 64 48 120 64 48 120 64 48 120 64 48 120 64 48 120 64 48 120 64 48 120 64 48 120 64 48 120 64 48 120 64 48 120 64 48 120 64 48 120 64 48 120 64 48 120 64 48 120 64 48 120 64 48 120 64 48 120 64 48 120 64 48 120 64 48 120 64 48 120 64 48 120 64 48 120 64 48 120 64 48 120 64 48 120 64 48 120 64 48 120 64 48 120 64 48 120 64 48 120 64 48 120 64 48 120 64 48 120 64 48 120 64 48 120 64 48 120 64 48 120 64 48 120 64 48 120 64 48 120 64 48 120 64 48 120 64 48 120 64 48 120 64 48 120 64 48 120 64 48 120 64 48 120 64 48 120 64 48 120 64 48 120 64 48 120 64 48 120 64 48 120 64 48 120 64 48
120 64 48 120 64 48 120 64 48 120 64 48 120 64 48 120 64 48 120 64 48 120 64 48 120 64 48 120 64 48 120 64 48 120 64 48 120 64 48 120 64 48 120 64 48 120 64 48 120 64 48 120 64 48 120 64 48 120 64 48 120 64 48 120 64 48 120 64 48 120 64 48 120 64 48 120 64 48 120 64 48 120 64 48 120 64 48 120 64 48 120 64 48 120 64 48 120 64 48 120 64 48 120 64 48 120 64 48 120 64 48 120 64 48 120 64 48 120 64 48 120 64 48 120 64 48 120 64 48 120 64 48 120 64 48 120 64 48 120 64 48 120 64 48 120 64 48 120 64 48 120 64 48 120 64 48 120 64 48 120 64 48 120 64 48 120 64 48 120 64 48 120 64 48 120 64 48 120 64 48 120 64 48 120 64 48 120 64 48 120 64 48 120 64 48 120 64 48 120 64 48 120 64 48 120 64 48 120 64 48 120 64 48 120 64 48 120 64 48 120 64 48 120 64 48 120 64 48 120 64 48 120 64 48 120 64 48 120 64 48 120 64 48 120 64 48 120 64 48 120 64 48 120 64 48 120 64 48 120 64 48 120 64 48 120 64 48 120 64 48 120 64 48 120 64 48 120 64 48 120 64 48 120 64 48 120 64 48 120 64 48 120 64 48 120 64 48 120 64 48 120 64 48 120 64 48 120 64 48 120 64 48 120 64 48 120 64 48 120 64 48 120 64 48 120 64 48 120 64 48 120 64 48 120 64 48 120 64 48 120 64 48 120 64 48 120 64 48 120 64 48 120 64 48 120 64 48 120 64 48 120 64 48 120 64 48 120 64 48 120 64 48 120 64 48 120 64 48 120 64 48 120 64 48
120 64 48 120 64 48 120 64 48 120 64 48 120 64 48 120 64 48 120 64 48 120 64 48 120 64 48 120 64 48 120 64 48 120 64 48 120 64 48 120 64 48 120 64 48 120 64 48 120 64 48 120 64 48 120 64 48 120 64 48 120 64 48 120 64 48 120 64 48 120 64 48 120 64 48 120 64 48 120 64 48 120 64 48 120 64 48 120 64 48 120 64 48 120 64 48 120 64 48 120 64 48 120 64 48 120 64 48 120 64 48 120 64 48 120 64 48 120 64 48 120 64 48 120 64 48 120 64 48 120 64 48 120 64 48 120 64 48 120 64 48 120 64 48 120 64 48 120 64 48 120 64 48 120 64 48 120 64 48 120 64 48 120 64 48 120 64 48 120 64 48 120 64 48 120 64 48 120 64 48 120 64 48 120 64 48 120 64 48 120 64 48 120 64 48 120 64 48 120 64 48 120 64 48 120 64 48 120 64 48 120 64 48 120 64 48 120 64 48 120 64 48 120 64 48 120 64 48 120 64 48 120 64 48 120 64 48 120 64 48 120 64 48 120 64 48 120 64 48 120 64 48 120 64 48 120 64 48 120 64 48 120 64 48 120 64 48 120 64 48 120 64 48 120 64 48 120 64 48 120 64 48 120 64 48 120 64 48 120 64 48 120 64 48 120 64 48 120 64 48 120 64 48 120 64 48 120 64 48 120 64 48 120 64 48 120 64 48 120 64 48 120 64 48 120 64 48 120 64 48 120 64 48 120 64 48 120 64 48 120 64 48 120 64 48 120 64 48 120 64 48 120 64 48 120 64 48 120 64 48 120 64 48 120 64 48 120 64 48 120 64 48 120 64 48 120 64 48 120 64 48 120 64 48
120 64 48 120 64 48 120 64 48 120 64 48 120 64 48 120 64 48 120 64 48 120 64 48 120 64 48 120 64 48 120 64 48 120 64 48 120 64 48 120 64 48 120 64 48 120 64 48 120 64 48 120 64 48 120 64 48 120 64 48 120 64 48 120 64 48 120 64 48 120 64 48 120 64 48 120 64 48 120 64 48 120 64 48 120 64 48 120 64 48 120 64 48 120 64 48 120 64 48 120 64 48 120 64 48 120 64 48 120 64 48 120 64 48 120 64 48 120 64 48 120 64 48 120 64 48 120 64 48 120 64 48 120 64 48 120 64 48 120 64 48 120 64 48 120 64 48 120 64 48 120 64 48 120 64 48 120 64 48 120 64 48 120 64 48 120 64 48 120 64 48 120 64 48 120 64 48 120 64 48 120 64 48 120 64 48 120 64 48 120 64 48 120 64 48 120 64 48 120 64 48 120 64 48 120 64 48 120 64 48 120 64 48 120 64 48 120 64 48 120 64 48 120 64 48 120 64 48 120 64 48 120 64 48 120 64 48 120 64 48 120 64 48 120 64 48 120 64 48 120 64 48 120 64 48 120 64 48 120 64 48 120 64 48 120 64 48 120 64 48 120 64 48 120 64 48 120 64 48 120 64 48 120 64 48 120 64 48 120 64 48 120 64 48 120 64 48 120 64 48 120 64 48 120 64 48 120 64 48 120 64 48 120 64 48 120 64 48 120 64 48 120 64 48 120 64 48 120 64 48 120 64 48 120 64 48 120 64 48 120 64 48 120 64 48 120 64 48 120 64 48 120 64 48 120 64 48 120 64 48 120 64 48 120 64 48 120 64 48 120 64 48 120 64 48 120 64 48 120 64 48 120 64 48
120 64 48 120 64 48 120 64 48 120 64 48 120 64 48 120 64 48 120 64 48 120 64 48 120 64 48 120 64 48 120 64 48 120 64 48 120 64 48 120 64 48 120 64 48 120 64 48 120 64 48 120 64 48 120 64 48 120 64 48 120 64 48 120 64 48 120 64 48 120 64 48 120 64 48 120 64 48 120 64 48 120 64 48 120 64 48 120 64 48 120 64 48 120 64 48 120 64 48 120 64 48 120 64 48 120 64 48 120 64 48 120 64 48 120 64 48 120 64 48 120 64 48 120 64 48 120 64 48 120 64 48 120 64 48 120 64 48 120 64 48 120 64 48 120 64 48 120 64 48 120 64 48 120 64 48 120 64 48 120 64 48 120 64 48 120 64 48 120 64 48 120 64 48 120 64 48 120 64 48 120 64 48 120 64 48 120 64 48 120 64 48 120 64 48 120 64 48 120 64 48 120 64 48 120 64 48 120 64 48 120 64 48 120 64 48 120 64 48 120 64 48 120 64 48 120 64 48 120 64 48 120 64 48 120 64 48 120 64 48 120 64 48 120 64 48 120 64 48 120 64 48 120 64 48 120 64 48 120 64 48 120 64 48 120 64 48 120 64 48 120 64 48 120 64 48 120 64 48 120 64 48 120 64 48 120 64 48 120 64 48 120 64 48 120 64 48 120 64 48 120 64 48 120 64 48 120 64 48 120 64 48 120 64 48 120 64 48 120 64 48 120 64 48 120 64 48 120 64 48 120 64 48 120 64 48 120 64 48 120 64 48 120 64 48 120 64 48 120 64 48 120 64 48 120 64 48 120 64 48 120 64 48 120 64 48 120 64 48 120 64 48 120 64 48 120 64 48 120 64 48 120 64 48
120 64 48 120 64 48 120 64 48 120 64 48 120 64 48 120 64 48 120 64 48 120 64 48 120 64 48 120 64 48 120 64 48 120 64 48 120 64 48 120 64 48 120 64 48 120 64 48 120 64 48 120 64 48 120 64 48 120 64 48 120 64 48 120 64 48 120 64 48 120 64 48 120 64 48 120 64 48 120 64 48 120 64 48 120 64 48 120 64 48 120 64 48 120 64 48 120 64 48 120 64 48 120 64 48 120 64 48 120 64 48 120 64 48 120 64 48 120 64 48 120 64 48 120 64 48 120 64 48 120 64 48 120 64 48 120 64 48 120 64 48 120 64 48 120 64 48 120 64 48 120 64 48 120 64 48 120 64 48 120 64 48 120 64 48 120 64 48 120 64 48 120 64 48 120 64 48 120 64 48 120 64 48 120 64 48 120 64 48 120 64 48 120 64 48 120 64 48 120 64 48 120 64 48 120 64 48 120 64 48 120 64 48 120 64 48 120 64 48 120 64 48 120 64 48 120 64 48 120 64 48 120 64 48 120 64 48 120 64 48 120 64 48 120 64 48 120 64 48 120 64 48 120 64 48 120 64 48 120 64 48 120 64 48 120 64 48 120 64 48 120 64 48 120 64 48 120 64 48 120 64 48 120 64 48 120 64 48 120 64 48 120 64 48 120 64 48 120 64 48 120 64 48 120 64 48 120 64 48 120 64 48 120 64 48 120 64 48 120 64 48 120 64 48 120 64 48 120 64 48 120 64 48 120 64 48 120 64 48 120 64 48 120 64 48 120 64 48 120 64 48 120 64 48 120 64 48 120 64 48 120 64 48 120 64 48 120 64 48 120 64 48 120 64 48 120 64 48 120 64 48 120 64 48
120 64 48 120 64 48 120 64 48 120 64 48 120 64 48 120 64 48 120 64 48 120 64 48 120 64 48 120 64 48 120 64 48 120 64 48 120 64 48 120 64 48 120 64 48 120 64 48 120 64 48 120 64 48 120 64 48 120 64 48 120 64 48 120 64 48 120 64 48 120 64 48 120 64 48 120 64 48 120 64 48 120 64 48 120 64 48 120 64 48 120 64 48 120 64 48 120 64 48 120 64 48 120 64 48 120 64 48 120 64 48 120 64 48 120 64 48 120 64 48 120 64 48 120 64 48 120 64 48 120 64 48 120 64 48 120 64 48 120 64 48 120 64 48 120 64 48 120 64 48 120 64 48 120 64 48 120 64 48 120 64 48 120 64 48 120 64 48 120 64 48 120 64 48 120 64 48 120 64 48 120 64 48 120 64 48 120 64 48 120 64 48 120 64 48 120 64 48 120 64 48 120 64 48 120 64 48 120 64 48 120 64 48 120 64 48 120 64 48 120 64 48 120 64 48 120 64 48 120 64 48 120 64 48 120 64 48 120 64 48 120 64 48 120 64 48 120 64 48 120 64 48 120 64 48 120 64 48 120 64 48 120 64 48 120 64 48 120 64 48 120 64 48 120 64 48 120 64 48 120 64 48 120 64 48 120 64 48 120 64 48 120 64 48 120 64 48 120 64 48 120 64 48 120 64 48 120 64 48 120 64 48 120 64 48 120 64 48 120 64 48 120 64 48 120 64 48 120 64 48 120 64 48 120 64 48 120 64 48 120 64 48 120 64 48 120 64 48 120 64 48 120 64 48 120 64 48 120 64 48 120 64 48 120 64 48 120 64 48 120 64 48 120 64 48 120 64 48 120 64 48 120 64 48
120 64 48 120 64 48 120 64 48 120 64 48 120 64 48 120 64 48 120 64 48 120 64 48 120 64 48 120 64 48 120 64 48 120 64 48 120 64 48 120 64 48 120 64 48 120 64 48 120 64 48 120 64 48 120 64 48 120 64 48 120 64 48 120 64 48 120 64 48 120 64 48 120 64 48 120 64 48 120 64 48 120 64 48 120 64 48 120 64 48 120 64 48 120 64 48 120 64 48 120 64 48 120 64 48 120 64 48 120 64 48 120 64 48 120 64 48 120 64 48 120 64 48 120 64 48 120 64 48 120 64 48 120 64 48 120 64 48 120 64 48 120 64 48 120 64 48 120 64 48 120 64 48 120 64 48 120 64 48 120 64 48 120 64 48 120 64 48 120 64 48 120 64 48 120 64 48 120 64 48 120 64 48 120 64 48 120 64 48 120 64 48 120 64 48 120 64 48 120 64 48 120 64 48 120 64 48 120 64 48 120 64 48 120 64 48 120 64 48 120 64 48 120 64 48 120 64 48 120 64 48 120 64 48 120 64 48 120 64 48 120 64 48 120 64 48 120 64 48 120 64 48 120 64 48 120 64 48 120 64 48 120 64 48 120 64 48 120 64 48 120 64 48 120 64 48 120 64 48 120 64 48 120 64 48 120 64 48 120 64 48 120 64 48 120 64 48 120 64 48 120 64 48 120 64 48 120 64 48 120 64 48 120 64 48 120 64 48 120 64 48 120 64 48 120 64 48 120 64 48 120 64 48 120 64 48 120 64 48 120 64 48 120 64 48 120 64 48 120 64 48 120 64 48 120 64 48 120 64 48 120 64 48 120 64 48 120 64 48 120 64 48 120 64 48 120 64 48 120 64 48 120 64 48
120 64 48 120 64 48 120 64 48 120 64 48 120 64 48 120 64 48 120 64 48 120 64 48 120 64 48 120 64 48 120 64 48 120 64 48 120 64 48 120 64 48 120 64 48 120 64 48 120 64 48 120 64 48 120 64 48 120 64 48 120 64 48 120 64 48 120 64 48 120 64 48 120 64 48 120 64 48 120 64 48 120 64 48 120 64 48 120 64 48 120 64 48 120 64 48 120 64 48 120 64 48 120 64 48 120 64 48 120 64 48 120 64 48 120 64 48 120 64 48 120 64 48 120 64 48 120 64 48 120 64 48 120 64 48 120 64 48 120 64 48 120 64 48 120 64 48 120 64 48 120 64 48 120 64 48 120 64 48 120 64 48 120 64 48 120 64 48 120 64 48 120 64 48 120 64 48 120 64 48 120 64 48 120 64 48 120 64 48 120 64 48 120 64 48 120 64 48 120 64 48 120 64 48 120 64 48 120 64 48 120 64 48 120 64 48 120 64 48 120 64 48 120 64 48 120 64 48 120 64 48 120 64 48 120 64 48 120 64 48 120 64 48 120 64 48 120 64 48 120 64 48 120 64 48 120 64 48 120 64 48 120 64 48 120 64 48 120 64 48 120 64 48 120 64 48 120 64 48 120 64 48 120 64 48 120 64 48 120 64 48 120 64 48 120 64 48 120 64 48 120 64 48 120 64 48 120 64 48 120 64 48 120 64 48 120 64 48 120 64 48 120 64 48 120 64 48 120 64 48 120 64 48 120 64 48 120 64 48 120 64 48 120 64 48 120 64 48 120 64 48 120 64 48 120 64 48 120 64 48 120 64 48 120 64 48 120 64 48 120 64 48 120 64 48 120 64 48 120 64 48 120 64 48
120 64 48 120 64 48 120 64 48 120 64 48 120 64 48 120 64 48 120 64 48 120 64 48 120 64 48 120 64 48 120 64 48 120 64 48 120 64 48 120 64 48 120 64 48 120 64 48 120 64 48 120 64 48 120 64 48 120 64 48 120 64 48 120 64 48 120 64 48 120 64 48 120 64 48 120 64 48 120 64 48 120 64 48 120 64 48 120 64 48 120 64 48 120 64 48 120 64 48 120 64 48 120 64 48 120 64 48 120 64 48 120 64 48 120 64 48 120 64 48 120 64 48 120 64 48 120 64 48 120 64 48 120 64 48 120 64 48 120 64 48 120 64 48 120 64 48 120 64 48 120 64 48 120 64 48 120 64 48 120 64 48 120 64 48 120 64 48 120 64 48 120 64 48 120 64 48 120 64 48 120 64 48 120 64 48 120 64 48 120 64 48 120 64 48 120 64 48 120 64 48 120 64 48 120 64 48 120 64 48 120 64 48 120 64 48 120 64 48 120 64 48 120 64 48 120 64 48 120 64 48 120 64 48 120 64 48 120 64 48 120 64 48 120 64 48 120 64 48 120 64 48 120 64 48 120 64 48 120 64 48 120 64 48 120 64 48 120 64 48 120 64 48 120 64 48 120 64 48 120 64 48 120 64 48 120 64 48 120 64 48 120 64 48 120 64 48 120 64 48 120 64 48 120 64 48 120 64 48 120 64 48 120 64 48 120 64 48 120 64 48 120 64 48 120 64 48 120 64 48 120 64 48 120 64 48 120 64 48 120 64 48 120 64 48 120 64 48 120 64 48 120 64 48 120 64 48 120 64 48 120 64 48 120 64 48 120 64 48 120 64 48 120 64 48 120 64 48 120 64 48 120 64 48
120 64 48 120 64 48 120 64 48 120 64 48 120 64 48 120 64 48 120 64 48 120 64 48 120 64 48 120 64 48 120 64 48 120 64 48 120 64 48 120 64 48 120 64 48 120 64 48 120 64 48 120 64 48 120 64 48 120 64 48 120 64 48 120 64 48 120 64 48 120 64 48 120 64 48 120 64 48 120 64 48 120 64 48 120 64 48 120 64 48 120 64 48 120 64 48 120 64 48 120 64 48 120 64 48 120 64 48 120 64 48 120 64 48 120 64 48 120 64 48 120 64 48 120 64 48 120 64 48 120 64 48 120 64 48 120 64 48 120 64 48 120 64 48 120 64 48 120 64 48 120 64 48 120 64 48 120 64 48 120 64 48 120 64 48 120 64 48 120 64 48 120 64 48 120 64 48 120 64 48 120 64 48 120 64 48 120 64 48 120 64 48 120 64 48 120 64 48 120 64 48 120 64 48 120 64 48 120 64 48 120 64 48 120 64 48 120 64 48 120 64 48 120 64 48 120 64 48 120 64 48 120 64 48 120 64 48 120 64 48 120 64 48 120 64 48 120 64 48 120 64 48 120 64 48 120 64 48 120 64 48 120 64 48 120 64 48 120 64 48 120 64 48 120 64 48 120 64 48 120 64 48 120 64 48 120 64 48 120 64 48 120 64 48 120 64 48 120 64 48 120 64 48 120 64 48 120 64 48 120 64 48 120 64 48 120 64 48 120 64 48 120 64 48 120 64 48 120 64 48 120 64 48 120 64 48 120 64 48 120 64 48 120 64 48 120 64 48 120 64 48 120 64 48 120 64 48 120 64 48 120 64 48 120 64 48 120 64 48 120 64 48 120 64 48 120 64 48 120 64 48 120 64 48
120 64 48 120 64 48 120 64 48 120 64 48 120 64 48 120 64 48 120 64 48 120 64 48 120 64 48 120 64 48 120 64 48 120 64 48 120 64 48 120 64 48 120 64 48 120 64 48 120 64 48 120 64 48 120 64 48 120 64 48 120 64 48 120 64 48 120 64 48 120 64 48 120 64 48 120 64 48 120 64 48 120 64 48 120 64 48 120 64 48 120 64 48 120 64 48 120 64 48 120 64 48 120 64 48 120 64 48 120 64 48 120 64 48 120 64 48 120 64 48 120 64 48 120 64 48 120 64 48 120 64 48 120 64 48 120 64 48 120 64 48 120 64 48 120 64 48 120 64 48 120 64 48 120 64 48 120 64 48 120 64 48 120 64 48 120 64 48 120 64 48 120 64 48 120 64 48 120 64 48 120 64 48 120 64 48 120 64 48 120 64 48 120 64 48 120 64 48 120 64 48 120 64 48 120 64 48 120 64 48 120 64 48 120 64 48 120 64 48 120 64 48 120 64 48 120 64 48 120 64 48 120 64 48 120 64 48 120 64 48 120 64 48 120 64 48 120 64 48 120 64 48 120 64 48 120 64 48 120 64 48 120 64 48 120 64 48 120 64 48 120 64 48 120 64 48 120 64 48 120 64 48 120 64 48 120 64 48 120 64 48 120 64 48 120 64 48 120 64 48 120 64 48 120 64 48 120 64 48 120 64 48 120 64 48 120 64 48 120 64 48 120 64 48 120 64 48 120 64 48 120 64 48 120 64 48 120 64 48 120 64 48 120 64 48 120 64 48 120 64 48 120 64 48 120 64 48 120 64 48 120 64 48 120 64 48 120 64 48 120 64 48 120 64 48 120 64 48 120 64 48 120 64 48
120 64 48 120 64 48 120 64 48 120 64 48 120 64 48 120 64 48 120 64 48 120 64 48 120 64 48 120 64 48 120 64 48 120 64 48 120 64 48 120 64 48 120 64 48 120 64 48 120 64 48 120 64 48 120 64 48 120 64 48 120 64 48 120 64 48 120 64 48 120 64 48 120 64 48 120 64 48 120 64 48 120 64 48 120 64 48 120 64 48 120 64 48 120 64 48 120 64 48 120 64 48 120 64 48 120 64 48 120 64 48 120 64 48 120 64 48 120 64 48 120 64 48 120 64 48 120 64 48 120 64 48 120 64 48 120 64 48 120 64 48 120 64 48 120 64 48 120 64 48 120 64 48 120 64 48 120 64 48 120 64 48 120 64 48 120 64 48 120 64 48 120 64 48 120 64 48 120 64 48 120 64 48 120 64 48 120 64 48 120 64 48 120 64 48 120 64 48 120 64 48 120 64 48 120 64 48 120 64 48 120 64 48 120 64 48 120 64 48 120 64 48 120 64 48 120 64 48 120 64 48 120 64 48 120 64 48 120 64 48 120 64 48 120 64 48 120 64 48 120 64 48 120 64 48 120 64 48 120 64 48 120 64 48 120 64 48 120 64 48 120 64 48 120 64 48 120 64 48 120 64 48 120 64 48 120 64 48 120 64 48 120 64 48 120 64 48 120 64 48 120 64 48 120 64 48 120 64 48 120 64 48 120 64 48 120 64 48 120 64 48 120 64 48 120 64 48 120 64 48 120 64 48 120 64 48 120 64 48 120 64 48 120 64 48 120 64 48 120 64 48 120 64 48 120 64 48 120 64 48 120 64 48 120 64 48 120 64 48 120 64 48 120 64 48 120 64 48 120 64 48 120 64 48
120 64 48 120 64 48 120 64 48 120 64 48 120 64 48 120 64 48 120 64 48 120 64 48 120 64 48 120 64 48 120 64 48 120 64 48 120 64 48 120 64 48 120 64 48 120 64 48 120 64 48 120 64 48 120 64 48 120 64 48 120 64 48 120 64 48 120 64 48 120 64 48 120 64 48 120 64 48 120 64 48 120 64 48 120 64 48 120 64 48 120 64 48 120 64 48 120 64 48 120 64 48 120 64 48 120 64 48 120 64 48 120 64 48 120 64 48 120 64 48 120 64 48 120 64 48 120 64 48 120 64 48 120 64 48 120 64 48 120 64 48 120 64 48 120 64 48 120 64 48 120 64 48 120 64 48 120 64 48 120 64 48 120 64 48 120 64 48 120 64 48 120 64 48 120 64 48 120 64 48 120 64 48 120 64 48 120 64 48 120 64 48 120 64 48 120 64 48 120 64 48 120 64 48 120 64 48 120 64 48 120 64 48 120 64 48 120 64 48 120 64 48 120 64 48 120 64 48 120 64 48 120 64 48 120 64 48 120 64 48 120 64 48 120 64 48 120 64 48 120 64 48 120 64 48 120 64 48 120 64 48 120 64 48 120 64 48 120 64 48 120 64 48 120 64 48 120 64 48 120 64 48 120 64 48 120 64 48 120 64 48 120 64 48 120 64 48 120 64 48 120 64 48 120 64 48 120 64 48 120 64 48 120 64 48 120 64 48 120 64 48 120 64 48 120 64 48 120 64 48 120 64 48 120 64 48 120 64 48 120 64 48 120 64 48 120 64 48 120 64 48 120 64 48 120 64 48 120 64 48 120 64 48 120 64 48 120 64 48 120 64 48 120 64 48 120 64 48 120 64 48 120 64 48
120 64 48 120 64 48 120 64 48 120 64 48 120 64 48 120 64 48 120 64 48 120 64 48 120 64 48 120 64 48 120 64 48 120 64 48 120 64 48 120 64 48 120 64 48 120 64 48 120 64 48 120 64 48 120 64 48 120 64 48 120 64 48 120 64 48 120 64 48 120 64 48 120 64 48 120 64 48 120 64 48 120 64 48 120 64 48 120 64 48 120 64 48 120 64 48 120 64 48 120 64 48 120 64 48 120 64 48 120 64 48 120 64 48 120 64 48 120 64 48 120 64 48 120 64 48 120 64 48 120 64 48 120 64 48 120 64 48 120 64 48 120 64 48 120 64 48 120 64 48 120 64 48 120 64 48 120 64 48 120 64 48 120 64 48 120 64 48 120 64 48 120 64 48 120 64 48 120 64 48 120 64 48 120 64 48 120 64 48 120 64 48 120 64 48 120 64 48 120 64 48 120 64 48 120 64 48 120 64 48 120 64 48 120 64 48 120 64 48 120 64 48 120 64 48 120 64 48 120 64 48 120 64 48 120 64 48 120 64 48 120 64 48 120 64 48 120 64 48 120 64 48 120 64 48 120 64 48 120 64 48 120 64 48 120 64 48 120 64 48 120 64 48 120 64 48 120 64 48 120 64 48 120 64 48 120 64 48 120 64 48 120 64 48 120 64 48 120 64 48 120 64 48 120 64 48 120 64 48 120 64 48 120 64 48 120 64 48 120 64 48 120 64 48 120 64 48 120 64 48 120 64 48 120 64 48 120 64 48 120 64 48 120 64 48 120 64 48 120 64 48 120 64 48 120 64 48 120 64 48 120 64 48 120 64 48 120 64 48 120 64 48 120 64 48 120 64 48 120 64 48 120 64 48
120 64 48 120 64 48 120 64 48 120 64 48 120 64 48 120 64 48 120 64 48 120 64 48 120 64 48 120 64 48 120 64 48 120 64 48 120 64 48 120 64 48 120 64 48 120 64 48 120 64 48 120 64 48 120 64 48 120 64 48 120 64 48 120 64 48 120 64 48 120 64 48 120 64 48 120 64 48 120 64 48 120 64 48 120 64 48 120 64 48 120 64 48 120 64 48 120 64 48 120 64 48 120 64 48 120 64 48 120 64 48 120 64 48 120 64 48 120 64 48 120 64 48 120 64 48 120 64 48 120 64 48 120 64 48 120 64 48 120 64 48 120 64 48 120 64 48 120 64 48 120 64 48 120 64 48 120 64 48 120 64 48 120 64 48 120 64 48 120 64 48 120 64 48 120 64 48 120 64 48 120 64 48 120 64 48 120 64 48 120 64 48 120 64 48 120 64 48 120 64 48 120 64 48 120 64 48 120 64 48 120 64 48 120 64 48 120 64 48 120 64 48 120 64 48 120 64 48 120 64 48 120 64 48 120 64 48 120 64 48 120 64 48 120 64 48 120 64 48 120 64 48 120 64 48 120 64 48 120 64 48 120 64 48 120 64 48 120 64 48 120 64 48 120 64 48 120 64 48 120 64 48 120 64 48 120 64 48 120 64 48 120 64 48 120 64 48 120 64 48 120 64 48 120 64 48 120 64 48 120 64 48 120 64 48 120 64 48 120 64 48 120 64 48 120 64 48 120 64 48 120 64 48 120 64 48 120 64 48 120 64 48 120 64 48 120 64 48 120 64 48 120 64 48 120 64 48 120 64 48 120 64 48 120 64 48 120 64 48 120 64 48 120 64 48 120 64 48 120 64 48 120 64 48
120 64 48 120 64 48 120 64 48 120 64 48 120 64 48 120 64 48 120 64 48 120 64 48 120 64 48 120 64 48 120 64 48 120 64 48 120 64 48 120 64 48 120 64 48 120 64 48 120 64 48 120 64 48 120 64 48 120 64 48 120 64 48 120 64 48 120 64 48 120 64 48 120 64 48 120 64 48 120 64 48 120 64 48 120 64 48 120 64 48 120 64 48 120 64 48 120 64 48 120 64 48 120 64 48 120 64 48 120 64 48 120 64 48 120 64 48 120 64 48 120 64 48 120 64 48 120 64 48 120 64 48 120 64 48 120 64 48 120 64 48 120 64 48 120 64 48 120 64 48 120 64 48 120 64 48 120 64 48 120 64 48 120 64 48 120 64 48 120 64 48 120 64 48 120 64 48 120 64 48 120 64 48 120 64 48 120 64 48 120 64 48 120 64 48 120 64 48 120 64 48 120 64 48 120 64 48 120 64 48 120 64 48 120 64 48 120 64 48 120 64 48 120 64 48 120 64 48 120 64 48 120 64 48 120 64 48 120 64 48 120 64 48 120 64 48 120 64 48 120 64 48 120 64 48 120 64 48 120 64 48 120 64 48 120 64 48 120 64 48 120 64 48 120 64 48 120 64 48 120 64 48 120 64 48 120 64 48 120 64 48 120 64 48 120 64 48 120 64 48 120 64 48 120 64 48 120 64 48 120 64 48 120 64 48 120 64 48 120 64 48 120 64 48 120 64 48 120 64 48 120 64 48 120 64 48 120 64 48 120 64 48 120 64 48 120 64 48 120 64 48 120 64 48 120 64 48 120 64 48 120 64 48 120 64 48 120 64 48 120 64 48 120 64 48 120 64 48 120 64 48 120 64 48
120 64 48 120 64 48 120 64 48 120 64 48 120 64 48 120 64 48 120 64 48 120 64 48 120 64 48 120 64 48 120 64 48 120 64 48 120 64 48 120 64 48 120 64 48 120 64 48 120 64 48 120 64 48 120 64 48 120 64 48 120 64 48 120 64 48 120 64 48 120 64 48 120 64 48 120 64 48 120 64 48 120 64 48 120 64 48 120 64 48 120 64 48 120 64 48 120 64 48 120 64 48 120 64 48 120 64 48 120 64 48 120 64 48 120 64 48 120 64 48 120 64 48 120 64 48 120 64 48 120 64 48 120 64 48 120 64 48 120 64 48 120 64 48 120 64 48 120 64 48 120 64 48 120 64 48 120 64 48 120 64 48 120 64 48 120 64 48 120 64 48 120 64 48 120 64 48 120 64 48 120 64 48 120 64 48 120 64 48 120 64 48 120 64 48 120 64 48 120 64 48 120 64 48 120 64 48 120 64 48 120 64 48 120 64 48 120 64 48 120 64 48 120 64 48 120 64 48 120 64 48 120 64 48 120 64 48 120 64 48 120 64 48 120 64 48 120 64 48 120 64 48 120 64 48 120 64 48 120 64 48 120 64 48 120 64 48 120 64 48 120 64 48 120 64 48 120 64 48 120 64 48 120 64 48 120 64 48 120 64 48 120 64 48 120 64 48 120 64 48 120 64 48 120 64 48 120 64 48 120 64 48 120 64 48 120 64 48 120 64 48 120 64 48 120 64 48 120 64 48 120 64 48 120 64 48 120 64 48 120 64 48 120 64 48 120 64 48 120 64 48 120 64 48 120 64 48 120 64 48 120 64 48 120 64 48 120 64 48 120 64 48 120 64 48 120 64 48 120 64 48 120 64 48
120 64 48 120 64 48 120 64 48 120 64 48 120 64 48 120 64 48 120 64 48 120 64 48 120 64 48 120 64 48 120 64 48 120 64 48 120 64 48 120 64 48 120 64 48 120 64 48 120 64 48 120 64 48 120 64 48 120 64 48 120 64 48 120 64 48 120 64 48 120 64 48 120 64 48 120 64 48 120 64 48 120 64 48 120 64 48 120 64 48 120 64 48 120 64 48 120 64 48 120 64 48 120 64 48 120 64 48 120 64 48 120 64 48 120 64 48 120 64 48 120 64 48 120 64 48 120 64 48 120 64 48 120 64 48 120 64 48 120 64 48 120 64 48 120 64 48 120 64 48 120 64 48 120 64 48 120 64 48 120 64 48 120 64 48 120 64 48 120 64 48 120 64 48 120 64 48 120 64 48 120 64 48 120 64 48 120 64 48 120 64 48 120 64 48 120 64 48 120 64 48 120 64 48 120 64 48 120 64 48 120 64 48 120 64 48 120 64 48 120 64 48 120 64 48 120 64 48 120 64 48 120 64 48 120 64 48 120 64 48 120 64 48 120 64 48 120 64 48 120 64 48 120 64 48 120 64 48 120 64 48 120 64 48 120 64 48 120 64 48 120 64 48 120 64 48 120 64 48 120 64 48 120 64 48 120 64 48 120 64 48 120 64 48 120 64 48 120 64 48 120 64 48 120 64 48 120 64 48 120 64 48 120 64 48 120 64 48 120 64 48 120 64 48 120 64 48 120 64 48 120 64 48 120 64 48 120 64 48 120 64 48 120 64 48 120 64 48 120 64 48 120 64 48 120 64 48 120 64 48 120 64 48 120 64 48 120 64 48 120 64 48 120 64 48 120 64 48 120 64 48 120 64 48
120 64 48 120 64 48 120 64 48 120 64 48 120 64 48 120 64 48 120 64 48 120 64 48 120 64 48 120 64 48 120 64 48 120 64 48 120 64 48 120 64 48 120 64 48 120 64 48 120 64 48 120 64 48 120 64 48 120 64 48 120 64 48 120 64 48 120 64 48 120 64 48 120 64 48 120 64 48 120 64 48 120 64 48 120 64 48 120 64 48 120 64 48 120 64 48 120 64 48 120 64 48 120 64 48 120 64 48 120 64 48 120 64 48 120 64 48 120 64 48 120 64 48 120 64 48 120 64 48 120 64 48 120 64 48 120 64 48 120 64 48 120 64 48 120 64 48 120 64 48 120 64 48 120 64 48 120 64 48 120 64 48 120 64 48 120 64 48 120 64 48 120 64 48 120 64 48 120 64 48 120 64 48 120 64 48 120 64 48 120 64 48 120 64 48 120 64 48 120 64 48 120 64 48 120 64 48 120 64 48 120 64 48 120 64 48 120 64 48 120 64 48 120 64 48 120 64 48 120 64 48 120 64 48 120 64 48 120 64 48 120 64 48 120 64 48 120 64 48 120 64 48 120 64 48 120 64 48 120 64 48 120 64 48 120 64 48 120 64 48 120 64 48 120 64 48 120 64 48 120 64 48 120 64 48 120 64 48 120 64 48 120 64 48 120 64 48 120 64 48 120 64 48 120 64 48 120 64 48 120 64 48 120 64 48 120 64 48 120 64 48 120 64 48 120 64 48 120 64 48 120 64 48 120 64 48 120 64 48 120 64 48 120 64 48 120 64 48 120 64 48 120 64 48 120 64 48 120 64 48 120 64 48 120 64 48 120 64 48 120 64 48 120 64 48 120 64 48 120 64 48 120 64 48
120 64 48 120 64 48 120 64 48 120 64 48 120 64 48 120 64 48 120 64 48 120 64 48 120 64 48 120 64 48 120 64 48 120 64 48 120 64 48 120 64 48 120 64 48 120 64 48 120 64 48 120 64 48 120 64 48 120 64 48 120 64 48 120 64 48 120 64 48 120 64 48 120 64 48 120 64 48 120 64 48 120 64 48 120 64 48 120 64 48 120 64 48 120 64 48 120 64 48 120 64 48 120 64 48 120 64 48 120 64 48 120 64 48 120 64 48 120 64 48 120 64 48 120 64 48 120 64 48 120 64 48 120 64 48 120 64 48 120 64 48 120 64 48 120 64 48 120 64 48 120 64 48 120 64 48 120 64 48 120 64 48 120 64 48 120 64 48 120 64 48 120 64 48 120 64 48 120 64 48 120 64 48 120 64 48 120 64 48 120 64 48 120 64 48 120 64 48 120 64 48 120 64 48 120 64 48 120 64 48 120 64 48 120 64 48 120 64 48 120 64 48 120 64 48 120 64 48 120 64 48 120 64 48 120 64 48 120 64 48 120 64 48 120 64 48 120 64 48 120 64 48 120 64 48 120 64 48 120 64 48 120 64 48 120 64 48 120 64 48 120 64 48 120 64 48 120 64 48 120 64 48 120 64 48 120 64 48 120 64 48 120 64 48 120 64 48 120 64 48 120 64 48 120 64 48 120 64 48 120 64 48 120 64 48 120 64 48 120 64 48 120 64 48 120 64 48 120 64 48 120 64 48 120 64 48 120 64 48 120 64 48 120 64 48 120 64 48 120 64 48 120 64 48 120 64 48 120 64 48 120 64 48 120 64 48 120 64 48 120 64 48 120 64 48 120 64 48 120 64 48 120 64 48
120 64 48 120 64 48 120 64 48 120 64 48 120 64 48 120 64 48 120 64 48 120 64 48 120 64 48 120 64 48 120 64 48 120 64 48 120 64 48 120 64 48 120 64 48 120 64 48 120 64 48 120 64 48 120 64 48 120 64 48 120 64 48 120 64 48 120 64 48 120 64 48 120 64 48 120 64 48 120 64 48 120 64 48 120 64 48 120 64 48 120 64 48 120 64 48 120 64 48 120 64 48 120 64 48 120 64 48 120 64 48 120 64 48 120 64 48 120 64 48 120 64 48 120 64 48 120 64 48 120 64 48 120 64 48 120 64 48 120 64 48 120 64 48 120 64 48 120 64 48 120 64 48 120 64 48 120 64 48 120 64 48 120 64 48 120 64 48 120 64 48 120 64 48 120 64 48 120 64 48 120 64 48 120 64 48 120 64 48 120 64 48 120 64 48 120 64 48 120 64 48 120 64 48 120 64 48 120 64 48 120 64 48 120 64 48 120 64 48 120 64 48 120 64 48 120 64 48 120 64 48 120 64 48 120 64 48 120 64 48 120 64 48 120 64 48 120 64 48 120 64 48 120 64 48 120 64 48 120 64 48 120 64 48 120 64 48 120 64 48 120 64 48 120 64 48 120 64 48 120 64 48 120 64 48 120 64 48 120 64 48 120 64 48 120 64 48 120 64 48 120 64 48 120 64 48 120 64 48 120 64 48 120 64 48 120 64 48 120 64 48 120 64 48 120 64 48 120 64 48 120 64 48 120 64 48 120 64 48 120 64 48 120 64 48 120 64 48 120 64 48 120 64 48 120 64 48 120 64 48 120 64 48 120 64 48 120 64 48 120 64 48 120 64 48 120 64 48 120 64 48 120 64 48
120 64 48 120 64 48 120 64 48 120 64 48 120 64 48 120 64 48 120 64 48 120 64 48 120 64 48 120 64 48 120 64 48 120 64 48 120 64 48 120 64 48 120 64 48 120 64 48 120 64 48 120 64 48 120 64 48 120 64 48 120 64 48 120 64 48 120 64 48 120 64 48 120 64 48 120 64 48 120 64 48 120 64 48 120 64 48 120 64 48 120 64 48 120 64 48 120 64 48 120 64 48 120 64 48 120 64 48 120 64 48 120 64 48 120 64 48 120 64 48 120 64 48 120 64 48 120 64 48 120 64 48 120 64 48 120 64 48 120 64 48 120 64 48 120 64 48 120 64 48 120 64 48 120 64 48 120 64 48 120 64 48 120 64 48 120 64 48 120 64 48 120 64 48 120 64 48 120 64 48 120 64 48 120 64 48 120 64 48 120 64 48 120 64 48 120 64 48 120 64 48 120 64 48 120 64 48 120 64 48 120 64 48 120 64 48 120 64 48 120 64 48 120 64 48 120 64 48 120 64 48 120 64 48 120 64 48 120 64 48 120 64 48 120 64 48 120 64 48 120 64 48 120 64 48 120 64 48 120 64 48 120 64 48 120 64 48 120 64 48 120 64 48 120 64 48 120 64 48 120 64 48 120 64 48 120 64 48 120 64 48 120 64 48 120 64 48 120 64 48 120 64 48 120 64 48 120 64 48 120 64 48 120 64 48 120 64 48 120 64 48 120 64 48 120 64 48 120 64 48 120 64 48 120 64 48 120 64 48 120 64 48 120 64 48 120 64 48 120 64 48 120 64 48 120 64 48 120 64 48 120 64 48 120 64 48 120 64 48 120 64 48 120 64 48 120 64 48 120 64 48 120 64 48
120 64 48 120 64 48 120 64 48 120 64 48 120 64 48 120 64 48 120 64 48 120 64 48 120 64 48 120 64 48 120 64 48 120 64 48 120 64 48 120 64 48 120 64 48 120 64 48 120 64 48 120 64 48 120 64 48 120 64 48 120 64 48 120 64 48 120 64 48 120 64 48 120 64 48 120 64 48 120 64 48 120 64 48 120 64 48 120 64 48 120 64 48 120 64 48 120 64 48 120 64 48 120 64 48 120 64 48 120 64 48 120 64 48 120 64 48 120 64 48 120 64 48 120 64 48 120 64 48 120 64 48 120 64 48 120 64 48 120 64 48 120 64 48 120 64 48 120 64 48 120 64 48 120 64 48 120 64 48 120 64 48 120 64 48 120 64 48 120 64 48 120 64 48 120 64 48 120 64 48 120 64 48 120 64 48 120 64 48 120 64 48 120 64 48 120 64 48 120 64 48 120 64 48 120 64 48 120 64 48 120 64 48 120 64 48 120 64 48 120 64 48 120 64 48 120 64 48 120 64 48 120 64 48 120 64 48 120 64 48 120 64 48 120 64 48 120 64 48 120 64 48 120 64 48 120 64 48 120 64 48 120 64 48 120 64 48 120 64 48 120 64 48 120 64 48 120 64 48 120 64 48 120 64 48 120 64 48 120 64 48 120 64 48 120 64 48 120 64 48 120 64 48 120 64 48 120 64 48 120 64 48 120 64 48 120 64 48 120 64 48 120 64 48 120 64 48 120 64 48 120 64 48 120 64 48 120 64 48 120 64 48 120 64 48 120 64 48 120 64 48 120 64 48 120 64 48 120 64 48 120 64 48 120 64 48 120 64 48 120 64 48 120 64 48 120 64 48 120 64 48 120 64 48
120 64 48 120 64 48 120 64 48 120 64 48 120 64 48 120 64 48 120 64 48 120 64 48 120 64 48 120 64 48 120 64 48 120 64 48 120 64 48 120 64 48 120 64 48 120 64 48 120 64 48 120 64 48 120 64 48 120 64 48 120 64 48 120 64 48 120 64 48 120 64 48 120 64 48 120 64 48 120 64 48 120 64 48 120 64 48 120 64 48 120 64 48 120 64 48 120 64 48 120 64 48 120 64 48 120 64 48 120 64 48 120 64 48 120 64 48 120 64 48 120 64 48 120 64 48 120 64 48 120 64 48 120 64 48 120 64 48 120 64 48 120 64 48 120 64 48 120 64 48 120 64 48 120 64 48 120 64 48 120 64 48 120 64 48 120 64 48 120 64 48 120 64 48 120 64 48 120 64 48 120 64 48 120 64 48 120 64 48 120 64 48 120 64 48 120 64 48 120 64 48 120 64 48 120 64 48 120 64 48 120 64 48 120 64 48 120 64 48 120 64 48 120 64 48 120 64 48 120 64 48 120 64 48 120 64 48 120 64 48 120 64 48 120 64 48 120 64 48 120 64 48 120 64 48 120 64 48 120 64 48 120 64 48 120 64 48 120 64 48 120 64 48 120 64 48 120 64 48 120 64 48 120 64 48 120 64 48 120 64 48 120 64 48 120 64 48 120 64 48 120 64 48 120 64 48 120 64 48 120 64 48 120 64 48 120 64 48 120 64 48 120 64 48 120 64 48 120 64 48 120 64 48 120 64 48 120 64 48 120 64 48 120 64 48 120 64 48 120 64 48 120 64 48 120 64 48 120 64 48 120 64 48 120 64 48 120 64 48 120 64 48 120 64 48 120 64 48 120 64 48 120 64 48
120 64 48 120 64 48 120 64 48 120 64 48 120 64 48 120 64 48 120 64 48 120 64 48 120 64 48 120 64 48 120 64 48 120 64 48 120 64 48 120 64 48 120 64 48 120 64 48 120 64 48 120 64 48 120 64 48 120 64 48 120 64 48 120 64 48 120 64 48 120 64 48 120 64 48 120 64 48 120 64 48 120 64 48 120 64 48 120 64 48 120 64 48 120 64 48 120 64 48 120 64 48 120 64 48 120 64 48 120 64 48 120 64 48 120 64 48 120 64 48 120 64 48 120 64 48 120 64 48 120 64 48 120 64 48 120 64 48 120 64 48 120 64 48 120 64 48 120 64 48 120 64 48 120 64 48 120 64 48 120 64 48 120 64 48 120 64 48 120 64 48 120 64 48 120 64 48 120 64 48 120 64 48 120 64 48 120 64 48 120 64 48 120 64 48 120 64 48 120 64 48 120 64 48 120 64 48 120 64 48 120 64 48 120 64 48 120 64 48 120 64 48 120 64 48 120 64 48 120 64 48 120 64 48 120 64 48 120 64 48 120 64 48 120 64 48 120 64 48 120 64 48 120 64 48 120 64 48 120 64 48 120 64 48 120 64 48 120 64 48 120 64 48 120 64 48 120 64 48 120 64 48 120 64 48 120 64 48 120 64 48 120 64 48 120 64 48 120 64 48 120 64 48 120 64 48 120 64 48 120 64 48 120 64 48 120 64 48 120 64 48 120 64 48 120 64 48 120 64 48 120 64 48 120 64 48 120 64 48 120 64 48 120 64 48 120 64 48 120 64 48 120 64 48 120 64 48 120 64 48 120 64 48 120 64 48 120 64 48 120 64 48 120 64 48 120 64 48 120 64 48 120 64 48
120 64 48 120 64 48 120 64 48 120 64 48 120 64 48 120 64 48 120 64 48 120 64 48 120 64 48 120 64 48 120 64 48 120 64 48 120 64 48 120 64 48 120 64 48 120 64 48 120 64 48 120 64 48 120 64 48 120 64 48 120 64 48 120 64 48 120 64 48 120 64 48 120 64 48 120 64 48 120 64 48 120 64 48 120 64 48 120 64 48 120 64 48 120 64 48 120 64 48 120 64 48 120 64 48 120 64 48 120 64 48 120 64 48 120 64 48 120 64 48 120 64 48 120 64 48 120 64 48 120 64 48 120 64 48 120 64 48 120 64 48 120 64 48 120 64 48 120 64 48 120 64 48 120 64 48 120 64 48 120 64 48 120 64 48 120 64 48 120 64 48 120 64 48 120 64 48 120 64 48 120 64 48 120 64 48 120 64 48 120 64 48 120 64 48 120 64 48 120 64 48 120 64 48 120 64 48 120 64 48 120 64 48 120 64 48 120 64 48 120 64 48 120 64 48 120 64 48 120 64 48 120 64 48 120 64 48 120 64 48 120 64 48 120 64 48 120 64 48 120 64 48 120 64 48 120 64 48 120 64 48 120 64 48 120 64 48 120 64 48 120 64 48 120 64 48 120 64 48 120 64 48 120 64 48 120 64 48 120 64 48 120 64 48 120 64 48 120 64 48 120 64 48 120 64 48 120 64 48 120 64 48 120 64 48 120 64 48 120 64 48 120 64 48 120 64 48 120 64 48 120 64 48 120 64 48 120 64 48 120 64 48 120 64 48 120 64 48 120 64 48 120 64 48 120 64 48 120 64 48 120 64 48 120 64 48 120 64 48 120 64 48 120 64 48 120 64 48 120 64 48 120 64 48
120 64 48 120 64 48 120 64 48 120 64 48 120 64 48 120 64 48 120 64 48 120 64 48 120 64 48 120 64 48 120 64 48 120 64 48 120 64 48 120 64 48 120 64 48 120 64 48 120 64 48 120 64 48 120 64 48 120 64 48 120 64 48 120 64 48 120 64 48 120 64 48 120 64 48 120 64 48 120 64 48 120 64 48 120 64 48 120 64 48 120 64 48 120 64 48 120 64 48 120 64 48 120 64 48 120 64 48 120 64 48 120 64 48 120 64 48 120 64 48 120 64 48 120 64 48 120 64 48 120 64 48 120 64 48 120 64 48 120 64 48 120 64 48 120 64 48 120 64 48 120 64 48 120 64 48 120 64 48 120 64 48 120 64 48 120 64 48 120 64 48 120 64 48 120 64 48 120 64 48 120 64 48 120 64 48 120 64 48 120 64 48 120 64 48 120 64 48 120 64 48 120 64 48 120 64 48 120 64 48 120 64 48 120 64 48 120 64 48 120 64 48 120 64 48 120 64 48 120 64 48 120 64 48 120 64 48 120 64 48 120 64 48 120 64 48 120 64 48 120 64 48 120 64 48 120 64 48 120 64 48 120 64 48 120 64 48 120 64 48 120 64 48 120 64 48 120 64 48 120 64 48 120 64 48 120 64 48 120 64 48 120 64 48 120 64 48 120 64 48 120 64 48 120 64 48 120 64 48 120 64 48 120 64 48 120 64 48 120 64 48 120 64 48 120 64 48 120 64 48 120 64 48 120 64 48 120 64 48 120 64 48 120 64 48 120 64 48 120 64 48 120 64 48 120 64 48 120 64 48 120 64 48 120 64 48 120 64 48 120 64 48 120 64 48 120 64 48 120 64 48 120 64 48
120 64 48 120 64 48 120 64 48 120 64 48 120 64 48 120 64 48 120 64 48 120 64 48 120 64 48 120 64 48 120 64 48 120 64 48 120 64 48 120 64 48 120 64 48 120 64 48 120 64 48 120 64 48 120 64 48 120 64 48 120 64 48 120 64 48 120 64 48 120 64 48 120 64 48 120 64 48 120 64 48 120 64 48 120 64 48 120 64 48 120 64 48 120 64 48 120 64 48 120 64 48 120 64 48 120 64 48 120 64 48 120 64 48 120 64 48 120 64 48 120 64 48 120 64 48 120 64 48 120 64 48 120 64 48 120 64 48 120 64 48 120 64 48 120 64 48 120 64 48 120 64 48 120 64 48 120 64 48 120 64 48 120 64 48 120 64 48 120 64 48 120 64 48 120 64 48 120 64 48 120 64 48 120 64 48 120 64 48 120 64 48 120 64 48 120 64 48 120 64 48 120 64 48 120 64 48 120 64 48 120 64 48 120 64 48 120 64 48 120 64 48 120 64 48 120 64 48 120 64 48 120 64 48 120 64 48 120 64 48 120 64 48 120 64 48 120 64 48 120 64 48 120 64 48 120 64 48 120 64 48 120 64 48 120 64 48 120 64 48 120 64 48 120 64 48 120 64 48 120 64 48 120 64 48 120 64 48 120 64 48 120 64 48 120 64 48 120 64 48 120 64 48 120 64 48 120 64 48 120 64 48 120 64 48 120 64 48 120 64 48 120 64 48 120 64 48 120 64 48 120 64 48 120 64 48 120 64 48 120 64 48 120 64 48 120 64 48 120 64 48 120 64 48 120 64 48 120 64 48 120 64 48 120 64 48 120 64 48 120 64 48 120 64 48 120 64 48 120 64 48 120 64 48
120 64 48 120 64 48 120 64 48 120 64 48 120 64 48 120 64 48 120 64 48 120 64 48 120 64 48 120 64 48 120 64 48 120 64 48 120 64 48 120 64 48 120 64 48 120 64 48 120 64 48 120 64 48 120 64 48 120 64 48 120 64 48 120 64 48 120 64 48 120 64 48 120 64 48 120 64 48 120 64 48 120 64 48 120 64 48 120 64 48 120 64 48 120 64 48 120 64 48 120 64 48 120 64 48 120 64 48 120 64 48 120 64 48 120 64 48 120 64 48 120 64 48 120 64 48 120 64 48 120 64 48 120 64 48 120 64 48 120 64 48 120 64 48 120 64 48 120 64 48 120 64 48 120 64 48 120 64 48 120 64 48 120 64 48 120 64 48 120 64 48 120 64 48 120 64 48 120 64 48 120 64 48 120 64 48 120 64 48 120 64 48 120 64 48 120 64 48 120 64 48 120 64 48 120 64 48 120 64 48 120 64 48 120 64 48 120 64 48 120 64 48 120 64 48 120 64 48 120 64 48 120 64 48 120 64 48 120 64 48 120 64 48 120 64 48 120 64 48 120 64 48 120 64 48 120 64 48 120 64 48 120 64 48 120 64 48 120 64 48 120 64 48 120 64 48 120 64 48 120 64 48 120 64 48 120 64 48 120 64 48 120 64 48 120 64 48 120 64 48 120 64 48 120 64 48 120 64 48 120 64 48 120 64 48 120 64 48 120 64 48 120 64 48 120 64 48 120 64 48 120 64 48 120 64 48 120 64 48 120 64 48 120 64 48 120 64 48 120 64 48 120 64 48 120 64 48 120 64 48 120 64 48 120 64 48 120 64 48 120 64 48 120 64 48 120 64 48 120 64 48 120 64 48
120 64 48 120 64 48 120 64 48 120 64 48 120 64 48 120 64 48 120 64 48 120 64 48 120 64 48 120 64 48 120 64 48 120 64 48 120 64 48 120 64 48 120 64 48 120 64 48 120 64 48 120 64 48 120 64 48 120 64 48 120 64 48 120 64 48 120 64 48 120 64 48 120 64 48 120 64 48 120 64 48 120 64 48 120 64 48 120 64 48 120 64 48 120 64 48 120 64 48 120 64 48 120 64 48 120 64 48 120 64 48 120 64 48 120 64 48 120 64 48 120 64 48 120 64 48 120 64 48 120 64 48 120 64 48 120 64 48 120 64 48 120 64 48 120 64 48 120 64 48 120 64 48 120 64 48 120 64 48 120 64 48 120 64 48 120 64 48 120 64 48 120 64 48 120 64 48 120 64 48 120 64 48 120 64 48 120 64 48 120 64 48 120 64 48 120 64 48 120 64 48 120 64 48 120 64 48 120 64 48 120 64 48 120 64 48 120 64 48 120 64 48 120 64 48 120 64 48 120 64 48 120 64 48 120 64 48 120 64 48 120 64 48 120 64 48 120 64 48 120 64 48 120 64 48 120 64 48 120 64 48 120 64 48 120 64 48 120 64 48 120 64 48 120 64 48 120 64 48 120 64 48 120 64 48 120 64 48 120 64 48 120 64 48 120 64 48 120 64 48 120 64 48 120 64 48 120 64 48 120 64 48 120 64 48 120 64 48 120 64 48 120 64 48 120 64 48 120 64 48 120 64 48 120 64 48 120 64 48 120 64 48 120 64 48 120 64 48 120 64 48 120 64 48 120 64 48 120 64 48 120 64 48 120 64 48 120 64 48 120 64 48 120 64 48 120 64 48 120 64 48 120 64 48
120 64 48 120 64 48 120 64 48 120 64 48 120 64 48 120 64 48 120 64 48 120 64 48 120 64 48 120 64 48 120 64 48 120 64 48 120 64 48 120 64 48 120 64 48 120 64 48 120 64 48 120 64 48 120 64 48 120 64 48 120 64 48 120 64 48 120 64 48 120 64 48 120 64 48 120 64 48 120 64 48 120 64 48 120 64 48 120 64 48 120 64 48 120 64 48 120 64 48 120 64 48 120 64 48 120 64 48 120 64 48 120 64 48 120 64 48 120 64 48 120 64 48 120 64 48 120 64 48 120 64 48 120 64 48 120 64 48 120 64 48 120 64 48 120 64 48 120 64 48 120 64 48 120 64 48 120 64 48 120 64 48 120 64 48 120 64 48 120 64 48 120 64 48 120 64 48 120 64 48 120 64 48 120 64 48 120 64 48 120 64 48 120 64 48 120 64 48 120 64 48 120 64 48 120 64 48 120 64 48 120 64 48 120 64 48 120 64 48 120 64 48 120 64 48 120 64 48 120 64 48 120 64 48 120 64 48 120 64 48 120 64 48 120 64 48 120 64 48 120 64 48 120 64 48 120 64 48 120 64 48 120 64 48 120 64 48 120 64 48 120 64 48 120 64 48 120 64 48 120 64 48 120 64 48 120 64 48 120 64 48 120 64 48 120 64 48 120 64 48 120 64 48 120 64 48 120 64 48 120 64 48 120 64 48 120 64 48 120 64 48 120 64 48 120 64 48 120 64 48 120 64 48 120 64 48 120 64 48 120 64 48 120 64 48 120 64 48 120 64 48 120 64 48 120 64 48 120 64 48 120 64 48 120 64 48 120 64 48 120 64 48 120 64 48 120 64 48 120 64 48 120 64 48