P3
128 128
255
0 64 0 0 64 0 0 64 0 0 64 0 0 64 0 0 64 0 0 64 0 0 64 0 0 64 0 0 64 0 0 64 0 0 64 0 0 64 0 0 64 0 0 64 0 0 64 0 0 64 0 0 64 0 0 64 0 0 64 0 0 64 0 0 64 0 0 64 0 0 64 0 0 64 0 0 64 0 0 64 0 0 64 0 0 64 0 0 64 0 0 64 0 0 64 0 0 128 0 0 128 0 0 128 0 0 128 0 0 128 0 0 128 0 0 128 0 0 128 0 0 128 0 0 128 0 0 128 0 0 128 0 0 128 0 0 128 0 0 128 0 0 128 0 0 128 0 0 128 0 0 128 0 0 128 0 0 128 0 0 128 0 0 128 0 0 128 0 0 128 0 0 128 0 0 128 0 0 128 0 0 128 0 0 128 0 0 128 0 0 128 0 0 0 8 0 0 8 0 0 8 0 0 8 0 0 8 0 0 8 0 0 8 0 0 8 0 0 8 0 0 8 0 0 8 0 0 8 0 0 8 0 0 8 0 0 8 0 0 8 0 0 8 0 0 8 0 0 8 0 0 8 0 0 8 0 0 8 0 0 8 0 0 8 0 0 8 0 0 8 0 0 8 0 0 8 0 0 8 0 0 8 0 0 8 0 0 8 0 0 16 0 0 16 0 0 16 0 0 16 0 0 16 0 0 16 0 0 16 0 0 16 0 0 16 0 0 16 0 0 16 0 0 16 0 0 16 0 0 16 0 0 16 0 0 16 0 0 16 0 0 16 0 0 16 0 0 16 0 0 16 0 0 16 0 0 16 0 0 16 0 0 16 0 0 16 0 0 16 0 0 16 0 0 16 0 0 16 0 0 16 0 0 16
0 64 0 0 64 0 0 64 0 0 64 0 0 64 0 0 64 0 0 64 0 0 64 0 0 64 0 0 64 0 0 64 0 0 64 0 0 64 0 0 64 0 0 64 0 0 64 0 0 64 0 0 64 0 0 64 0 0 64 0 0 64 0 0 64 0 0 64 0 0 64 0 0 64 0 0 64 0 0 64 0 0 64 0 0 64 0 0 64 0 0 64 0 0 64 0 0 128 0 0 128 0 0 128 0 0 128 0 0 128 0 0 128 0 0 128 0 0 128 0 0 128 0 0 128 0 0 128 0 0 128 0 0 128 0 0 128 0 0 128 0 0 128 0 0 128 0 0 128 0 0 128 0 0 128 0 0 128 0 0 128 0 0 128 0 0 128 0 0 128 0 0 128 0 0 128 0 0 128 0 0 128 0 0 128 0 0 128 0 0 128 0 0 0 8 0 0 8 0 0 8 0 0 8 0 0 8 0 0 8 0 0 8 0 0 8 0 0 8 0 0 8 0 0 8 0 0 8 0 0 8 0 0 8 0 0 8 0 0 8 0 0 8 0 0 8 0 0 8 0 0 8 0 0 8 0 0 8 0 0 8 0 0 8 0 0 8 0 0 8 0 0 8 0 0 8 0 0 8 0 0 8 0 0 8 0 0 8 0 0 16 0 0 16 0 0 16 0 0 16 0 0 16 0 0 16 0 0 16 0 0 16 0 0 16 0 0 16 0 0 16 0 0 16 0 0 16 0 0 16 0 0 16 0 0 16 0 0 16 0 0 16 0 0 16 0 0 16 0 0 16 0 0 16 0 0 16 0 0 16 0 0 16 0 0 16 0 0 16 0 0 16 0 0 16 0 0 16 0 0 16 0 0 16
0 64 0 0 64 0 0 64 0 0 64 0 0 64 0 0 64 0 0 64 0 0 64 0 0 64 0 0 64 0 0 64 0 0 64 0 0 64 0 0 64 0 0 64 0 0 64 0 0 64 0 0 64 0 0 64 0 0 64 0 0 64 0 0 64 0 0 64 0 0 64 0 0 64 0 0 64 0 0 64 0 0 64 0 0 64 0 0 64 0 0 64 0 0 64 0 0 128 0 0 128 0 0 128 0 0 128 0 0 128 0 0 128 0 0 128 0 0 128 0 0 128 0 0 128 0 0 128 0 0 128 0 0 128 0 0 128 0 0 128 0 0 128 0 0 128 0 0 128 0 0 128 0 0 128 0 0 128 0 0 128 0 0 128 0 0 128 0 0 128 0 0 128 0 0 128 0 0 128 0 0 128 0 0 128 0 0 128 0 0 128 0 0 0 8 0 0 8 0 0 8 0 0 8 0 0 8 0 0 8 0 0 8 0 0 8 0 0 8 0 0 8 0 0 8 0 0 8 0 0 8 0 0 8 0 0 8 0 0 8 0 0 8 0 0 8 0 0 8 0 0 8 0 0 8 0 0 8 0 0 8 0 0 8 0 0 8 0 0 8 0 0 8 0 0 8 0 0 8 0 0 8 0 0 8 0 0 8 0 0 16 0 0 16 0 0 16 0 0 16 0 0 16 0 0 16 0 0 16 0 0 16 0 0 16 0 0 16 0 0 16 0 0 16 0 0 16 0 0 16 0 0 16 0 0 16 0 0 16 0 0 16 0 0 16 0 0 16 0 0 16 0 0 16 0 0 16 0 0 16 0 0 16 0 0 16 0 0 16 0 0 16 0 0 16 0 0 16 0 0 16 0 0 16
0 64 0 0 64 0 0 64 0 0 64 0 0 64 0 0 64 0 0 64 0 0 64 0 0 64 0 0 64 0 0 64 0 0 64 0 0 64 0 0 64 0 0 64 0 0 64 0 0 64 0 0 64 0 0 64 0 0 64 0 0 64 0 0 64 0 0 64 0 0 64 0 0 64 0 0 64 0 0 64 0 0 64 0 0 64 0 0 64 0 0 64 0 0 64 0 0 128 0 0 128 0 0 128 0 0 128 0 0 128 0 0 128 0 0 128 0 0 128 0 0 128 0 0 128 0 0 128 0 0 128 0 0 128 0 0 128 0 0 128 0 0 128 0 0 128 0 0 128 0 0 128 0 0 128 0 0 128 0 0 128 0 0 128 0 0 128 0 0 128 0 0 128 0 0 128 0 0 128 0 0 128 0 0 128 0 0 128 0 0 128 0 0 0 8 0 0 8 0 0 8 0 0 8 0 0 8 0 0 8 0 0 8 0 0 8 0 0 8 0 0 8 0 0 8 0 0 8 0 0 8 0 0 8 0 0 8 0 0 8 0 0 8 0 0 8 0 0 8 0 0 8 0 0 8 0 0 8 0 0 8 0 0 8 0 0 8 0 0 8 0 0 8 0 0 8 0 0 8 0 0 8 0 0 8 0 0 8 0 0 16 0 0 16 0 0 16 0 0 16 0 0 16 0 0 16 0 0 16 0 0 16 0 0 16 0 0 16 0 0 16 0 0 16 0 0 16 0 0 16 0 0 16 0 0 16 0 0 16 0 0 16 0 0 16 0 0 16 0 0 16 0 0 16 0 0 16 0 0 16 0 0 16 0 0 16 0 0 16 0 0 16 0 0 16 0 0 16 0 0 16 0 0 16
0 64 0 0 64 0 0 64 0 0 64 0 0 64 0 0 64 0 0 64 0 0 64 0 0 64 0 0 64 0 0 64 0 0 64 0 0 64 0 0 64 0 0 64 0 0 64 0 0 64 0 0 64 0 0 64 0 0 64 0 0 64 0 0 64 0 0 64 0 0 64 0 0 64 0 0 64 0 0 64 0 0 64 0 0 64 0 0 64 0 0 64 0 0 64 0 0 128 0 0 128 0 0 128 0 0 128 0 0 128 0 0 128 0 0 128 0 0 128 0 0 128 0 0 128 0 0 128 0 0 128 0 0 128 0 0 128 0 0 128 0 0 128 0 0 128 0 0 128 0 0 128 0 0 128 0 0 128 0 0 128 0 0 128 0 0 128 0 0 128 0 0 128 0 0 128 0 0 128 0 0 128 0 0 128 0 0 128 0 0 128 0 0 0 8 0 0 8 0 0 8 0 0 8 0 0 8 0 0 8 0 0 8 0 0 8 0 0 8 0 0 8 0 0 8 0 0 8 0 0 8 0 0 8 0 0 8 0 0 8 0 0 8 0 0 8 0 0 8 0 0 8 0 0 8 0 0 8 0 0 8 0 0 8 0 0 8 0 0 8 0 0 8 0 0 8 0 0 8 0 0 8 0 0 8 0 0 8 0 0 16 0 0 16 0 0 16 0 0 16 0 0 16 0 0 16 0 0 16 0 0 16 0 0 16 0 0 16 0 0 16 0 0 16 0 0 16 0 0 16 0 0 16 0 0 16 0 0 16 0 0 16 0 0 16 0 0 16 0 0 16 0 0 16 0 0 16 0 0 16 0 0 16 0 0 16 0 0 16 0 0 16 0 0 16 0 0 16 0 0 16 0 0 16
0 64 0 0 64 0 0 64 0 0 64 0 0 64 0 0 64 0 0 64 0 0 64 0 0 64 0 0 64 0 0 64 0 0 64 0 0 64 0 0 64 0 0 64 0 0 64 0 0 64 0 0 64 0 0 64 0 0 64 0 0 64 0 0 64 0 0 64 0 0 64 0 0 64 0 0 64 0 0 64 0 0 64 0 0 64 0 0 64 0 0 64 0 0 64 0 0 128 0 0 128 0 0 128 0 0 128 0 0 128 0 0 128 0 0 128 0 0 128 0 0 128 0 0 128 0 0 128 0 0 128 0 0 128 0 0 128 0 0 128 0 0 128 0 0 128 0 0 128 0 0 128 0 0 128 0 0 128 0 0 128 0 0 128 0 0 128 0 0 128 0 0 128 0 0 128 0 0 128 0 0 128 0 0 128 0 0 128 0 0 128 0 0 0 8 0 0 8 0 0 8 0 0 8 0 0 8 0 0 8 0 0 8 0 0 8 0 0 8 0 0 8 0 0 8 0 0 8 0 0 8 0 0 8 0 0 8 0 0 8 0 0 8 0 0 8 0 0 8 0 0 8 0 0 8 0 0 8 0 0 8 0 0 8 0 0 8 0 0 8 0 0 8 0 0 8 0 0 8 0 0 8 0 0 8 0 0 8 0 0 16 0 0 16 0 0 16 0 0 16 0 0 16 0 0 16 0 0 16 0 0 16 0 0 16 0 0 16 0 0 16 0 0 16 0 0 16 0 0 16 0 0 16 0 0 16 0 0 16 0 0 16 0 0 16 0 0 16 0 0 16 0 0 16 0 0 16 0 0 16 0 0 16 0 0 16 0 0 16 0 0 16 0 0 16 0 0 16 0 0 16 0 0 16
0 64 0 0 64 0 0 64 0 0 64 0 0 64 0 0 64 0 0 64 0 0 64 0 0 64 0 0 64 0 0 64 0 0 64 0 0 64 0 0 64 0 0 64 0 0 64 0 0 64 0 0 64 0 0 64 0 0 64 0 0 64 0 0 64 0 0 64 0 0 64 0 0 64 0 0 64 0 0 64 0 0 64 0 0 64 0 0 64 0 0 64 0 0 64 0 0 128 0 0 128 0 0 128 0 0 128 0 0 128 0 0 128 0 0 128 0 0 128 0 0 128 0 0 128 0 0 128 0 0 128 0 0 128 0 0 128 0 0 128 0 0 128 0 0 128 0 0 128 0 0 128 0 0 128 0 0 128 0 0 128 0 0 128 0 0 128 0 0 128 0 0 128 0 0 128 0 0 128 0 0 128 0 0 128 0 0 128 0 0 128 0 0 0 8 0 0 8 0 0 8 0 0 8 0 0 8 0 0 8 0 0 8 0 0 8 0 0 8 0 0 8 0 0 8 0 0 8 0 0 8 0 0 8 0 0 8 0 0 8 0 0 8 0 0 8 0 0 8 0 0 8 0 0 8 0 0 8 0 0 8 0 0 8 0 0 8 0 0 8 0 0 8 0 0 8 0 0 8 0 0 8 0 0 8 0 0 8 0 0 16 0 0 16 0 0 16 0 0 16 0 0 16 0 0 16 0 0 16 0 0 16 0 0 16 0 0 16 0 0 16 0 0 16 0 0 16 0 0 16 0 0 16 0 0 16 0 0 16 0 0 16 0 0 16 0 0 16 0 0 16 0 0 16 0 0 16 0 0 16 0 0 16 0 0 16 0 0 16 0 0 16 0 0 16 0 0 16 0 0 16 0 0 16
0 64 0 0 64 0 0 64 0 0 64 0 0 64 0 0 64 0 0 64 0 0 64 0 0 64 0 0 64 0 0 64 0 0 64 0 0 64 0 0 64 0 0 64 0 0 64 0 0 64 0 0 64 0 0 64 0 0 64 0 0 64 0 0 64 0 0 64 0 0 64 0 0 64 0 0 64 0 0 64 0 0 64 0 0 64 0 0 64 0 0 64 0 0 64 0 0 128 0 0 128 0 0 128 0 0 128 0 0 128 0 0 128 0 0 128 0 0 128 0 0 128 0 0 128 0 0 128 0 0 128 0 0 128 0 0 128 0 0 128 0 0 128 0 0 128 0 0 128 0 0 128 0 0 128 0 0 128 0 0 128 0 0 128 0 0 128 0 0 128 0 0 128 0 0 128 0 0 128 0 0 128 0 0 128 0 0 128 0 0 128 0 0 0 8 0 0 8 0 0 8 0 0 8 0 0 8 0 0 8 0 0 8 0 0 8 0 0 8 0 0 8 0 0 8 0 0 8 0 0 8 0 0 8 0 0 8 0 0 8 0 0 8 0 0 8 0 0 8 0 0 8 0 0 8 0 0 8 0 0 8 0 0 8 0 0 8 0 0 8 0 0 8 0 0 8 0 0 8 0 0 8 0 0 8 0 0 8 0 0 16 0 0 16 0 0 16 0 0 16 0 0 16 0 0 16 0 0 16 0 0 16 0 0 16 0 0 16 0 0 16 0 0 16 0 0 16 0 0 16 0 0 16 0 0 16 0 0 16 0 0 16 0 0 16 0 0 16 0 0 16 0 0 16 0 0 16 0 0 16 0 0 16 0 0 16 0 0 16 0 0 16 0 0 16 0 0 16 0 0 16 0 0 16
0 64 0 0 64 0 0 64 0 0 64 0 0 64 0 0 64 0 0 64 0 0 64 0 0 64 0 0 64 0 0 64 0 0 64 0 0 64 0 0 64 0 0 64 0 0 64 0 0 64 0 0 64 0 0 64 0 0 64 0 0 64 0 0 64 0 0 64 0 0 64 0 0 64 0 0 64 0 0 64 0 0 64 0 0 64 0 0 64 0 0 64 0 0 64 0 0 128 0 0 128 0 0 128 0 0 128 0 0 128 0 0 128 0 0 128 0 0 128 0 0 128 0 0 128 0 0 128 0 0 128 0 0 128 0 0 128 0 0 128 0 0 128 0 0 128 0 0 128 0 0 128 0 0 128 0 0 128 0 0 128 0 0 128 0 0 128 0 0 128 0 0 128 0 0 128 0 0 128 0 0 128 0 0 128 0 0 128 0 0 128 0 0 0 8 0 0 8 0 0 8 0 0 8 0 0 8 0 0 8 0 0 8 0 0 8 0 0 8 0 0 8 0 0 8 0 0 8 0 0 8 0 0 8 0 0 8 0 0 8 0 0 8 0 0 8 0 0 8 0 0 8 0 0 8 0 0 8 0 0 8 0 0 8 0 0 8 0 0 8 0 0 8 0 0 8 0 0 8 0 0 8 0 0 8 0 0 8 0 0 16 0 0 16 0 0 16 0 0 16 0 0 16 0 0 16 0 0 16 0 0 16 0 0 16 0 0 16 0 0 16 0 0 16 0 0 16 0 0 16 0 0 16 0 0 16 0 0 16 0 0 16 0 0 16 0 0 16 0 0 16 0 0 16 0 0 16 0 0 16 0 0 16 0 0 16 0 0 16 0 0 16 0 0 16 0 0 16 0 0 16 0 0 16
0 64 0 0 64 0 0 64 0 0 64 0 0 64 0 0 64 0 0 64 0 0 64 0 0 64 0 0 64 0 0 64 0 0 64 0 0 64 0 0 64 0 0 64 0 0 64 0 0 64 0 0 64 0 0 64 0 0 64 0 0 64 0 0 64 0 0 64 0 0 64 0 0 64 0 0 64 0 0 64 0 0 64 0 0 64 0 0 64 0 0 64 0 0 64 0 0 128 0 0 128 0 0 128 0 0 128 0 0 128 0 0 128 0 0 128 0 0 128 0 0 128 0 0 128 0 0 128 0 0 128 0 0 128 0 0 128 0 0 128 0 0 128 0 0 128 0 0 128 0 0 128 0 0 128 0 0 128 0 0 128 0 0 128 0 0 128 0 0 128 0 0 128 0 0 128 0 0 128 0 0 128 0 0 128 0 0 128 0 0 128 0 0 0 8 0 0 8 0 0 8 0 0 8 0 0 8 0 0 8 0 0 8 0 0 8 0 0 8 0 0 8 0 0 8 0 0 8 0 0 8 0 0 8 0 0 8 0 0 8 0 0 8 0 0 8 0 0 8 0 0 8 0 0 8 0 0 8 0 0 8 0 0 8 0 0 8 0 0 8 0 0 8 0 0 8 0 0 8 0 0 8 0 0 8 0 0 8 0 0 16 0 0 16 0 0 16 0 0 16 0 0 16 0 0 16 0 0 16 0 0 16 0 0 16 0 0 16 0 0 16 0 0 16 0 0 16 0 0 16 0 0 16 0 0 16 0 0 16 0 0 16 0 0 16 0 0 16 0 0 16 0 0 16 0 0 16 0 0 16 0 0 16 0 0 16 0 0 16 0 0 16 0 0 16 0 0 16 0 0 16 0 0 16
0 64 0 0 64 0 0 64 0 0 64 0 0 64 0 0 64 0 0 64 0 0 64 0 0 64 0 0 64 0 0 64 0 0 64 0 0 64 0 0 64 0 0 64 0 0 64 0 0 64 0 0 64 0 0 64 0 0 64 0 0 64 0 0 64 0 0 64 0 0 64 0 0 64 0 0 64 0 0 64 0 0 64 0 0 64 0 0 64 0 0 64 0 0 64 0 0 128 0 0 128 0 0 128 0 0 128 0 0 128 0 0 128 0 0 128 0 0 128 0 0 128 0 0 128 0 0 128 0 0 128 0 0 128 0 0 128 0 0 128 0 0 128 0 0 128 0 0 128 0 0 128 0 0 128 0 0 128 0 0 128 0 0 128 0 0 128 0 0 128 0 0 128 0 0 128 0 0 128 0 0 128 0 0 128 0 0 128 0 0 128 0 0 0 8 0 0 8 0 0 8 0 0 8 0 0 8 0 0 8 0 0 8 0 0 8 0 0 8 0 0 8 0 0 8 0 0 8 0 0 8 0 0 8 0 0 8 0 0 8 0 0 8 0 0 8 0 0 8 0 0 8 0 0 8 0 0 8 0 0 8 0 0 8 0 0 8 0 0 8 0 0 8 0 0 8 0 0 8 0 0 8 0 0 8 0 0 8 0 0 16 0 0 16 0 0 16 0 0 16 0 0 16 0 0 16 0 0 16 0 0 16 0 0 16 0 0 16 0 0 16 0 0 16 0 0 16 0 0 16 0 0 16 0 0 16 0 0 16 0 0 16 0 0 16 0 0 16 0 0 16 0 0 16 0 0 16 0 0 16 0 0 16 0 0 16 0 0 16 0 0 16 0 0 16 0 0 16 0 0 16 0 0 16
0 64 0 0 64 0 0 64 0 0 64 0 0 64 0 0 64 0 0 64 0 0 64 0 0 64 0 0 64 0 0 64 0 0 64 0 0 64 0 0 64 0 0 64 0 0 64 0 0 64 0 0 64 0 0 64 0 0 64 0 0 64 0 0 64 0 0 64 0 0 64 0 0 64 0 0 64 0 0 64 0 0 64 0 0 64 0 0 64 0 0 64 0 0 64 0 0 128 0 0 128 0 0 128 0 0 128 0 0 128 0 0 128 0 0 128 0 0 128 0 0 128 0 0 128 0 0 128 0 0 128 0 0 128 0 0 128 0 0 128 0 0 128 0 0 128 0 0 128 0 0 128 0 0 128 0 0 128 0 0 128 0 0 128 0 0 128 0 0 128 0 0 128 0 0 128 0 0 128 0 0 128 0 0 128 0 0 128 0 0 128 0 0 0 8 0 0 8 0 0 8 0 0 8 0 0 8 0 0 8 0 0 8 0 0 8 0 0 8 0 0 8 0 0 8 0 0 8 0 0 8 0 0 8 0 0 8 0 0 8 0 0 8 0 0 8 0 0 8 0 0 8 0 0 8 0 0 8 0 0 8 0 0 8 0 0 8 0 0 8 0 0 8 0 0 8 0 0 8 0 0 8 0 0 8 0 0 8 0 0 16 0 0 16 0 0 16 0 0 16 0 0 16 0 0 16 0 0 16 0 0 16 0 0 16 0 0 16 0 0 16 0 0 16 0 0 16 0 0 16 0 0 16 0 0 16 0 0 16 0 0 16 0 0 16 0 0 16 0 0 16 0 0 16 0 0 16 0 0 16 0 0 16 0 0 16 0 0 16 0 0 16 0 0 16 0 0 16 0 0 16 0 0 16
0 64 0 0 64 0 0 64 0 0 64 0 0 64 0 0 64 0 0 64 0 0 64 0 0 64 0 0 64 0 0 64 0 0 64 0 0 64 0 0 64 0 0 64 0 0 64 0 0 64 0 0 64 0 0 64 0 0 64 0 0 64 0 0 64 0 0 64 0 0 64 0 0 64 0 0 64 0 0 64 0 0 64 0 0 64 0 0 64 0 0 64 0 0 64 0 0 128 0 0 128 0 0 128 0 0 128 0 0 128 0 0 128 0 0 128 0 0 128 0 0 128 0 0 128 0 0 128 0 0 128 0 0 128 0 0 128 0 0 128 0 0 128 0 0 128 0 0 128 0 0 128 0 0 128 0 0 128 0 0 128 0 0 128 0 0 128 0 0 128 0 0 128 0 0 128 0 0 128 0 0 128 0 0 128 0 0 128 0 0 128 0 0 0 8 0 0 8 0 0 8 0 0 8 0 0 8 0 0 8 0 0 8 0 0 8 0 0 8 0 0 8 0 0 8 0 0 8 0 0 8 0 0 8 0 0 8 0 0 8 0 0 8 0 0 8 0 0 8 0 0 8 0 0 8 0 0 8 0 0 8 0 0 8 0 0 8 0 0 8 0 0 8 0 0 8 0 0 8 0 0 8 0 0 8 0 0 8 0 0 16 0 0 16 0 0 16 0 0 16 0 0 16 0 0 16 0 0 16 0 0 16 0 0 16 0 0 16 0 0 16 0 0 16 0 0 16 0 0 16 0 0 16 0 0 16 0 0 16 0 0 16 0 0 16 0 0 16 0 0 16 0 0 16 0 0 16 0 0 16 0 0 16 0 0 16 0 0 16 0 0 16 0 0 16 0 0 16 0 0 16 0 0 16
0 64 0 0 64 0 0 64 0 0 64 0 0 64 0 0 64 0 0 64 0 0 64 0 0 64 0 0 64 0 0 64 0 0 64 0 0 64 0 0 64 0 0 64 0 0 64 0 0 64 0 0 64 0 0 64 0 0 64 0 0 64 0 0 64 0 0 64 0 0 64 0 0 64 0 0 64 0 0 64 0 0 64 0 0 64 0 0 64 0 0 64 0 0 64 0 0 128 0 0 128 0 0 128 0 0 128 0 0 128 0 0 128 0 0 128 0 0 128 0 0 128 0 0 128 0 0 128 0 0 128 0 0 128 0 0 128 0 0 128 0 0 128 0 0 128 0 0 128 0 0 128 0 0 128 0 0 128 0 0 128 0 0 128 0 0 128 0 0 128 0 0 128 0 0 128 0 0 128 0 0 128 0 0 128 0 0 128 0 0 128 0 0 0 8 0 0 8 0 0 8 0 0 8 0 0 8 0 0 8 0 0 8 0 0 8 0 0 8 0 0 8 0 0 8 0 0 8 0 0 8 0 0 8 0 0 8 0 0 8 0 0 8 0 0 8 0 0 8 0 0 8 0 0 8 0 0 8 0 0 8 0 0 8 0 0 8 0 0 8 0 0 8 0 0 8 0 0 8 0 0 8 0 0 8 0 0 8 0 0 16 0 0 16 0 0 16 0 0 16 0 0 16 0 0 16 0 0 16 0 0 16 0 0 16 0 0 16 0 0 16 0 0 16 0 0 16 0 0 16 0 0 16 0 0 16 0 0 16 0 0 16 0 0 16 0 0 16 0 0 16 0 0 16 0 0 16 0 0 16 0 0 16 0 0 16 0 0 16 0 0 16 0 0 16 0 0 16 0 0 16 0 0 16
0 64 0 0 64 0 0 64 0 0 64 0 0 64 0 0 64 0 0 64 0 0 64 0 0 64 0 0 64 0 0 64 0 0 64 0 0 64 0 0 64 0 0 64 0 0 64 0 0 64 0 0 64 0 0 64 0 0 64 0 0 64 0 0 64 0 0 64 0 0 64 0 0 64 0 0 64 0 0 64 0 0 64 0 0 64 0 0 64 0 0 64 0 0 64 0 0 128 0 0 128 0 0 128 0 0 128 0 0 128 0 0 128 0 0 128 0 0 128 0 0 128 0 0 128 0 0 128 0 0 128 0 0 128 0 0 128 0 0 128 0 0 128 0 0 128 0 0 128 0 0 128 0 0 128 0 0 128 0 0 128 0 0 128 0 0 128 0 0 128 0 0 128 0 0 128 0 0 128 0 0 128 0 0 128 0 0 128 0 0 128 0 0 0 8 0 0 8 0 0 8 0 0 8 0 0 8 0 0 8 0 0 8 0 0 8 0 0 8 0 0 8 0 0 8 0 0 8 0 0 8 0 0 8 0 0 8 0 0 8 0 0 8 0 0 8 0 0 8 0 0 8 0 0 8 0 0 8 0 0 8 0 0 8 0 0 8 0 0 8 0 0 8 0 0 8 0 0 8 0 0 8 0 0 8 0 0 8 0 0 16 0 0 16 0 0 16 0 0 16 0 0 16 0 0 16 0 0 16 0 0 16 0 0 16 0 0 16 0 0 16 0 0 16 0 0 16 0 0 16 0 0 16 0 0 16 0 0 16 0 0 16 0 0 16 0 0 16 0 0 16 0 0 16 0 0 16 0 0 16 0 0 16 0 0 16 0 0 16 0 0 16 0 0 16 0 0 16 0 0 16 0 0 16
0 64 0 0 64 0 0 64 0 0 64 0 0 64 0 0 64 0 0 64 0 0 64 0 0 64 0 0 64 0 0 64 0 0 64 0 0 64 0 0 64 0 0 64 0 0 64 0 0 64 0 0 64 0 0 64 0 0 64 0 0 64 0 0 64 0 0 64 0 0 64 0 0 64 0 0 64 0 0 64 0 0 64 0 0 64 0 0 64 0 0 64 0 0 64 0 0 128 0 0 128 0 0 128 0 0 128 0 0 128 0 0 128 0 0 128 0 0 128 0 0 128 0 0 128 0 0 128 0 0 128 0 0 128 0 0 128 0 0 128 0 0 128 0 0 128 0 0 128 0 0 128 0 0 128 0 0 128 0 0 128 0 0 128 0 0 128 0 0 128 0 0 128 0 0 128 0 0 128 0 0 128 0 0 128 0 0 128 0 0 128 0 0 0 8 0 0 8 0 0 8 0 0 8 0 0 8 0 0 8 0 0 8 0 0 8 0 0 8 0 0 8 0 0 8 0 0 8 0 0 8 0 0 8 0 0 8 0 0 8 0 0 8 0 0 8 0 0 8 0 0 8 0 0 8 0 0 8 0 0 8 0 0 8 0 0 8 0 0 8 0 0 8 0 0 8 0 0 8 0 0 8 0 0 8 0 0 8 0 0 16 0 0 16 0 0 16 0 0 16 0 0 16 0 0 16 0 0 16 0 0 16 0 0 16 0 0 16 0 0 16 0 0 16 0 0 16 0 0 16 0 0 16 0 0 16 0 0 16 0 0 16 0 0 16 0 0 16 0 0 16 0 0 16 0 0 16 0 0 16 0 0 16 0 0 16 0 0 16 0 0 16 0 0 16 0 0 16 0 0 16 0 0 16
0 64 0 0 64 0 0 64 0 0 64 0 0 64 0 0 64 0 0 64 0 0 64 0 0 64 0 0 64 0 0 64 0 0 64 0 0 64 0 0 64 0 0 64 0 0 64 0 0 64 0 0 64 0 0 64 0 0 64 0 0 64 0 0 64 0 0 64 0 0 64 0 0 64 0 0 64 0 0 64 0 0 64 0 0 64 0 0 64 0 0 64 0 0 64 0 0 128 0 0 128 0 0 128 0 0 128 0 0 128 0 0 128 0 0 128 0 0 128 0 0 128 0 0 128 0 0 128 0 0 128 0 0 128 0 0 128 0 0 128 0 0 128 0 0 128 0 0 128 0 0 128 0 0 128 0 0 128 0 0 128 0 0 128 0 0 128 0 0 128 0 0 128 0 0 128 0 0 128 0 0 128 0 0 128 0 0 128 0 0 128 0 0 0 8 0 0 8 0 0 8 0 0 8 0 0 8 0 0 8 0 0 8 0 0 8 0 0 8 0 0 8 0 0 8 0 0 8 0 0 8 0 0 8 0 0 8 0 0 8 0 0 8 0 0 8 0 0 8 0 0 8 0 0 8 0 0 8 0 0 8 0 0 8 0 0 8 0 0 8 0 0 8 0 0 8 0 0 8 0 0 8 0 0 8 0 0 8 0 0 16 0 0 16 0 0 16 0 0 16 0 0 16 0 0 16 0 0 16 0 0 16 0 0 16 0 0 16 0 0 16 0 0 16 0 0 16 0 0 16 0 0 16 0 0 16 0 0 16 0 0 16 0 0 16 0 0 16 0 0 16 0 0 16 0 0 16 0 0 16 0 0 16 0 0 16 0 0 16 0 0 16 0 0 16 0 0 16 0 0 16 0 0 16
0 64 0 0 64 0 0 64 0 0 64 0 0 64 0 0 64 0 0 64 0 0 64 0 0 64 0 0 64 0 0 64 0 0 64 0 0 64 0 0 64 0 0 64 0 0 64 0 0 64 0 0 64 0 0 64 0 0 64 0 0 64 0 0 64 0 0 64 0 0 64 0 0 64 0 0 64 0 0 64 0 0 64 0 0 64 0 0 64 0 0 64 0 0 64 0 0 128 0 0 128 0 0 128 0 0 128 0 0 128 0 0 128 0 0 128 0 0 128 0 0 128 0 0 128 0 0 128 0 0 128 0 0 128 0 0 128 0 0 128 0 0 128 0 0 128 0 0 128 0 0 128 0 0 128 0 0 128 0 0 128 0 0 128 0 0 128 0 0 128 0 0 128 0 0 128 0 0 128 0 0 128 0 0 128 0 0 128 0 0 128 0 0 0 8 0 0 8 0 0 8 0 0 8 0 0 8 0 0 8 0 0 8 0 0 8 0 0 8 0 0 8 0 0 8 0 0 8 0 0 8 0 0 8 0 0 8 0 0 8 0 0 8 0 0 8 0 0 8 0 0 8 0 0 8 0 0 8 0 0 8 0 0 8 0 0 8 0 0 8 0 0 8 0 0 8 0 0 8 0 0 8 0 0 8 0 0 8 0 0 16 0 0 16 0 0 16 0 0 16 0 0 16 0 0 16 0 0 16 0 0 16 0 0 16 0 0 16 0 0 16 0 0 16 0 0 16 0 0 16 0 0 16 0 0 16 0 0 16 0 0 16 0 0 16 0 0 16 0 0 16 0 0 16 0 0 16 0 0 16 0 0 16 0 0 16 0 0 16 0 0 16 0 0 16 0 0 16 0 0 16 0 0 16
0 64 0 0 64 0 0 64 0 0 64 0 0 64 0 0 64 0 0 64 0 0 64 0 0 64 0 0 64 0 0 64 0 0 64 0 0 64 0 0 64 0 0 64 0 0 64 0 0 64 0 0 64 0 0 64 0 0 64 0 0 64 0 0 64 0 0 64 0 0 64 0 0 64 0 0 64 0 0 64 0 0 64 0 0 64 0 0 64 0 0 64 0 0 64 0 0 128 0 0 128 0 0 128 0 0 128 0 0 128 0 0 128 0 0 128 0 0 128 0 0 128 0 0 128 0 0 128 0 0 128 0 0 128 0 0 128 0 0 128 0 0 128 0 0 128 0 0 128 0 0 128 0 0 128 0 0 128 0 0 128 0 0 128 0 0 128 0 0 128 0 0 128 0 0 128 0 0 128 0 0 128 0 0 128 0 0 128 0 0 128 0 0 0 8 0 0 8 0 0 8 0 0 8 0 0 8 0 0 8 0 0 8 0 0 8 0 0 8 0 0 8 0 0 8 0 0 8 0 0 8 0 0 8 0 0 8 0 0 8 0 0 8 0 0 8 0 0 8 0 0 8 0 0 8 0 0 8 0 0 8 0 0 8 0 0 8 0 0 8 0 0 8 0 0 8 0 0 8 0 0 8 0 0 8 0 0 8 0 0 16 0 0 16 0 0 16 0 0 16 0 0 16 0 0 16 0 0 16 0 0 16 0 0 16 0 0 16 0 0 16 0 0 16 0 0 16 0 0 16 0 0 16 0 0 16 0 0 16 0 0 16 0 0 16 0 0 16 0 0 16 0 0 16 0 0 16 0 0 16 0 0 16 0 0 16 0 0 16 0 0 16 0 0 16 0 0 16 0 0 16 0 0 16
0 64 0 0 64 0 0 64 0 0 64 0 0 64 0 0 64 0 0 64 0 0 64 0 0 64 0 0 64 0 0 64 0 0 64 0 0 64 0 0 64 0 0 64 0 0 64 0 0 64 0 0 64 0 0 64 0 0 64 0 0 64 0 0 64 0 0 64 0 0 64 0 0 64 0 0 64 0 0 64 0 0 64 0 0 64 0 0 64 0 0 64 0 0 64 0 0 128 0 0 128 0 0 128 0 0 128 0 0 128 0 0 128 0 0 128 0 0 128 0 0 128 0 0 128 0 0 128 0 0 128 0 0 128 0 0 128 0 0 128 0 0 128 0 0 128 0 0 128 0 0 128 0 0 128 0 0 128 0 0 128 0 0 128 0 0 128 0 0 128 0 0 128 0 0 128 0 0 128 0 0 128 0 0 128 0 0 128 0 0 128 0 0 0 8 0 0 8 0 0 8 0 0 8 0 0 8 0 0 8 0 0 8 0 0 8 0 0 8 0 0 8 0 0 8 0 0 8 0 0 8 0 0 8 0 0 8 0 0 8 0 0 8 0 0 8 0 0 8 0 0 8 0 0 8 0 0 8 0 0 8 0 0 8 0 0 8 0 0 8 0 0 8 0 0 8 0 0 8 0 0 8 0 0 8 0 0 8 0 0 16 0 0 16 0 0 16 0 0 16 0 0 16 0 0 16 0 0 16 0 0 16 0 0 16 0 0 16 0 0 16 0 0 16 0 0 16 0 0 16 0 0 16 0 0 16 0 0 16 0 0 16 0 0 16 0 0 16 0 0 16 0 0 16 0 0 16 0 0 16 0 0 16 0 0 16 0 0 16 0 0 16 0 0 16 0 0 16 0 0 16 0 0 16
0 64 0 0 64 0 0 64 0 0 64 0 0 64 0 0 64 0 0 64 0 0 64 0 0 64 0 0 64 0 0 64 0 0 64 0 0 64 0 0 64 0 0 64 0 0 64 0 0 64 0 0 64 0 0 64 0 0 64 0 0 64 0 0 64 0 0 64 0 0 64 0 0 64 0 0 64 0 0 64 0 0 64 0 0 64 0 0 64 0 0 64 0 0 64 0 0 128 0 0 128 0 0 128 0 0 128 0 0 128 0 0 128 0 0 128 0 0 128 0 0 128 0 0 128 0 0 128 0 0 128 0 0 128 0 0 128 0 0 128 0 0 128 0 0 128 0 0 128 0 0 128 0 0 128 0 0 128 0 0 128 0 0 128 0 0 128 0 0 128 0 0 128 0 0 128 0 0 128 0 0 128 0 0 128 0 0 128 0 0 128 0 0 0 8 0 0 8 0 0 8 0 0 8 0 0 8 0 0 8 0 0 8 0 0 8 0 0 8 0 0 8 0 0 8 0 0 8 0 0 8 0 0 8 0 0 8 0 0 8 0 0 8 0 0 8 0 0 8 0 0 8 0 0 8 0 0 8 0 0 8 0 0 8 0 0 8 0 0 8 0 0 8 0 0 8 0 0 8 0 0 8 0 0 8 0 0 8 0 0 16 0 0 16 0 0 16 0 0 16 0 0 16 0 0 16 0 0 16 0 0 16 0 0 16 0 0 16 0 0 16 0 0 16 0 0 16 0 0 16 0 0 16 0 0 16 0 0 16 0 0 16 0 0 16 0 0 16 0 0 16 0 0 16 0 0 16 0 0 16 0 0 16 0 0 16 0 0 16 0 0 16 0 0 16 0 0 16 0 0 16 0 0 16
0 64 0 0 64 0 0 64 0 0 64 0 0 64 0 0 64 0 0 64 0 0 64 0 0 64 0 0 64 0 0 64 0 0 64 0 0 64 0 0 64 0 0 64 0 0 64 0 0 64 0 0 64 0 0 64 0 0 64 0 0 64 0 0 64 0 0 64 0 0 64 0 0 64 0 0 64 0 0 64 0 0 64 0 0 64 0 0 64 0 0 64 0 0 64 0 0 128 0 0 128 0 0 128 0 0 128 0 0 128 0 0 128 0 0 128 0 0 128 0 0 128 0 0 128 0 0 128 0 0 128 0 0 128 0 0 128 0 0 128 0 0 128 0 0 128 0 0 128 0 0 128 0 0 128 0 0 128 0 0 128 0 0 128 0 0 128 0 0 128 0 0 128 0 0 128 0 0 128 0 0 128 0 0 128 0 0 128 0 0 128 0 0 0 8 0 0 8 0 0 8 0 0 8 0 0 8 0 0 8 0 0 8 0 0 8 0 0 8 0 0 8 0 0 8 0 0 8 0 0 8 0 0 8 0 0 8 0 0 8 0 0 8 0 0 8 0 0 8 0 0 8 0 0 8 0 0 8 0 0 8 0 0 8 0 0 8 0 0 8 0 0 8 0 0 8 0 0 8 0 0 8 0 0 8 0 0 8 0 0 16 0 0 16 0 0 16 0 0 16 0 0 16 0 0 16 0 0 16 0 0 16 0 0 16 0 0 16 0 0 16 0 0 16 0 0 16 0 0 16 0 0 16 0 0 16 0 0 16 0 0 16 0 0 16 0 0 16 0 0 16 0 0 16 0 0 16 0 0 16 0 0 16 0 0 16 0 0 16 0 0 16 0 0 16 0 0 16 0 0 16 0 0 16
0 64 0 0 64 0 0 64 0 0 64 0 0 64 0 0 64 0 0 64 0 0 64 0 0 64 0 0 64 0 0 64 0 0 64 0 0 64 0 0 64 0 0 64 0 0 64 0 0 64 0 0 64 0 0 64 0 0 64 0 0 64 0 0 64 0 0 64 0 0 64 0 0 64 0 0 64 0 0 64 0 0 64 0 0 64 0 0 64 0 0 64 0 0 64 0 0 128 0 0 128 0 0 128 0 0 128 0 0 128 0 0 128 0 0 128 0 0 128 0 0 128 0 0 128 0 0 128 0 0 128 0 0 128 0 0 128 0 0 128 0 0 128 0 0 128 0 0 128 0 0 128 0 0 128 0 0 128 0 0 128 0 0 128 0 0 128 0 0 128 0 0 128 0 0 128 0 0 128 0 0 128 0 0 128 0 0 128 0 0 128 0 0 0 8 0 0 8 0 0 8 0 0 8 0 0 8 0 0 8 0 0 8 0 0 8 0 0 8 0 0 8 0 0 8 0 0 8 0 0 8 0 0 8 0 0 8 0 0 8 0 0 8 0 0 8 0 0 8 0 0 8 0 0 8 0 0 8 0 0 8 0 0 8 0 0 8 0 0 8 0 0 8 0 0 8 0 0 8 0 0 8 0 0 8 0 0 8 0 0 16 0 0 16 0 0 16 0 0 16 0 0 16 0 0 16 0 0 16 0 0 16 0 0 16 0 0 16 0 0 16 0 0 16 0 0 16 0 0 16 0 0 16 0 0 16 0 0 16 0 0 16 0 0 16 0 0 16 0 0 16 0 0 16 0 0 16 0 0 16 0 0 16 0 0 16 0 0 16 0 0 16 0 0 16 0 0 16 0 0 16 0 0 16
0 64 0 0 64 0 0 64 0 0 64 0 0 64 0 0 64 0 0 64 0 0 64 0 0 64 0 0 64 0 0 64 0 0 64 0 0 64 0 0 64 0 0 64 0 0 64 0 0 64 0 0 64 0 0 64 0 0 64 0 0 64 0 0 64 0 0 64 0 0 64 0 0 64 0 0 64 0 0 64 0 0 64 0 0 64 0 0 64 0 0 64 0 0 64 0 0 128 0 0 128 0 0 128 0 0 128 0 0 128 0 0 128 0 0 128 0 0 128 0 0 128 0 0 128 0 0 128 0 0 128 0 0 128 0 0 128 0 0 128 0 0 128 0 0 128 0 0 128 0 0 128 0 0 128 0 0 128 0 0 128 0 0 128 0 0 128 0 0 128 0 0 128 0 0 128 0 0 128 0 0 128 0 0 128 0 0 128 0 0 128 0 0 0 8 0 0 8 0 0 8 0 0 8 0 0 8 0 0 8 0 0 8 0 0 8 0 0 8 0 0 8 0 0 8 0 0 8 0 0 8 0 0 8 0 0 8 0 0 8 0 0 8 0 0 8 0 0 8 0 0 8 0 0 8 0 0 8 0 0 8 0 0 8 0 0 8 0 0 8 0 0 8 0 0 8 0 0 8 0 0 8 0 0 8 0 0 8 0 0 16 0 0 16 0 0 16 0 0 16 0 0 16 0 0 16 0 0 16 0 0 16 0 0 16 0 0 16 0 0 16 0 0 16 0 0 16 0 0 16 0 0 16 0 0 16 0 0 16 0 0 16 0 0 16 0 0 16 0 0 16 0 0 16 0 0 16 0 0 16 0 0 16 0 0 16 0 0 16 0 0 16 0 0 16 0 0 16 0 0 16 0 0 16
0 64 0 0 64 0 0 64 0 0 64 0 0 64 0 0 64 0 0 64 0 0 64 0 0 64 0 0 64 0 0 64 0 0 64 0 0 64 0 0 64 0 0 64 0 0 64 0 0 64 0 0 64 0 0 64 0 0 64 0 0 64 0 0 64 0 0 64 0 0 64 0 0 64 0 0 64 0 0 64 0 0 64 0 0 64 0 0 64 0 0 64 0 0 64 0 0 128 0 0 128 0 0 128 0 0 128 0 0 128 0 0 128 0 0 128 0 0 128 0 0 128 0 0 128 0 0 128 0 0 128 0 0 128 0 0 128 0 0 128 0 0 128 0 0 128 0 0 128 0 0 128 0 0 128 0 0 128 0 0 128 0 0 128 0 0 128 0 0 128 0 0 128 0 0 128 0 0 128 0 0 128 0 0 128 0 0 128 0 0 128 0 0 0 8 0 0 8 0 0 8 0 0 8 0 0 8 0 0 8 0 0 8 0 0 8 0 0 8 0 0 8 0 0 8 0 0 8 0 0 8 0 0 8 0 0 8 0 0 8 0 0 8 0 0 8 0 0 8 0 0 8 0 0 8 0 0 8 0 0 8 0 0 8 0 0 8 0 0 8 0 0 8 0 0 8 0 0 8 0 0 8 0 0 8 0 0 8 0 0 16 0 0 16 0 0 16 0 0 16 0 0 16 0 0 16 0 0 16 0 0 16 0 0 16 0 0 16 0 0 16 0 0 16 0 0 16 0 0 16 0 0 16 0 0 16 0 0 16 0 0 16 0 0 16 0 0 16 0 0 16 0 0 16 0 0 16 0 0 16 0 0 16 0 0 16 0 0 16 0 0 16 0 0 16 0 0 16 0 0 16 0 0 16
0 64 0 0 64 0 0 64 0 0 64 0 0 64 0 0 64 0 0 64 0 0 64 0 0 64 0 0 64 0 0 64 0 0 64 0 0 64 0 0 64 0 0 64 0 0 64 0 0 64 0 0 64 0 0 64 0 0 64 0 0 64 0 0 64 0 0 64 0 0 64 0 0 64 0 0 64 0 0 64 0 0 64 0 0 64 0 0 64 0 0 64 0 0 64 0 0 128 0 0 128 0 0 128 0 0 128 0 0 128 0 0 128 0 0 128 0 0 128 0 0 128 0 0 128 0 0 128 0 0 128 0 0 128 0 0 128 0 0 128 0 0 128 0 0 128 0 0 128 0 0 128 0 0 128 0 0 128 0 0 128 0 0 128 0 0 128 0 0 128 0 0 128 0 0 128 0 0 128 0 0 128 0 0 128 0 0 128 0 0 128 0 0 0 8 0 0 8 0 0 8 0 0 8 0 0 8 0 0 8 0 0 8 0 0 8 0 0 8 0 0 8 0 0 8 0 0 8 0 0 8 0 0 8 0 0 8 0 0 8 0 0 8 0 0 8 0 0 8 0 0 8 0 0 8 0 0 8 0 0 8 0 0 8 0 0 8 0 0 8 0 0 8 0 0 8 0 0 8 0 0 8 0 0 8 0 0 8 0 0 16 0 0 16 0 0 16 0 0 16 0 0 16 0 0 16 0 0 16 0 0 16 0 0 16 0 0 16 0 0 16 0 0 16 0 0 16 0 0 16 0 0 16 0 0 16 0 0 16 0 0 16 0 0 16 0 0 16 0 0 16 0 0 16 0 0 16 0 0 16 0 0 16 0 0 16 0 0 16 0 0 16 0 0 16 0 0 16 0 0 16 0 0 16
0 64 0 0 64 0 0 64 0 0 64 0 0 64 0 0 64 0 0 64 0 0 64 0 0 64 0 0 64 0 0 64 0 0 64 0 0 64 0 0 64 0 0 64 0 0 64 0 0 64 0 0 64 0 0 64 0 0 64 0 0 64 0 0 64 0 0 64 0 0 64 0 0 64 0 0 64 0 0 64 0 0 64 0 0 64 0 0 64 0 0 64 0 0 64 0 0 128 0 0 128 0 0 128 0 0 128 0 0 128 0 0 128 0 0 128 0 0 128 0 0 128 0 0 128 0 0 128 0 0 128 0 0 128 0 0 128 0 0 128 0 0 128 0 0 128 0 0 128 0 0 128 0 0 128 0 0 128 0 0 128 0 0 128 0 0 128 0 0 128 0 0 128 0 0 128 0 0 128 0 0 128 0 0 128 0 0 128 0 0 128 0 0 0 8 0 0 8 0 0 8 0 0 8 0 0 8 0 0 8 0 0 8 0 0 8 0 0 8 0 0 8 0 0 8 0 0 8 0 0 8 0 0 8 0 0 8 0 0 8 0 0 8 0 0 8 0 0 8 0 0 8 0 0 8 0 0 8 0 0 8 0 0 8 0 0 8 0 0 8 0 0 8 0 0 8 0 0 8 0 0 8 0 0 8 0 0 8 0 0 16 0 0 16 0 0 16 0 0 16 0 0 16 0 0 16 0 0 16 0 0 16 0 0 16 0 0 16 0 0 16 0 0 16 0 0 16 0 0 16 0 0 16 0 0 16 0 0 16 0 0 16 0 0 16 0 0 16 0 0 16 0 0 16 0 0 16 0 0 16 0 0 16 0 0 16 0 0 16 0 0 16 0 0 16 0 0 16 0 0 16 0 0 16
0 64 0 0 64 0 0 64 0 0 64 0 0 64 0 0 64 0 0 64 0 0 64 0 0 64 0 0 64 0 0 64 0 0 64 0 0 64 0 0 64 0 0 64 0 0 64 0 0 64 0 0 64 0 0 64 0 0 64 0 0 64 0 0 64 0 0 64 0 0 64 0 0 64 0 0 64 0 0 64 0 0 64 0 0 64 0 0 64 0 0 64 0 0 64 0 0 128 0 0 128 0 0 128 0 0 128 0 0 128 0 0 128 0 0 128 0 0 128 0 0 128 0 0 128 0 0 128 0 0 128 0 0 128 0 0 128 0 0 128 0 0 128 0 0 128 0 0 128 0 0 128 0 0 128 0 0 128 0 0 128 0 0 128 0 0 128 0 0 128 0 0 128 0 0 128 0 0 128 0 0 128 0 0 128 0 0 128 0 0 128 0 0 0 8 0 0 8 0 0 8 0 0 8 0 0 8 0 0 8 0 0 8 0 0 8 0 0 8 0 0 8 0 0 8 0 0 8 0 0 8 0 0 8 0 0 8 0 0 8 0 0 8 0 0 8 0 0 8 0 0 8 0 0 8 0 0 8 0 0 8 0 0 8 0 0 8 0 0 8 0 0 8 0 0 8 0 0 8 0 0 8 0 0 8 0 0 8 0 0 16 0 0 16 0 0 16 0 0 16 0 0 16 0 0 16 0 0 16 0 0 16 0 0 16 0 0 16 0 0 16 0 0 16 0 0 16 0 0 16 0 0 16 0 0 16 0 0 16 0 0 16 0 0 16 0 0 16 0 0 16 0 0 16 0 0 16 0 0 16 0 0 16 0 0 16 0 0 16 0 0 16 0 0 16 0 0 16 0 0 16 0 0 16
0 64 0 0 64 0 0 64 0 0 64 0 0 64 0 0 64 0 0 64 0 0 64 0 0 64 0 0 64 0 0 64 0 0 64 0 0 64 0 0 64 0 0 64 0 0 64 0 0 64 0 0 64 0 0 64 0 0 64 0 0 64 0 0 64 0 0 64 0 0 64 0 0 64 0 0 64 0 0 64 0 0 64 0 0 64 0 0 64 0 0 64 0 0 64 0 0 128 0 0 128 0 0 128 0 0 128 0 0 128 0 0 128 0 0 128 0 0 128 0 0 128 0 0 128 0 0 128 0 0 128 0 0 128 0 0 128 0 0 128 0 0 128 0 0 128 0 0 128 0 0 128 0 0 128 0 0 128 0 0 128 0 0 128 0 0 128 0 0 128 0 0 128 0 0 128 0 0 128 0 0 128 0 0 128 0 0 128 0 0 128 0 0 0 8 0 0 8 0 0 8 0 0 8 0 0 8 0 0 8 0 0 8 0 0 8 0 0 8 0 0 8 0 0 8 0 0 8 0 0 8 0 0 8 0 0 8 0 0 8 0 0 8 0 0 8 0 0 8 0 0 8 0 0 8 0 0 8 0 0 8 0 0 8 0 0 8 0 0 8 0 0 8 0 0 8 0 0 8 0 0 8 0 0 8 0 0 8 0 0 16 0 0 16 0 0 16 0 0 16 0 0 16 0 0 16 0 0 16 0 0 16 0 0 16 0 0 16 0 0 16 0 0 16 0 0 16 0 0 16 0 0 16 0 0 16 0 0 16 0 0 16 0 0 16 0 0 16 0 0 16 0 0 16 0 0 16 0 0 16 0 0 16 0 0 16 0 0 16 0 0 16 0 0 16 0 0 16 0 0 16 0 0 16
0 64 0 0 64 0 0 64 0 0 64 0 0 64 0 0 64 0 0 64 0 0 64 0 0 64 0 0 64 0 0 64 0 0 64 0 0 64 0 0 64 0 0 64 0 0 64 0 0 64 0 0 64 0 0 64 0 0 64 0 0 64 0 0 64 0 0 64 0 0 64 0 0 64 0 0 64 0 0 64 0 0 64 0 0 64 0 0 64 0 0 64 0 0 64 0 0 128 0 0 128 0 0 128 0 0 128 0 0 128 0 0 128 0 0 128 0 0 128 0 0 128 0 0 128 0 0 128 0 0 128 0 0 128 0 0 128 0 0 128 0 0 128 0 0 128 0 0 128 0 0 128 0 0 128 0 0 128 0 0 128 0 0 128 0 0 128 0 0 128 0 0 128 0 0 128 0 0 128 0 0 128 0 0 128 0 0 128 0 0 128 0 0 0 8 0 0 8 0 0 8 0 0 8 0 0 8 0 0 8 0 0 8 0 0 8 0 0 8 0 0 8 0 0 8 0 0 8 0 0 8 0 0 8 0 0 8 0 0 8 0 0 8 0 0 8 0 0 8 0 0 8 0 0 8 0 0 8 0 0 8 0 0 8 0 0 8 0 0 8 0 0 8 0 0 8 0 0 8 0 0 8 0 0 8 0 0 8 0 0 16 0 0 16 0 0 16 0 0 16 0 0 16 0 0 16 0 0 16 0 0 16 0 0 16 0 0 16 0 0 16 0 0 16 0 0 16 0 0 16 0 0 16 0 0 16 0 0 16 0 0 16 0 0 16 0 0 16 0 0 16 0 0 16 0 0 16 0 0 16 0 0 16 0 0 16 0 0 16 0 0 16 0 0 16 0 0 16 0 0 16 0 0 16
0 64 0 0 64 0 0 64 0 0 64 0 0 64 0 0 64 0 0 64 0 0 64 0 0 64 0 0 64 0 0 64 0 0 64 0 0 64 0 0 64 0 0 64 0 0 64 0 0 64 0 0 64 0 0 64 0 0 64 0 0 64 0 0 64 0 0 64 0 0 64 0 0 64 0 0 64 0 0 64 0 0 64 0 0 64 0 0 64 0 0 64 0 0 64 0 0 128 0 0 128 0 0 128 0 0 128 0 0 128 0 0 128 0 0 128 0 0 128 0 0 128 0 0 128 0 0 128 0 0 128 0 0 128 0 0 128 0 0 128 0 0 128 0 0 128 0 0 128 0 0 128 0 0 128 0 0 128 0 0 128 0 0 128 0 0 128 0 0 128 0 0 128 0 0 128 0 0 128 0 0 128 0 0 128 0 0 128 0 0 128 0 0 0 8 0 0 8 0 0 8 0 0 8 0 0 8 0 0 8 0 0 8 0 0 8 0 0 8 0 0 8 0 0 8 0 0 8 0 0 8 0 0 8 0 0 8 0 0 8 0 0 8 0 0 8 0 0 8 0 0 8 0 0 8 0 0 8 0 0 8 0 0 8 0 0 8 0 0 8 0 0 8 0 0 8 0 0 8 0 0 8 0 0 8 0 0 8 0 0 16 0 0 16 0 0 16 0 0 16 0 0 16 0 0 16 0 0 16 0 0 16 0 0 16 0 0 16 0 0 16 0 0 16 0 0 16 0 0 16 0 0 16 0 0 16 0 0 16 0 0 16 0 0 16 0 0 16 0 0 16 0 0 16 0 0 16 0 0 16 0 0 16 0 0 16 0 0 16 0 0 16 0 0 16 0 0 16 0 0 16 0 0 16
0 64 0 0 64 0 0 64 0 0 64 0 0 64 0 0 64 0 0 64 0 0 64 0 0 64 0 0 64 0 0 64 0 0 64 0 0 64 0 0 64 0 0 64 0 0 64 0 0 64 0 0 64 0 0 64 0 0 64 0 0 64 0 0 64 0 0 64 0 0 64 0 0 64 0 0 64 0 0 64 0 0 64 0 0 64 0 0 64 0 0 64 0 0 64 0 0 128 0 0 128 0 0 128 0 0 128 0 0 128 0 0 128 0 0 128 0 0 128 0 0 128 0 0 128 0 0 128 0 0 128 0 0 128 0 0 128 0 0 128 0 0 128 0 0 128 0 0 128 0 0 128 0 0 128 0 0 128 0 0 128 0 0 128 0 0 128 0 0 128 0 0 128 0 0 128 0 0 128 0 0 128 0 0 128 0 0 128 0 0 128 0 0 0 8 0 0 8 0 0 8 0 0 8 0 0 8 0 0 8 0 0 8 0 0 8 0 0 8 0 0 8 0 0 8 0 0 8 0 0 8 0 0 8 0 0 8 0 0 8 0 0 8 0 0 8 0 0 8 0 0 8 0 0 8 0 0 8 0 0 8 0 0 8 0 0 8 0 0 8 0 0 8 0 0 8 0 0 8 0 0 8 0 0 8 0 0 8 0 0 16 0 0 16 0 0 16 0 0 16 0 0 16 0 0 16 0 0 16 0 0 16 0 0 16 0 0 16 0 0 16 0 0 16 0 0 16 0 0 16 0 0 16 0 0 16 0 0 16 0 0 16 0 0 16 0 0 16 0 0 16 0 0 16 0 0 16 0 0 16 0 0 16 0 0 16 0 0 16 0 0 16 0 0 16 0 0 16 0 0 16 0 0 16
0 0 32 0 0 32 0 0 32 0 0 32 0 0 32 0 0 32 0 0 32 0 0 32 0 0 32 0 0 32 0 0 32 0 0 32 0 0 32 0 0 32 0 0 32 0 0 32 0 0 32 0 0 32 0 0 32 0 0 32 0 0 32 0 0 32 0 0 32 0 0 32 0 0 32 0 0 32 0 0 32 0 0 32 0 0 32 0 0 32 0 0 32 0 0 32 0 0 64 0 0 64 0 0 64 0 0 64 0 0 64 0 0 64 0 0 64 0 0 64 0 0 64 0 0 64 0 0 64 0 0 64 0 0 64 0 0 64 0 0 64 0 0 64 0 0 64 0 0 64 0 0 64 0 0 64 0 0 64 0 0 64 0 0 64 0 0 64 0 0 64 0 0 64 0 0 64 0 0 64 0 0 64 0 0 64 0 0 64 0 0 64 144 24 0 144 24 0 144 24 0 144 24 0 144 24 0 144 24 0 144 24 0 144 24 0 144 24 0 144 24 0 144 24 0 144 24 0 144 24 0 144 24 0 144 24 0 144 24 0 144 24 0 144 24 0 144 24 0 144 24 0 144 24 0 144 24 0 144 24 0 144 24 0 144 24 0 144 24 0 144 24 0 144 24 0 144 24 0 144 24 0 144 24 0 144 24 0 16 32 0 16 32 0 16 32 0 16 32 0 16 32 0 16 32 0 16 32 0 16 32 0 16 32 0 16 32 0 16 32 0 16 32 0 16 32 0 16 32 0 16 32 0 16 32 0 16 32 0 16 32 0 16 32 0 16 32 0 16 32 0 16 32 0 16 32 0 16 32 0 16 32 0 16 32 0 16 32 0 16 32 0 16 32 0 16 32 0 16 32 0 16 32 0
0 0 32 0 0 32 0 0 32 0 0 32 0 0 32 0 0 32 0 0 32 0 0 32 0 0 32 0 0 32 0 0 32 0 0 32 0 0 32 0 0 32 0 0 32 0 0 32 0 0 32 0 0 32 0 0 32 0 0 32 0 0 32 0 0 32 0 0 32 0 0 32 0 0 32 0 0 32 0 0 32 0 0 32 0 0 32 0 0 32 0 0 32 0 0 32 0 0 64 0 0 64 0 0 64 0 0 64 0 0 64 0 0 64 0 0 64 0 0 64 0 0 64 0 0 64 0 0 64 0 0 64 0 0 64 0 0 64 0 0 64 0 0 64 0 0 64 0 0 64 0 0 64 0 0 64 0 0 64 0 0 64 0 0 64 0 0 64 0 0 64 0 0 64 0 0 64 0 0 64 0 0 64 0 0 64 0 0 64 0 0 64 144 24 0 144 24 0 144 24 0 144 24 0 144 24 0 144 24 0 144 24 0 144 24 0 144 24 0 144 24 0 144 24 0 144 24 0 144 24 0 144 24 0 144 24 0 144 24 0 144 24 0 144 24 0 144 24 0 144 24 0 144 24 0 144 24 0 144 24 0 144 24 0 144 24 0 144 24 0 144 24 0 144 24 0 144 24 0 144 24 0 144 24 0 144 24 0 16 32 0 16 32 0 16 32 0 16 32 0 16 32 0 16 32 0 16 32 0 16 32 0 16 32 0 16 32 0 16 32 0 16 32 0 16 32 0 16 32 0 16 32 0 16 32 0 16 32 0 16 32 0 16 32 0 16 32 0 16 32 0 16 32 0 16 32 0 16 32 0 16 32 0 16 32 0 16 32 0 16 32 0 16 32 0 16 32 0 16 32 0 16 32 0
0 0 32 0 0 32 0 0 32 0 0 32 0 0 32 0 0 32 0 0 32 0 0 32 0 0 32 0 0 32 0 0 32 0 0 32 0 0 32 0 0 32 0 0 32 0 0 32 0 0 32 0 0 32 0 0 32 0 0 32 0 0 32 0 0 32 0 0 32 0 0 32 0 0 32 0 0 32 0 0 32 0 0 32 0 0 32 0 0 32 0 0 32 0 0 32 0 0 64 0 0 64 0 0 64 0 0 64 0 0 64 0 0 64 0 0 64 0 0 64 0 0 64 0 0 64 0 0 64 0 0 64 0 0 64 0 0 64 0 0 64 0 0 64 0 0 64 0 0 64 0 0 64 0 0 64 0 0 64 0 0 64 0 0 64 0 0 64 0 0 64 0 0 64 0 0 64 0 0 64 0 0 64 0 0 64 0 0 64 0 0 64 144 24 0 144 24 0 144 24 0 144 24 0 144 24 0 144 24 0 144 24 0 144 24 0 144 24 0 144 24 0 144 24 0 144 24 0 144 24 0 144 24 0 144 24 0 144 24 0 144 24 0 144 24 0 144 24 0 144 24 0 144 24 0 144 24 0 144 24 0 144 24 0 144 24 0 144 24 0 144 24 0 144 24 0 144 24 0 144 24 0 144 24 0 144 24 0 16 32 0 16 32 0 16 32 0 16 32 0 16 32 0 16 32 0 16 32 0 16 32 0 16 32 0 16 32 0 16 32 0 16 32 0 16 32 0 16 32 0 16 32 0 16 32 0 16 32 0 16 32 0 16 32 0 16 32 0 16 32 0 16 32 0 16 32 0 16 32 0 16 32 0 16 32 0 16 32 0 16 32 0 16 32 0 16 32 0 16 32 0 16 32 0
0 0 32 0 0 32 0 0 32 0 0 32 0 0 32 0 0 32 0 0 32 0 0 32 0 0 32 0 0 32 0 0 32 0 0 32 0 0 32 0 0 32 0 0 32 0 0 32 0 0 32 0 0 32 0 0 32 0 0 32 0 0 32 0 0 32 0 0 32 0 0 32 0 0 32 0 0 32 0 0 32 0 0 32 0 0 32 0 0 32 0 0 32 0 0 32 0 0 64 0 0 64 0 0 64 0 0 64 0 0 64 0 0 64 0 0 64 0 0 64 0 0 64 0 0 64 0 0 64 0 0 64 0 0 64 0 0 64 0 0 64 0 0 64 0 0 64 0 0 64 0 0 64 0 0 64 0 0 64 0 0 64 0 0 64 0 0 64 0 0 64 0 0 64 0 0 64 0 0 64 0 0 64 0 0 64 0 0 64 0 0 64 144 24 0 144 24 0 144 24 0 144 24 0 144 24 0 144 24 0 144 24 0 144 24 0 144 24 0 144 24 0 144 24 0 144 24 0 144 24 0 144 24 0 144 24 0 144 24 0 144 24 0 144 24 0 144 24 0 144 24 0 144 24 0 144 24 0 144 24 0 144 24 0 144 24 0 144 24 0 144 24 0 144 24 0 144 24 0 144 24 0 144 24 0 144 24 0 16 32 0 16 32 0 16 32 0 16 32 0 16 32 0 16 32 0 16 32 0 16 32 0 16 32 0 16 32 0 16 32 0 16 32 0 16 32 0 16 32 0 16 32 0 16 32 0 16 32 0 16 32 0 16 32 0 16 32 0 16 32 0 16 32 0 16 32 0 16 32 0 16 32 0 16 32 0 16 32 0 16 32 0 16 32 0 16 32 0 16 32 0 16 32 0
0 0 32 0 0 32 0 0 32 0 0 32 0 0 32 0 0 32 0 0 32 0 0 32 0 0 32 0 0 32 0 0 32 0 0 32 0 0 32 0 0 32 0 0 32 0 0 32 0 0 32 0 0 32 0 0 32 0 0 32 0 0 32 0 0 32 0 0 32 0 0 32 0 0 32 0 0 32 0 0 32 0 0 32 0 0 32 0 0 32 0 0 32 0 0 32 0 0 64 0 0 64 0 0 64 0 0 64 0 0 64 0 0 64 0 0 64 0 0 64 0 0 64 0 0 64 0 0 64 0 0 64 0 0 64 0 0 64 0 0 64 0 0 64 0 0 64 0 0 64 0 0 64 0 0 64 0 0 64 0 0 64 0 0 64 0 0 64 0 0 64 0 0 64 0 0 64 0 0 64 0 0 64 0 0 64 0 0 64 0 0 64 144 24 0 144 24 0 144 24 0 144 24 0 144 24 0 144 24 0 144 24 0 144 24 0 144 24 0 144 24 0 144 24 0 144 24 0 144 24 0 144 24 0 144 24 0 144 24 0 144 24 0 144 24 0 144 24 0 144 24 0 144 24 0 144 24 0 144 24 0 144 24 0 144 24 0 144 24 0 144 24 0 144 24 0 144 24 0 144 24 0 144 24 0 144 24 0 16 32 0 16 32 0 16 32 0 16 32 0 16 32 0 16 32 0 16 32 0 16 32 0 16 32 0 16 32 0 16 32 0 16 32 0 16 32 0 16 32 0 16 32 0 16 32 0 16 32 0 16 32 0 16 32 0 16 32 0 16 32 0 16 32 0 16 32 0 16 32 0 16 32 0 16 32 0 16 32 0 16 32 0 16 32 0 16 32 0 16 32 0 16 32 0
0 0 32 0 0 32 0 0 32 0 0 32 0 0 32 0 0 32 0 0 32 0 0 32 0 0 32 0 0 32 0 0 32 0 0 32 0 0 32 0 0 32 0 0 32 0 0 32 0 0 32 0 0 32 0 0 32 0 0 32 0 0 32 0 0 32 0 0 32 0 0 32 0 0 32 0 0 32 0 0 32 0 0 32 0 0 32 0 0 32 0 0 32 0 0 32 0 0 64 0 0 64 0 0 64 0 0 64 0 0 64 0 0 64 0 0 64 0 0 64 0 0 64 0 0 64 0 0 64 0 0 64 0 0 64 0 0 64 0 0 64 0 0 64 0 0 64 0 0 64 0 0 64 0 0 64 0 0 64 0 0 64 0 0 64 0 0 64 0 0 64 0 0 64 0 0 64 0 0 64 0 0 64 0 0 64 0 0 64 0 0 64 144 24 0 144 24 0 144 24 0 144 24 0 144 24 0 144 24 0 144 24 0 144 24 0 144 24 0 144 24 0 144 24 0 144 24 0 144 24 0 144 24 0 144 24 0 144 24 0 144 24 0 144 24 0 144 24 0 144 24 0 144 24 0 144 24 0 144 24 0 144 24 0 144 24 0 144 24 0 144 24 0 144 24 0 144 24 0 144 24 0 144 24 0 144 24 0 16 32 0 16 32 0 16 32 0 16 32 0 16 32 0 16 32 0 16 32 0 16 32 0 16 32 0 16 32 0 16 32 0 16 32 0 16 32 0 16 32 0 16 32 0 16 32 0 16 32 0 16 32 0 16 32 0 16 32 0 16 32 0 16 32 0 16 32 0 16 32 0 16 32 0 16 32 0 16 32 0 16 32 0 16 32 0 16 32 0 16 32 0 16 32 0
0 0 32 0 0 32 0 0 32 0 0 32 0 0 32 0 0 32 0 0 32 0 0 32 0 0 32 0 0 32 0 0 32 0 0 32 0 0 32 0 0 32 0 0 32 0 0 32 0 0 32 0 0 32 0 0 32 0 0 32 0 0 32 0 0 32 0 0 32 0 0 32 0 0 32 0 0 32 0 0 32 0 0 32 0 0 32 0 0 32 0 0 32 0 0 32 0 0 64 0 0 64 0 0 64 0 0 64 0 0 64 0 0 64 0 0 64 0 0 64 0 0 64 0 0 64 0 0 64 0 0 64 0 0 64 0 0 64 0 0 64 0 0 64 0 0 64 0 0 64 0 0 64 0 0 64 0 0 64 0 0 64 0 0 64 0 0 64 0 0 64 0 0 64 0 0 64 0 0 64 0 0 64 0 0 64 0 0 64 0 0 64 144 24 0 144 24 0 144 24 0 144 24 0 144 24 0 144 24 0 144 24 0 144 24 0 144 24 0 144 24 0 144 24 0 144 24 0 144 24 0 144 24 0 144 24 0 144 24 0 144 24 0 144 24 0 144 24 0 144 24 0 144 24 0 144 24 0 144 24 0 144 24 0 144 24 0 144 24 0 144 24 0 144 24 0 144 24 0 144 24 0 144 24 0 144 24 0 16 32 0 16 32 0 16 32 0 16 32 0 16 32 0 16 32 0 16 32 0 16 32 0 16 32 0 16 32 0 16 32 0 16 32 0 16 32 0 16 32 0 16 32 0 16 32 0 16 32 0 16 32 0 16 32 0 16 32 0 16 32 0 16 32 0 16 32 0 16 32 0 16 32 0 16 32 0 16 32 0 16 32 0 16 32 0 16 32 0 16 32 0 16 32 0
0 0 32 0 0 32 0 0 32 0 0 32 0 0 32 0 0 32 0 0 32 0 0 32 0 0 32 0 0 32 0 0 32 0 0 32 0 0 32 0 0 32 0 0 32 0 0 32 0 0 32 0 0 32 0 0 32 0 0 32 0 0 32 0 0 32 0 0 32 0 0 32 0 0 32 0 0 32 0 0 32 0 0 32 0 0 32 0 0 32 0 0 32 0 0 32 0 0 64 0 0 64 0 0 64 0 0 64 0 0 64 0 0 64 0 0 64 0 0 64 0 0 64 0 0 64 0 0 64 0 0 64 0 0 64 0 0 64 0 0 64 0 0 64 0 0 64 0 0 64 0 0 64 0 0 64 0 0 64 0 0 64 0 0 64 0 0 64 0 0 64 0 0 64 0 0 64 0 0 64 0 0 64 0 0 64 0 0 64 0 0 64 144 24 0 144 24 0 144 24 0 144 24 0 144 24 0 144 24 0 144 24 0 144 24 0 144 24 0 144 24 0 144 24 0 144 24 0 144 24 0 144 24 0 144 24 0 144 24 0 144 24 0 144 24 0 144 24 0 144 24 0 144 24 0 144 24 0 144 24 0 144 24 0 144 24 0 144 24 0 144 24 0 144 24 0 144 24 0 144 24 0 144 24 0 144 24 0 16 32 0 16 32 0 16 32 0 16 32 0 16 32 0 16 32 0 16 32 0 16 32 0 16 32 0 16 32 0 16 32 0 16 32 0 16 32 0 16 32 0 16 32 0 16 32 0 16 32 0 16 32 0 16 32 0 16 32 0 16 32 0 16 32 0 16 32 0 16 32 0 16 32 0 16 32 0 16 32 0 16 32 0 16 32 0 16 32 0 16 32 0 16 32 0
0 0 32 0 0 32 0 0 32 0 0 32 0 0 32 0 0 32 0 0 32 0 0 32 0 0 32 0 0 32 0 0 32 0 0 32 0 0 32 0 0 32 0 0 32 0 0 32 0 0 32 0 0 32 0 0 32 0 0 32 0 0 32 0 0 32 0 0 32 0 0 32 0 0 32 0 0 32 0 0 32 0 0 32 0 0 32 0 0 32 0 0 32 0 0 32 0 0 64 0 0 64 0 0 64 0 0 64 0 0 64 0 0 64 0 0 64 0 0 64 0 0 64 0 0 64 0 0 64 0 0 64 0 0 64 0 0 64 0 0 64 0 0 64 0 0 64 0 0 64 0 0 64 0 0 64 0 0 64 0 0 64 0 0 64 0 0 64 0 0 64 0 0 64 0 0 64 0 0 64 0 0 64 0 0 64 0 0 64 0 0 64 144 24 0 144 24 0 144 24 0 144 24 0 144 24 0 144 24 0 144 24 0 144 24 0 144 24 0 144 24 0 144 24 0 144 24 0 144 24 0 144 24 0 144 24 0 144 24 0 144 24 0 144 24 0 144 24 0 144 24 0 144 24 0 144 24 0 144 24 0 144 24 0 144 24 0 144 24 0 144 24 0 144 24 0 144 24 0 144 24 0 144 24 0 144 24 0 16 32 0 16 32 0 16 32 0 16 32 0 16 32 0 16 32 0 16 32 0 16 32 0 16 32 0 16 32 0 16 32 0 16 32 0 16 32 0 16 32 0 16 32 0 16 32 0 16 32 0 16 32 0 16 32 0 16 32 0 16 32 0 16 32 0 16 32 0 16 32 0 16 32 0 16 32 0 16 32 0 16 32 0 16 32 0 16 32 0 16 32 0 16 32 0
0 0 32 0 0 32 0 0 32 0 0 32 0 0 32 0 0 32 0 0 32 0 0 32 0 0 32 0 0 32 0 0 32 0 0 32 0 0 32 0 0 32 0 0 32 0 0 32 0 0 32 0 0 32 0 0 32 0 0 32 0 0 32 0 0 32 0 0 32 0 0 32 0 0 32 0 0 32 0 0 32 0 0 32 0 0 32 0 0 32 0 0 32 0 0 32 0 0 64 0 0 64 0 0 64 0 0 64 0 0 64 0 0 64 0 0 64 0 0 64 0 0 64 0 0 64 0 0 64 0 0 64 0 0 64 0 0 64 0 0 64 0 0 64 0 0 64 0 0 64 0 0 64 0 0 64 0 0 64 0 0 64 0 0 64 0 0 64 0 0 64 0 0 64 0 0 64 0 0 64 0 0 64 0 0 64 0 0 64 0 0 64 144 24 0 144 24 0 144 24 0 144 24 0 144 24 0 144 24 0 144 24 0 144 24 0 144 24 0 144 24 0 144 24 0 144 24 0 144 24 0 144 24 0 144 24 0 144 24 0 144 24 0 144 24 0 144 24 0 144 24 0 144 24 0 144 24 0 144 24 0 144 24 0 144 24 0 144 24 0 144 24 0 144 24 0 144 24 0 144 24 0 144 24 0 144 24 0 16 32 0 16 32 0 16 32 0 16 32 0 16 32 0 16 32 0 16 32 0 16 32 0 16 32 0 16 32 0 16 32 0 16 32 0 16 32 0 16 32 0 16 32 0 16 32 0 16 32 0 16 32 0 16 32 0 16 32 0 16 32 0 16 32 0 16 32 0 16 32 0 16 32 0 16 32 0 16 32 0 16 32 0 16 32 0 16 32 0 16 32 0 16 32 0
0 0 32 0 0 32 0 0 32 0 0 32 0 0 32 0 0 32 0 0 32 0 0 32 0 0 32 0 0 32 0 0 32 0 0 32 0 0 32 0 0 32 0 0 32 0 0 32 0 0 32 0 0 32 0 0 32 0 0 32 0 0 32 0 0 32 0 0 32 0 0 32 0 0 32 0 0 32 0 0 32 0 0 32 0 0 32 0 0 32 0 0 32 0 0 32 0 0 64 0 0 64 0 0 64 0 0 64 0 0 64 0 0 64 0 0 64 0 0 64 0 0 64 0 0 64 0 0 64 0 0 64 0 0 64 0 0 64 0 0 64 0 0 64 0 0 64 0 0 64 0 0 64 0 0 64 0 0 64 0 0 64 0 0 64 0 0 64 0 0 64 0 0 64 0 0 64 0 0 64 0 0 64 0 0 64 0 0 64 0 0 64 144 24 0 144 24 0 144 24 0 144 24 0 144 24 0 144 24 0 144 24 0 144 24 0 144 24 0 144 24 0 144 24 0 144 24 0 144 24 0 144 24 0 144 24 0 144 24 0 144 24 0 144 24 0 144 24 0 144 24 0 144 24 0 144 24 0 144 24 0 144 24 0 144 24 0 144 24 0 144 24 0 144 24 0 144 24 0 144 24 0 144 24 0 144 24 0 16 32 0 16 32 0 16 32 0 16 32 0 16 32 0 16 32 0 16 32 0 16 32 0 16 32 0 16 32 0 16 32 0 16 32 0 16 32 0 16 32 0 16 32 0 16 32 0 16 32 0 16 32 0 16 32 0 16 32 0 16 32 0 16 32 0 16 32 0 16 32 0 16 32 0 16 32 0 16 32 0 16 32 0 16 32 0 16 32 0 16 32 0 16 32 0
0 0 32 0 0 32 0 0 32 0 0 32 0 0 32 0 0 32 0 0 32 0 0 32 0 0 32 0 0 32 0 0 32 0 0 32 0 0 32 0 0 32 0 0 32 0 0 32 0 0 32 0 0 32 0 0 32 0 0 32 0 0 32 0 0 32 0 0 32 0 0 32 0 0 32 0 0 32 0 0 32 0 0 32 0 0 32 0 0 32 0 0 32 0 0 32 0 0 64 0 0 64 0 0 64 0 0 64 0 0 64 0 0 64 0 0 64 0 0 64 0 0 64 0 0 64 0 0 64 0 0 64 0 0 64 0 0 64 0 0 64 0 0 64 0 0 64 0 0 64 0 0 64 0 0 64 0 0 64 0 0 64 0 0 64 0 0 64 0 0 64 0 0 64 0 0 64 0 0 64 0 0 64 0 0 64 0 0 64 0 0 64 144 24 0 144 24 0 144 24 0 144 24 0 144 24 0 144 24 0 144 24 0 144 24 0 144 24 0 144 24 0 144 24 0 144 24 0 144 24 0 144 24 0 144 24 0 144 24 0 144 24 0 144 24 0 144 24 0 144 24 0 144 24 0 144 24 0 144 24 0 144 24 0 144 24 0 144 24 0 144 24 0 144 24 0 144 24 0 144 24 0 144 24 0 144 24 0 16 32 0 16 32 0 16 32 0 16 32 0 16 32 0 16 32 0 16 32 0 16 32 0 16 32 0 16 32 0 16 32 0 16 32 0 16 32 0 16 32 0 16 32 0 16 32 0 16 32 0 16 32 0 16 32 0 16 32 0 16 32 0 16 32 0 16 32 0 16 32 0 16 32 0 16 32 0 16 32 0 16 32 0 16 32 0 16 32 0 16 32 0 16 32 0
0 0 32 0 0 32 0 0 32 0 0 32 0 0 32 0 0 32 0 0 32 0 0 32 0 0 32 0 0 32 0 0 32 0 0 32 0 0 32 0 0 32 0 0 32 0 0 32 0 0 32 0 0 32 0 0 32 0 0 32 0 0 32 0 0 32 0 0 32 0 0 32 0 0 32 0 0 32 0 0 32 0 0 32 0 0 32 0 0 32 0 0 32 0 0 32 0 0 64 0 0 64 0 0 64 0 0 64 0 0 64 0 0 64 0 0 64 0 0 64 0 0 64 0 0 64 0 0 64 0 0 64 0 0 64 0 0 64 0 0 64 0 0 64 0 0 64 0 0 64 0 0 64 0 0 64 0 0 64 0 0 64 0 0 64 0 0 64 0 0 64 0 0 64 0 0 64 0 0 64 0 0 64 0 0 64 0 0 64 0 0 64 144 24 0 144 24 0 144 24 0 144 24 0 144 24 0 144 24 0 144 24 0 144 24 0 144 24 0 144 24 0 144 24 0 144 24 0 144 24 0 144 24 0 144 24 0 144 24 0 144 24 0 144 24 0 144 24 0 144 24 0 144 24 0 144 24 0 144 24 0 144 24 0 144 24 0 144 24 0 144 24 0 144 24 0 144 24 0 144 24 0 144 24 0 144 24 0 16 32 0 16 32 0 16 32 0 16 32 0 16 32 0 16 32 0 16 32 0 16 32 0 16 32 0 16 32 0 16 32 0 16 32 0 16 32 0 16 32 0 16 32 0 16 32 0 16 32 0 16 32 0 16 32 0 16 32 0 16 32 0 16 32 0 16 32 0 16 32 0 16 32 0 16 32 0 16 32 0 16 32 0 16 32 0 16 32 0 16 32 0 16 32 0
0 0 32 0 0 32 0 0 32 0 0 32 0 0 32 0 0 32 0 0 32 0 0 32 0 0 32 0 0 32 0 0 32 0 0 32 0 0 32 0 0 32 0 0 32 0 0 32 0 0 32 0 0 32 0 0 32 0 0 32 0 0 32 0 0 32 0 0 32 0 0 32 0 0 32 0 0 32 0 0 32 0 0 32 0 0 32 0 0 32 0 0 32 0 0 32 0 0 64 0 0 64 0 0 64 0 0 64 0 0 64 0 0 64 0 0 64 0 0 64 0 0 64 0 0 64 0 0 64 0 0 64 0 0 64 0 0 64 0 0 64 0 0 64 0 0 64 0 0 64 0 0 64 0 0 64 0 0 64 0 0 64 0 0 64 0 0 64 0 0 64 0 0 64 0 0 64 0 0 64 0 0 64 0 0 64 0 0 64 0 0 64 144 24 0 144 24 0 144 24 0 144 24 0 144 24 0 144 24 0 144 24 0 144 24 0 144 24 0 144 24 0 144 24 0 144 24 0 144 24 0 144 24 0 144 24 0 144 24 0 144 24 0 144 24 0 144 24 0 144 24 0 144 24 0 144 24 0 144 24 0 144 24 0 144 24 0 144 24 0 144 24 0 144 24 0 144 24 0 144 24 0 144 24 0 144 24 0 16 32 0 16 32 0 16 32 0 16 32 0 16 32 0 16 32 0 16 32 0 16 32 0 16 32 0 16 32 0 16 32 0 16 32 0 16 32 0 16 32 0 16 32 0 16 32 0 16 32 0 16 32 0 16 32 0 16 32 0 16 32 0 16 32 0 16 32 0 16 32 0 16 32 0 16 32 0 16 32 0 16 32 0 16 32 0 16 32 0 16 32 0 16 32 0
0 0 32 0 0 32 0 0 32 0 0 32 0 0 32 0 0 32 0 0 32 0 0 32 0 0 32 0 0 32 0 0 32 0 0 32 0 0 32 0 0 32 0 0 32 0 0 32 0 0 32 0 0 32 0 0 32 0 0 32 0 0 32 0 0 32 0 0 32 0 0 32 0 0 32 0 0 32 0 0 32 0 0 32 0 0 32 0 0 32 0 0 32 0 0 32 0 0 64 0 0 64 0 0 64 0 0 64 0 0 64 0 0 64 0 0 64 0 0 64 0 0 64 0 0 64 0 0 64 0 0 64 0 0 64 0 0 64 0 0 64 0 0 64 0 0 64 0 0 64 0 0 64 0 0 64 0 0 64 0 0 64 0 0 64 0 0 64 0 0 64 0 0 64 0 0 64 0 0 64 0 0 64 0 0 64 0 0 64 0 0 64 144 24 0 144 24 0 144 24 0 144 24 0 144 24 0 144 24 0 144 24 0 144 24 0 144 24 0 144 24 0 144 24 0 144 24 0 144 24 0 144 24 0 144 24 0 144 24 0 144 24 0 144 24 0 144 24 0 144 24 0 144 24 0 144 24 0 144 24 0 144 24 0 144 24 0 144 24 0 144 24 0 144 24 0 144 24 0 144 24 0 144 24 0 144 24 0 16 32 0 16 32 0 16 32 0 16 32 0 16 32 0 16 32 0 16 32 0 16 32 0 16 32 0 16 32 0 16 32 0 16 32 0 16 32 0 16 32 0 16 32 0 16 32 0 16 32 0 16 32 0 16 32 0 16 32 0 16 32 0 16 32 0 16 32 0 16 32 0 16 32 0 16 32 0 16 32 0 16 32 0 16 32 0 16 32 0 16 32 0 16 32 0
0 0 32 0 0 32 0 0 32 0 0 32 0 0 32 0 0 32 0 0 32 0 0 32 0 0 32 0 0 32 0 0 32 0 0 32 0 0 32 0 0 32 0 0 32 0 0 32 0 0 32 0 0 32 0 0 32 0 0 32 0 0 32 0 0 32 0 0 32 0 0 32 0 0 32 0 0 32 0 0 32 0 0 32 0 0 32 0 0 32 0 0 32 0 0 32 0 0 64 0 0 64 0 0 64 0 0 64 0 0 64 0 0 64 0 0 64 0 0 64 0 0 64 0 0 64 0 0 64 0 0 64 0 0 64 0 0 64 0 0 64 0 0 64 0 0 64 0 0 64 0 0 64 0 0 64 0 0 64 0 0 64 0 0 64 0 0 64 0 0 64 0 0 64 0 0 64 0 0 64 0 0 64 0 0 64 0 0 64 0 0 64 144 24 0 144 24 0 144 24 0 144 24 0 144 24 0 144 24 0 144 24 0 144 24 0 144 24 0 144 24 0 144 24 0 144 24 0 144 24 0 144 24 0 144 24 0 144 24 0 144 24 0 144 24 0 144 24 0 144 24 0 144 24 0 144 24 0 144 24 0 144 24 0 144 24 0 144 24 0 144 24 0 144 24 0 144 24 0 144 24 0 144 24 0 144 24 0 16 32 0 16 32 0 16 32 0 16 32 0 16 32 0 16 32 0 16 32 0 16 32 0 16 32 0 16 32 0 16 32 0 16 32 0 16 32 0 16 32 0 16 32 0 16 32 0 16 32 0 16 32 0 16 32 0 16 32 0 16 32 0 16 32 0 16 32 0 16 32 0 16 32 0 16 32 0 16 32 0 16 32 0 16 32 0 16 32 0 16 32 0 16 32 0
0 0 32 0 0 32 0 0 32 0 0 32 0 0 32 0 0 32 0 0 32 0 0 32 0 0 32 0 0 32 0 0 32 0 0 32 0 0 32 0 0 32 0 0 32 0 0 32 0 0 32 0 0 32 0 0 32 0 0 32 0 0 32 0 0 32 0 0 32 0 0 32 0 0 32 0 0 32 0 0 32 0 0 32 0 0 32 0 0 32 0 0 32 0 0 32 0 0 64 0 0 64 0 0 64 0 0 64 0 0 64 0 0 64 0 0 64 0 0 64 0 0 64 0 0 64 0 0 64 0 0 64 0 0 64 0 0 64 0 0 64 0 0 64 0 0 64 0 0 64 0 0 64 0 0 64 0 0 64 0 0 64 0 0 64 0 0 64 0 0 64 0 0 64 0 0 64 0 0 64 0 0 64 0 0 64 0 0 64 0 0 64 144 24 0 144 24 0 144 24 0 144 24 0 144 24 0 144 24 0 144 24 0 144 24 0 144 24 0 144 24 0 144 24 0 144 24 0 144 24 0 144 24 0 144 24 0 144 24 0 144 24 0 144 24 0 144 24 0 144 24 0 144 24 0 144 24 0 144 24 0 144 24 0 144 24 0 144 24 0 144 24 0 144 24 0 144 24 0 144 24 0 144 24 0 144 24 0 16 32 0 16 32 0 16 32 0 16 32 0 16 32 0 16 32 0 16 32 0 16 32 0 16 32 0 16 32 0 16 32 0 16 32 0 16 32 0 16 32 0 16 32 0 16 32 0 16 32 0 16 32 0 16 32 0 16 32 0 16 32 0 16 32 0 16 32 0 16 32 0 16 32 0 16 32 0 16 32 0 16 32 0 16 32 0 16 32 0 16 32 0 16 32 0
0 0 32 0 0 32 0 0 32 0 0 32 0 0 32 0 0 32 0 0 32 0 0 32 0 0 32 0 0 32 0 0 32 0 0 32 0 0 32 0 0 32 0 0 32 0 0 32 0 0 32 0 0 32 0 0 32 0 0 32 0 0 32 0 0 32 0 0 32 0 0 32 0 0 32 0 0 32 0 0 32 0 0 32 0 0 32 0 0 32 0 0 32 0 0 32 0 0 64 0 0 64 0 0 64 0 0 64 0 0 64 0 0 64 0 0 64 0 0 64 0 0 64 0 0 64 0 0 64 0 0 64 0 0 64 0 0 64 0 0 64 0 0 64 0 0 64 0 0 64 0 0 64 0 0 64 0 0 64 0 0 64 0 0 64 0 0 64 0 0 64 0 0 64 0 0 64 0 0 64 0 0 64 0 0 64 0 0 64 0 0 64 144 24 0 144 24 0 144 24 0 144 24 0 144 24 0 144 24 0 144 24 0 144 24 0 144 24 0 144 24 0 144 24 0 144 24 0 144 24 0 144 24 0 144 24 0 144 24 0 144 24 0 144 24 0 144 24 0 144 24 0 144 24 0 144 24 0 144 24 0 144 24 0 144 24 0 144 24 0 144 24 0 144 24 0 144 24 0 144 24 0 144 24 0 144 24 0 16 32 0 16 32 0 16 32 0 16 32 0 16 32 0 16 32 0 16 32 0 16 32 0 16 32 0 16 32 0 16 32 0 16 32 0 16 32 0 16 32 0 16 32 0 16 32 0 16 32 0 16 32 0 16 32 0 16 32 0 16 32 0 16 32 0 16 32 0 16 32 0 16 32 0 16 32 0 16 32 0 16 32 0 16 32 0 16 32 0 16 32 0 16 32 0
0 0 32 0 0 32 0 0 32 0 0 32 0 0 32 0 0 32 0 0 32 0 0 32 0 0 32 0 0 32 0 0 32 0 0 32 0 0 32 0 0 32 0 0 32 0 0 32 0 0 32 0 0 32 0 0 32 0 0 32 0 0 32 0 0 32 0 0 32 0 0 32 0 0 32 0 0 32 0 0 32 0 0 32 0 0 32 0 0 32 0 0 32 0 0 32 0 0 64 0 0 64 0 0 64 0 0 64 0 0 64 0 0 64 0 0 64 0 0 64 0 0 64 0 0 64 0 0 64 0 0 64 0 0 64 0 0 64 0 0 64 0 0 64 0 0 64 0 0 64 0 0 64 0 0 64 0 0 64 0 0 64 0 0 64 0 0 64 0 0 64 0 0 64 0 0 64 0 0 64 0 0 64 0 0 64 0 0 64 0 0 64 144 24 0 144 24 0 144 24 0 144 24 0 144 24 0 144 24 0 144 24 0 144 24 0 144 24 0 144 24 0 144 24 0 144 24 0 144 24 0 144 24 0 144 24 0 144 24 0 144 24 0 144 24 0 144 24 0 144 24 0 144 24 0 144 24 0 144 24 0 144 24 0 144 24 0 144 24 0 144 24 0 144 24 0 144 24 0 144 24 0 144 24 0 144 24 0 16 32 0 16 32 0 16 32 0 16 32 0 16 32 0 16 32 0 16 32 0 16 32 0 16 32 0 16 32 0 16 32 0 16 32 0 16 32 0 16 32 0 16 32 0 16 32 0 16 32 0 16 32 0 16 32 0 16 32 0 16 32 0 16 32 0 16 32 0 16 32 0 16 32 0 16 32 0 16 32 0 16 32 0 16 32 0 16 32 0 16 32 0 16 32 0
0 0 32 0 0 32 0 0 32 0 0 32 0 0 32 0 0 32 0 0 32 0 0 32 0 0 32 0 0 32 0 0 32 0 0 32 0 0 32 0 0 32 0 0 32 0 0 32 0 0 32 0 0 32 0 0 32 0 0 32 0 0 32 0 0 32 0 0 32 0 0 32 0 0 32 0 0 32 0 0 32 0 0 32 0 0 32 0 0 32 0 0 32 0 0 32 0 0 64 0 0 64 0 0 64 0 0 64 0 0 64 0 0 64 0 0 64 0 0 64 0 0 64 0 0 64 0 0 64 0 0 64 0 0 64 0 0 64 0 0 64 0 0 64 0 0 64 0 0 64 0 0 64 0 0 64 0 0 64 0 0 64 0 0 64 0 0 64 0 0 64 0 0 64 0 0 64 0 0 64 0 0 64 0 0 64 0 0 64 0 0 64 144 24 0 144 24 0 144 24 0 144 24 0 144 24 0 144 24 0 144 24 0 144 24 0 144 24 0 144 24 0 144 24 0 144 24 0 144 24 0 144 24 0 144 24 0 144 24 0 144 24 0 144 24 0 144 24 0 144 24 0 144 24 0 144 24 0 144 24 0 144 24 0 144 24 0 144 24 0 144 24 0 144 24 0 144 24 0 144 24 0 144 24 0 144 24 0 16 32 0 16 32 0 16 32 0 16 32 0 16 32 0 16 32 0 16 32 0 16 32 0 16 32 0 16 32 0 16 32 0 16 32 0 16 32 0 16 32 0 16 32 0 16 32 0 16 32 0 16 32 0 16 32 0 16 32 0 16 32 0 16 32 0 16 32 0 16 32 0 16 32 0 16 32 0 16 32 0 16 32 0 16 32 0 16 32 0 16 32 0 16 32 0
0 0 32 0 0 32 0 0 32 0 0 32 0 0 32 0 0 32 0 0 32 0 0 32 0 0 32 0 0 32 0 0 32 0 0 32 0 0 32 0 0 32 0 0 32 0 0 32 0 0 32 0 0 32 0 0 32 0 0 32 0 0 32 0 0 32 0 0 32 0 0 32 0 0 32 0 0 32 0 0 32 0 0 32 0 0 32 0 0 32 0 0 32 0 0 32 0 0 64 0 0 64 0 0 64 0 0 64 0 0 64 0 0 64 0 0 64 0 0 64 0 0 64 0 0 64 0 0 64 0 0 64 0 0 64 0 0 64 0 0 64 0 0 64 0 0 64 0 0 64 0 0 64 0 0 64 0 0 64 0 0 64 0 0 64 0 0 64 0 0 64 0 0 64 0 0 64 0 0 64 0 0 64 0 0 64 0 0 64 0 0 64 144 24 0 144 24 0 144 24 0 144 24 0 144 24 0 144 24 0 144 24 0 144 24 0 144 24 0 144 24 0 144 24 0 144 24 0 144 24 0 144 24 0 144 24 0 144 24 0 144 24 0 144 24 0 144 24 0 144 24 0 144 24 0 144 24 0 144 24 0 144 24 0 144 24 0 144 24 0 144 24 0 144 24 0 144 24 0 144 24 0 144 24 0 144 24 0 16 32 0 16 32 0 16 32 0 16 32 0 16 32 0 16 32 0 16 32 0 16 32 0 16 32 0 16 32 0 16 32 0 16 32 0 16 32 0 16 32 0 16 32 0 16 32 0 16 32 0 16 32 0 16 32 0 16 32 0 16 32 0 16 32 0 16 32 0 16 32 0 16 32 0 16 32 0 16 32 0 16 32 0 16 32 0 16 32 0 16 32 0 16 32 0
0 0 32 0 0 32 0 0 32 0 0 32 0 0 32 0 0 32 0 0 32 0 0 32 0 0 32 0 0 32 0 0 32 0 0 32 0 0 32 0 0 32 0 0 32 0 0 32 0 0 32 0 0 32 0 0 32 0 0 32 0 0 32 0 0 32 0 0 32 0 0 32 0 0 32 0 0 32 0 0 32 0 0 32 0 0 32 0 0 32 0 0 32 0 0 32 0 0 64 0 0 64 0 0 64 0 0 64 0 0 64 0 0 64 0 0 64 0 0 64 0 0 64 0 0 64 0 0 64 0 0 64 0 0 64 0 0 64 0 0 64 0 0 64 0 0 64 0 0 64 0 0 64 0 0 64 0 0 64 0 0 64 0 0 64 0 0 64 0 0 64 0 0 64 0 0 64 0 0 64 0 0 64 0 0 64 0 0 64 0 0 64 144 24 0 144 24 0 144 24 0 144 24 0 144 24 0 144 24 0 144 24 0 144 24 0 144 24 0 144 24 0 144 24 0 144 24 0 144 24 0 144 24 0 144 24 0 144 24 0 144 24 0 144 24 0 144 24 0 144 24 0 144 24 0 144 24 0 144 24 0 144 24 0 144 24 0 144 24 0 144 24 0 144 24 0 144 24 0 144 24 0 144 24 0 144 24 0 16 32 0 16 32 0 16 32 0 16 32 0 16 32 0 16 32 0 16 32 0 16 32 0 16 32 0 16 32 0 16 32 0 16 32 0 16 32 0 16 32 0 16 32 0 16 32 0 16 32 0 16 32 0 16 32 0 16 32 0 16 32 0 16 32 0 16 32 0 16 32 0 16 32 0 16 32 0 16 32 0 16 32 0 16 32 0 16 32 0 16 32 0 16 32 0
0 0 32 0 0 32 0 0 32 0 0 32 0 0 32 0 0 32 0 0 32 0 0 32 0 0 32 0 0 32 0 0 32 0 0 32 0 0 32 0 0 32 0 0 32 0 0 32 0 0 32 0 0 32 0 0 32 0 0 32 0 0 32 0 0 32 0 0 32 0 0 32 0 0 32 0 0 32 0 0 32 0 0 32 0 0 32 0 0 32 0 0 32 0 0 32 0 0 64 0 0 64 0 0 64 0 0 64 0 0 64 0 0 64 0 0 64 0 0 64 0 0 64 0 0 64 0 0 64 0 0 64 0 0 64 0 0 64 0 0 64 0 0 64 0 0 64 0 0 64 0 0 64 0 0 64 0 0 64 0 0 64 0 0 64 0 0 64 0 0 64 0 0 64 0 0 64 0 0 64 0 0 64 0 0 64 0 0 64 0 0 64 144 24 0 144 24 0 144 24 0 144 24 0 144 24 0 144 24 0 144 24 0 144 24 0 144 24 0 144 24 0 144 24 0 144 24 0 144 24 0 144 24 0 144 24 0 144 24 0 144 24 0 144 24 0 144 24 0 144 24 0 144 24 0 144 24 0 144 24 0 144 24 0 144 24 0 144 24 0 144 24 0 144 24 0 144 24 0 144 24 0 144 24 0 144 24 0 16 32 0 16 32 0 16 32 0 16 32 0 16 32 0 16 32 0 16 32 0 16 32 0 16 32 0 16 32 0 16 32 0 16 32 0 16 32 0 16 32 0 16 32 0 16 32 0 16 32 0 16 32 0 16 32 0 16 32 0 16 32 0 16 32 0 16 32 0 16 32 0 16 32 0 16 32 0 16 32 0 16 32 0 16 32 0 16 32 0 16 32 0 16 32 0
0 0 32 0 0 32 0 0 32 0 0 32 0 0 32 0 0 32 0 0 32 0 0 32 0 0 32 0 0 32 0 0 32 0 0 32 0 0 32 0 0 32 0 0 32 0 0 32 0 0 32 0 0 32 0 0 32 0 0 32 0 0 32 0 0 32 0 0 32 0 0 32 0 0 32 0 0 32 0 0 32 0 0 32 0 0 32 0 0 32 0 0 32 0 0 32 0 0 64 0 0 64 0 0 64 0 0 64 0 0 64 0 0 64 0 0 64 0 0 64 0 0 64 0 0 64 0 0 64 0 0 64 0 0 64 0 0 64 0 0 64 0 0 64 0 0 64 0 0 64 0 0 64 0 0 64 0 0 64 0 0 64 0 0 64 0 0 64 0 0 64 0 0 64 0 0 64 0 0 64 0 0 64 0 0 64 0 0 64 0 0 64 144 24 0 144 24 0 144 24 0 144 24 0 144 24 0 144 24 0 144 24 0 144 24 0 144 24 0 144 24 0 144 24 0 144 24 0 144 24 0 144 24 0 144 24 0 144 24 0 144 24 0 144 24 0 144 24 0 144 24 0 144 24 0 144 24 0 144 24 0 144 24 0 144 24 0 144 24 0 144 24 0 144 24 0 144 24 0 144 24 0 144 24 0 144 24 0 16 32 0 16 32 0 16 32 0 16 32 0 16 32 0 16 32 0 16 32 0 16 32 0 16 32 0 16 32 0 16 32 0 16 32 0 16 32 0 16 32 0 16 32 0 16 32 0 16 32 0 16 32 0 16 32 0 16 32 0 16 32 0 16 32 0 16 32 0 16 32 0 16 32 0 16 32 0 16 32 0 16 32 0 16 32 0 16 32 0 16 32 0 16 32 0
0 0 32 0 0 32 0 0 32 0 0 32 0 0 32 0 0 32 0 0 32 0 0 32 0 0 32 0 0 32 0 0 32 0 0 32 0 0 32 0 0 32 0 0 32 0 0 32 0 0 32 0 0 32 0 0 32 0 0 32 0 0 32 0 0 32 0 0 32 0 0 32 0 0 32 0 0 32 0 0 32 0 0 32 0 0 32 0 0 32 0 0 32 0 0 32 0 0 64 0 0 64 0 0 64 0 0 64 0 0 64 0 0 64 0 0 64 0 0 64 0 0 64 0 0 64 0 0 64 0 0 64 0 0 64 0 0 64 0 0 64 0 0 64 0 0 64 0 0 64 0 0 64 0 0 64 0 0 64 0 0 64 0 0 64 0 0 64 0 0 64 0 0 64 0 0 64 0 0 64 0 0 64 0 0 64 0 0 64 0 0 64 144 24 0 144 24 0 144 24 0 144 24 0 144 24 0 144 24 0 144 24 0 144 24 0 144 24 0 144 24 0 144 24 0 144 24 0 144 24 0 144 24 0 144 24 0 144 24 0 144 24 0 144 24 0 144 24 0 144 24 0 144 24 0 144 24 0 144 24 0 144 24 0 144 24 0 144 24 0 144 24 0 144 24 0 144 24 0 144 24 0 144 24 0 144 24 0 16 32 0 16 32 0 16 32 0 16 32 0 16 32 0 16 32 0 16 32 0 16 32 0 16 32 0 16 32 0 16 32 0 16 32 0 16 32 0 16 32 0 16 32 0 16 32 0 16 32 0 16 32 0 16 32 0 16 32 0 16 32 0 16 32 0 16 32 0 16 32 0 16 32 0 16 32 0 16 32 0 16 32 0 16 32 0 16 32 0 16 32 0 16 32 0
0 0 32 0 0 32 0 0 32 0 0 32 0 0 32 0 0 32 0 0 32 0 0 32 0 0 32 0 0 32 0 0 32 0 0 32 0 0 32 0 0 32 0 0 32 0 0 32 0 0 32 0 0 32 0 0 32 0 0 32 0 0 32 0 0 32 0 0 32 0 0 32 0 0 32 0 0 32 0 0 32 0 0 32 0 0 32 0 0 32 0 0 32 0 0 32 0 0 64 0 0 64 0 0 64 0 0 64 0 0 64 0 0 64 0 0 64 0 0 64 0 0 64 0 0 64 0 0 64 0 0 64 0 0 64 0 0 64 0 0 64 0 0 64 0 0 64 0 0 64 0 0 64 0 0 64 0 0 64 0 0 64 0 0 64 0 0 64 0 0 64 0 0 64 0 0 64 0 0 64 0 0 64 0 0 64 0 0 64 0 0 64 144 24 0 144 24 0 144 24 0 144 24 0 144 24 0 144 24 0 144 24 0 144 24 0 144 24 0 144 24 0 144 24 0 144 24 0 144 24 0 144 24 0 144 24 0 144 24 0 144 24 0 144 24 0 144 24 0 144 24 0 144 24 0 144 24 0 144 24 0 144 24 0 144 24 0 144 24 0 144 24 0 144 24 0 144 24 0 144 24 0 144 24 0 144 24 0 16 32 0 16 32 0 16 32 0 16 32 0 16 32 0 16 32 0 16 32 0 16 32 0 16 32 0 16 32 0 16 32 0 16 32 0 16 32 0 16 32 0 16 32 0 16 32 0 16 32 0 16 32 0 16 32 0 16 32 0 16 32 0 16 32 0 16 32 0 16 32 0 16 32 0 16 32 0 16 32 0 16 32 0 16 32 0 16 32 0 16 32 0 16 32 0
0 0 32 0 0 32 0 0 32 0 0 32 0 0 32 0 0 32 0 0 32 0 0 32 0 0 32 0 0 32 0 0 32 0 0 32 0 0 32 0 0 32 0 0 32 0 0 32 0 0 32 0 0 32 0 0 32 0 0 32 0 0 32 0 0 32 0 0 32 0 0 32 0 0 32 0 0 32 0 0 32 0 0 32 0 0 32 0 0 32 0 0 32 0 0 32 0 0 64 0 0 64 0 0 64 0 0 64 0 0 64 0 0 64 0 0 64 0 0 64 0 0 64 0 0 64 0 0 64 0 0 64 0 0 64 0 0 64 0 0 64 0 0 64 0 0 64 0 0 64 0 0 64 0 0 64 0 0 64 0 0 64 0 0 64 0 0 64 0 0 64 0 0 64 0 0 64 0 0 64 0 0 64 0 0 64 0 0 64 0 0 64 144 24 0 144 24 0 144 24 0 144 24 0 144 24 0 144 24 0 144 24 0 144 24 0 144 24 0 144 24 0 144 24 0 144 24 0 144 24 0 144 24 0 144 24 0 144 24 0 144 24 0 144 24 0 144 24 0 144 24 0 144 24 0 144 24 0 144 24 0 144 24 0 144 24 0 144 24 0 144 24 0 144 24 0 144 24 0 144 24 0 144 24 0 144 24 0 16 32 0 16 32 0 16 32 0 16 32 0 16 32 0 16 32 0 16 32 0 16 32 0 16 32 0 16 32 0 16 32 0 16 32 0 16 32 0 16 32 0 16 32 0 16 32 0 16 32 0 16 32 0 16 32 0 16 32 0 16 32 0 16 32 0 16 32 0 16 32 0 16 32 0 16 32 0 16 32 0 16 32 0 16 32 0 16 32 0 16 32 0 16 32 0
0 0 32 0 0 32 0 0 32 0 0 32 0 0 32 0 0 32 0 0 32 0 0 32 0 0 32 0 0 32 0 0 32 0 0 32 0 0 32 0 0 32 0 0 32 0 0 32 0 0 32 0 0 32 0 0 32 0 0 32 0 0 32 0 0 32 0 0 32 0 0 32 0 0 32 0 0 32 0 0 32 0 0 32 0 0 32 0 0 32 0 0 32 0 0 32 0 0 64 0 0 64 0 0 64 0 0 64 0 0 64 0 0 64 0 0 64 0 0 64 0 0 64 0 0 64 0 0 64 0 0 64 0 0 64 0 0 64 0 0 64 0 0 64 0 0 64 0 0 64 0 0 64 0 0 64 0 0 64 0 0 64 0 0 64 0 0 64 0 0 64 0 0 64 0 0 64 0 0 64 0 0 64 0 0 64 0 0 64 0 0 64 144 24 0 144 24 0 144 24 0 144 24 0 144 24 0 144 24 0 144 24 0 144 24 0 144 24 0 144 24 0 144 24 0 144 24 0 144 24 0 144 24 0 144 24 0 144 24 0 144 24 0 144 24 0 144 24 0 144 24 0 144 24 0 144 24 0 144 24 0 144 24 0 144 24 0 144 24 0 144 24 0 144 24 0 144 24 0 144 24 0 144 24 0 144 24 0 16 32 0 16 32 0 16 32 0 16 32 0 16 32 0 16 32 0 16 32 0 16 32 0 16 32 0 16 32 0 16 32 0 16 32 0 16 32 0 16 32 0 16 32 0 16 32 0 16 32 0 16 32 0 16 32 0 16 32 0 16 32 0 16 32 0 16 32 0 16 32 0 16 32 0 16 32 0 16 32 0 16 32 0 16 32 0 16 32 0 16 32 0 16 32 0
0 0 32 0 0 32 0 0 32 0 0 32 0 0 32 0 0 32 0 0 32 0 0 32 0 0 32 0 0 32 0 0 32 0 0 32 0 0 32 0 0 32 0 0 32 0 0 32 0 0 32 0 0 32 0 0 32 0 0 32 0 0 32 0 0 32 0 0 32 0 0 32 0 0 32 0 0 32 0 0 32 0 0 32 0 0 32 0 0 32 0 0 32 0 0 32 0 0 64 0 0 64 0 0 64 0 0 64 0 0 64 0 0 64 0 0 64 0 0 64 0 0 64 0 0 64 0 0 64 0 0 64 0 0 64 0 0 64 0 0 64 0 0 64 0 0 64 0 0 64 0 0 64 0 0 64 0 0 64 0 0 64 0 0 64 0 0 64 0 0 64 0 0 64 0 0 64 0 0 64 0 0 64 0 0 64 0 0 64 0 0 64 144 24 0 144 24 0 144 24 0 144 24 0 144 24 0 144 24 0 144 24 0 144 24 0 144 24 0 144 24 0 144 24 0 144 24 0 144 24 0 144 24 0 144 24 0 144 24 0 144 24 0 144 24 0 144 24 0 144 24 0 144 24 0 144 24 0 144 24 0 144 24 0 144 24 0 144 24 0 144 24 0 144 24 0 144 24 0 144 24 0 144 24 0 144 24 0 16 32 0 16 32 0 16 32 0 16 32 0 16 32 0 16 32 0 16 32 0 16 32 0 16 32 0 16 32 0 16 32 0 16 32 0 16 32 0 16 32 0 16 32 0 16 32 0 16 32 0 16 32 0 16 32 0 16 32 0 16 32 0 16 32 0 16 32 0 16 32 0 16 32 0 16 32 0 16 32 0 16 32 0 16 32 0 16 32 0 16 32 0 16 32 0
0 0 32 0 0 32 0 0 32 0 0 32 0 0 32 0 0 32 0 0 32 0 0 32 0 0 32 0 0 32 0 0 32 0 0 32 0 0 32 0 0 32 0 0 32 0 0 32 0 0 32 0 0 32 0 0 32 0 0 32 0 0 32 0 0 32 0 0 32 0 0 32 0 0 32 0 0 32 0 0 32 0 0 32 0 0 32 0 0 32 0 0 32 0 0 32 0 0 64 0 0 64 0 0 64 0 0 64 0 0 64 0 0 64 0 0 64 0 0 64 0 0 64 0 0 64 0 0 64 0 0 64 0 0 64 0 0 64 0 0 64 0 0 64 0 0 64 0 0 64 0 0 64 0 0 64 0 0 64 0 0 64 0 0 64 0 0 64 0 0 64 0 0 64 0 0 64 0 0 64 0 0 64 0 0 64 0 0 64 0 0 64 144 24 0 144 24 0 144 24 0 144 24 0 144 24 0 144 24 0 144 24 0 144 24 0 144 24 0 144 24 0 144 24 0 144 24 0 144 24 0 144 24 0 144 24 0 144 24 0 144 24 0 144 24 0 144 24 0 144 24 0 144 24 0 144 24 0 144 24 0 144 24 0 144 24 0 144 24 0 144 24 0 144 24 0 144 24 0 144 24 0 144 24 0 144 24 0 16 32 0 16 32 0 16 32 0 16 32 0 16 32 0 16 32 0 16 32 0 16 32 0 16 32 0 16 32 0 16 32 0 16 32 0 16 32 0 16 32 0 16 32 0 16 32 0 16 32 0 16 32 0 16 32 0 16 32 0 16 32 0 16 32 0 16 32 0 16 32 0 16 32 0 16 32 0 16 32 0 16 32 0 16 32 0 16 32 0 16 32 0 16 32 0
0 0 32 0 0 32 0 0 32 0 0 32 0 0 32 0 0 32 0 0 32 0 0 32 0 0 32 0 0 32 0 0 32 0 0 32 0 0 32 0 0 32 0 0 32 0 0 32 0 0 32 0 0 32 0 0 32 0 0 32 0 0 32 0 0 32 0 0 32 0 0 32 0 0 32 0 0 32 0 0 32 0 0 32 0 0 32 0 0 32 0 0 32 0 0 32 0 0 64 0 0 64 0 0 64 0 0 64 0 0 64 0 0 64 0 0 64 0 0 64 0 0 64 0 0 64 0 0 64 0 0 64 0 0 64 0 0 64 0 0 64 0 0 64 0 0 64 0 0 64 0 0 64 0 0 64 0 0 64 0 0 64 0 0 64 0 0 64 0 0 64 0 0 64 0 0 64 0 0 64 0 0 64 0 0 64 0 0 64 0 0 64 144 24 0 144 24 0 144 24 0 144 24 0 144 24 0 144 24 0 144 24 0 144 24 0 144 24 0 144 24 0 144 24 0 144 24 0 144 24 0 144 24 0 144 24 0 144 24 0 144 24 0 144 24 0 144 24 0 144 24 0 144 24 0 144 24 0 144 24 0 144 24 0 144 24 0 144 24 0 144 24 0 144 24 0 144 24 0 144 24 0 144 24 0 144 24 0 16 32 0 16 32 0 16 32 0 16 32 0 16 32 0 16 32 0 16 32 0 16 32 0 16 32 0 16 32 0 16 32 0 16 32 0 16 32 0 16 32 0 16 32 0 16 32 0 16 32 0 16 32 0 16 32 0 16 32 0 16 32 0 16 32 0 16 32 0 16 32 0 16 32 0 16 32 0 16 32 0 16 32 0 16 32 0 16 32 0 16 32 0 16 32 0
0 0 32 0 0 32 0 0 32 0 0 32 0 0 32 0 0 32 0 0 32 0 0 32 0 0 32 0 0 32 0 0 32 0 0 32 0 0 32 0 0 32 0 0 32 0 0 32 0 0 32 0 0 32 0 0 32 0 0 32 0 0 32 0 0 32 0 0 32 0 0 32 0 0 32 0 0 32 0 0 32 0 0 32 0 0 32 0 0 32 0 0 32 0 0 32 0 0 64 0 0 64 0 0 64 0 0 64 0 0 64 0 0 64 0 0 64 0 0 64 0 0 64 0 0 64 0 0 64 0 0 64 0 0 64 0 0 64 0 0 64 0 0 64 0 0 64 0 0 64 0 0 64 0 0 64 0 0 64 0 0 64 0 0 64 0 0 64 0 0 64 0 0 64 0 0 64 0 0 64 0 0 64 0 0 64 0 0 64 0 0 64 144 24 0 144 24 0 144 24 0 144 24 0 144 24 0 144 24 0 144 24 0 144 24 0 144 24 0 144 24 0 144 24 0 144 24 0 144 24 0 144 24 0 144 24 0 144 24 0 144 24 0 144 24 0 144 24 0 144 24 0 144 24 0 144 24 0 144 24 0 144 24 0 144 24 0 144 24 0 144 24 0 144 24 0 144 24 0 144 24 0 144 24 0 144 24 0 16 32 0 16 32 0 16 32 0 16 32 0 16 32 0 16 32 0 16 32 0 16 32 0 16 32 0 16 32 0 16 32 0 16 32 0 16 32 0 16 32 0 16 32 0 16 32 0 16 32 0 16 32 0 16 32 0 16 32 0 16 32 0 16 32 0 16 32 0 16 32 0 16 32 0 16 32 0 16 32 0 16 32 0 16 32 0 16 32 0 16 32 0 16 32 0
0 16 0 0 16 0 0 16 0 0 16 0 0 16 0 0 16 0 0 16 0 0 16 0 0 16 0 0 16 0 0 16 0 0 16 0 0 16 0 0 16 0 0 16 0 0 16 0 0 16 0 0 16 0 0 16 0 0 16 0 0 16 0 0 16 0 0 16 0 0 16 0 0 16 0 0 16 0 0 16 0 0 16 0 0 16 0 0 16 0 0 16 0 0 16 0 0 48 0 0 48 0 0 48 0 0 48 0 0 48 0 0 48 0 0 48 0 0 48 0 0 48 0 0 48 0 0 48 0 0 48 0 0 48 0 0 48 0 0 48 0 0 48 0 0 48 0 0 48 0 0 48 0 0 48 0 0 48 0 0 48 0 0 48 0 0 48 0 0 48 0 0 48 0 0 48 0 0 48 0 0 48 0 0 48 0 0 48 0 0 48 0 144 64 0 144 64 0 144 64 0 144 64 0 144 64 0 144 64 0 144 64 0 144 64 0 144 64 0 144 64 0 144 64 0 144 64 0 144 64 0 144 64 0 144 64 0 144 64 0 144 64 0 144 64 0 144 64 0 144 64 0 144 64 0 144 64 0 144 64 0 144 64 0 144 64 0 144 64 0 144 64 0 144 64 0 144 64 0 144 64 0 144 64 0 144 64 0 176 16 0 176 16 0 176 16 0 176 16 0 176 16 0 176 16 0 176 16 0 176 16 0 176 16 0 176 16 0 176 16 0 176 16 0 176 16 0 176 16 0 176 16 0 176 16 0 176 16 0 176 16 0 176 16 0 176 16 0 176 16 0 176 16 0 176 16 0 176 16 0 176 16 0 176 16 0 176 16 0 176 16 0 176 16 0 176 16 0 176 16 0 176 16 0
0 16 0 0 16 0 0 16 0 0 16 0 0 16 0 0 16 0 0 16 0 0 16 0 0 16 0 0 16 0 0 16 0 0 16 0 0 16 0 0 16 0 0 16 0 0 16 0 0 16 0 0 16 0 0 16 0 0 16 0 0 16 0 0 16 0 0 16 0 0 16 0 0 16 0 0 16 0 0 16 0 0 16 0 0 16 0 0 16 0 0 16 0 0 16 0 0 48 0 0 48 0 0 48 0 0 48 0 0 48 0 0 48 0 0 48 0 0 48 0 0 48 0 0 48 0 0 48 0 0 48 0 0 48 0 0 48 0 0 48 0 0 48 0 0 48 0 0 48 0 0 48 0 0 48 0 0 48 0 0 48 0 0 48 0 0 48 0 0 48 0 0 48 0 0 48 0 0 48 0 0 48 0 0 48 0 0 48 0 0 48 0 144 64 0 144 64 0 144 64 0 144 64 0 144 64 0 144 64 0 144 64 0 144 64 0 144 64 0 144 64 0 144 64 0 144 64 0 144 64 0 144 64 0 144 64 0 144 64 0 144 64 0 144 64 0 144 64 0 144 64 0 144 64 0 144 64 0 144 64 0 144 64 0 144 64 0 144 64 0 144 64 0 144 64 0 144 64 0 144 64 0 144 64 0 144 64 0 176 16 0 176 16 0 176 16 0 176 16 0 176 16 0 176 16 0 176 16 0 176 16 0 176 16 0 176 16 0 176 16 0 176 16 0 176 16 0 176 16 0 176 16 0 176 16 0 176 16 0 176 16 0 176 16 0 176 16 0 176 16 0 176 16 0 176 16 0 176 16 0 176 16 0 176 16 0 176 16 0 176 16 0 176 16 0 176 16 0 176 16 0 176 16 0
0 16 0 0 16 0 0 16 0 0 16 0 0 16 0 0 16 0 0 16 0 0 16 0 0 16 0 0 16 0 0 16 0 0 16 0 0 16 0 0 16 0 0 16 0 0 16 0 0 16 0 0 16 0 0 16 0 0 16 0 0 16 0 0 16 0 0 16 0 0 16 0 0 16 0 0 16 0 0 16 0 0 16 0 0 16 0 0 16 0 0 16 0 0 16 0 0 48 0 0 48 0 0 48 0 0 48 0 0 48 0 0 48 0 0 48 0 0 48 0 0 48 0 0 48 0 0 48 0 0 48 0 0 48 0 0 48 0 0 48 0 0 48 0 0 48 0 0 48 0 0 48 0 0 48 0 0 48 0 0 48 0 0 48 0 0 48 0 0 48 0 0 48 0 0 48 0 0 48 0 0 48 0 0 48 0 0 48 0 0 48 0 144 64 0 144 64 0 144 64 0 144 64 0 144 64 0 144 64 0 144 64 0 144 64 0 144 64 0 144 64 0 144 64 0 144 64 0 144 64 0 144 64 0 144 64 0 144 64 0 144 64 0 144 64 0 144 64 0 144 64 0 144 64 0 144 64 0 144 64 0 144 64 0 144 64 0 144 64 0 144 64 0 144 64 0 144 64 0 144 64 0 144 64 0 144 64 0 176 16 0 176 16 0 176 16 0 176 16 0 176 16 0 176 16 0 176 16 0 176 16 0 176 16 0 176 16 0 176 16 0 176 16 0 176 16 0 176 16 0 176 16 0 176 16 0 176 16 0 176 16 0 176 16 0 176 16 0 176 16 0 176 16 0 176 16 0 176 16 0 176 16 0 176 16 0 176 16 0 176 16 0 176 16 0 176 16 0 176 16 0 176 16 0
0 16 0 0 16 0 0 16 0 0 16 0 0 16 0 0 16 0 0 16 0 0 16 0 0 16 0 0 16 0 0 16 0 0 16 0 0 16 0 0 16 0 0 16 0 0 16 0 0 16 0 0 16 0 0 16 0 0 16 0 0 16 0 0 16 0 0 16 0 0 16 0 0 16 0 0 16 0 0 16 0 0 16 0 0 16 0 0 16 0 0 16 0 0 16 0 0 48 0 0 48 0 0 48 0 0 48 0 0 48 0 0 48 0 0 48 0 0 48 0 0 48 0 0 48 0 0 48 0 0 48 0 0 48 0 0 48 0 0 48 0 0 48 0 0 48 0 0 48 0 0 48 0 0 48 0 0 48 0 0 48 0 0 48 0 0 48 0 0 48 0 0 48 0 0 48 0 0 48 0 0 48 0 0 48 0 0 48 0 0 48 0 144 64 0 144 64 0 144 64 0 144 64 0 144 64 0 144 64 0 144 64 0 144 64 0 144 64 0 144 64 0 144 64 0 144 64 0 144 64 0 144 64 0 144 64 0 144 64 0 144 64 0 144 64 0 144 64 0 144 64 0 144 64 0 144 64 0 144 64 0 144 64 0 144 64 0 144 64 0 144 64 0 144 64 0 144 64 0 144 64 0 144 64 0 144 64 0 176 16 0 176 16 0 176 16 0 176 16 0 176 16 0 176 16 0 176 16 0 176 16 0 176 16 0 176 16 0 176 16 0 176 16 0 176 16 0 176 16 0 176 16 0 176 16 0 176 16 0 176 16 0 176 16 0 176 16 0 176 16 0 176 16 0 176 16 0 176 16 0 176 16 0 176 16 0 176 16 0 176 16 0 176 16 0 176 16 0 176 16 0 176 16 0
0 16 0 0 16 0 0 16 0 0 16 0 0 16 0 0 16 0 0 16 0 0 16 0 0 16 0 0 16 0 0 16 0 0 16 0 0 16 0 0 16 0 0 16 0 0 16 0 0 16 0 0 16 0 0 16 0 0 16 0 0 16 0 0 16 0 0 16 0 0 16 0 0 16 0 0 16 0 0 16 0 0 16 0 0 16 0 0 16 0 0 16 0 0 16 0 0 48 0 0 48 0 0 48 0 0 48 0 0 48 0 0 48 0 0 48 0 0 48 0 0 48 0 0 48 0 0 48 0 0 48 0 0 48 0 0 48 0 0 48 0 0 48 0 0 48 0 0 48 0 0 48 0 0 48 0 0 48 0 0 48 0 0 48 0 0 48 0 0 48 0 0 48 0 0 48 0 0 48 0 0 48 0 0 48 0 0 48 0 0 48 0 144 64 0 144 64 0 144 64 0 144 64 0 144 64 0 144 64 0 144 64 0 144 64 0 144 64 0 144 64 0 144 64 0 144 64 0 144 64 0 144 64 0 144 64 0 144 64 0 144 64 0 144 64 0 144 64 0 144 64 0 144 64 0 144 64 0 144 64 0 144 64 0 144 64 0 144 64 0 144 64 0 144 64 0 144 64 0 144 64 0 144 64 0 144 64 0 176 16 0 176 16 0 176 16 0 176 16 0 176 16 0 176 16 0 176 16 0 176 16 0 176 16 0 176 16 0 176 16 0 176 16 0 176 16 0 176 16 0 176 16 0 176 16 0 176 16 0 176 16 0 176 16 0 176 16 0 176 16 0 176 16 0 176 16 0 176 16 0 176 16 0 176 16 0 176 16 0 176 16 0 176 16 0 176 16 0 176 16 0 176 16 0
0 16 0 0 16 0 0 16 0 0 16 0 0 16 0 0 16 0 0 16 0 0 16 0 0 16 0 0 16 0 0 16 0 0 16 0 0 16 0 0 16 0 0 16 0 0 16 0 0 16 0 0 16 0 0 16 0 0 16 0 0 16 0 0 16 0 0 16 0 0 16 0 0 16 0 0 16 0 0 16 0 0 16 0 0 16 0 0 16 0 0 16 0 0 16 0 0 48 0 0 48 0 0 48 0 0 48 0 0 48 0 0 48 0 0 48 0 0 48 0 0 48 0 0 48 0 0 48 0 0 48 0 0 48 0 0 48 0 0 48 0 0 48 0 0 48 0 0 48 0 0 48 0 0 48 0 0 48 0 0 48 0 0 48 0 0 48 0 0 48 0 0 48 0 0 48 0 0 48 0 0 48 0 0 48 0 0 48 0 0 48 0 144 64 0 144 64 0 144 64 0 144 64 0 144 64 0 144 64 0 144 64 0 144 64 0 144 64 0 144 64 0 144 64 0 144 64 0 144 64 0 144 64 0 144 64 0 144 64 0 144 64 0 144 64 0 144 64 0 144 64 0 144 64 0 144 64 0 144 64 0 144 64 0 144 64 0 144 64 0 144 64 0 144 64 0 144 64 0 144 64 0 144 64 0 144 64 0 176 16 0 176 16 0 176 16 0 176 16 0 176 16 0 176 16 0 176 16 0 176 16 0 176 16 0 176 16 0 176 16 0 176 16 0 176 16 0 176 16 0 176 16 0 176 16 0 176 16 0 176 16 0 176 16 0 176 16 0 176 16 0 176 16 0 176 16 0 176 16 0 176 16 0 176 16 0 176 16 0 176 16 0 176 16 0 176 16 0 176 16 0 176 16 0
0 16 0 0 16 0 0 16 0 0 16 0 0 16 0 0 16 0 0 16 0 0 16 0 0 16 0 0 16 0 0 16 0 0 16 0 0 16 0 0 16 0 0 16 0 0 16 0 0 16 0 0 16 0 0 16 0 0 16 0 0 16 0 0 16 0 0 16 0 0 16 0 0 16 0 0 16 0 0 16 0 0 16 0 0 16 0 0 16 0 0 16 0 0 16 0 0 48 0 0 48 0 0 48 0 0 48 0 0 48 0 0 48 0 0 48 0 0 48 0 0 48 0 0 48 0 0 48 0 0 48 0 0 48 0 0 48 0 0 48 0 0 48 0 0 48 0 0 48 0 0 48 0 0 48 0 0 48 0 0 48 0 0 48 0 0 48 0 0 48 0 0 48 0 0 48 0 0 48 0 0 48 0 0 48 0 0 48 0 0 48 0 144 64 0 144 64 0 144 64 0 144 64 0 144 64 0 144 64 0 144 64 0 144 64 0 144 64 0 144 64 0 144 64 0 144 64 0 144 64 0 144 64 0 144 64 0 144 64 0 144 64 0 144 64 0 144 64 0 144 64 0 144 64 0 144 64 0 144 64 0 144 64 0 144 64 0 144 64 0 144 64 0 144 64 0 144 64 0 144 64 0 144 64 0 144 64 0 176 16 0 176 16 0 176 16 0 176 16 0 176 16 0 176 16 0 176 16 0 176 16 0 176 16 0 176 16 0 176 16 0 176 16 0 176 16 0 176 16 0 176 16 0 176 16 0 176 16 0 176 16 0 176 16 0 176 16 0 176 16 0 176 16 0 176 16 0 176 16 0 176 16 0 176 16 0 176 16 0 176 16 0 176 16 0 176 16 0 176 16 0 176 16 0
0 16 0 0 16 0 0 16 0 0 16 0 0 16 0 0 16 0 0 16 0 0 16 0 0 16 0 0 16 0 0 16 0 0 16 0 0 16 0 0 16 0 0 16 0 0 16 0 0 16 0 0 16 0 0 16 0 0 16 0 0 16 0 0 16 0 0 16 0 0 16 0 0 16 0 0 16 0 0 16 0 0 16 0 0 16 0 0 16 0 0 16 0 0 16 0 0 48 0 0 48 0 0 48 0 0 48 0 0 48 0 0 48 0 0 48 0 0 48 0 0 48 0 0 48 0 0 48 0 0 48 0 0 48 0 0 48 0 0 48 0 0 48 0 0 48 0 0 48 0 0 48 0 0 48 0 0 48 0 0 48 0 0 48 0 0 48 0 0 48 0 0 48 0 0 48 0 0 48 0 0 48 0 0 48 0 0 48 0 0 48 0 144 64 0 144 64 0 144 64 0 144 64 0 144 64 0 144 64 0 144 64 0 144 64 0 144 64 0 144 64 0 144 64 0 144 64 0 144 64 0 144 64 0 144 64 0 144 64 0 144 64 0 144 64 0 144 64 0 144 64 0 144 64 0 144 64 0 144 64 0 144 64 0 144 64 0 144 64 0 144 64 0 144 64 0 144 64 0 144 64 0 144 64 0 144 64 0 176 16 0 176 16 0 176 16 0 176 16 0 176 16 0 176 16 0 176 16 0 176 16 0 176 16 0 176 16 0 176 16 0 176 16 0 176 16 0 176 16 0 176 16 0 176 16 0 176 16 0 176 16 0 176 16 0 176 16 0 176 16 0 176 16 0 176 16 0 176 16 0 176 16 0 176 16 0 176 16 0 176 16 0 176 16 0 176 16 0 176 16 0 176 16 0
0 16 0 0 16 0 0 16 0 0 16 0 0 16 0 0 16 0 0 16 0 0 16 0 0 16 0 0 16 0 0 16 0 0 16 0 0 16 0 0 16 0 0 16 0 0 16 0 0 16 0 0 16 0 0 16 0 0 16 0 0 16 0 0 16 0 0 16 0 0 16 0 0 16 0 0 16 0 0 16 0 0 16 0 0 16 0 0 16 0 0 16 0 0 16 0 0 48 0 0 48 0 0 48 0 0 48 0 0 48 0 0 48 0 0 48 0 0 48 0 0 48 0 0 48 0 0 48 0 0 48 0 0 48 0 0 48 0 0 48 0 0 48 0 0 48 0 0 48 0 0 48 0 0 48 0 0 48 0 0 48 0 0 48 0 0 48 0 0 48 0 0 48 0 0 48 0 0 48 0 0 48 0 0 48 0 0 48 0 0 48 0 144 64 0 144 64 0 144 64 0 144 64 0 144 64 0 144 64 0 144 64 0 144 64 0 144 64 0 144 64 0 144 64 0 144 64 0 144 64 0 144 64 0 144 64 0 144 64 0 144 64 0 144 64 0 144 64 0 144 64 0 144 64 0 144 64 0 144 64 0 144 64 0 144 64 0 144 64 0 144 64 0 144 64 0 144 64 0 144 64 0 144 64 0 144 64 0 176 16 0 176 16 0 176 16 0 176 16 0 176 16 0 176 16 0 176 16 0 176 16 0 176 16 0 176 16 0 176 16 0 176 16 0 176 16 0 176 16 0 176 16 0 176 16 0 176 16 0 176 16 0 176 16 0 176 16 0 176 16 0 176 16 0 176 16 0 176 16 0 176 16 0 176 16 0 176 16 0 176 16 0 176 16 0 176 16 0 176 16 0 176 16 0
0 16 0 0 16 0 0 16 0 0 16 0 0 16 0 0 16 0 0 16 0 0 16 0 0 16 0 0 16 0 0 16 0 0 16 0 0 16 0 0 16 0 0 16 0 0 16 0 0 16 0 0 16 0 0 16 0 0 16 0 0 16 0 0 16 0 0 16 0 0 16 0 0 16 0 0 16 0 0 16 0 0 16 0 0 16 0 0 16 0 0 16 0 0 16 0 0 48 0 0 48 0 0 48 0 0 48 0 0 48 0 0 48 0 0 48 0 0 48 0 0 48 0 0 48 0 0 48 0 0 48 0 0 48 0 0 48 0 0 48 0 0 48 0 0 48 0 0 48 0 0 48 0 0 48 0 0 48 0 0 48 0 0 48 0 0 48 0 0 48 0 0 48 0 0 48 0 0 48 0 0 48 0 0 48 0 0 48 0 0 48 0 144 64 0 144 64 0 144 64 0 144 64 0 144 64 0 144 64 0 144 64 0 144 64 0 144 64 0 144 64 0 144 64 0 144 64 0 144 64 0 144 64 0 144 64 0 144 64 0 144 64 0 144 64 0 144 64 0 144 64 0 144 64 0 144 64 0 144 64 0 144 64 0 144 64 0 144 64 0 144 64 0 144 64 0 144 64 0 144 64 0 144 64 0 144 64 0 176 16 0 176 16 0 176 16 0 176 16 0 176 16 0 176 16 0 176 16 0 176 16 0 176 16 0 176 16 0 176 16 0 176 16 0 176 16 0 176 16 0 176 16 0 176 16 0 176 16 0 176 16 0 176 16 0 176 16 0 176 16 0 176 16 0 176 16 0 176 16 0 176 16 0 176 16 0 176 16 0 176 16 0 176 16 0 176 16 0 176 16 0 176 16 0
0 16 0 0 16 0 0 16 0 0 16 0 0 16 0 0 16 0 0 16 0 0 16 0 0 16 0 0 16 0 0 16 0 0 16 0 0 16 0 0 16 0 0 16 0 0 16 0 0 16 0 0 16 0 0 16 0 0 16 0 0 16 0 0 16 0 0 16 0 0 16 0 0 16 0 0 16 0 0 16 0 0 16 0 0 16 0 0 16 0 0 16 0 0 16 0 0 48 0 0 48 0 0 48 0 0 48 0 0 48 0 0 48 0 0 48 0 0 48 0 0 48 0 0 48 0 0 48 0 0 48 0 0 48 0 0 48 0 0 48 0 0 48 0 0 48 0 0 48 0 0 48 0 0 48 0 0 48 0 0 48 0 0 48 0 0 48 0 0 48 0 0 48 0 0 48 0 0 48 0 0 48 0 0 48 0 0 48 0 0 48 0 144 64 0 144 64 0 144 64 0 144 64 0 144 64 0 144 64 0 144 64 0 144 64 0 144 64 0 144 64 0 144 64 0 144 64 0 144 64 0 144 64 0 144 64 0 144 64 0 144 64 0 144 64 0 144 64 0 144 64 0 144 64 0 144 64 0 144 64 0 144 64 0 144 64 0 144 64 0 144 64 0 144 64 0 144 64 0 144 64 0 144 64 0 144 64 0 176 16 0 176 16 0 176 16 0 176 16 0 176 16 0 176 16 0 176 16 0 176 16 0 176 16 0 176 16 0 176 16 0 176 16 0 176 16 0 176 16 0 176 16 0 176 16 0 176 16 0 176 16 0 176 16 0 176 16 0 176 16 0 176 16 0 176 16 0 176 16 0 176 16 0 176 16 0 176 16 0 176 16 0 176 16 0 176 16 0 176 16 0 176 16 0
0 16 0 0 16 0 0 16 0 0 16 0 0 16 0 0 16 0 0 16 0 0 16 0 0 16 0 0 16 0 0 16 0 0 16 0 0 16 0 0 16 0 0 16 0 0 16 0 0 16 0 0 16 0 0 16 0 0 16 0 0 16 0 0 16 0 0 16 0 0 16 0 0 16 0 0 16 0 0 16 0 0 16 0 0 16 0 0 16 0 0 16 0 0 16 0 0 48 0 0 48 0 0 48 0 0 48 0 0 48 0 0 48 0 0 48 0 0 48 0 0 48 0 0 48 0 0 48 0 0 48 0 0 48 0 0 48 0 0 48 0 0 48 0 0 48 0 0 48 0 0 48 0 0 48 0 0 48 0 0 48 0 0 48 0 0 48 0 0 48 0 0 48 0 0 48 0 0 48 0 0 48 0 0 48 0 0 48 0 0 48 0 144 64 0 144 64 0 144 64 0 144 64 0 144 64 0 144 64 0 144 64 0 144 64 0 144 64 0 144 64 0 144 64 0 144 64 0 144 64 0 144 64 0 144 64 0 144 64 0 144 64 0 144 64 0 144 64 0 144 64 0 144 64 0 144 64 0 144 64 0 144 64 0 144 64 0 144 64 0 144 64 0 144 64 0 144 64 0 144 64 0 144 64 0 144 64 0 176 16 0 176 16 0 176 16 0 176 16 0 176 16 0 176 16 0 176 16 0 176 16 0 176 16 0 176 16 0 176 16 0 176 16 0 176 16 0 176 16 0 176 16 0 176 16 0 176 16 0 176 16 0 176 16 0 176 16 0 176 16 0 176 16 0 176 16 0 176 16 0 176 16 0 176 16 0 176 16 0 176 16 0 176 16 0 176 16 0 176 16 0 176 16 0
0 16 0 0 16 0 0 16 0 0 16 0 0 16 0 0 16 0 0 16 0 0 16 0 0 16 0 0 16 0 0 16 0 0 16 0 0 16 0 0 16 0 0 16 0 0 16 0 0 16 0 0 16 0 0 16 0 0 16 0 0 16 0 0 16 0 0 16 0 0 16 0 0 16 0 0 16 0 0 16 0 0 16 0 0 16 0 0 16 0 0 16 0 0 16 0 0 48 0 0 48 0 0 48 0 0 48 0 0 48 0 0 48 0 0 48 0 0 48 0 0 48 0 0 48 0 0 48 0 0 48 0 0 48 0 0 48 0 0 48 0 0 48 0 0 48 0 0 48 0 0 48 0 0 48 0 0 48 0 0 48 0 0 48 0 0 48 0 0 48 0 0 48 0 0 48 0 0 48 0 0 48 0 0 48 0 0 48 0 0 48 0 144 64 0 144 64 0 144 64 0 144 64 0 144 64 0 144 64 0 144 64 0 144 64 0 144 64 0 144 64 0 144 64 0 144 64 0 144 64 0 144 64 0 144 64 0 144 64 0 144 64 0 144 64 0 144 64 0 144 64 0 144 64 0 144 64 0 144 64 0 144 64 0 144 64 0 144 64 0 144 64 0 144 64 0 144 64 0 144 64 0 144 64 0 144 64 0 176 16 0 176 16 0 176 16 0 176 16 0 176 16 0 176 16 0 176 16 0 176 16 0 176 16 0 176 16 0 176 16 0 176 16 0 176 16 0 176 16 0 176 16 0 176 16 0 176 16 0 176 16 0 176 16 0 176 16 0 176 16 0 176 16 0 176 16 0 176 16 0 176 16 0 176 16 0 176 16 0 176 16 0 176 16 0 176 16 0 176 16 0 176 16 0
0 16 0 0 16 0 0 16 0 0 16 0 0 16 0 0 16 0 0 16 0 0 16 0 0 16 0 0 16 0 0 16 0 0 16 0 0 16 0 0 16 0 0 16 0 0 16 0 0 16 0 0 16 0 0 16 0 0 16 0 0 16 0 0 16 0 0 16 0 0 16 0 0 16 0 0 16 0 0 16 0 0 16 0 0 16 0 0 16 0 0 16 0 0 16 0 0 48 0 0 48 0 0 48 0 0 48 0 0 48 0 0 48 0 0 48 0 0 48 0 0 48 0 0 48 0 0 48 0 0 48 0 0 48 0 0 48 0 0 48 0 0 48 0 0 48 0 0 48 0 0 48 0 0 48 0 0 48 0 0 48 0 0 48 0 0 48 0 0 48 0 0 48 0 0 48 0 0 48 0 0 48 0 0 48 0 0 48 0 0 48 0 144 64 0 144 64 0 144 64 0 144 64 0 144 64 0 144 64 0 144 64 0 144 64 0 144 64 0 144 64 0 144 64 0 144 64 0 144 64 0 144 64 0 144 64 0 144 64 0 144 64 0 144 64 0 144 64 0 144 64 0 144 64 0 144 64 0 144 64 0 144 64 0 144 64 0 144 64 0 144 64 0 144 64 0 144 64 0 144 64 0 144 64 0 144 64 0 176 16 0 176 16 0 176 16 0 176 16 0 176 16 0 176 16 0 176 16 0 176 16 0 176 16 0 176 16 0 176 16 0 176 16 0 176 16 0 176 16 0 176 16 0 176 16 0 176 16 0 176 16 0 176 16 0 176 16 0 176 16 0 176 16 0 176 16 0 176 16 0 176 16 0 176 16 0 176 16 0 176 16 0 176 16 0 176 16 0 176 16 0 176 16 0
0 16 0 0 16 0 0 16 0 0 16 0 0 16 0 0 16 0 0 16 0 0 16 0 0 16 0 0 16 0 0 16 0 0 16 0 0 16 0 0 16 0 0 16 0 0 16 0 0 16 0 0 16 0 0 16 0 0 16 0 0 16 0 0 16 0 0 16 0 0 16 0 0 16 0 0 16 0 0 16 0 0 16 0 0 16 0 0 16 0 0 16 0 0 16 0 0 48 0 0 48 0 0 48 0 0 48 0 0 48 0 0 48 0 0 48 0 0 48 0 0 48 0 0 48 0 0 48 0 0 48 0 0 48 0 0 48 0 0 48 0 0 48 0 0 48 0 0 48 0 0 48 0 0 48 0 0 48 0 0 48 0 0 48 0 0 48 0 0 48 0 0 48 0 0 48 0 0 48 0 0 48 0 0 48 0 0 48 0 0 48 0 144 64 0 144 64 0 144 64 0 144 64 0 144 64 0 144 64 0 144 64 0 144 64 0 144 64 0 144 64 0 144 64 0 144 64 0 144 64 0 144 64 0 144 64 0 144 64 0 144 64 0 144 64 0 144 64 0 144 64 0 144 64 0 144 64 0 144 64 0 144 64 0 144 64 0 144 64 0 144 64 0 144 64 0 144 64 0 144 64 0 144 64 0 144 64 0 176 16 0 176 16 0 176 16 0 176 16 0 176 16 0 176 16 0 176 16 0 176 16 0 176 16 0 176 16 0 176 16 0 176 16 0 176 16 0 176 16 0 176 16 0 176 16 0 176 16 0 176 16 0 176 16 0 176 16 0 176 16 0 176 16 0 176 16 0 176 16 0 176 16 0 176 16 0 176 16 0 176 16 0 176 16 0 176 16 0 176 16 0 176 16 0
0 16 0 0 16 0 0 16 0 0 16 0 0 16 0 0 16 0 0 16 0 0 16 0 0 16 0 0 16 0 0 16 0 0 16 0 0 16 0 0 16 0 0 16 0 0 16 0 0 16 0 0 16 0 0 16 0 0 16 0 0 16 0 0 16 0 0 16 0 0 16 0 0 16 0 0 16 0 0 16 0 0 16 0 0 16 0 0 16 0 0 16 0 0 16 0 0 48 0 0 48 0 0 48 0 0 48 0 0 48 0 0 48 0 0 48 0 0 48 0 0 48 0 0 48 0 0 48 0 0 48 0 0 48 0 0 48 0 0 48 0 0 48 0 0 48 0 0 48 0 0 48 0 0 48 0 0 48 0 0 48 0 0 48 0 0 48 0 0 48 0 0 48 0 0 48 0 0 48 0 0 48 0 0 48 0 0 48 0 0 48 0 144 64 0 144 64 0 144 64 0 144 64 0 144 64 0 144 64 0 144 64 0 144 64 0 144 64 0 144 64 0 144 64 0 144 64 0 144 64 0 144 64 0 144 64 0 144 64 0 144 64 0 144 64 0 144 64 0 144 64 0 144 64 0 144 64 0 144 64 0 144 64 0 144 64 0 144 64 0 144 64 0 144 64 0 144 64 0 144 64 0 144 64 0 144 64 0 176 16 0 176 16 0 176 16 0 176 16 0 176 16 0 176 16 0 176 16 0 176 16 0 176 16 0 176 16 0 176 16 0 176 16 0 176 16 0 176 16 0 176 16 0 176 16 0 176 16 0 176 16 0 176 16 0 176 16 0 176 16 0 176 16 0 176 16 0 176 16 0 176 16 0 176 16 0 176 16 0 176 16 0 176 16 0 176 16 0 176 16 0 176 16 0
0 16 0 0 16 0 0 16 0 0 16 0 0 16 0 0 16 0 0 16 0 0 16 0 0 16 0 0 16 0 0 16 0 0 16 0 0 16 0 0 16 0 0 16 0 0 16 0 0 16 0 0 16 0 0 16 0 0 16 0 0 16 0 0 16 0 0 16 0 0 16 0 0 16 0 0 16 0 0 16 0 0 16 0 0 16 0 0 16 0 0 16 0 0 16 0 0 48 0 0 48 0 0 48 0 0 48 0 0 48 0 0 48 0 0 48 0 0 48 0 0 48 0 0 48 0 0 48 0 0 48 0 0 48 0 0 48 0 0 48 0 0 48 0 0 48 0 0 48 0 0 48 0 0 48 0 0 48 0 0 48 0 0 48 0 0 48 0 0 48 0 0 48 0 0 48 0 0 48 0 0 48 0 0 48 0 0 48 0 0 48 0 144 64 0 144 64 0 144 64 0 144 64 0 144 64 0 144 64 0 144 64 0 144 64 0 144 64 0 144 64 0 144 64 0 144 64 0 144 64 0 144 64 0 144 64 0 144 64 0 144 64 0 144 64 0 144 64 0 144 64 0 144 64 0 144 64 0 144 64 0 144 64 0 144 64 0 144 64 0 144 64 0 144 64 0 144 64 0 144 64 0 144 64 0 144 64 0 176 16 0 176 16 0 176 16 0 176 16 0 176 16 0 176 16 0 176 16 0 176 16 0 176 16 0 176 16 0 176 16 0 176 16 0 176 16 0 176 16 0 176 16 0 176 16 0 176 16 0 176 16 0 176 16 0 176 16 0 176 16 0 176 16 0 176 16 0 176 16 0 176 16 0 176 16 0 176 16 0 176 16 0 176 16 0 176 16 0 176 16 0 176 16 0
0 16 0 0 16 0 0 16 0 0 16 0 0 16 0 0 16 0 0 16 0 0 16 0 0 16 0 0 16 0 0 16 0 0 16 0 0 16 0 0 16 0 0 16 0 0 16 0 0 16 0 0 16 0 0 16 0 0 16 0 0 16 0 0 16 0 0 16 0 0 16 0 0 16 0 0 16 0 0 16 0 0 16 0 0 16 0 0 16 0 0 16 0 0 16 0 0 48 0 0 48 0 0 48 0 0 48 0 0 48 0 0 48 0 0 48 0 0 48 0 0 48 0 0 48 0 0 48 0 0 48 0 0 48 0 0 48 0 0 48 0 0 48 0 0 48 0 0 48 0 0 48 0 0 48 0 0 48 0 0 48 0 0 48 0 0 48 0 0 48 0 0 48 0 0 48 0 0 48 0 0 48 0 0 48 0 0 48 0 0 48 0 144 64 0 144 64 0 144 64 0 144 64 0 144 64 0 144 64 0 144 64 0 144 64 0 144 64 0 144 64 0 144 64 0 144 64 0 144 64 0 144 64 0 144 64 0 144 64 0 144 64 0 144 64 0 144 64 0 144 64 0 144 64 0 144 64 0 144 64 0 144 64 0 144 64 0 144 64 0 144 64 0 144 64 0 144 64 0 144 64 0 144 64 0 144 64 0 176 16 0 176 16 0 176 16 0 176 16 0 176 16 0 176 16 0 176 16 0 176 16 0 176 16 0 176 16 0 176 16 0 176 16 0 176 16 0 176 16 0 176 16 0 176 16 0 176 16 0 176 16 0 176 16 0 176 16 0 176 16 0 176 16 0 176 16 0 176 16 0 176 16 0 176 16 0 176 16 0 176 16 0 176 16 0 176 16 0 176 16 0 176 16 0
0 16 0 0 16 0 0 16 0 0 16 0 0 16 0 0 16 0 0 16 0 0 16 0 0 16 0 0 16 0 0 16 0 0 16 0 0 16 0 0 16 0 0 16 0 0 16 0 0 16 0 0 16 0 0 16 0 0 16 0 0 16 0 0 16 0 0 16 0 0 16 0 0 16 0 0 16 0 0 16 0 0 16 0 0 16 0 0 16 0 0 16 0 0 16 0 0 48 0 0 48 0 0 48 0 0 48 0 0 48 0 0 48 0 0 48 0 0 48 0 0 48 0 0 48 0 0 48 0 0 48 0 0 48 0 0 48 0 0 48 0 0 48 0 0 48 0 0 48 0 0 48 0 0 48 0 0 48 0 0 48 0 0 48 0 0 48 0 0 48 0 0 48 0 0 48 0 0 48 0 0 48 0 0 48 0 0 48 0 0 48 0 144 64 0 144 64 0 144 64 0 144 64 0 144 64 0 144 64 0 144 64 0 144 64 0 144 64 0 144 64 0 144 64 0 144 64 0 144 64 0 144 64 0 144 64 0 144 64 0 144 64 0 144 64 0 144 64 0 144 64 0 144 64 0 144 64 0 144 64 0 144 64 0 144 64 0 144 64 0 144 64 0 144 64 0 144 64 0 144 64 0 144 64 0 144 64 0 176 16 0 176 16 0 176 16 0 176 16 0 176 16 0 176 16 0 176 16 0 176 16 0 176 16 0 176 16 0 176 16 0 176 16 0 176 16 0 176 16 0 176 16 0 176 16 0 176 16 0 176 16 0 176 16 0 176 16 0 176 16 0 176 16 0 176 16 0 176 16 0 176 16 0 176 16 0 176 16 0 176 16 0 176 16 0 176 16 0 176 16 0 176 16 0
0 16 0 0 16 0 0 16 0 0 16 0 0 16 0 0 16 0 0 16 0 0 16 0 0 16 0 0 16 0 0 16 0 0 16 0 0 16 0 0 16 0 0 16 0 0 16 0 0 16 0 0 16 0 0 16 0 0 16 0 0 16 0 0 16 0 0 16 0 0 16 0 0 16 0 0 16 0 0 16 0 0 16 0 0 16 0 0 16 0 0 16 0 0 16 0 0 48 0 0 48 0 0 48 0 0 48 0 0 48 0 0 48 0 0 48 0 0 48 0 0 48 0 0 48 0 0 48 0 0 48 0 0 48 0 0 48 0 0 48 0 0 48 0 0 48 0 0 48 0 0 48 0 0 48 0 0 48 0 0 48 0 0 48 0 0 48 0 0 48 0 0 48 0 0 48 0 0 48 0 0 48 0 0 48 0 0 48 0 0 48 0 144 64 0 144 64 0 144 64 0 144 64 0 144 64 0 144 64 0 144 64 0 144 64 0 144 64 0 144 64 0 144 64 0 144 64 0 144 64 0 144 64 0 144 64 0 144 64 0 144 64 0 144 64 0 144 64 0 144 64 0 144 64 0 144 64 0 144 64 0 144 64 0 144 64 0 144 64 0 144 64 0 144 64 0 144 64 0 144 64 0 144 64 0 144 64 0 176 16 0 176 16 0 176 16 0 176 16 0 176 16 0 176 16 0 176 16 0 176 16 0 176 16 0 176 16 0 176 16 0 176 16 0 176 16 0 176 16 0 176 16 0 176 16 0 176 16 0 176 16 0 176 16 0 176 16 0 176 16 0 176 16 0 176 16 0 176 16 0 176 16 0 176 16 0 176 16 0 176 16 0 176 16 0 176 16 0 176 16 0 176 16 0
0 16 0 0 16 0 0 16 0 0 16 0 0 16 0 0 16 0 0 16 0 0 16 0 0 16 0 0 16 0 0 16 0 0 16 0 0 16 0 0 16 0 0 16 0 0 16 0 0 16 0 0 16 0 0 16 0 0 16 0 0 16 0 0 16 0 0 16 0 0 16 0 0 16 0 0 16 0 0 16 0 0 16 0 0 16 0 0 16 0 0 16 0 0 16 0 0 48 0 0 48 0 0 48 0 0 48 0 0 48 0 0 48 0 0 48 0 0 48 0 0 48 0 0 48 0 0 48 0 0 48 0 0 48 0 0 48 0 0 48 0 0 48 0 0 48 0 0 48 0 0 48 0 0 48 0 0 48 0 0 48 0 0 48 0 0 48 0 0 48 0 0 48 0 0 48 0 0 48 0 0 48 0 0 48 0 0 48 0 0 48 0 144 64 0 144 64 0 144 64 0 144 64 0 144 64 0 144 64 0 144 64 0 144 64 0 144 64 0 144 64 0 144 64 0 144 64 0 144 64 0 144 64 0 144 64 0 144 64 0 144 64 0 144 64 0 144 64 0 144 64 0 144 64 0 144 64 0 144 64 0 144 64 0 144 64 0 144 64 0 144 64 0 144 64 0 144 64 0 144 64 0 144 64 0 144 64 0 176 16 0 176 16 0 176 16 0 176 16 0 176 16 0 176 16 0 176 16 0 176 16 0 176 16 0 176 16 0 176 16 0 176 16 0 176 16 0 176 16 0 176 16 0 176 16 0 176 16 0 176 16 0 176 16 0 176 16 0 176 16 0 176 16 0 176 16 0 176 16 0 176 16 0 176 16 0 176 16 0 176 16 0 176 16 0 176 16 0 176 16 0 176 16 0
0 16 0 0 16 0 0 16 0 0 16 0 0 16 0 0 16 0 0 16 0 0 16 0 0 16 0 0 16 0 0 16 0 0 16 0 0 16 0 0 16 0 0 16 0 0 16 0 0 16 0 0 16 0 0 16 0 0 16 0 0 16 0 0 16 0 0 16 0 0 16 0 0 16 0 0 16 0 0 16 0 0 16 0 0 16 0 0 16 0 0 16 0 0 16 0 0 48 0 0 48 0 0 48 0 0 48 0 0 48 0 0 48 0 0 48 0 0 48 0 0 48 0 0 48 0 0 48 0 0 48 0 0 48 0 0 48 0 0 48 0 0 48 0 0 48 0 0 48 0 0 48 0 0 48 0 0 48 0 0 48 0 0 48 0 0 48 0 0 48 0 0 48 0 0 48 0 0 48 0 0 48 0 0 48 0 0 48 0 0 48 0 144 64 0 144 64 0 144 64 0 144 64 0 144 64 0 144 64 0 144 64 0 144 64 0 144 64 0 144 64 0 144 64 0 144 64 0 144 64 0 144 64 0 144 64 0 144 64 0 144 64 0 144 64 0 144 64 0 144 64 0 144 64 0 144 64 0 144 64 0 144 64 0 144 64 0 144 64 0 144 64 0 144 64 0 144 64 0 144 64 0 144 64 0 144 64 0 176 16 0 176 16 0 176 16 0 176 16 0 176 16 0 176 16 0 176 16 0 176 16 0 176 16 0 176 16 0 176 16 0 176 16 0 176 16 0 176 16 0 176 16 0 176 16 0 176 16 0 176 16 0 176 16 0 176 16 0 176 16 0 176 16 0 176 16 0 176 16 0 176 16 0 176 16 0 176 16 0 176 16 0 176 16 0 176 16 0 176 16 0 176 16 0
0 16 0 0 16 0 0 16 0 0 16 0 0 16 0 0 16 0 0 16 0 0 16 0 0 16 0 0 16 0 0 16 0 0 16 0 0 16 0 0 16 0 0 16 0 0 16 0 0 16 0 0 16 0 0 16 0 0 16 0 0 16 0 0 16 0 0 16 0 0 16 0 0 16 0 0 16 0 0 16 0 0 16 0 0 16 0 0 16 0 0 16 0 0 16 0 0 48 0 0 48 0 0 48 0 0 48 0 0 48 0 0 48 0 0 48 0 0 48 0 0 48 0 0 48 0 0 48 0 0 48 0 0 48 0 0 48 0 0 48 0 0 48 0 0 48 0 0 48 0 0 48 0 0 48 0 0 48 0 0 48 0 0 48 0 0 48 0 0 48 0 0 48 0 0 48 0 0 48 0 0 48 0 0 48 0 0 48 0 0 48 0 144 64 0 144 64 0 144 64 0 144 64 0 144 64 0 144 64 0 144 64 0 144 64 0 144 64 0 144 64 0 144 64 0 144 64 0 144 64 0 144 64 0 144 64 0 144 64 0 144 64 0 144 64 0 144 64 0 144 64 0 144 64 0 144 64 0 144 64 0 144 64 0 144 64 0 144 64 0 144 64 0 144 64 0 144 64 0 144 64 0 144 64 0 144 64 0 176 16 0 176 16 0 176 16 0 176 16 0 176 16 0 176 16 0 176 16 0 176 16 0 176 16 0 176 16 0 176 16 0 176 16 0 176 16 0 176 16 0 176 16 0 176 16 0 176 16 0 176 16 0 176 16 0 176 16 0 176 16 0 176 16 0 176 16 0 176 16 0 176 16 0 176 16 0 176 16 0 176 16 0 176 16 0 176 16 0 176 16 0 176 16 0
0 16 0 0 16 0 0 16 0 0 16 0 0 16 0 0 16 0 0 16 0 0 16 0 0 16 0 0 16 0 0 16 0 0 16 0 0 16 0 0 16 0 0 16 0 0 16 0 0 16 0 0 16 0 0 16 0 0 16 0 0 16 0 0 16 0 0 16 0 0 16 0 0 16 0 0 16 0 0 16 0 0 16 0 0 16 0 0 16 0 0 16 0 0 16 0 0 48 0 0 48 0 0 48 0 0 48 0 0 48 0 0 48 0 0 48 0 0 48 0 0 48 0 0 48 0 0 48 0 0 48 0 0 48 0 0 48 0 0 48 0 0 48 0 0 48 0 0 48 0 0 48 0 0 48 0 0 48 0 0 48 0 0 48 0 0 48 0 0 48 0 0 48 0 0 48 0 0 48 0 0 48 0 0 48 0 0 48 0 0 48 0 144 64 0 144 64 0 144 64 0 144 64 0 144 64 0 144 64 0 144 64 0 144 64 0 144 64 0 144 64 0 144 64 0 144 64 0 144 64 0 144 64 0 144 64 0 144 64 0 144 64 0 144 64 0 144 64 0 144 64 0 144 64 0 144 64 0 144 64 0 144 64 0 144 64 0 144 64 0 144 64 0 144 64 0 144 64 0 144 64 0 144 64 0 144 64 0 176 16 0 176 16 0 176 16 0 176 16 0 176 16 0 176 16 0 176 16 0 176 16 0 176 16 0 176 16 0 176 16 0 176 16 0 176 16 0 176 16 0 176 16 0 176 16 0 176 16 0 176 16 0 176 16 0 176 16 0 176 16 0 176 16 0 176 16 0 176 16 0 176 16 0 176 16 0 176 16 0 176 16 0 176 16 0 176 16 0 176 16 0 176 16 0
0 16 0 0 16 0 0 16 0 0 16 0 0 16 0 0 16 0 0 16 0 0 16 0 0 16 0 0 16 0 0 16 0 0 16 0 0 16 0 0 16 0 0 16 0 0 16 0 0 16 0 0 16 0 0 16 0 0 16 0 0 16 0 0 16 0 0 16 0 0 16 0 0 16 0 0 16 0 0 16 0 0 16 0 0 16 0 0 16 0 0 16 0 0 16 0 0 48 0 0 48 0 0 48 0 0 48 0 0 48 0 0 48 0 0 48 0 0 48 0 0 48 0 0 48 0 0 48 0 0 48 0 0 48 0 0 48 0 0 48 0 0 48 0 0 48 0 0 48 0 0 48 0 0 48 0 0 48 0 0 48 0 0 48 0 0 48 0 0 48 0 0 48 0 0 48 0 0 48 0 0 48 0 0 48 0 0 48 0 0 48 0 144 64 0 144 64 0 144 64 0 144 64 0 144 64 0 144 64 0 144 64 0 144 64 0 144 64 0 144 64 0 144 64 0 144 64 0 144 64 0 144 64 0 144 64 0 144 64 0 144 64 0 144 64 0 144 64 0 144 64 0 144 64 0 144 64 0 144 64 0 144 64 0 144 64 0 144 64 0 144 64 0 144 64 0 144 64 0 144 64 0 144 64 0 144 64 0 176 16 0 176 16 0 176 16 0 176 16 0 176 16 0 176 16 0 176 16 0 176 16 0 176 16 0 176 16 0 176 16 0 176 16 0 176 16 0 176 16 0 176 16 0 176 16 0 176 16 0 176 16 0 176 16 0 176 16 0 176 16 0 176 16 0 176 16 0 176 16 0 176 16 0 176 16 0 176 16 0 176 16 0 176 16 0 176 16 0 176 16 0 176 16 0
0 16 0 0 16 0 0 16 0 0 16 0 0 16 0 0 16 0 0 16 0 0 16 0 0 16 0 0 16 0 0 16 0 0 16 0 0 16 0 0 16 0 0 16 0 0 16 0 0 16 0 0 16 0 0 16 0 0 16 0 0 16 0 0 16 0 0 16 0 0 16 0 0 16 0 0 16 0 0 16 0 0 16 0 0 16 0 0 16 0 0 16 0 0 16 0 0 48 0 0 48 0 0 48 0 0 48 0 0 48 0 0 48 0 0 48 0 0 48 0 0 48 0 0 48 0 0 48 0 0 48 0 0 48 0 0 48 0 0 48 0 0 48 0 0 48 0 0 48 0 0 48 0 0 48 0 0 48 0 0 48 0 0 48 0 0 48 0 0 48 0 0 48 0 0 48 0 0 48 0 0 48 0 0 48 0 0 48 0 0 48 0 144 64 0 144 64 0 144 64 0 144 64 0 144 64 0 144 64 0 144 64 0 144 64 0 144 64 0 144 64 0 144 64 0 144 64 0 144 64 0 144 64 0 144 64 0 144 64 0 144 64 0 144 64 0 144 64 0 144 64 0 144 64 0 144 64 0 144 64 0 144 64 0 144 64 0 144 64 0 144 64 0 144 64 0 144 64 0 144 64 0 144 64 0 144 64 0 176 16 0 176 16 0 176 16 0 176 16 0 176 16 0 176 16 0 176 16 0 176 16 0 176 16 0 176 16 0 176 16 0 176 16 0 176 16 0 176 16 0 176 16 0 176 16 0 176 16 0 176 16 0 176 16 0 176 16 0 176 16 0 176 16 0 176 16 0 176 16 0 176 16 0 176 16 0 176 16 0 176 16 0 176 16 0 176 16 0 176 16 0 176 16 0
0 16 0 0 16 0 0 16 0 0 16 0 0 16 0 0 16 0 0 16 0 0 16 0 0 16 0 0 16 0 0 16 0 0 16 0 0 16 0 0 16 0 0 16 0 0 16 0 0 16 0 0 16 0 0 16 0 0 16 0 0 16 0 0 16 0 0 16 0 0 16 0 0 16 0 0 16 0 0 16 0 0 16 0 0 16 0 0 16 0 0 16 0 0 16 0 0 48 0 0 48 0 0 48 0 0 48 0 0 48 0 0 48 0 0 48 0 0 48 0 0 48 0 0 48 0 0 48 0 0 48 0 0 48 0 0 48 0 0 48 0 0 48 0 0 48 0 0 48 0 0 48 0 0 48 0 0 48 0 0 48 0 0 48 0 0 48 0 0 48 0 0 48 0 0 48 0 0 48 0 0 48 0 0 48 0 0 48 0 0 48 0 144 64 0 144 64 0 144 64 0 144 64 0 144 64 0 144 64 0 144 64 0 144 64 0 144 64 0 144 64 0 144 64 0 144 64 0 144 64 0 144 64 0 144 64 0 144 64 0 144 64 0 144 64 0 144 64 0 144 64 0 144 64 0 144 64 0 144 64 0 144 64 0 144 64 0 144 64 0 144 64 0 144 64 0 144 64 0 144 64 0 144 64 0 144 64 0 176 16 0 176 16 0 176 16 0 176 16 0 176 16 0 176 16 0 176 16 0 176 16 0 176 16 0 176 16 0 176 16 0 176 16 0 176 16 0 176 16 0 176 16 0 176 16 0 176 16 0 176 16 0 176 16 0 176 16 0 176 16 0 176 16 0 176 16 0 176 16 0 176 16 0 176 16 0 176 16 0 176 16 0 176 16 0 176 16 0 176 16 0 176 16 0
0 16 0 0 16 0 0 16 0 0 16 0 0 16 0 0 16 0 0 16 0 0 16 0 0 16 0 0 16 0 0 16 0 0 16 0 0 16 0 0 16 0 0 16 0 0 16 0 0 16 0 0 16 0 0 16 0 0 16 0 0 16 0 0 16 0 0 16 0 0 16 0 0 16 0 0 16 0 0 16 0 0 16 0 0 16 0 0 16 0 0 16 0 0 16 0 0 48 0 0 48 0 0 48 0 0 48 0 0 48 0 0 48 0 0 48 0 0 48 0 0 48 0 0 48 0 0 48 0 0 48 0 0 48 0 0 48 0 0 48 0 0 48 0 0 48 0 0 48 0 0 48 0 0 48 0 0 48 0 0 48 0 0 48 0 0 48 0 0 48 0 0 48 0 0 48 0 0 48 0 0 48 0 0 48 0 0 48 0 0 48 0 144 64 0 144 64 0 144 64 0 144 64 0 144 64 0 144 64 0 144 64 0 144 64 0 144 64 0 144 64 0 144 64 0 144 64 0 144 64 0 144 64 0 144 64 0 144 64 0 144 64 0 144 64 0 144 64 0 144 64 0 144 64 0 144 64 0 144 64 0 144 64 0 144 64 0 144 64 0 144 64 0 144 64 0 144 64 0 144 64 0 144 64 0 144 64 0 176 16 0 176 16 0 176 16 0 176 16 0 176 16 0 176 16 0 176 16 0 176 16 0 176 16 0 176 16 0 176 16 0 176 16 0 176 16 0 176 16 0 176 16 0 176 16 0 176 16 0 176 16 0 176 16 0 176 16 0 176 16 0 176 16 0 176 16 0 176 16 0 176 16 0 176 16 0 176 16 0 176 16 0 176 16 0 176 16 0 176 16 0 176 16 0
0 16 0 0 16 0 0 16 0 0 16 0 0 16 0 0 16 0 0 16 0 0 16 0 0 16 0 0 16 0 0 16 0 0 16 0 0 16 0 0 16 0 0 16 0 0 16 0 0 16 0 0 16 0 0 16 0 0 16 0 0 16 0 0 16 0 0 16 0 0 16 0 0 16 0 0 16 0 0 16 0 0 16 0 0 16 0 0 16 0 0 16 0 0 16 0 0 48 0 0 48 0 0 48 0 0 48 0 0 48 0 0 48 0 0 48 0 0 48 0 0 48 0 0 48 0 0 48 0 0 48 0 0 48 0 0 48 0 0 48 0 0 48 0 0 48 0 0 48 0 0 48 0 0 48 0 0 48 0 0 48 0 0 48 0 0 48 0 0 48 0 0 48 0 0 48 0 0 48 0 0 48 0 0 48 0 0 48 0 0 48 0 144 64 0 144 64 0 144 64 0 144 64 0 144 64 0 144 64 0 144 64 0 144 64 0 144 64 0 144 64 0 144 64 0 144 64 0 144 64 0 144 64 0 144 64 0 144 64 0 144 64 0 144 64 0 144 64 0 144 64 0 144 64 0 144 64 0 144 64 0 144 64 0 144 64 0 144 64 0 144 64 0 144 64 0 144 64 0 144 64 0 144 64 0 144 64 0 176 16 0 176 16 0 176 16 0 176 16 0 176 16 0 176 16 0 176 16 0 176 16 0 176 16 0 176 16 0 176 16 0 176 16 0 176 16 0 176 16 0 176 16 0 176 16 0 176 16 0 176 16 0 176 16 0 176 16 0 176 16 0 176 16 0 176 16 0 176 16 0 176 16 0 176 16 0 176 16 0 176 16 0 176 16 0 176 16 0 176 16 0 176 16 0
0 16 0 0 16 0 0 16 0 0 16 0 0 16 0 0 16 0 0 16 0 0 16 0 0 16 0 0 16 0 0 16 0 0 16 0 0 16 0 0 16 0 0 16 0 0 16 0 0 16 0 0 16 0 0 16 0 0 16 0 0 16 0 0 16 0 0 16 0 0 16 0 0 16 0 0 16 0 0 16 0 0 16 0 0 16 0 0 16 0 0 16 0 0 16 0 0 48 0 0 48 0 0 48 0 0 48 0 0 48 0 0 48 0 0 48 0 0 48 0 0 48 0 0 48 0 0 48 0 0 48 0 0 48 0 0 48 0 0 48 0 0 48 0 0 48 0 0 48 0 0 48 0 0 48 0 0 48 0 0 48 0 0 48 0 0 48 0 0 48 0 0 48 0 0 48 0 0 48 0 0 48 0 0 48 0 0 48 0 0 48 0 144 64 0 144 64 0 144 64 0 144 64 0 144 64 0 144 64 0 144 64 0 144 64 0 144 64 0 144 64 0 144 64 0 144 64 0 144 64 0 144 64 0 144 64 0 144 64 0 144 64 0 144 64 0 144 64 0 144 64 0 144 64 0 144 64 0 144 64 0 144 64 0 144 64 0 144 64 0 144 64 0 144 64 0 144 64 0 144 64 0 144 64 0 144 64 0 176 16 0 176 16 0 176 16 0 176 16 0 176 16 0 176 16 0 176 16 0 176 16 0 176 16 0 176 16 0 176 16 0 176 16 0 176 16 0 176 16 0 176 16 0 176 16 0 176 16 0 176 16 0 176 16 0 176 16 0 176 16 0 176 16 0 176 16 0 176 16 0 176 16 0 176 16 0 176 16 0 176 16 0 176 16 0 176 16 0 176 16 0 176 16 0
0 16 0 0 16 0 0 16 0 0 16 0 0 16 0 0 16 0 0 16 0 0 16 0 0 16 0 0 16 0 0 16 0 0 16 0 0 16 0 0 16 0 0 16 0 0 16 0 0 16 0 0 16 0 0 16 0 0 16 0 0 16 0 0 16 0 0 16 0 0 16 0 0 16 0 0 16 0 0 16 0 0 16 0 0 16 0 0 16 0 0 16 0 0 16 0 0 48 0 0 48 0 0 48 0 0 48 0 0 48 0 0 48 0 0 48 0 0 48 0 0 48 0 0 48 0 0 48 0 0 48 0 0 48 0 0 48 0 0 48 0 0 48 0 0 48 0 0 48 0 0 48 0 0 48 0 0 48 0 0 48 0 0 48 0 0 48 0 0 48 0 0 48 0 0 48 0 0 48 0 0 48 0 0 48 0 0 48 0 0 48 0 144 64 0 144 64 0 144 64 0 144 64 0 144 64 0 144 64 0 144 64 0 144 64 0 144 64 0 144 64 0 144 64 0 144 64 0 144 64 0 144 64 0 144 64 0 144 64 0 144 64 0 144 64 0 144 64 0 144 64 0 144 64 0 144 64 0 144 64 0 144 64 0 144 64 0 144 64 0 144 64 0 144 64 0 144 64 0 144 64 0 144 64 0 144 64 0 176 16 0 176 16 0 176 16 0 176 16 0 176 16 0 176 16 0 176 16 0 176 16 0 176 16 0 176 16 0 176 16 0 176 16 0 176 16 0 176 16 0 176 16 0 176 16 0 176 16 0 176 16 0 176 16 0 176 16 0 176 16 0 176 16 0 176 16 0 176 16 0 176 16 0 176 16 0 176 16 0 176 16 0 176 16 0 176 16 0 176 16 0 176 16 0
0 16 0 0 16 0 0 16 0 0 16 0 0 16 0 0 16 0 0 16 0 0 16 0 0 16 0 0 16 0 0 16 0 0 16 0 0 16 0 0 16 0 0 16 0 0 16 0 0 16 0 0 16 0 0 16 0 0 16 0 0 16 0 0 16 0 0 16 0 0 16 0 0 16 0 0 16 0 0 16 0 0 16 0 0 16 0 0 16 0 0 16 0 0 16 0 0 48 0 0 48 0 0 48 0 0 48 0 0 48 0 0 48 0 0 48 0 0 48 0 0 48 0 0 48 0 0 48 0 0 48 0 0 48 0 0 48 0 0 48 0 0 48 0 0 48 0 0 48 0 0 48 0 0 48 0 0 48 0 0 48 0 0 48 0 0 48 0 0 48 0 0 48 0 0 48 0 0 48 0 0 48 0 0 48 0 0 48 0 0 48 0 144 64 0 144 64 0 144 64 0 144 64 0 144 64 0 144 64 0 144 64 0 144 64 0 144 64 0 144 64 0 144 64 0 144 64 0 144 64 0 144 64 0 144 64 0 144 64 0 144 64 0 144 64 0 144 64 0 144 64 0 144 64 0 144 64 0 144 64 0 144 64 0 144 64 0 144 64 0 144 64 0 144 64 0 144 64 0 144 64 0 144 64 0 144 64 0 176 16 0 176 16 0 176 16 0 176 16 0 176 16 0 176 16 0 176 16 0 176 16 0 176 16 0 176 16 0 176 16 0 176 16 0 176 16 0 176 16 0 176 16 0 176 16 0 176 16 0 176 16 0 176 16 0 176 16 0 176 16 0 176 16 0 176 16 0 176 16 0 176 16 0 176 16 0 176 16 0 176 16 0 176 16 0 176 16 0 176 16 0 176 16 0
184 16 0 184 16 0 184 16 0 184 16 0 184 16 0 184 16 0 184 16 0 184 16 0 184 16 0 184 16 0 184 16 0 184 16 0 184 16 0 184 16 0 184 16 0 184 16 0 184 16 0 184 16 0 184 16 0 184 16 0 184 16 0 184 16 0 184 16 0 184 16 0 184 16 0 184 16 0 184 16 0 184 16 0 184 16 0 184 16 0 184 16 0 184 16 0 192 16 0 192 16 0 192 16 0 192 16 0 192 16 0 192 16 0 192 16 0 192 16 0 192 16 0 192 16 0 192 16 0 192 16 0 192 16 0 192 16 0 192 16 0 192 16 0 192 16 0 192 16 0 192 16 0 192 16 0 192 16 0 192 16 0 192 16 0 192 16 0 192 16 0 192 16 0 192 16 0 192 16 0 192 16 0 192 16 0 192 16 0 192 16 0 56 24 0 56 24 0 56 24 0 56 24 0 56 24 0 56 24 0 56 24 0 56 24 0 56 24 0 56 24 0 56 24 0 56 24 0 56 24 0 56 24 0 56 24 0 56 24 0 56 24 0 56 24 0 56 24 0 56 24 0 56 24 0 56 24 0 56 24 0 56 24 0 56 24 0 56 24 0 56 24 0 56 24 0 56 24 0 56 24 0 56 24 0 56 24 0 64 24 0 64 24 0 64 24 0 64 24 0 64 24 0 64 24 0 64 24 0 64 24 0 64 24 0 64 24 0 64 24 0 64 24 0 64 24 0 64 24 0 64 24 0 64 24 0 64 24 0 64 24 0 64 24 0 64 24 0 64 24 0 64 24 0 64 24 0 64 24 0 64 24 0 64 24 0 64 24 0 64 24 0 64 24 0 64 24 0 64 24 0 64 24 0
184 16 0 184 16 0 184 16 0 184 16 0 184 16 0 184 16 0 184 16 0 184 16 0 184 16 0 184 16 0 184 16 0 184 16 0 184 16 0 184 16 0 184 16 0 184 16 0 184 16 0 184 16 0 184 16 0 184 16 0 184 16 0 184 16 0 184 16 0 184 16 0 184 16 0 184 16 0 184 16 0 184 16 0 184 16 0 184 16 0 184 16 0 184 16 0 192 16 0 192 16 0 192 16 0 192 16 0 192 16 0 192 16 0 192 16 0 192 16 0 192 16 0 192 16 0 192 16 0 192 16 0 192 16 0 192 16 0 192 16 0 192 16 0 192 16 0 192 16 0 192 16 0 192 16 0 192 16 0 192 16 0 192 16 0 192 16 0 192 16 0 192 16 0 192 16 0 192 16 0 192 16 0 192 16 0 192 16 0 192 16 0 56 24 0 56 24 0 56 24 0 56 24 0 56 24 0 56 24 0 56 24 0 56 24 0 56 24 0 56 24 0 56 24 0 56 24 0 56 24 0 56 24 0 56 24 0 56 24 0 56 24 0 56 24 0 56 24 0 56 24 0 56 24 0 56 24 0 56 24 0 56 24 0 56 24 0 56 24 0 56 24 0 56 24 0 56 24 0 56 24 0 56 24 0 56 24 0 64 24 0 64 24 0 64 24 0 64 24 0 64 24 0 64 24 0 64 24 0 64 24 0 64 24 0 64 24 0 64 24 0 64 24 0 64 24 0 64 24 0 64 24 0 64 24 0 64 24 0 64 24 0 64 24 0 64 24 0 64 24 0 64 24 0 64 24 0 64 24 0 64 24 0 64 24 0 64 24 0 64 24 0 64 24 0 64 24 0 64 24 0 64 24 0
184 16 0 184 16 0 184 16 0 184 16 0 184 16 0 184 16 0 184 16 0 184 16 0 184 16 0 184 16 0 184 16 0 184 16 0 184 16 0 184 16 0 184 16 0 184 16 0 184 16 0 184 16 0 184 16 0 184 16 0 184 16 0 184 16 0 184 16 0 184 16 0 184 16 0 184 16 0 184 16 0 184 16 0 184 16 0 184 16 0 184 16 0 184 16 0 192 16 0 192 16 0 192 16 0 192 16 0 192 16 0 192 16 0 192 16 0 192 16 0 192 16 0 192 16 0 192 16 0 192 16 0 192 16 0 192 16 0 192 16 0 192 16 0 192 16 0 192 16 0 192 16 0 192 16 0 192 16 0 192 16 0 192 16 0 192 16 0 192 16 0 192 16 0 192 16 0 192 16 0 192 16 0 192 16 0 192 16 0 192 16 0 56 24 0 56 24 0 56 24 0 56 24 0 56 24 0 56 24 0 56 24 0 56 24 0 56 24 0 56 24 0 56 24 0 56 24 0 56 24 0 56 24 0 56 24 0 56 24 0 56 24 0 56 24 0 56 24 0 56 24 0 56 24 0 56 24 0 56 24 0 56 24 0 56 24 0 56 24 0 56 24 0 56 24 0 56 24 0 56 24 0 56 24 0 56 24 0 64 24 0 64 24 0 64 24 0 64 24 0 64 24 0 64 24 0 64 24 0 64 24 0 64 24 0 64 24 0 64 24 0 64 24 0 64 24 0 64 24 0 64 24 0 64 24 0 64 24 0 64 24 0 64 24 0 64 24 0 64 24 0 64 24 0 64 24 0 64 24 0 64 24 0 64 24 0 64 24 0 64 24 0 64 24 0 64 24 0 64 24 0 64 24 0
184 16 0 184 16 0 184 16 0 184 16 0 184 16 0 184 16 0 184 16 0 184 16 0 184 16 0 184 16 0 184 16 0 184 16 0 184 16 0 184 16 0 184 16 0 184 16 0 184 16 0 184 16 0 184 16 0 184 16 0 184 16 0 184 16 0 184 16 0 184 16 0 184 16 0 184 16 0 184 16 0 184 16 0 184 16 0 184 16 0 184 16 0 184 16 0 192 16 0 192 16 0 192 16 0 192 16 0 192 16 0 192 16 0 192 16 0 192 16 0 192 16 0 192 16 0 192 16 0 192 16 0 192 16 0 192 16 0 192 16 0 192 16 0 192 16 0 192 16 0 192 16 0 192 16 0 192 16 0 192 16 0 192 16 0 192 16 0 192 16 0 192 16 0 192 16 0 192 16 0 192 16 0 192 16 0 192 16 0 192 16 0 56 24 0 56 24 0 56 24 0 56 24 0 56 24 0 56 24 0 56 24 0 56 24 0 56 24 0 56 24 0 56 24 0 56 24 0 56 24 0 56 24 0 56 24 0 56 24 0 56 24 0 56 24 0 56 24 0 56 24 0 56 24 0 56 24 0 56 24 0 56 24 0 56 24 0 56 24 0 56 24 0 56 24 0 56 24 0 56 24 0 56 24 0 56 24 0 64 24 0 64 24 0 64 24 0 64 24 0 64 24 0 64 24 0 64 24 0 64 24 0 64 24 0 64 24 0 64 24 0 64 24 0 64 24 0 64 24 0 64 24 0 64 24 0 64 24 0 64 24 0 64 24 0 64 24 0 64 24 0 64 24 0 64 24 0 64 24 0 64 24 0 64 24 0 64 24 0 64 24 0 64 24 0 64 24 0 64 24 0 64 24 0
184 16 0 184 16 0 184 16 0 184 16 0 184 16 0 184 16 0 184 16 0 184 16 0 184 16 0 184 16 0 184 16 0 184 16 0 184 16 0 184 16 0 184 16 0 184 16 0 184 16 0 184 16 0 184 16 0 184 16 0 184 16 0 184 16 0 184 16 0 184 16 0 184 16 0 184 16 0 184 16 0 184 16 0 184 16 0 184 16 0 184 16 0 184 16 0 192 16 0 192 16 0 192 16 0 192 16 0 192 16 0 192 16 0 192 16 0 192 16 0 192 16 0 192 16 0 192 16 0 192 16 0 192 16 0 192 16 0 192 16 0 192 16 0 192 16 0 192 16 0 192 16 0 192 16 0 192 16 0 192 16 0 192 16 0 192 16 0 192 16 0 192 16 0 192 16 0 192 16 0 192 16 0 192 16 0 192 16 0 192 16 0 56 24 0 56 24 0 56 24 0 56 24 0 56 24 0 56 24 0 56 24 0 56 24 0 56 24 0 56 24 0 56 24 0 56 24 0 56 24 0 56 24 0 56 24 0 56 24 0 56 24 0 56 24 0 56 24 0 56 24 0 56 24 0 56 24 0 56 24 0 56 24 0 56 24 0 56 24 0 56 24 0 56 24 0 56 24 0 56 24 0 56 24 0 56 24 0 64 24 0 64 24 0 64 24 0 64 24 0 64 24 0 64 24 0 64 24 0 64 24 0 64 24 0 64 24 0 64 24 0 64 24 0 64 24 0 64 24 0 64 24 0 64 24 0 64 24 0 64 24 0 64 24 0 64 24 0 64 24 0 64 24 0 64 24 0 64 24 0 64 24 0 64 24 0 64 24 0 64 24 0 64 24 0 64 24 0 64 24 0 64 24 0
184 16 0 184 16 0 184 16 0 184 16 0 184 16 0 184 16 0 184 16 0 184 16 0 184 16 0 184 16 0 184 16 0 184 16 0 184 16 0 184 16 0 184 16 0 184 16 0 184 16 0 184 16 0 184 16 0 184 16 0 184 16 0 184 16 0 184 16 0 184 16 0 184 16 0 184 16 0 184 16 0 184 16 0 184 16 0 184 16 0 184 16 0 184 16 0 192 16 0 192 16 0 192 16 0 192 16 0 192 16 0 192 16 0 192 16 0 192 16 0 192 16 0 192 16 0 192 16 0 192 16 0 192 16 0 192 16 0 192 16 0 192 16 0 192 16 0 192 16 0 192 16 0 192 16 0 192 16 0 192 16 0 192 16 0 192 16 0 192 16 0 192 16 0 192 16 0 192 16 0 192 16 0 192 16 0 192 16 0 192 16 0 56 24 0 56 24 0 56 24 0 56 24 0 56 24 0 56 24 0 56 24 0 56 24 0 56 24 0 56 24 0 56 24 0 56 24 0 56 24 0 56 24 0 56 24 0 56 24 0 56 24 0 56 24 0 56 24 0 56 24 0 56 24 0 56 24 0 56 24 0 56 24 0 56 24 0 56 24 0 56 24 0 56 24 0 56 24 0 56 24 0 56 24 0 56 24 0 64 24 0 64 24 0 64 24 0 64 24 0 64 24 0 64 24 0 64 24 0 64 24 0 64 24 0 64 24 0 64 24 0 64 24 0 64 24 0 64 24 0 64 24 0 64 24 0 64 24 0 64 24 0 64 24 0 64 24 0 64 24 0 64 24 0 64 24 0 64 24 0 64 24 0 64 24 0 64 24 0 64 24 0 64 24 0 64 24 0 64 24 0 64 24 0
184 16 0 184 16 0 184 16 0 184 16 0 184 16 0 184 16 0 184 16 0 184 16 0 184 16 0 184 16 0 184 16 0 184 16 0 184 16 0 184 16 0 184 16 0 184 16 0 184 16 0 184 16 0 184 16 0 184 16 0 184 16 0 184 16 0 184 16 0 184 16 0 184 16 0 184 16 0 184 16 0 184 16 0 184 16 0 184 16 0 184 16 0 184 16 0 192 16 0 192 16 0 192 16 0 192 16 0 192 16 0 192 16 0 192 16 0 192 16 0 192 16 0 192 16 0 192 16 0 192 16 0 192 16 0 192 16 0 192 16 0 192 16 0 192 16 0 192 16 0 192 16 0 192 16 0 192 16 0 192 16 0 192 16 0 192 16 0 192 16 0 192 16 0 192 16 0 192 16 0 192 16 0 192 16 0 192 16 0 192 16 0 56 24 0 56 24 0 56 24 0 56 24 0 56 24 0 56 24 0 56 24 0 56 24 0 56 24 0 56 24 0 56 24 0 56 24 0 56 24 0 56 24 0 56 24 0 56 24 0 56 24 0 56 24 0 56 24 0 56 24 0 56 24 0 56 24 0 56 24 0 56 24 0 56 24 0 56 24 0 56 24 0 56 24 0 56 24 0 56 24 0 56 24 0 56 24 0 64 24 0 64 24 0 64 24 0 64 24 0 64 24 0 64 24 0 64 24 0 64 24 0 64 24 0 64 24 0 64 24 0 64 24 0 64 24 0 64 24 0 64 24 0 64 24 0 64 24 0 64 24 0 64 24 0 64 24 0 64 24 0 64 24 0 64 24 0 64 24 0 64 24 0 64 24 0 64 24 0 64 24 0 64 24 0 64 24 0 64 24 0 64 24 0
184 16 0 184 16 0 184 16 0 184 16 0 184 16 0 184 16 0 184 16 0 184 16 0 184 16 0 184 16 0 184 16 0 184 16 0 184 16 0 184 16 0 184 16 0 184 16 0 184 16 0 184 16 0 184 16 0 184 16 0 184 16 0 184 16 0 184 16 0 184 16 0 184 16 0 184 16 0 184 16 0 184 16 0 184 16 0 184 16 0 184 16 0 184 16 0 192 16 0 192 16 0 192 16 0 192 16 0 192 16 0 192 16 0 192 16 0 192 16 0 192 16 0 192 16 0 192 16 0 192 16 0 192 16 0 192 16 0 192 16 0 192 16 0 192 16 0 192 16 0 192 16 0 192 16 0 192 16 0 192 16 0 192 16 0 192 16 0 192 16 0 192 16 0 192 16 0 192 16 0 192 16 0 192 16 0 192 16 0 192 16 0 56 24 0 56 24 0 56 24 0 56 24 0 56 24 0 56 24 0 56 24 0 56 24 0 56 24 0 56 24 0 56 24 0 56 24 0 56 24 0 56 24 0 56 24 0 56 24 0 56 24 0 56 24 0 56 24 0 56 24 0 56 24 0 56 24 0 56 24 0 56 24 0 56 24 0 56 24 0 56 24 0 56 24 0 56 24 0 56 24 0 56 24 0 56 24 0 64 24 0 64 24 0 64 24 0 64 24 0 64 24 0 64 24 0 64 24 0 64 24 0 64 24 0 64 24 0 64 24 0 64 24 0 64 24 0 64 24 0 64 24 0 64 24 0 64 24 0 64 24 0 64 24 0 64 24 0 64 24 0 64 24 0 64 24 0 64 24 0 64 24 0 64 24 0 64 24 0 64 24 0 64 24 0 64 24 0 64 24 0 64 24 0
184 16 0 184 16 0 184 16 0 184 16 0 184 16 0 184 16 0 184 16 0 184 16 0 184 16 0 184 16 0 184 16 0 184 16 0 184 16 0 184 16 0 184 16 0 184 16 0 184 16 0 184 16 0 184 16 0 184 16 0 184 16 0 184 16 0 184 16 0 184 16 0 184 16 0 184 16 0 184 16 0 184 16 0 184 16 0 184 16 0 184 16 0 184 16 0 192 16 0 192 16 0 192 16 0 192 16 0 192 16 0 192 16 0 192 16 0 192 16 0 192 16 0 192 16 0 192 16 0 192 16 0 192 16 0 192 16 0 192 16 0 192 16 0 192 16 0 192 16 0 192 16 0 192 16 0 192 16 0 192 16 0 192 16 0 192 16 0 192 16 0 192 16 0 192 16 0 192 16 0 192 16 0 192 16 0 192 16 0 192 16 0 56 24 0 56 24 0 56 24 0 56 24 0 56 24 0 56 24 0 56 24 0 56 24 0 56 24 0 56 24 0 56 24 0 56 24 0 56 24 0 56 24 0 56 24 0 56 24 0 56 24 0 56 24 0 56 24 0 56 24 0 56 24 0 56 24 0 56 24 0 56 24 0 56 24 0 56 24 0 56 24 0 56 24 0 56 24 0 56 24 0 56 24 0 56 24 0 64 24 0 64 24 0 64 24 0 64 24 0 64 24 0 64 24 0 64 24 0 64 24 0 64 24 0 64 24 0 64 24 0 64 24 0 64 24 0 64 24 0 64 24 0 64 24 0 64 24 0 64 24 0 64 24 0 64 24 0 64 24 0 64 24 0 64 24 0 64 24 0 64 24 0 64 24 0 64 24 0 64 24 0 64 24 0 64 24 0 64 24 0 64 24 0
184 16 0 184 16 0 184 16 0 184 16 0 184 16 0 184 16 0 184 16 0 184 16 0 184 16 0 184 16 0 184 16 0 184 16 0 184 16 0 184 16 0 184 16 0 184 16 0 184 16 0 184 16 0 184 16 0 184 16 0 184 16 0 184 16 0 184 16 0 184 16 0 184 16 0 184 16 0 184 16 0 184 16 0 184 16 0 184 16 0 184 16 0 184 16 0 192 16 0 192 16 0 192 16 0 192 16 0 192 16 0 192 16 0 192 16 0 192 16 0 192 16 0 192 16 0 192 16 0 192 16 0 192 16 0 192 16 0 192 16 0 192 16 0 192 16 0 192 16 0 192 16 0 192 16 0 192 16 0 192 16 0 192 16 0 192 16 0 192 16 0 192 16 0 192 16 0 192 16 0 192 16 0 192 16 0 192 16 0 192 16 0 56 24 0 56 24 0 56 24 0 56 24 0 56 24 0 56 24 0 56 24 0 56 24 0 56 24 0 56 24 0 56 24 0 56 24 0 56 24 0 56 24 0 56 24 0 56 24 0 56 24 0 56 24 0 56 24 0 56 24 0 56 24 0 56 24 0 56 24 0 56 24 0 56 24 0 56 24 0 56 24 0 56 24 0 56 24 0 56 24 0 56 24 0 56 24 0 64 24 0 64 24 0 64 24 0 64 24 0 64 24 0 64 24 0 64 24 0 64 24 0 64 24 0 64 24 0 64 24 0 64 24 0 64 24 0 64 24 0 64 24 0 64 24 0 64 24 0 64 24 0 64 24 0 64 24 0 64 24 0 64 24 0 64 24 0 64 24 0 64 24 0 64 24 0 64 24 0 64 24 0 64 24 0 64 24 0 64 24 0 64 24 0
184 16 0 184 16 0 184 16 0 184 16 0 184 16 0 184 16 0 184 16 0 184 16 0 184 16 0 184 16 0 184 16 0 184 16 0 184 16 0 184 16 0 184 16 0 184 16 0 184 16 0 184 16 0 184 16 0 184 16 0 184 16 0 184 16 0 184 16 0 184 16 0 184 16 0 184 16 0 184 16 0 184 16 0 184 16 0 184 16 0 184 16 0 184 16 0 192 16 0 192 16 0 192 16 0 192 16 0 192 16 0 192 16 0 192 16 0 192 16 0 192 16 0 192 16 0 192 16 0 192 16 0 192 16 0 192 16 0 192 16 0 192 16 0 192 16 0 192 16 0 192 16 0 192 16 0 192 16 0 192 16 0 192 16 0 192 16 0 192 16 0 192 16 0 192 16 0 192 16 0 192 16 0 192 16 0 192 16 0 192 16 0 56 24 0 56 24 0 56 24 0 56 24 0 56 24 0 56 24 0 56 24 0 56 24 0 56 24 0 56 24 0 56 24 0 56 24 0 56 24 0 56 24 0 56 24 0 56 24 0 56 24 0 56 24 0 56 24 0 56 24 0 56 24 0 56 24 0 56 24 0 56 24 0 56 24 0 56 24 0 56 24 0 56 24 0 56 24 0 56 24 0 56 24 0 56 24 0 64 24 0 64 24 0 64 24 0 64 24 0 64 24 0 64 24 0 64 24 0 64 24 0 64 24 0 64 24 0 64 24 0 64 24 0 64 24 0 64 24 0 64 24 0 64 24 0 64 24 0 64 24 0 64 24 0 64 24 0 64 24 0 64 24 0 64 24 0 64 24 0 64 24 0 64 24 0 64 24 0 64 24 0 64 24 0 64 24 0 64 24 0 64 24 0
184 16 0 184 16 0 184 16 0 184 16 0 184 16 0 184 16 0 184 16 0 184 16 0 184 16 0 184 16 0 184 16 0 184 16 0 184 16 0 184 16 0 184 16 0 184 16 0 184 16 0 184 16 0 184 16 0 184 16 0 184 16 0 184 16 0 184 16 0 184 16 0 184 16 0 184 16 0 184 16 0 184 16 0 184 16 0 184 16 0 184 16 0 184 16 0 192 16 0 192 16 0 192 16 0 192 16 0 192 16 0 192 16 0 192 16 0 192 16 0 192 16 0 192 16 0 192 16 0 192 16 0 192 16 0 192 16 0 192 16 0 192 16 0 192 16 0 192 16 0 192 16 0 192 16 0 192 16 0 192 16 0 192 16 0 192 16 0 192 16 0 192 16 0 192 16 0 192 16 0 192 16 0 192 16 0 192 16 0 192 16 0 56 24 0 56 24 0 56 24 0 56 24 0 56 24 0 56 24 0 56 24 0 56 24 0 56 24 0 56 24 0 56 24 0 56 24 0 56 24 0 56 24 0 56 24 0 56 24 0 56 24 0 56 24 0 56 24 0 56 24 0 56 24 0 56 24 0 56 24 0 56 24 0 56 24 0 56 24 0 56 24 0 56 24 0 56 24 0 56 24 0 56 24 0 56 24 0 64 24 0 64 24 0 64 24 0 64 24 0 64 24 0 64 24 0 64 24 0 64 24 0 64 24 0 64 24 0 64 24 0 64 24 0 64 24 0 64 24 0 64 24 0 64 24 0 64 24 0 64 24 0 64 24 0 64 24 0 64 24 0 64 24 0 64 24 0 64 24 0 64 24 0 64 24 0 64 24 0 64 24 0 64 24 0 64 24 0 64 24 0 64 24 0
184 16 0 184 16 0 184 16 0 184 16 0 184 16 0 184 16 0 184 16 0 184 16 0 184 16 0 184 16 0 184 16 0 184 16 0 184 16 0 184 16 0 184 16 0 184 16 0 184 16 0 184 16 0 184 16 0 184 16 0 184 16 0 184 16 0 184 16 0 184 16 0 184 16 0 184 16 0 184 16 0 184 16 0 184 16 0 184 16 0 184 16 0 184 16 0 192 16 0 192 16 0 192 16 0 192 16 0 192 16 0 192 16 0 192 16 0 192 16 0 192 16 0 192 16 0 192 16 0 192 16 0 192 16 0 192 16 0 192 16 0 192 16 0 192 16 0 192 16 0 192 16 0 192 16 0 192 16 0 192 16 0 192 16 0 192 16 0 192 16 0 192 16 0 192 16 0 192 16 0 192 16 0 192 16 0 192 16 0 192 16 0 56 24 0 56 24 0 56 24 0 56 24 0 56 24 0 56 24 0 56 24 0 56 24 0 56 24 0 56 24 0 56 24 0 56 24 0 56 24 0 56 24 0 56 24 0 56 24 0 56 24 0 56 24 0 56 24 0 56 24 0 56 24 0 56 24 0 56 24 0 56 24 0 56 24 0 56 24 0 56 24 0 56 24 0 56 24 0 56 24 0 56 24 0 56 24 0 64 24 0 64 24 0 64 24 0 64 24 0 64 24 0 64 24 0 64 24 0 64 24 0 64 24 0 64 24 0 64 24 0 64 24 0 64 24 0 64 24 0 64 24 0 64 24 0 64 24 0 64 24 0 64 24 0 64 24 0 64 24 0 64 24 0 64 24 0 64 24 0 64 24 0 64 24 0 64 24 0 64 24 0 64 24 0 64 24 0 64 24 0 64 24 0
184 16 0 184 16 0 184 16 0 184 16 0 184 16 0 184 16 0 184 16 0 184 16 0 184 16 0 184 16 0 184 16 0 184 16 0 184 16 0 184 16 0 184 16 0 184 16 0 184 16 0 184 16 0 184 16 0 184 16 0 184 16 0 184 16 0 184 16 0 184 16 0 184 16 0 184 16 0 184 16 0 184 16 0 184 16 0 184 16 0 184 16 0 184 16 0 192 16 0 192 16 0 192 16 0 192 16 0 192 16 0 192 16 0 192 16 0 192 16 0 192 16 0 192 16 0 192 16 0 192 16 0 192 16 0 192 16 0 192 16 0 192 16 0 192 16 0 192 16 0 192 16 0 192 16 0 192 16 0 192 16 0 192 16 0 192 16 0 192 16 0 192 16 0 192 16 0 192 16 0 192 16 0 192 16 0 192 16 0 192 16 0 56 24 0 56 24 0 56 24 0 56 24 0 56 24 0 56 24 0 56 24 0 56 24 0 56 24 0 56 24 0 56 24 0 56 24 0 56 24 0 56 24 0 56 24 0 56 24 0 56 24 0 56 24 0 56 24 0 56 24 0 56 24 0 56 24 0 56 24 0 56 24 0 56 24 0 56 24 0 56 24 0 56 24 0 56 24 0 56 24 0 56 24 0 56 24 0 64 24 0 64 24 0 64 24 0 64 24 0 64 24 0 64 24 0 64 24 0 64 24 0 64 24 0 64 24 0 64 24 0 64 24 0 64 24 0 64 24 0 64 24 0 64 24 0 64 24 0 64 24 0 64 24 0 64 24 0 64 24 0 64 24 0 64 24 0 64 24 0 64 24 0 64 24 0 64 24 0 64 24 0 64 24 0 64 24 0 64 24 0 64 24 0
184 16 0 184 16 0 184 16 0 184 16 0 184 16 0 184 16 0 184 16 0 184 16 0 184 16 0 184 16 0 184 16 0 184 16 0 184 16 0 184 16 0 184 16 0 184 16 0 184 16 0 184 16 0 184 16 0 184 16 0 184 16 0 184 16 0 184 16 0 184 16 0 184 16 0 184 16 0 184 16 0 184 16 0 184 16 0 184 16 0 184 16 0 184 16 0 192 16 0 192 16 0 192 16 0 192 16 0 192 16 0 192 16 0 192 16 0 192 16 0 192 16 0 192 16 0 192 16 0 192 16 0 192 16 0 192 16 0 192 16 0 192 16 0 192 16 0 192 16 0 192 16 0 192 16 0 192 16 0 192 16 0 192 16 0 192 16 0 192 16 0 192 16 0 192 16 0 192 16 0 192 16 0 192 16 0 192 16 0 192 16 0 56 24 0 56 24 0 56 24 0 56 24 0 56 24 0 56 24 0 56 24 0 56 24 0 56 24 0 56 24 0 56 24 0 56 24 0 56 24 0 56 24 0 56 24 0 56 24 0 56 24 0 56 24 0 56 24 0 56 24 0 56 24 0 56 24 0 56 24 0 56 24 0 56 24 0 56 24 0 56 24 0 56 24 0 56 24 0 56 24 0 56 24 0 56 24 0 64 24 0 64 24 0 64 24 0 64 24 0 64 24 0 64 24 0 64 24 0 64 24 0 64 24 0 64 24 0 64 24 0 64 24 0 64 24 0 64 24 0 64 24 0 64 24 0 64 24 0 64 24 0 64 24 0 64 24 0 64 24 0 64 24 0 64 24 0 64 24 0 64 24 0 64 24 0 64 24 0 64 24 0 64 24 0 64 24 0 64 24 0 64 24 0
184 16 0 184 16 0 184 16 0 184 16 0 184 16 0 184 16 0 184 16 0 184 16 0 184 16 0 184 16 0 184 16 0 184 16 0 184 16 0 184 16 0 184 16 0 184 16 0 184 16 0 184 16 0 184 16 0 184 16 0 184 16 0 184 16 0 184 16 0 184 16 0 184 16 0 184 16 0 184 16 0 184 16 0 184 16 0 184 16 0 184 16 0 184 16 0 192 16 0 192 16 0 192 16 0 192 16 0 192 16 0 192 16 0 192 16 0 192 16 0 192 16 0 192 16 0 192 16 0 192 16 0 192 16 0 192 16 0 192 16 0 192 16 0 192 16 0 192 16 0 192 16 0 192 16 0 192 16 0 192 16 0 192 16 0 192 16 0 192 16 0 192 16 0 192 16 0 192 16 0 192 16 0 192 16 0 192 16 0 192 16 0 56 24 0 56 24 0 56 24 0 56 24 0 56 24 0 56 24 0 56 24 0 56 24 0 56 24 0 56 24 0 56 24 0 56 24 0 56 24 0 56 24 0 56 24 0 56 24 0 56 24 0 56 24 0 56 24 0 56 24 0 56 24 0 56 24 0 56 24 0 56 24 0 56 24 0 56 24 0 56 24 0 56 24 0 56 24 0 56 24 0 56 24 0 56 24 0 64 24 0 64 24 0 64 24 0 64 24 0 64 24 0 64 24 0 64 24 0 64 24 0 64 24 0 64 24 0 64 24 0 64 24 0 64 24 0 64 24 0 64 24 0 64 24 0 64 24 0 64 24 0 64 24 0 64 24 0 64 24 0 64 24 0 64 24 0 64 24 0 64 24 0 64 24 0 64 24 0 64 24 0 64 24 0 64 24 0 64 24 0 64 24 0
184 16 0 184 16 0 184 16 0 184 16 0 184 16 0 184 16 0 184 16 0 184 16 0 184 16 0 184 16 0 184 16 0 184 16 0 184 16 0 184 16 0 184 16 0 184 16 0 184 16 0 184 16 0 184 16 0 184 16 0 184 16 0 184 16 0 184 16 0 184 16 0 184 16 0 184 16 0 184 16 0 184 16 0 184 16 0 184 16 0 184 16 0 184 16 0 192 16 0 192 16 0 192 16 0 192 16 0 192 16 0 192 16 0 192 16 0 192 16 0 192 16 0 192 16 0 192 16 0 192 16 0 192 16 0 192 16 0 192 16 0 192 16 0 192 16 0 192 16 0 192 16 0 192 16 0 192 16 0 192 16 0 192 16 0 192 16 0 192 16 0 192 16 0 192 16 0 192 16 0 192 16 0 192 16 0 192 16 0 192 16 0 56 24 0 56 24 0 56 24 0 56 24 0 56 24 0 56 24 0 56 24 0 56 24 0 56 24 0 56 24 0 56 24 0 56 24 0 56 24 0 56 24 0 56 24 0 56 24 0 56 24 0 56 24 0 56 24 0 56 24 0 56 24 0 56 24 0 56 24 0 56 24 0 56 24 0 56 24 0 56 24 0 56 24 0 56 24 0 56 24 0 56 24 0 56 24 0 64 24 0 64 24 0 64 24 0 64 24 0 64 24 0 64 24 0 64 24 0 64 24 0 64 24 0 64 24 0 64 24 0 64 24 0 64 24 0 64 24 0 64 24 0 64 24 0 64 24 0 64 24 0 64 24 0 64 24 0 64 24 0 64 24 0 64 24 0 64 24 0 64 24 0 64 24 0 64 24 0 64 24 0 64 24 0 64 24 0 64 24 0 64 24 0
184 16 0 184 16 0 184 16 0 184 16 0 184 16 0 184 16 0 184 16 0 184 16 0 184 16 0 184 16 0 184 16 0 184 16 0 184 16 0 184 16 0 184 16 0 184 16 0 184 16 0 184 16 0 184 16 0 184 16 0 184 16 0 184 16 0 184 16 0 184 16 0 184 16 0 184 16 0 184 16 0 184 16 0 184 16 0 184 16 0 184 16 0 184 16 0 192 16 0 192 16 0 192 16 0 192 16 0 192 16 0 192 16 0 192 16 0 192 16 0 192 16 0 192 16 0 192 16 0 192 16 0 192 16 0 192 16 0 192 16 0 192 16 0 192 16 0 192 16 0 192 16 0 192 16 0 192 16 0 192 16 0 192 16 0 192 16 0 192 16 0 192 16 0 192 16 0 192 16 0 192 16 0 192 16 0 192 16 0 192 16 0 56 24 0 56 24 0 56 24 0 56 24 0 56 24 0 56 24 0 56 24 0 56 24 0 56 24 0 56 24 0 56 24 0 56 24 0 56 24 0 56 24 0 56 24 0 56 24 0 56 24 0 56 24 0 56 24 0 56 24 0 56 24 0 56 24 0 56 24 0 56 24 0 56 24 0 56 24 0 56 24 0 56 24 0 56 24 0 56 24 0 56 24 0 56 24 0 64 24 0 64 24 0 64 24 0 64 24 0 64 24 0 64 24 0 64 24 0 64 24 0 64 24 0 64 24 0 64 24 0 64 24 0 64 24 0 64 24 0 64 24 0 64 24 0 64 24 0 64 24 0 64 24 0 64 24 0 64 24 0 64 24 0 64 24 0 64 24 0 64 24 0 64 24 0 64 24 0 64 24 0 64 24 0 64 24 0 64 24 0 64 24 0
184 16 0 184 16 0 184 16 0 184 16 0 184 16 0 184 16 0 184 16 0 184 16 0 184 16 0 184 16 0 184 16 0 184 16 0 184 16 0 184 16 0 184 16 0 184 16 0 184 16 0 184 16 0 184 16 0 184 16 0 184 16 0 184 16 0 184 16 0 184 16 0 184 16 0 184 16 0 184 16 0 184 16 0 184 16 0 184 16 0 184 16 0 184 16 0 192 16 0 192 16 0 192 16 0 192 16 0 192 16 0 192 16 0 192 16 0 192 16 0 192 16 0 192 16 0 192 16 0 192 16 0 192 16 0 192 16 0 192 16 0 192 16 0 192 16 0 192 16 0 192 16 0 192 16 0 192 16 0 192 16 0 192 16 0 192 16 0 192 16 0 192 16 0 192 16 0 192 16 0 192 16 0 192 16 0 192 16 0 192 16 0 56 24 0 56 24 0 56 24 0 56 24 0 56 24 0 56 24 0 56 24 0 56 24 0 56 24 0 56 24 0 56 24 0 56 24 0 56 24 0 56 24 0 56 24 0 56 24 0 56 24 0 56 24 0 56 24 0 56 24 0 56 24 0 56 24 0 56 24 0 56 24 0 56 24 0 56 24 0 56 24 0 56 24 0 56 24 0 56 24 0 56 24 0 56 24 0 64 24 0 64 24 0 64 24 0 64 24 0 64 24 0 64 24 0 64 24 0 64 24 0 64 24 0 64 24 0 64 24 0 64 24 0 64 24 0 64 24 0 64 24 0 64 24 0 64 24 0 64 24 0 64 24 0 64 24 0 64 24 0 64 24 0 64 24 0 64 24 0 64 24 0 64 24 0 64 24 0 64 24 0 64 24 0 64 24 0 64 24 0 64 24 0
184 16 0 184 16 0 184 16 0 184 16 0 184 16 0 184 16 0 184 16 0 184 16 0 184 16 0 184 16 0 184 16 0 184 16 0 184 16 0 184 16 0 184 16 0 184 16 0 184 16 0 184 16 0 184 16 0 184 16 0 184 16 0 184 16 0 184 16 0 184 16 0 184 16 0 184 16 0 184 16 0 184 16 0 184 16 0 184 16 0 184 16 0 184 16 0 192 16 0 192 16 0 192 16 0 192 16 0 192 16 0 192 16 0 192 16 0 192 16 0 192 16 0 192 16 0 192 16 0 192 16 0 192 16 0 192 16 0 192 16 0 192 16 0 192 16 0 192 16 0 192 16 0 192 16 0 192 16 0 192 16 0 192 16 0 192 16 0 192 16 0 192 16 0 192 16 0 192 16 0 192 16 0 192 16 0 192 16 0 192 16 0 56 24 0 56 24 0 56 24 0 56 24 0 56 24 0 56 24 0 56 24 0 56 24 0 56 24 0 56 24 0 56 24 0 56 24 0 56 24 0 56 24 0 56 24 0 56 24 0 56 24 0 56 24 0 56 24 0 56 24 0 56 24 0 56 24 0 56 24 0 56 24 0 56 24 0 56 24 0 56 24 0 56 24 0 56 24 0 56 24 0 56 24 0 56 24 0 64 24 0 64 24 0 64 24 0 64 24 0 64 24 0 64 24 0 64 24 0 64 24 0 64 24 0 64 24 0 64 24 0 64 24 0 64 24 0 64 24 0 64 24 0 64 24 0 64 24 0 64 24 0 64 24 0 64 24 0 64 24 0 64 24 0 64 24 0 64 24 0 64 24 0 64 24 0 64 24 0 64 24 0 64 24 0 64 24 0 64 24 0 64 24 0
184 16 0 184 16 0 184 16 0 184 16 0 184 16 0 184 16 0 184 16 0 184 16 0 184 16 0 184 16 0 184 16 0 184 16 0 184 16 0 184 16 0 184 16 0 184 16 0 184 16 0 184 16 0 184 16 0 184 16 0 184 16 0 184 16 0 184 16 0 184 16 0 184 16 0 184 16 0 184 16 0 184 16 0 184 16 0 184 16 0 184 16 0 184 16 0 192 16 0 192 16 0 192 16 0 192 16 0 192 16 0 192 16 0 192 16 0 192 16 0 192 16 0 192 16 0 192 16 0 192 16 0 192 16 0 192 16 0 192 16 0 192 16 0 192 16 0 192 16 0 192 16 0 192 16 0 192 16 0 192 16 0 192 16 0 192 16 0 192 16 0 192 16 0 192 16 0 192 16 0 192 16 0 192 16 0 192 16 0 192 16 0 56 24 0 56 24 0 56 24 0 56 24 0 56 24 0 56 24 0 56 24 0 56 24 0 56 24 0 56 24 0 56 24 0 56 24 0 56 24 0 56 24 0 56 24 0 56 24 0 56 24 0 56 24 0 56 24 0 56 24 0 56 24 0 56 24 0 56 24 0 56 24 0 56 24 0 56 24 0 56 24 0 56 24 0 56 24 0 56 24 0 56 24 0 56 24 0 64 24 0 64 24 0 64 24 0 64 24 0 64 24 0 64 24 0 64 24 0 64 24 0 64 24 0 64 24 0 64 24 0 64 24 0 64 24 0 64 24 0 64 24 0 64 24 0 64 24 0 64 24 0 64 24 0 64 24 0 64 24 0 64 24 0 64 24 0 64 24 0 64 24 0 64 24 0 64 24 0 64 24 0 64 24 0 64 24 0 64 24 0 64 24 0
184 16 0 184 16 0 184 16 0 184 16 0 184 16 0 184 16 0 184 16 0 184 16 0 184 16 0 184 16 0 184 16 0 184 16 0 184 16 0 184 16 0 184 16 0 184 16 0 184 16 0 184 16 0 184 16 0 184 16 0 184 16 0 184 16 0 184 16 0 184 16 0 184 16 0 184 16 0 184 16 0 184 16 0 184 16 0 184 16 0 184 16 0 184 16 0 192 16 0 192 16 0 192 16 0 192 16 0 192 16 0 192 16 0 192 16 0 192 16 0 192 16 0 192 16 0 192 16 0 192 16 0 192 16 0 192 16 0 192 16 0 192 16 0 192 16 0 192 16 0 192 16 0 192 16 0 192 16 0 192 16 0 192 16 0 192 16 0 192 16 0 192 16 0 192 16 0 192 16 0 192 16 0 192 16 0 192 16 0 192 16 0 56 24 0 56 24 0 56 24 0 56 24 0 56 24 0 56 24 0 56 24 0 56 24 0 56 24 0 56 24 0 56 24 0 56 24 0 56 24 0 56 24 0 56 24 0 56 24 0 56 24 0 56 24 0 56 24 0 56 24 0 56 24 0 56 24 0 56 24 0 56 24 0 56 24 0 56 24 0 56 24 0 56 24 0 56 24 0 56 24 0 56 24 0 56 24 0 64 24 0 64 24 0 64 24 0 64 24 0 64 24 0 64 24 0 64 24 0 64 24 0 64 24 0 64 24 0 64 24 0 64 24 0 64 24 0 64 24 0 64 24 0 64 24 0 64 24 0 64 24 0 64 24 0 64 24 0 64 24 0 64 24 0 64 24 0 64 24 0 64 24 0 64 24 0 64 24 0 64 24 0 64 24 0 64 24 0 64 24 0 64 24 0
184 16 0 184 16 0 184 16 0 184 16 0 184 16 0 184 16 0 184 16 0 184 16 0 184 16 0 184 16 0 184 16 0 184 16 0 184 16 0 184 16 0 184 16 0 184 16 0 184 16 0 184 16 0 184 16 0 184 16 0 184 16 0 184 16 0 184 16 0 184 16 0 184 16 0 184 16 0 184 16 0 184 16 0 184 16 0 184 16 0 184 16 0 184 16 0 192 16 0 192 16 0 192 16 0 192 16 0 192 16 0 192 16 0 192 16 0 192 16 0 192 16 0 192 16 0 192 16 0 192 16 0 192 16 0 192 16 0 192 16 0 192 16 0 192 16 0 192 16 0 192 16 0 192 16 0 192 16 0 192 16 0 192 16 0 192 16 0 192 16 0 192 16 0 192 16 0 192 16 0 192 16 0 192 16 0 192 16 0 192 16 0 56 24 0 56 24 0 56 24 0 56 24 0 56 24 0 56 24 0 56 24 0 56 24 0 56 24 0 56 24 0 56 24 0 56 24 0 56 24 0 56 24 0 56 24 0 56 24 0 56 24 0 56 24 0 56 24 0 56 24 0 56 24 0 56 24 0 56 24 0 56 24 0 56 24 0 56 24 0 56 24 0 56 24 0 56 24 0 56 24 0 56 24 0 56 24 0 64 24 0 64 24 0 64 24 0 64 24 0 64 24 0 64 24 0 64 24 0 64 24 0 64 24 0 64 24 0 64 24 0 64 24 0 64 24 0 64 24 0 64 24 0 64 24 0 64 24 0 64 24 0 64 24 0 64 24 0 64 24 0 64 24 0 64 24 0 64 24 0 64 24 0 64 24 0 64 24 0 64 24 0 64 24 0 64 24 0 64 24 0 64 24 0
184 16 0 184 16 0 184 16 0 184 16 0 184 16 0 184 16 0 184 16 0 184 16 0 184 16 0 184 16 0 184 16 0 184 16 0 184 16 0 184 16 0 184 16 0 184 16 0 184 16 0 184 16 0 184 16 0 184 16 0 184 16 0 184 16 0 184 16 0 184 16 0 184 16 0 184 16 0 184 16 0 184 16 0 184 16 0 184 16 0 184 16 0 184 16 0 192 16 0 192 16 0 192 16 0 192 16 0 192 16 0 192 16 0 192 16 0 192 16 0 192 16 0 192 16 0 192 16 0 192 16 0 192 16 0 192 16 0 192 16 0 192 16 0 192 16 0 192 16 0 192 16 0 192 16 0 192 16 0 192 16 0 192 16 0 192 16 0 192 16 0 192 16 0 192 16 0 192 16 0 192 16 0 192 16 0 192 16 0 192 16 0 56 24 0 56 24 0 56 24 0 56 24 0 56 24 0 56 24 0 56 24 0 56 24 0 56 24 0 56 24 0 56 24 0 56 24 0 56 24 0 56 24 0 56 24 0 56 24 0 56 24 0 56 24 0 56 24 0 56 24 0 56 24 0 56 24 0 56 24 0 56 24 0 56 24 0 56 24 0 56 24 0 56 24 0 56 24 0 56 24 0 56 24 0 56 24 0 64 24 0 64 24 0 64 24 0 64 24 0 64 24 0 64 24 0 64 24 0 64 24 0 64 24 0 64 24 0 64 24 0 64 24 0 64 24 0 64 24 0 64 24 0 64 24 0 64 24 0 64 24 0 64 24 0 64 24 0 64 24 0 64 24 0 64 24 0 64 24 0 64 24 0 64 24 0 64 24 0 64 24 0 64 24 0 64 24 0 64 24 0 64 24 0
184 16 0 184 16 0 184 16 0 184 16 0 184 16 0 184 16 0 184 16 0 184 16 0 184 16 0 184 16 0 184 16 0 184 16 0 184 16 0 184 16 0 184 16 0 184 16 0 184 16 0 184 16 0 184 16 0 184 16 0 184 16 0 184 16 0 184 16 0 184 16 0 184 16 0 184 16 0 184 16 0 184 16 0 184 16 0 184 16 0 184 16 0 184 16 0 192 16 0 192 16 0 192 16 0 192 16 0 192 16 0 192 16 0 192 16 0 192 16 0 192 16 0 192 16 0 192 16 0 192 16 0 192 16 0 192 16 0 192 16 0 192 16 0 192 16 0 192 16 0 192 16 0 192 16 0 192 16 0 192 16 0 192 16 0 192 16 0 192 16 0 192 16 0 192 16 0 192 16 0 192 16 0 192 16 0 192 16 0 192 16 0 56 24 0 56 24 0 56 24 0 56 24 0 56 24 0 56 24 0 56 24 0 56 24 0 56 24 0 56 24 0 56 24 0 56 24 0 56 24 0 56 24 0 56 24 0 56 24 0 56 24 0 56 24 0 56 24 0 56 24 0 56 24 0 56 24 0 56 24 0 56 24 0 56 24 0 56 24 0 56 24 0 56 24 0 56 24 0 56 24 0 56 24 0 56 24 0 64 24 0 64 24 0 64 24 0 64 24 0 64 24 0 64 24 0 64 24 0 64 24 0 64 24 0 64 24 0 64 24 0 64 24 0 64 24 0 64 24 0 64 24 0 64 24 0 64 24 0 64 24 0 64 24 0 64 24 0 64 24 0 64 24 0 64 24 0 64 24 0 64 24 0 64 24 0 64 24 0 64 24 0 64 24 0 64 24 0 64 24 0 64 24 0
184 16 0 184 16 0 184 16 0 184 16 0 184 16 0 184 16 0 184 16 0 184 16 0 184 16 0 184 16 0 184 16 0 184 16 0 184 16 0 184 16 0 184 16 0 184 16 0 184 16 0 184 16 0 184 16 0 184 16 0 184 16 0 184 16 0 184 16 0 184 16 0 184 16 0 184 16 0 184 16 0 184 16 0 184 16 0 184 16 0 184 16 0 184 16 0 192 16 0 192 16 0 192 16 0 192 16 0 192 16 0 192 16 0 192 16 0 192 16 0 192 16 0 192 16 0 192 16 0 192 16 0 192 16 0 192 16 0 192 16 0 192 16 0 192 16 0 192 16 0 192 16 0 192 16 0 192 16 0 192 16 0 192 16 0 192 16 0 192 16 0 192 16 0 192 16 0 192 16 0 192 16 0 192 16 0 192 16 0 192 16 0 56 24 0 56 24 0 56 24 0 56 24 0 56 24 0 56 24 0 56 24 0 56 24 0 56 24 0 56 24 0 56 24 0 56 24 0 56 24 0 56 24 0 56 24 0 56 24 0 56 24 0 56 24 0 56 24 0 56 24 0 56 24 0 56 24 0 56 24 0 56 24 0 56 24 0 56 24 0 56 24 0 56 24 0 56 24 0 56 24 0 56 24 0 56 24 0 64 24 0 64 24 0 64 24 0 64 24 0 64 24 0 64 24 0 64 24 0 64 24 0 64 24 0 64 24 0 64 24 0 64 24 0 64 24 0 64 24 0 64 24 0 64 24 0 64 24 0 64 24 0 64 24 0 64 24 0 64 24 0 64 24 0 64 24 0 64 24 0 64 24 0 64 24 0 64 24 0 64 24 0 64 24 0 64 24 0 64 24 0 64 24 0
184 16 0 184 16 0 184 16 0 184 16 0 184 16 0 184 16 0 184 16 0 184 16 0 184 16 0 184 16 0 184 16 0 184 16 0 184 16 0 184 16 0 184 16 0 184 16 0 184 16 0 184 16 0 184 16 0 184 16 0 184 16 0 184 16 0 184 16 0 184 16 0 184 16 0 184 16 0 184 16 0 184 16 0 184 16 0 184 16 0 184 16 0 184 16 0 192 16 0 192 16 0 192 16 0 192 16 0 192 16 0 192 16 0 192 16 0 192 16 0 192 16 0 192 16 0 192 16 0 192 16 0 192 16 0 192 16 0 192 16 0 192 16 0 192 16 0 192 16 0 192 16 0 192 16 0 192 16 0 192 16 0 192 16 0 192 16 0 192 16 0 192 16 0 192 16 0 192 16 0 192 16 0 192 16 0 192 16 0 192 16 0 56 24 0 56 24 0 56 24 0 56 24 0 56 24 0 56 24 0 56 24 0 56 24 0 56 24 0 56 24 0 56 24 0 56 24 0 56 24 0 56 24 0 56 24 0 56 24 0 56 24 0 56 24 0 56 24 0 56 24 0 56 24 0 56 24 0 56 24 0 56 24 0 56 24 0 56 24 0 56 24 0 56 24 0 56 24 0 56 24 0 56 24 0 56 24 0 64 24 0 64 24 0 64 24 0 64 24 0 64 24 0 64 24 0 64 24 0 64 24 0 64 24 0 64 24 0 64 24 0 64 24 0 64 24 0 64 24 0 64 24 0 64 24 0 64 24 0 64 24 0 64 24 0 64 24 0 64 24 0 64 24 0 64 24 0 64 24 0 64 24 0 64 24 0 64 24 0 64 24 0 64 24 0 64 24 0 64 24 0 64 24 0
184 16 0 184 16 0 184 16 0 184 16 0 184 16 0 184 16 0 184 16 0 184 16 0 184 16 0 184 16 0 184 16 0 184 16 0 184 16 0 184 16 0 184 16 0 184 16 0 184 16 0 184 16 0 184 16 0 184 16 0 184 16 0 184 16 0 184 16 0 184 16 0 184 16 0 184 16 0 184 16 0 184 16 0 184 16 0 184 16 0 184 16 0 184 16 0 192 16 0 192 16 0 192 16 0 192 16 0 192 16 0 192 16 0 192 16 0 192 16 0 192 16 0 192 16 0 192 16 0 192 16 0 192 16 0 192 16 0 192 16 0 192 16 0 192 16 0 192 16 0 192 16 0 192 16 0 192 16 0 192 16 0 192 16 0 192 16 0 192 16 0 192 16 0 192 16 0 192 16 0 192 16 0 192 16 0 192 16 0 192 16 0 56 24 0 56 24 0 56 24 0 56 24 0 56 24 0 56 24 0 56 24 0 56 24 0 56 24 0 56 24 0 56 24 0 56 24 0 56 24 0 56 24 0 56 24 0 56 24 0 56 24 0 56 24 0 56 24 0 56 24 0 56 24 0 56 24 0 56 24 0 56 24 0 56 24 0 56 24 0 56 24 0 56 24 0 56 24 0 56 24 0 56 24 0 56 24 0 64 24 0 64 24 0 64 24 0 64 24 0 64 24 0 64 24 0 64 24 0 64 24 0 64 24 0 64 24 0 64 24 0 64 24 0 64 24 0 64 24 0 64 24 0 64 24 0 64 24 0 64 24 0 64 24 0 64 24 0 64 24 0 64 24 0 64 24 0 64 24 0 64 24 0 64 24 0 64 24 0 64 24 0 64 24 0 64 24 0 64 24 0 64 24 0
184 16 0 184 16 0 184 16 0 184 16 0 184 16 0 184 16 0 184 16 0 184 16 0 184 16 0 184 16 0 184 16 0 184 16 0 184 16 0 184 16 0 184 16 0 184 16 0 184 16 0 184 16 0 184 16 0 184 16 0 184 16 0 184 16 0 184 16 0 184 16 0 184 16 0 184 16 0 184 16 0 184 16 0 184 16 0 184 16 0 184 16 0 184 16 0 192 16 0 192 16 0 192 16 0 192 16 0 192 16 0 192 16 0 192 16 0 192 16 0 192 16 0 192 16 0 192 16 0 192 16 0 192 16 0 192 16 0 192 16 0 192 16 0 192 16 0 192 16 0 192 16 0 192 16 0 192 16 0 192 16 0 192 16 0 192 16 0 192 16 0 192 16 0 192 16 0 192 16 0 192 16 0 192 16 0 192 16 0 192 16 0 56 24 0 56 24 0 56 24 0 56 24 0 56 24 0 56 24 0 56 24 0 56 24 0 56 24 0 56 24 0 56 24 0 56 24 0 56 24 0 56 24 0 56 24 0 56 24 0 56 24 0 56 24 0 56 24 0 56 24 0 56 24 0 56 24 0 56 24 0 56 24 0 56 24 0 56 24 0 56 24 0 56 24 0 56 24 0 56 24 0 56 24 0 56 24 0 64 24 0 64 24 0 64 24 0 64 24 0 64 24 0 64 24 0 64 24 0 64 24 0 64 24 0 64 24 0 64 24 0 64 24 0 64 24 0 64 24 0 64 24 0 64 24 0 64 24 0 64 24 0 64 24 0 64 24 0 64 24 0 64 24 0 64 24 0 64 24 0 64 24 0 64 24 0 64 24 0 64 24 0 64 24 0 64 24 0 64 24 0 64 24 0
184 16 0 184 16 0 184 16 0 184 16 0 184 16 0 184 16 0 184 16 0 184 16 0 184 16 0 184 16 0 184 16 0 184 16 0 184 16 0 184 16 0 184 16 0 184 16 0 184 16 0 184 16 0 184 16 0 184 16 0 184 16 0 184 16 0 184 16 0 184 16 0 184 16 0 184 16 0 184 16 0 184 16 0 184 16 0 184 16 0 184 16 0 184 16 0 192 16 0 192 16 0 192 16 0 192 16 0 192 16 0 192 16 0 192 16 0 192 16 0 192 16 0 192 16 0 192 16 0 192 16 0 192 16 0 192 16 0 192 16 0 192 16 0 192 16 0 192 16 0 192 16 0 192 16 0 192 16 0 192 16 0 192 16 0 192 16 0 192 16 0 192 16 0 192 16 0 192 16 0 192 16 0 192 16 0 192 16 0 192 16 0 56 24 0 56 24 0 56 24 0 56 24 0 56 24 0 56 24 0 56 24 0 56 24 0 56 24 0 56 24 0 56 24 0 56 24 0 56 24 0 56 24 0 56 24 0 56 24 0 56 24 0 56 24 0 56 24 0 56 24 0 56 24 0 56 24 0 56 24 0 56 24 0 56 24 0 56 24 0 56 24 0 56 24 0 56 24 0 56 24 0 56 24 0 56 24 0 64 24 0 64 24 0 64 24 0 64 24 0 64 24 0 64 24 0 64 24 0 64 24 0 64 24 0 64 24 0 64 24 0 64 24 0 64 24 0 64 24 0 64 24 0 64 24 0 64 24 0 64 24 0 64 24 0 64 24 0 64 24 0 64 24 0 64 24 0 64 24 0 64 24 0 64 24 0 64 24 0 64 24 0 64 24 0 64 24 0 64 24 0 64 24 0
184 16 0 184 16 0 184 16 0 184 16 0 184 16 0 184 16 0 184 16 0 184 16 0 184 16 0 184 16 0 184 16 0 184 16 0 184 16 0 184 16 0 184 16 0 184 16 0 184 16 0 184 16 0 184 16 0 184 16 0 184 16 0 184 16 0 184 16 0 184 16 0 184 16 0 184 16 0 184 16 0 184 16 0 184 16 0 184 16 0 184 16 0 184 16 0 192 16 0 192 16 0 192 16 0 192 16 0 192 16 0 192 16 0 192 16 0 192 16 0 192 16 0 192 16 0 192 16 0 192 16 0 192 16 0 192 16 0 192 16 0 192 16 0 192 16 0 192 16 0 192 16 0 192 16 0 192 16 0 192 16 0 192 16 0 192 16 0 192 16 0 192 16 0 192 16 0 192 16 0 192 16 0 192 16 0 192 16 0 192 16 0 56 24 0 56 24 0 56 24 0 56 24 0 56 24 0 56 24 0 56 24 0 56 24 0 56 24 0 56 24 0 56 24 0 56 24 0 56 24 0 56 24 0 56 24 0 56 24 0 56 24 0 56 24 0 56 24 0 56 24 0 56 24 0 56 24 0 56 24 0 56 24 0 56 24 0 56 24 0 56 24 0 56 24 0 56 24 0 56 24 0 56 24 0 56 24 0 64 24 0 64 24 0 64 24 0 64 24 0 64 24 0 64 24 0 64 24 0 64 24 0 64 24 0 64 24 0 64 24 0 64 24 0 64 24 0 64 24 0 64 24 0 64 24 0 64 24 0 64 24 0 64 24 0 64 24 0 64 24 0 64 24 0 64 24 0 64 24 0 64 24 0 64 24 0 64 24 0 64 24 0 64 24 0 64 24 0 64 24 0 64 24 0
184 16 0 184 16 0 184 16 0 184 16 0 184 16 0 184 16 0 184 16 0 184 16 0 184 16 0 184 16 0 184 16 0 184 16 0 184 16 0 184 16 0 184 16 0 184 16 0 184 16 0 184 16 0 184 16 0 184 16 0 184 16 0 184 16 0 184 16 0 184 16 0 184 16 0 184 16 0 184 16 0 184 16 0 184 16 0 184 16 0 184 16 0 184 16 0 192 16 0 192 16 0 192 16 0 192 16 0 192 16 0 192 16 0 192 16 0 192 16 0 192 16 0 192 16 0 192 16 0 192 16 0 192 16 0 192 16 0 192 16 0 192 16 0 192 16 0 192 16 0 192 16 0 192 16 0 192 16 0 192 16 0 192 16 0 192 16 0 192 16 0 192 16 0 192 16 0 192 16 0 192 16 0 192 16 0 192 16 0 192 16 0 56 24 0 56 24 0 56 24 0 56 24 0 56 24 0 56 24 0 56 24 0 56 24 0 56 24 0 56 24 0 56 24 0 56 24 0 56 24 0 56 24 0 56 24 0 56 24 0 56 24 0 56 24 0 56 24 0 56 24 0 56 24 0 56 24 0 56 24 0 56 24 0 56 24 0 56 24 0 56 24 0 56 24 0 56 24 0 56 24 0 56 24 0 56 24 0 64 24 0 64 24 0 64 24 0 64 24 0 64 24 0 64 24 0 64 24 0 64 24 0 64 24 0 64 24 0 64 24 0 64 24 0 64 24 0 64 24 0 64 24 0 64 24 0 64 24 0 64 24 0 64 24 0 64 24 0 64 24 0 64 24 0 64 24 0 64 24 0 64 24 0 64 24 0 64 24 0 64 24 0 64 24 0 64 24 0 64 24 0 64 24 0