P3
128 128
255
72 120 0 72 120 0 72 120 0 72 120 0 72 120 0 72 120 0 72 120 0 72 120 0 72 120 0 72 120 0 72 120 0 72 120 0 72 120 0 72 120 0 72 120 0 72 120 0 72 120 0 72 120 0 72 120 0 72 120 0 72 120 0 72 120 0 72 120 0 72 120 0 72 120 0 72 120 0 72 120 0 72 120 0 72 120 0 72 120 0 72 120 0 72 120 0 72 120 0 72 120 0 72 120 0 72 120 0 72 120 0 72 120 0 72 120 0 72 120 0 72 120 0 72 120 0 72 120 0 72 120 0 72 120 0 72 120 0 72 120 0 72 120 0 72 120 0 72 120 0 72 120 0 72 120 0 72 120 0 72 120 0 72 120 0 72 120 0 72 120 0 72 120 0 72 120 0 72 120 0 72 120 0 72 120 0 72 120 0 72 120 0 72 48 48 72 48 48 72 48 48 72 48 48 72 48 48 72 48 48 72 48 48 72 48 48 72 48 48 72 48 48 72 48 48 72 48 48 72 48 48 72 48 48 72 48 48 72 48 48 72 48 48 72 48 48 72 48 48 72 48 48 72 48 48 72 48 48 72 48 48 72 48 48 72 48 48 72 48 48 72 48 48 72 48 48 72 48 48 72 48 48 72 48 48 72 48 48 72 48 48 72 48 48 72 48 48 72 48 48 72 48 48 72 48 48 72 48 48 72 48 48 72 48 48 72 48 48 72 48 48 72 48 48 72 48 48 72 48 48 72 48 48 72 48 48 72 48 48 72 48 48 72 48 48 72 48 48 72 48 48 72 48 48 72 48 48 72 48 48 72 48 48 72 48 48 72 48 48 72 48 48 72 48 48 72 48 48 72 48 48 72 48 48
72 120 0 72 120 0 72 120 0 72 120 0 72 120 0 72 120 0 72 120 0 72 120 0 72 120 0 72 120 0 72 120 0 72 120 0 72 120 0 72 120 0 72 120 0 72 120 0 72 120 0 72 120 0 72 120 0 72 120 0 72 120 0 72 120 0 72 120 0 72 120 0 72 120 0 72 120 0 72 120 0 72 120 0 72 120 0 72 120 0 72 120 0 72 120 0 72 120 0 72 120 0 72 120 0 72 120 0 72 120 0 72 120 0 72 120 0 72 120 0 72 120 0 72 120 0 72 120 0 72 120 0 72 120 0 72 120 0 72 120 0 72 120 0 72 120 0 72 120 0 72 120 0 72 120 0 72 120 0 72 120 0 72 120 0 72 120 0 72 120 0 72 120 0 72 120 0 72 120 0 72 120 0 72 120 0 72 120 0 72 120 0 72 48 48 72 48 48 72 48 48 72 48 48 72 48 48 72 48 48 72 48 48 72 48 48 72 48 48 72 48 48 72 48 48 72 48 48 72 48 48 72 48 48 72 48 48 72 48 48 72 48 48 72 48 48 72 48 48 72 48 48 72 48 48 72 48 48 72 48 48 72 48 48 72 48 48 72 48 48 72 48 48 72 48 48 72 48 48 72 48 48 72 48 48 72 48 48 72 48 48 72 48 48 72 48 48 72 48 48 72 48 48 72 48 48 72 48 48 72 48 48 72 48 48 72 48 48 72 48 48 72 48 48 72 48 48 72 48 48 72 48 48 72 48 48 72 48 48 72 48 48 72 48 48 72 48 48 72 48 48 72 48 48 72 48 48 72 48 48 72 48 48 72 48 48 72 48 48 72 48 48 72 48 48 72 48 48 72 48 48 72 48 48
72 120 0 72 120 0 72 120 0 72 120 0 72 120 0 72 120 0 72 120 0 72 120 0 72 120 0 72 120 0 72 120 0 72 120 0 72 120 0 72 120 0 72 120 0 72 120 0 72 120 0 72 120 0 72 120 0 72 120 0 72 120 0 72 120 0 72 120 0 72 120 0 72 120 0 72 120 0 72 120 0 72 120 0 72 120 0 72 120 0 72 120 0 72 120 0 72 120 0 72 120 0 72 120 0 72 120 0 72 120 0 72 120 0 72 120 0 72 120 0 72 120 0 72 120 0 72 120 0 72 120 0 72 120 0 72 120 0 72 120 0 72 120 0 72 120 0 72 120 0 72 120 0 72 120 0 72 120 0 72 120 0 72 120 0 72 120 0 72 120 0 72 120 0 72 120 0 72 120 0 72 120 0 72 120 0 72 120 0 72 120 0 72 48 48 72 48 48 72 48 48 72 48 48 72 48 48 72 48 48 72 48 48 72 48 48 72 48 48 72 48 48 72 48 48 72 48 48 72 48 48 72 48 48 72 48 48 72 48 48 72 48 48 72 48 48 72 48 48 72 48 48 72 48 48 72 48 48 72 48 48 72 48 48 72 48 48 72 48 48 72 48 48 72 48 48 72 48 48 72 48 48 72 48 48 72 48 48 72 48 48 72 48 48 72 48 48 72 48 48 72 48 48 72 48 48 72 48 48 72 48 48 72 48 48 72 48 48 72 48 48 72 48 48 72 48 48 72 48 48 72 48 48 72 48 48 72 48 48 72 48 48 72 48 48 72 48 48 72 48 48 72 48 48 72 48 48 72 48 48 72 48 48 72 48 48 72 48 48 72 48 48 72 48 48 72 48 48 72 48 48 72 48 48
72 120 0 72 120 0 72 120 0 72 120 0 72 120 0 72 120 0 72 120 0 72 120 0 72 120 0 72 120 0 72 120 0 72 120 0 72 120 0 72 120 0 72 120 0 72 120 0 72 120 0 72 120 0 72 120 0 72 120 0 72 120 0 72 120 0 72 120 0 72 120 0 72 120 0 72 120 0 72 120 0 72 120 0 72 120 0 72 120 0 72 120 0 72 120 0 72 120 0 72 120 0 72 120 0 72 120 0 72 120 0 72 120 0 72 120 0 72 120 0 72 120 0 72 120 0 72 120 0 72 120 0 72 120 0 72 120 0 72 120 0 72 120 0 72 120 0 72 120 0 72 120 0 72 120 0 72 120 0 72 120 0 72 120 0 72 120 0 72 120 0 72 120 0 72 120 0 72 120 0 72 120 0 72 120 0 72 120 0 72 120 0 72 48 48 72 48 48 72 48 48 72 48 48 72 48 48 72 48 48 72 48 48 72 48 48 72 48 48 72 48 48 72 48 48 72 48 48 72 48 48 72 48 48 72 48 48 72 48 48 72 48 48 72 48 48 72 48 48 72 48 48 72 48 48 72 48 48 72 48 48 72 48 48 72 48 48 72 48 48 72 48 48 72 48 48 72 48 48 72 48 48 72 48 48 72 48 48 72 48 48 72 48 48 72 48 48 72 48 48 72 48 48 72 48 48 72 48 48 72 48 48 72 48 48 72 48 48 72 48 48 72 48 48 72 48 48 72 48 48 72 48 48 72 48 48 72 48 48 72 48 48 72 48 48 72 48 48 72 48 48 72 48 48 72 48 48 72 48 48 72 48 48 72 48 48 72 48 48 72 48 48 72 48 48 72 48 48 72 48 48 72 48 48
72 120 0 72 120 0 72 120 0 72 120 0 72 120 0 72 120 0 72 120 0 72 120 0 72 120 0 72 120 0 72 120 0 72 120 0 72 120 0 72 120 0 72 120 0 72 120 0 72 120 0 72 120 0 72 120 0 72 120 0 72 120 0 72 120 0 72 120 0 72 120 0 72 120 0 72 120 0 72 120 0 72 120 0 72 120 0 72 120 0 72 120 0 72 120 0 72 120 0 72 120 0 72 120 0 72 120 0 72 120 0 72 120 0 72 120 0 72 120 0 72 120 0 72 120 0 72 120 0 72 120 0 72 120 0 72 120 0 72 120 0 72 120 0 72 120 0 72 120 0 72 120 0 72 120 0 72 120 0 72 120 0 72 120 0 72 120 0 72 120 0 72 120 0 72 120 0 72 120 0 72 120 0 72 120 0 72 120 0 72 120 0 72 48 48 72 48 48 72 48 48 72 48 48 72 48 48 72 48 48 72 48 48 72 48 48 72 48 48 72 48 48 72 48 48 72 48 48 72 48 48 72 48 48 72 48 48 72 48 48 72 48 48 72 48 48 72 48 48 72 48 48 72 48 48 72 48 48 72 48 48 72 48 48 72 48 48 72 48 48 72 48 48 72 48 48 72 48 48 72 48 48 72 48 48 72 48 48 72 48 48 72 48 48 72 48 48 72 48 48 72 48 48 72 48 48 72 48 48 72 48 48 72 48 48 72 48 48 72 48 48 72 48 48 72 48 48 72 48 48 72 48 48 72 48 48 72 48 48 72 48 48 72 48 48 72 48 48 72 48 48 72 48 48 72 48 48 72 48 48 72 48 48 72 48 48 72 48 48 72 48 48 72 48 48 72 48 48 72 48 48 72 48 48
72 120 0 72 120 0 72 120 0 72 120 0 72 120 0 72 120 0 72 120 0 72 120 0 72 120 0 72 120 0 72 120 0 72 120 0 72 120 0 72 120 0 72 120 0 72 120 0 72 120 0 72 120 0 72 120 0 72 120 0 72 120 0 72 120 0 72 120 0 72 120 0 72 120 0 72 120 0 72 120 0 72 120 0 72 120 0 72 120 0 72 120 0 72 120 0 72 120 0 72 120 0 72 120 0 72 120 0 72 120 0 72 120 0 72 120 0 72 120 0 72 120 0 72 120 0 72 120 0 72 120 0 72 120 0 72 120 0 72 120 0 72 120 0 72 120 0 72 120 0 72 120 0 72 120 0 72 120 0 72 120 0 72 120 0 72 120 0 72 120 0 72 120 0 72 120 0 72 120 0 72 120 0 72 120 0 72 120 0 72 120 0 72 48 48 72 48 48 72 48 48 72 48 48 72 48 48 72 48 48 72 48 48 72 48 48 72 48 48 72 48 48 72 48 48 72 48 48 72 48 48 72 48 48 72 48 48 72 48 48 72 48 48 72 48 48 72 48 48 72 48 48 72 48 48 72 48 48 72 48 48 72 48 48 72 48 48 72 48 48 72 48 48 72 48 48 72 48 48 72 48 48 72 48 48 72 48 48 72 48 48 72 48 48 72 48 48 72 48 48 72 48 48 72 48 48 72 48 48 72 48 48 72 48 48 72 48 48 72 48 48 72 48 48 72 48 48 72 48 48 72 48 48 72 48 48 72 48 48 72 48 48 72 48 48 72 48 48 72 48 48 72 48 48 72 48 48 72 48 48 72 48 48 72 48 48 72 48 48 72 48 48 72 48 48 72 48 48 72 48 48 72 48 48
72 120 0 72 120 0 72 120 0 72 120 0 72 120 0 72 120 0 72 120 0 72 120 0 72 120 0 72 120 0 72 120 0 72 120 0 72 120 0 72 120 0 72 120 0 72 120 0 72 120 0 72 120 0 72 120 0 72 120 0 72 120 0 72 120 0 72 120 0 72 120 0 72 120 0 72 120 0 72 120 0 72 120 0 72 120 0 72 120 0 72 120 0 72 120 0 72 120 0 72 120 0 72 120 0 72 120 0 72 120 0 72 120 0 72 120 0 72 120 0 72 120 0 72 120 0 72 120 0 72 120 0 72 120 0 72 120 0 72 120 0 72 120 0 72 120 0 72 120 0 72 120 0 72 120 0 72 120 0 72 120 0 72 120 0 72 120 0 72 120 0 72 120 0 72 120 0 72 120 0 72 120 0 72 120 0 72 120 0 72 120 0 72 48 48 72 48 48 72 48 48 72 48 48 72 48 48 72 48 48 72 48 48 72 48 48 72 48 48 72 48 48 72 48 48 72 48 48 72 48 48 72 48 48 72 48 48 72 48 48 72 48 48 72 48 48 72 48 48 72 48 48 72 48 48 72 48 48 72 48 48 72 48 48 72 48 48 72 48 48 72 48 48 72 48 48 72 48 48 72 48 48 72 48 48 72 48 48 72 48 48 72 48 48 72 48 48 72 48 48 72 48 48 72 48 48 72 48 48 72 48 48 72 48 48 72 48 48 72 48 48 72 48 48 72 48 48 72 48 48 72 48 48 72 48 48 72 48 48 72 48 48 72 48 48 72 48 48 72 48 48 72 48 48 72 48 48 72 48 48 72 48 48 72 48 48 72 48 48 72 48 48 72 48 48 72 48 48 72 48 48 72 48 48
72 120 0 72 120 0 72 120 0 72 120 0 72 120 0 72 120 0 72 120 0 72 120 0 72 120 0 72 120 0 72 120 0 72 120 0 72 120 0 72 120 0 72 120 0 72 120 0 72 120 0 72 120 0 72 120 0 72 120 0 72 120 0 72 120 0 72 120 0 72 120 0 72 120 0 72 120 0 72 120 0 72 120 0 72 120 0 72 120 0 72 120 0 72 120 0 72 120 0 72 120 0 72 120 0 72 120 0 72 120 0 72 120 0 72 120 0 72 120 0 72 120 0 72 120 0 72 120 0 72 120 0 72 120 0 72 120 0 72 120 0 72 120 0 72 120 0 72 120 0 72 120 0 72 120 0 72 120 0 72 120 0 72 120 0 72 120 0 72 120 0 72 120 0 72 120 0 72 120 0 72 120 0 72 120 0 72 120 0 72 120 0 72 48 48 72 48 48 72 48 48 72 48 48 72 48 48 72 48 48 72 48 48 72 48 48 72 48 48 72 48 48 72 48 48 72 48 48 72 48 48 72 48 48 72 48 48 72 48 48 72 48 48 72 48 48 72 48 48 72 48 48 72 48 48 72 48 48 72 48 48 72 48 48 72 48 48 72 48 48 72 48 48 72 48 48 72 48 48 72 48 48 72 48 48 72 48 48 72 48 48 72 48 48 72 48 48 72 48 48 72 48 48 72 48 48 72 48 48 72 48 48 72 48 48 72 48 48 72 48 48 72 48 48 72 48 48 72 48 48 72 48 48 72 48 48 72 48 48 72 48 48 72 48 48 72 48 48 72 48 48 72 48 48 72 48 48 72 48 48 72 48 48 72 48 48 72 48 48 72 48 48 72 48 48 72 48 48 72 48 48 72 48 48
72 120 0 72 120 0 72 120 0 72 120 0 72 120 0 72 120 0 72 120 0 72 120 0 72 120 0 72 120 0 72 120 0 72 120 0 72 120 0 72 120 0 72 120 0 72 120 0 72 120 0 72 120 0 72 120 0 72 120 0 72 120 0 72 120 0 72 120 0 72 120 0 72 120 0 72 120 0 72 120 0 72 120 0 72 120 0 72 120 0 72 120 0 72 120 0 72 120 0 72 120 0 72 120 0 72 120 0 72 120 0 72 120 0 72 120 0 72 120 0 72 120 0 72 120 0 72 120 0 72 120 0 72 120 0 72 120 0 72 120 0 72 120 0 72 120 0 72 120 0 72 120 0 72 120 0 72 120 0 72 120 0 72 120 0 72 120 0 72 120 0 72 120 0 72 120 0 72 120 0 72 120 0 72 120 0 72 120 0 72 120 0 72 48 48 72 48 48 72 48 48 72 48 48 72 48 48 72 48 48 72 48 48 72 48 48 72 48 48 72 48 48 72 48 48 72 48 48 72 48 48 72 48 48 72 48 48 72 48 48 72 48 48 72 48 48 72 48 48 72 48 48 72 48 48 72 48 48 72 48 48 72 48 48 72 48 48 72 48 48 72 48 48 72 48 48 72 48 48 72 48 48 72 48 48 72 48 48 72 48 48 72 48 48 72 48 48 72 48 48 72 48 48 72 48 48 72 48 48 72 48 48 72 48 48 72 48 48 72 48 48 72 48 48 72 48 48 72 48 48 72 48 48 72 48 48 72 48 48 72 48 48 72 48 48 72 48 48 72 48 48 72 48 48 72 48 48 72 48 48 72 48 48 72 48 48 72 48 48 72 48 48 72 48 48 72 48 48 72 48 48 72 48 48
72 120 0 72 120 0 72 120 0 72 120 0 72 120 0 72 120 0 72 120 0 72 120 0 72 120 0 72 120 0 72 120 0 72 120 0 72 120 0 72 120 0 72 120 0 72 120 0 72 120 0 72 120 0 72 120 0 72 120 0 72 120 0 72 120 0 72 120 0 72 120 0 72 120 0 72 120 0 72 120 0 72 120 0 72 120 0 72 120 0 72 120 0 72 120 0 72 120 0 72 120 0 72 120 0 72 120 0 72 120 0 72 120 0 72 120 0 72 120 0 72 120 0 72 120 0 72 120 0 72 120 0 72 120 0 72 120 0 72 120 0 72 120 0 72 120 0 72 120 0 72 120 0 72 120 0 72 120 0 72 120 0 72 120 0 72 120 0 72 120 0 72 120 0 72 120 0 72 120 0 72 120 0 72 120 0 72 120 0 72 120 0 72 48 48 72 48 48 72 48 48 72 48 48 72 48 48 72 48 48 72 48 48 72 48 48 72 48 48 72 48 48 72 48 48 72 48 48 72 48 48 72 48 48 72 48 48 72 48 48 72 48 48 72 48 48 72 48 48 72 48 48 72 48 48 72 48 48 72 48 48 72 48 48 72 48 48 72 48 48 72 48 48 72 48 48 72 48 48 72 48 48 72 48 48 72 48 48 72 48 48 72 48 48 72 48 48 72 48 48 72 48 48 72 48 48 72 48 48 72 48 48 72 48 48 72 48 48 72 48 48 72 48 48 72 48 48 72 48 48 72 48 48 72 48 48 72 48 48 72 48 48 72 48 48 72 48 48 72 48 48 72 48 48 72 48 48 72 48 48 72 48 48 72 48 48 72 48 48 72 48 48 72 48 48 72 48 48 72 48 48 72 48 48
72 120 0 72 120 0 72 120 0 72 120 0 72 120 0 72 120 0 72 120 0 72 120 0 72 120 0 72 120 0 72 120 0 72 120 0 72 120 0 72 120 0 72 120 0 72 120 0 72 120 0 72 120 0 72 120 0 72 120 0 72 120 0 72 120 0 72 120 0 72 120 0 72 120 0 72 120 0 72 120 0 72 120 0 72 120 0 72 120 0 72 120 0 72 120 0 72 120 0 72 120 0 72 120 0 72 120 0 72 120 0 72 120 0 72 120 0 72 120 0 72 120 0 72 120 0 72 120 0 72 120 0 72 120 0 72 120 0 72 120 0 72 120 0 72 120 0 72 120 0 72 120 0 72 120 0 72 120 0 72 120 0 72 120 0 72 120 0 72 120 0 72 120 0 72 120 0 72 120 0 72 120 0 72 120 0 72 120 0 72 120 0 72 48 48 72 48 48 72 48 48 72 48 48 72 48 48 72 48 48 72 48 48 72 48 48 72 48 48 72 48 48 72 48 48 72 48 48 72 48 48 72 48 48 72 48 48 72 48 48 72 48 48 72 48 48 72 48 48 72 48 48 72 48 48 72 48 48 72 48 48 72 48 48 72 48 48 72 48 48 72 48 48 72 48 48 72 48 48 72 48 48 72 48 48 72 48 48 72 48 48 72 48 48 72 48 48 72 48 48 72 48 48 72 48 48 72 48 48 72 48 48 72 48 48 72 48 48 72 48 48 72 48 48 72 48 48 72 48 48 72 48 48 72 48 48 72 48 48 72 48 48 72 48 48 72 48 48 72 48 48 72 48 48 72 48 48 72 48 48 72 48 48 72 48 48 72 48 48 72 48 48 72 48 48 72 48 48 72 48 48 72 48 48
72 120 0 72 120 0 72 120 0 72 120 0 72 120 0 72 120 0 72 120 0 72 120 0 72 120 0 72 120 0 72 120 0 72 120 0 72 120 0 72 120 0 72 120 0 72 120 0 72 120 0 72 120 0 72 120 0 72 120 0 72 120 0 72 120 0 72 120 0 72 120 0 72 120 0 72 120 0 72 120 0 72 120 0 72 120 0 72 120 0 72 120 0 72 120 0 72 120 0 72 120 0 72 120 0 72 120 0 72 120 0 72 120 0 72 120 0 72 120 0 72 120 0 72 120 0 72 120 0 72 120 0 72 120 0 72 120 0 72 120 0 72 120 0 72 120 0 72 120 0 72 120 0 72 120 0 72 120 0 72 120 0 72 120 0 72 120 0 72 120 0 72 120 0 72 120 0 72 120 0 72 120 0 72 120 0 72 120 0 72 120 0 72 48 48 72 48 48 72 48 48 72 48 48 72 48 48 72 48 48 72 48 48 72 48 48 72 48 48 72 48 48 72 48 48 72 48 48 72 48 48 72 48 48 72 48 48 72 48 48 72 48 48 72 48 48 72 48 48 72 48 48 72 48 48 72 48 48 72 48 48 72 48 48 72 48 48 72 48 48 72 48 48 72 48 48 72 48 48 72 48 48 72 48 48 72 48 48 72 48 48 72 48 48 72 48 48 72 48 48 72 48 48 72 48 48 72 48 48 72 48 48 72 48 48 72 48 48 72 48 48 72 48 48 72 48 48 72 48 48 72 48 48 72 48 48 72 48 48 72 48 48 72 48 48 72 48 48 72 48 48 72 48 48 72 48 48 72 48 48 72 48 48 72 48 48 72 48 48 72 48 48 72 48 48 72 48 48 72 48 48 72 48 48
72 120 0 72 120 0 72 120 0 72 120 0 72 120 0 72 120 0 72 120 0 72 120 0 72 120 0 72 120 0 72 120 0 72 120 0 72 120 0 72 120 0 72 120 0 72 120 0 72 120 0 72 120 0 72 120 0 72 120 0 72 120 0 72 120 0 72 120 0 72 120 0 72 120 0 72 120 0 72 120 0 72 120 0 72 120 0 72 120 0 72 120 0 72 120 0 72 120 0 72 120 0 72 120 0 72 120 0 72 120 0 72 120 0 72 120 0 72 120 0 72 120 0 72 120 0 72 120 0 72 120 0 72 120 0 72 120 0 72 120 0 72 120 0 72 120 0 72 120 0 72 120 0 72 120 0 72 120 0 72 120 0 72 120 0 72 120 0 72 120 0 72 120 0 72 120 0 72 120 0 72 120 0 72 120 0 72 120 0 72 120 0 72 48 48 72 48 48 72 48 48 72 48 48 72 48 48 72 48 48 72 48 48 72 48 48 72 48 48 72 48 48 72 48 48 72 48 48 72 48 48 72 48 48 72 48 48 72 48 48 72 48 48 72 48 48 72 48 48 72 48 48 72 48 48 72 48 48 72 48 48 72 48 48 72 48 48 72 48 48 72 48 48 72 48 48 72 48 48 72 48 48 72 48 48 72 48 48 72 48 48 72 48 48 72 48 48 72 48 48 72 48 48 72 48 48 72 48 48 72 48 48 72 48 48 72 48 48 72 48 48 72 48 48 72 48 48 72 48 48 72 48 48 72 48 48 72 48 48 72 48 48 72 48 48 72 48 48 72 48 48 72 48 48 72 48 48 72 48 48 72 48 48 72 48 48 72 48 48 72 48 48 72 48 48 72 48 48 72 48 48 72 48 48
72 120 0 72 120 0 72 120 0 72 120 0 72 120 0 72 120 0 72 120 0 72 120 0 72 120 0 72 120 0 72 120 0 72 120 0 72 120 0 72 120 0 72 120 0 72 120 0 72 120 0 72 120 0 72 120 0 72 120 0 72 120 0 72 120 0 72 120 0 72 120 0 72 120 0 72 120 0 72 120 0 72 120 0 72 120 0 72 120 0 72 120 0 72 120 0 72 120 0 72 120 0 72 120 0 72 120 0 72 120 0 72 120 0 72 120 0 72 120 0 72 120 0 72 120 0 72 120 0 72 120 0 72 120 0 72 120 0 72 120 0 72 120 0 72 120 0 72 120 0 72 120 0 72 120 0 72 120 0 72 120 0 72 120 0 72 120 0 72 120 0 72 120 0 72 120 0 72 120 0 72 120 0 72 120 0 72 120 0 72 120 0 72 48 48 72 48 48 72 48 48 72 48 48 72 48 48 72 48 48 72 48 48 72 48 48 72 48 48 72 48 48 72 48 48 72 48 48 72 48 48 72 48 48 72 48 48 72 48 48 72 48 48 72 48 48 72 48 48 72 48 48 72 48 48 72 48 48 72 48 48 72 48 48 72 48 48 72 48 48 72 48 48 72 48 48 72 48 48 72 48 48 72 48 48 72 48 48 72 48 48 72 48 48 72 48 48 72 48 48 72 48 48 72 48 48 72 48 48 72 48 48 72 48 48 72 48 48 72 48 48 72 48 48 72 48 48 72 48 48 72 48 48 72 48 48 72 48 48 72 48 48 72 48 48 72 48 48 72 48 48 72 48 48 72 48 48 72 48 48 72 48 48 72 48 48 72 48 48 72 48 48 72 48 48 72 48 48 72 48 48 72 48 48
72 120 0 72 120 0 72 120 0 72 120 0 72 120 0 72 120 0 72 120 0 72 120 0 72 120 0 72 120 0 72 120 0 72 120 0 72 120 0 72 120 0 72 120 0 72 120 0 72 120 0 72 120 0 72 120 0 72 120 0 72 120 0 72 120 0 72 120 0 72 120 0 72 120 0 72 120 0 72 120 0 72 120 0 72 120 0 72 120 0 72 120 0 72 120 0 72 120 0 72 120 0 72 120 0 72 120 0 72 120 0 72 120 0 72 120 0 72 120 0 72 120 0 72 120 0 72 120 0 72 120 0 72 120 0 72 120 0 72 120 0 72 120 0 72 120 0 72 120 0 72 120 0 72 120 0 72 120 0 72 120 0 72 120 0 72 120 0 72 120 0 72 120 0 72 120 0 72 120 0 72 120 0 72 120 0 72 120 0 72 120 0 72 48 48 72 48 48 72 48 48 72 48 48 72 48 48 72 48 48 72 48 48 72 48 48 72 48 48 72 48 48 72 48 48 72 48 48 72 48 48 72 48 48 72 48 48 72 48 48 72 48 48 72 48 48 72 48 48 72 48 48 72 48 48 72 48 48 72 48 48 72 48 48 72 48 48 72 48 48 72 48 48 72 48 48 72 48 48 72 48 48 72 48 48 72 48 48 72 48 48 72 48 48 72 48 48 72 48 48 72 48 48 72 48 48 72 48 48 72 48 48 72 48 48 72 48 48 72 48 48 72 48 48 72 48 48 72 48 48 72 48 48 72 48 48 72 48 48 72 48 48 72 48 48 72 48 48 72 48 48 72 48 48 72 48 48 72 48 48 72 48 48 72 48 48 72 48 48 72 48 48 72 48 48 72 48 48 72 48 48 72 48 48
72 120 0 72 120 0 72 120 0 72 120 0 72 120 0 72 120 0 72 120 0 72 120 0 72 120 0 72 120 0 72 120 0 72 120 0 72 120 0 72 120 0 72 120 0 72 120 0 72 120 0 72 120 0 72 120 0 72 120 0 72 120 0 72 120 0 72 120 0 72 120 0 72 120 0 72 120 0 72 120 0 72 120 0 72 120 0 72 120 0 72 120 0 72 120 0 72 120 0 72 120 0 72 120 0 72 120 0 72 120 0 72 120 0 72 120 0 72 120 0 72 120 0 72 120 0 72 120 0 72 120 0 72 120 0 72 120 0 72 120 0 72 120 0 72 120 0 72 120 0 72 120 0 72 120 0 72 120 0 72 120 0 72 120 0 72 120 0 72 120 0 72 120 0 72 120 0 72 120 0 72 120 0 72 120 0 72 120 0 72 120 0 72 48 48 72 48 48 72 48 48 72 48 48 72 48 48 72 48 48 72 48 48 72 48 48 72 48 48 72 48 48 72 48 48 72 48 48 72 48 48 72 48 48 72 48 48 72 48 48 72 48 48 72 48 48 72 48 48 72 48 48 72 48 48 72 48 48 72 48 48 72 48 48 72 48 48 72 48 48 72 48 48 72 48 48 72 48 48 72 48 48 72 48 48 72 48 48 72 48 48 72 48 48 72 48 48 72 48 48 72 48 48 72 48 48 72 48 48 72 48 48 72 48 48 72 48 48 72 48 48 72 48 48 72 48 48 72 48 48 72 48 48 72 48 48 72 48 48 72 48 48 72 48 48 72 48 48 72 48 48 72 48 48 72 48 48 72 48 48 72 48 48 72 48 48 72 48 48 72 48 48 72 48 48 72 48 48 72 48 48 72 48 48
72 120 0 72 120 0 72 120 0 72 120 0 72 120 0 72 120 0 72 120 0 72 120 0 72 120 0 72 120 0 72 120 0 72 120 0 72 120 0 72 120 0 72 120 0 72 120 0 72 120 0 72 120 0 72 120 0 72 120 0 72 120 0 72 120 0 72 120 0 72 120 0 72 120 0 72 120 0 72 120 0 72 120 0 72 120 0 72 120 0 72 120 0 72 120 0 72 120 0 72 120 0 72 120 0 72 120 0 72 120 0 72 120 0 72 120 0 72 120 0 72 120 0 72 120 0 72 120 0 72 120 0 72 120 0 72 120 0 72 120 0 72 120 0 72 120 0 72 120 0 72 120 0 72 120 0 72 120 0 72 120 0 72 120 0 72 120 0 72 120 0 72 120 0 72 120 0 72 120 0 72 120 0 72 120 0 72 120 0 72 120 0 72 48 48 72 48 48 72 48 48 72 48 48 72 48 48 72 48 48 72 48 48 72 48 48 72 48 48 72 48 48 72 48 48 72 48 48 72 48 48 72 48 48 72 48 48 72 48 48 72 48 48 72 48 48 72 48 48 72 48 48 72 48 48 72 48 48 72 48 48 72 48 48 72 48 48 72 48 48 72 48 48 72 48 48 72 48 48 72 48 48 72 48 48 72 48 48 72 48 48 72 48 48 72 48 48 72 48 48 72 48 48 72 48 48 72 48 48 72 48 48 72 48 48 72 48 48 72 48 48 72 48 48 72 48 48 72 48 48 72 48 48 72 48 48 72 48 48 72 48 48 72 48 48 72 48 48 72 48 48 72 48 48 72 48 48 72 48 48 72 48 48 72 48 48 72 48 48 72 48 48 72 48 48 72 48 48 72 48 48 72 48 48
72 120 0 72 120 0 72 120 0 72 120 0 72 120 0 72 120 0 72 120 0 72 120 0 72 120 0 72 120 0 72 120 0 72 120 0 72 120 0 72 120 0 72 120 0 72 120 0 72 120 0 72 120 0 72 120 0 72 120 0 72 120 0 72 120 0 72 120 0 72 120 0 72 120 0 72 120 0 72 120 0 72 120 0 72 120 0 72 120 0 72 120 0 72 120 0 72 120 0 72 120 0 72 120 0 72 120 0 72 120 0 72 120 0 72 120 0 72 120 0 72 120 0 72 120 0 72 120 0 72 120 0 72 120 0 72 120 0 72 120 0 72 120 0 72 120 0 72 120 0 72 120 0 72 120 0 72 120 0 72 120 0 72 120 0 72 120 0 72 120 0 72 120 0 72 120 0 72 120 0 72 120 0 72 120 0 72 120 0 72 120 0 72 48 48 72 48 48 72 48 48 72 48 48 72 48 48 72 48 48 72 48 48 72 48 48 72 48 48 72 48 48 72 48 48 72 48 48 72 48 48 72 48 48 72 48 48 72 48 48 72 48 48 72 48 48 72 48 48 72 48 48 72 48 48 72 48 48 72 48 48 72 48 48 72 48 48 72 48 48 72 48 48 72 48 48 72 48 48 72 48 48 72 48 48 72 48 48 72 48 48 72 48 48 72 48 48 72 48 48 72 48 48 72 48 48 72 48 48 72 48 48 72 48 48 72 48 48 72 48 48 72 48 48 72 48 48 72 48 48 72 48 48 72 48 48 72 48 48 72 48 48 72 48 48 72 48 48 72 48 48 72 48 48 72 48 48 72 48 48 72 48 48 72 48 48 72 48 48 72 48 48 72 48 48 72 48 48 72 48 48 72 48 48
72 120 0 72 120 0 72 120 0 72 120 0 72 120 0 72 120 0 72 120 0 72 120 0 72 120 0 72 120 0 72 120 0 72 120 0 72 120 0 72 120 0 72 120 0 72 120 0 72 120 0 72 120 0 72 120 0 72 120 0 72 120 0 72 120 0 72 120 0 72 120 0 72 120 0 72 120 0 72 120 0 72 120 0 72 120 0 72 120 0 72 120 0 72 120 0 72 120 0 72 120 0 72 120 0 72 120 0 72 120 0 72 120 0 72 120 0 72 120 0 72 120 0 72 120 0 72 120 0 72 120 0 72 120 0 72 120 0 72 120 0 72 120 0 72 120 0 72 120 0 72 120 0 72 120 0 72 120 0 72 120 0 72 120 0 72 120 0 72 120 0 72 120 0 72 120 0 72 120 0 72 120 0 72 120 0 72 120 0 72 120 0 72 48 48 72 48 48 72 48 48 72 48 48 72 48 48 72 48 48 72 48 48 72 48 48 72 48 48 72 48 48 72 48 48 72 48 48 72 48 48 72 48 48 72 48 48 72 48 48 72 48 48 72 48 48 72 48 48 72 48 48 72 48 48 72 48 48 72 48 48 72 48 48 72 48 48 72 48 48 72 48 48 72 48 48 72 48 48 72 48 48 72 48 48 72 48 48 72 48 48 72 48 48 72 48 48 72 48 48 72 48 48 72 48 48 72 48 48 72 48 48 72 48 48 72 48 48 72 48 48 72 48 48 72 48 48 72 48 48 72 48 48 72 48 48 72 48 48 72 48 48 72 48 48 72 48 48 72 48 48 72 48 48 72 48 48 72 48 48 72 48 48 72 48 48 72 48 48 72 48 48 72 48 48 72 48 48 72 48 48 72 48 48
72 120 0 72 120 0 72 120 0 72 120 0 72 120 0 72 120 0 72 120 0 72 120 0 72 120 0 72 120 0 72 120 0 72 120 0 72 120 0 72 120 0 72 120 0 72 120 0 72 120 0 72 120 0 72 120 0 72 120 0 72 120 0 72 120 0 72 120 0 72 120 0 72 120 0 72 120 0 72 120 0 72 120 0 72 120 0 72 120 0 72 120 0 72 120 0 72 120 0 72 120 0 72 120 0 72 120 0 72 120 0 72 120 0 72 120 0 72 120 0 72 120 0 72 120 0 72 120 0 72 120 0 72 120 0 72 120 0 72 120 0 72 120 0 72 120 0 72 120 0 72 120 0 72 120 0 72 120 0 72 120 0 72 120 0 72 120 0 72 120 0 72 120 0 72 120 0 72 120 0 72 120 0 72 120 0 72 120 0 72 120 0 72 48 48 72 48 48 72 48 48 72 48 48 72 48 48 72 48 48 72 48 48 72 48 48 72 48 48 72 48 48 72 48 48 72 48 48 72 48 48 72 48 48 72 48 48 72 48 48 72 48 48 72 48 48 72 48 48 72 48 48 72 48 48 72 48 48 72 48 48 72 48 48 72 48 48 72 48 48 72 48 48 72 48 48 72 48 48 72 48 48 72 48 48 72 48 48 72 48 48 72 48 48 72 48 48 72 48 48 72 48 48 72 48 48 72 48 48 72 48 48 72 48 48 72 48 48 72 48 48 72 48 48 72 48 48 72 48 48 72 48 48 72 48 48 72 48 48 72 48 48 72 48 48 72 48 48 72 48 48 72 48 48 72 48 48 72 48 48 72 48 48 72 48 48 72 48 48 72 48 48 72 48 48 72 48 48 72 48 48 72 48 48
72 120 0 72 120 0 72 120 0 72 120 0 72 120 0 72 120 0 72 120 0 72 120 0 72 120 0 72 120 0 72 120 0 72 120 0 72 120 0 72 120 0 72 120 0 72 120 0 72 120 0 72 120 0 72 120 0 72 120 0 72 120 0 72 120 0 72 120 0 72 120 0 72 120 0 72 120 0 72 120 0 72 120 0 72 120 0 72 120 0 72 120 0 72 120 0 72 120 0 72 120 0 72 120 0 72 120 0 72 120 0 72 120 0 72 120 0 72 120 0 72 120 0 72 120 0 72 120 0 72 120 0 72 120 0 72 120 0 72 120 0 72 120 0 72 120 0 72 120 0 72 120 0 72 120 0 72 120 0 72 120 0 72 120 0 72 120 0 72 120 0 72 120 0 72 120 0 72 120 0 72 120 0 72 120 0 72 120 0 72 120 0 72 48 48 72 48 48 72 48 48 72 48 48 72 48 48 72 48 48 72 48 48 72 48 48 72 48 48 72 48 48 72 48 48 72 48 48 72 48 48 72 48 48 72 48 48 72 48 48 72 48 48 72 48 48 72 48 48 72 48 48 72 48 48 72 48 48 72 48 48 72 48 48 72 48 48 72 48 48 72 48 48 72 48 48 72 48 48 72 48 48 72 48 48 72 48 48 72 48 48 72 48 48 72 48 48 72 48 48 72 48 48 72 48 48 72 48 48 72 48 48 72 48 48 72 48 48 72 48 48 72 48 48 72 48 48 72 48 48 72 48 48 72 48 48 72 48 48 72 48 48 72 48 48 72 48 48 72 48 48 72 48 48 72 48 48 72 48 48 72 48 48 72 48 48 72 48 48 72 48 48 72 48 48 72 48 48 72 48 48 72 48 48
72 120 0 72 120 0 72 120 0 72 120 0 72 120 0 72 120 0 72 120 0 72 120 0 72 120 0 72 120 0 72 120 0 72 120 0 72 120 0 72 120 0 72 120 0 72 120 0 72 120 0 72 120 0 72 120 0 72 120 0 72 120 0 72 120 0 72 120 0 72 120 0 72 120 0 72 120 0 72 120 0 72 120 0 72 120 0 72 120 0 72 120 0 72 120 0 72 120 0 72 120 0 72 120 0 72 120 0 72 120 0 72 120 0 72 120 0 72 120 0 72 120 0 72 120 0 72 120 0 72 120 0 72 120 0 72 120 0 72 120 0 72 120 0 72 120 0 72 120 0 72 120 0 72 120 0 72 120 0 72 120 0 72 120 0 72 120 0 72 120 0 72 120 0 72 120 0 72 120 0 72 120 0 72 120 0 72 120 0 72 120 0 72 48 48 72 48 48 72 48 48 72 48 48 72 48 48 72 48 48 72 48 48 72 48 48 72 48 48 72 48 48 72 48 48 72 48 48 72 48 48 72 48 48 72 48 48 72 48 48 72 48 48 72 48 48 72 48 48 72 48 48 72 48 48 72 48 48 72 48 48 72 48 48 72 48 48 72 48 48 72 48 48 72 48 48 72 48 48 72 48 48 72 48 48 72 48 48 72 48 48 72 48 48 72 48 48 72 48 48 72 48 48 72 48 48 72 48 48 72 48 48 72 48 48 72 48 48 72 48 48 72 48 48 72 48 48 72 48 48 72 48 48 72 48 48 72 48 48 72 48 48 72 48 48 72 48 48 72 48 48 72 48 48 72 48 48 72 48 48 72 48 48 72 48 48 72 48 48 72 48 48 72 48 48 72 48 48 72 48 48 72 48 48
72 120 0 72 120 0 72 120 0 72 120 0 72 120 0 72 120 0 72 120 0 72 120 0 72 120 0 72 120 0 72 120 0 72 120 0 72 120 0 72 120 0 72 120 0 72 120 0 72 120 0 72 120 0 72 120 0 72 120 0 72 120 0 72 120 0 72 120 0 72 120 0 72 120 0 72 120 0 72 120 0 72 120 0 72 120 0 72 120 0 72 120 0 72 120 0 72 120 0 72 120 0 72 120 0 72 120 0 72 120 0 72 120 0 72 120 0 72 120 0 72 120 0 72 120 0 72 120 0 72 120 0 72 120 0 72 120 0 72 120 0 72 120 0 72 120 0 72 120 0 72 120 0 72 120 0 72 120 0 72 120 0 72 120 0 72 120 0 72 120 0 72 120 0 72 120 0 72 120 0 72 120 0 72 120 0 72 120 0 72 120 0 72 48 48 72 48 48 72 48 48 72 48 48 72 48 48 72 48 48 72 48 48 72 48 48 72 48 48 72 48 48 72 48 48 72 48 48 72 48 48 72 48 48 72 48 48 72 48 48 72 48 48 72 48 48 72 48 48 72 48 48 72 48 48 72 48 48 72 48 48 72 48 48 72 48 48 72 48 48 72 48 48 72 48 48 72 48 48 72 48 48 72 48 48 72 48 48 72 48 48 72 48 48 72 48 48 72 48 48 72 48 48 72 48 48 72 48 48 72 48 48 72 48 48 72 48 48 72 48 48 72 48 48 72 48 48 72 48 48 72 48 48 72 48 48 72 48 48 72 48 48 72 48 48 72 48 48 72 48 48 72 48 48 72 48 48 72 48 48 72 48 48 72 48 48 72 48 48 72 48 48 72 48 48 72 48 48 72 48 48 72 48 48
72 120 0 72 120 0 72 120 0 72 120 0 72 120 0 72 120 0 72 120 0 72 120 0 72 120 0 72 120 0 72 120 0 72 120 0 72 120 0 72 120 0 72 120 0 72 120 0 72 120 0 72 120 0 72 120 0 72 120 0 72 120 0 72 120 0 72 120 0 72 120 0 72 120 0 72 120 0 72 120 0 72 120 0 72 120 0 72 120 0 72 120 0 72 120 0 72 120 0 72 120 0 72 120 0 72 120 0 72 120 0 72 120 0 72 120 0 72 120 0 72 120 0 72 120 0 72 120 0 72 120 0 72 120 0 72 120 0 72 120 0 72 120 0 72 120 0 72 120 0 72 120 0 72 120 0 72 120 0 72 120 0 72 120 0 72 120 0 72 120 0 72 120 0 72 120 0 72 120 0 72 120 0 72 120 0 72 120 0 72 120 0 72 48 48 72 48 48 72 48 48 72 48 48 72 48 48 72 48 48 72 48 48 72 48 48 72 48 48 72 48 48 72 48 48 72 48 48 72 48 48 72 48 48 72 48 48 72 48 48 72 48 48 72 48 48 72 48 48 72 48 48 72 48 48 72 48 48 72 48 48 72 48 48 72 48 48 72 48 48 72 48 48 72 48 48 72 48 48 72 48 48 72 48 48 72 48 48 72 48 48 72 48 48 72 48 48 72 48 48 72 48 48 72 48 48 72 48 48 72 48 48 72 48 48 72 48 48 72 48 48 72 48 48 72 48 48 72 48 48 72 48 48 72 48 48 72 48 48 72 48 48 72 48 48 72 48 48 72 48 48 72 48 48 72 48 48 72 48 48 72 48 48 72 48 48 72 48 48 72 48 48 72 48 48 72 48 48 72 48 48 72 48 48
72 120 0 72 120 0 72 120 0 72 120 0 72 120 0 72 120 0 72 120 0 72 120 0 72 120 0 72 120 0 72 120 0 72 120 0 72 120 0 72 120 0 72 120 0 72 120 0 72 120 0 72 120 0 72 120 0 72 120 0 72 120 0 72 120 0 72 120 0 72 120 0 72 120 0 72 120 0 72 120 0 72 120 0 72 120 0 72 120 0 72 120 0 72 120 0 72 120 0 72 120 0 72 120 0 72 120 0 72 120 0 72 120 0 72 120 0 72 120 0 72 120 0 72 120 0 72 120 0 72 120 0 72 120 0 72 120 0 72 120 0 72 120 0 72 120 0 72 120 0 72 120 0 72 120 0 72 120 0 72 120 0 72 120 0 72 120 0 72 120 0 72 120 0 72 120 0 72 120 0 72 120 0 72 120 0 72 120 0 72 120 0 72 48 48 72 48 48 72 48 48 72 48 48 72 48 48 72 48 48 72 48 48 72 48 48 72 48 48 72 48 48 72 48 48 72 48 48 72 48 48 72 48 48 72 48 48 72 48 48 72 48 48 72 48 48 72 48 48 72 48 48 72 48 48 72 48 48 72 48 48 72 48 48 72 48 48 72 48 48 72 48 48 72 48 48 72 48 48 72 48 48 72 48 48 72 48 48 72 48 48 72 48 48 72 48 48 72 48 48 72 48 48 72 48 48 72 48 48 72 48 48 72 48 48 72 48 48 72 48 48 72 48 48 72 48 48 72 48 48 72 48 48 72 48 48 72 48 48 72 48 48 72 48 48 72 48 48 72 48 48 72 48 48 72 48 48 72 48 48 72 48 48 72 48 48 72 48 48 72 48 48 72 48 48 72 48 48 72 48 48 72 48 48
72 120 0 72 120 0 72 120 0 72 120 0 72 120 0 72 120 0 72 120 0 72 120 0 72 120 0 72 120 0 72 120 0 72 120 0 72 120 0 72 120 0 72 120 0 72 120 0 72 120 0 72 120 0 72 120 0 72 120 0 72 120 0 72 120 0 72 120 0 72 120 0 72 120 0 72 120 0 72 120 0 72 120 0 72 120 0 72 120 0 72 120 0 72 120 0 72 120 0 72 120 0 72 120 0 72 120 0 72 120 0 72 120 0 72 120 0 72 120 0 72 120 0 72 120 0 72 120 0 72 120 0 72 120 0 72 120 0 72 120 0 72 120 0 72 120 0 72 120 0 72 120 0 72 120 0 72 120 0 72 120 0 72 120 0 72 120 0 72 120 0 72 120 0 72 120 0 72 120 0 72 120 0 72 120 0 72 120 0 72 120 0 72 48 48 72 48 48 72 48 48 72 48 48 72 48 48 72 48 48 72 48 48 72 48 48 72 48 48 72 48 48 72 48 48 72 48 48 72 48 48 72 48 48 72 48 48 72 48 48 72 48 48 72 48 48 72 48 48 72 48 48 72 48 48 72 48 48 72 48 48 72 48 48 72 48 48 72 48 48 72 48 48 72 48 48 72 48 48 72 48 48 72 48 48 72 48 48 72 48 48 72 48 48 72 48 48 72 48 48 72 48 48 72 48 48 72 48 48 72 48 48 72 48 48 72 48 48 72 48 48 72 48 48 72 48 48 72 48 48 72 48 48 72 48 48 72 48 48 72 48 48 72 48 48 72 48 48 72 48 48 72 48 48 72 48 48 72 48 48 72 48 48 72 48 48 72 48 48 72 48 48 72 48 48 72 48 48 72 48 48 72 48 48
72 120 0 72 120 0 72 120 0 72 120 0 72 120 0 72 120 0 72 120 0 72 120 0 72 120 0 72 120 0 72 120 0 72 120 0 72 120 0 72 120 0 72 120 0 72 120 0 72 120 0 72 120 0 72 120 0 72 120 0 72 120 0 72 120 0 72 120 0 72 120 0 72 120 0 72 120 0 72 120 0 72 120 0 72 120 0 72 120 0 72 120 0 72 120 0 72 120 0 72 120 0 72 120 0 72 120 0 72 120 0 72 120 0 72 120 0 72 120 0 72 120 0 72 120 0 72 120 0 72 120 0 72 120 0 72 120 0 72 120 0 72 120 0 72 120 0 72 120 0 72 120 0 72 120 0 72 120 0 72 120 0 72 120 0 72 120 0 72 120 0 72 120 0 72 120 0 72 120 0 72 120 0 72 120 0 72 120 0 72 120 0 72 48 48 72 48 48 72 48 48 72 48 48 72 48 48 72 48 48 72 48 48 72 48 48 72 48 48 72 48 48 72 48 48 72 48 48 72 48 48 72 48 48 72 48 48 72 48 48 72 48 48 72 48 48 72 48 48 72 48 48 72 48 48 72 48 48 72 48 48 72 48 48 72 48 48 72 48 48 72 48 48 72 48 48 72 48 48 72 48 48 72 48 48 72 48 48 72 48 48 72 48 48 72 48 48 72 48 48 72 48 48 72 48 48 72 48 48 72 48 48 72 48 48 72 48 48 72 48 48 72 48 48 72 48 48 72 48 48 72 48 48 72 48 48 72 48 48 72 48 48 72 48 48 72 48 48 72 48 48 72 48 48 72 48 48 72 48 48 72 48 48 72 48 48 72 48 48 72 48 48 72 48 48 72 48 48 72 48 48 72 48 48
72 120 0 72 120 0 72 120 0 72 120 0 72 120 0 72 120 0 72 120 0 72 120 0 72 120 0 72 120 0 72 120 0 72 120 0 72 120 0 72 120 0 72 120 0 72 120 0 72 120 0 72 120 0 72 120 0 72 120 0 72 120 0 72 120 0 72 120 0 72 120 0 72 120 0 72 120 0 72 120 0 72 120 0 72 120 0 72 120 0 72 120 0 72 120 0 72 120 0 72 120 0 72 120 0 72 120 0 72 120 0 72 120 0 72 120 0 72 120 0 72 120 0 72 120 0 72 120 0 72 120 0 72 120 0 72 120 0 72 120 0 72 120 0 72 120 0 72 120 0 72 120 0 72 120 0 72 120 0 72 120 0 72 120 0 72 120 0 72 120 0 72 120 0 72 120 0 72 120 0 72 120 0 72 120 0 72 120 0 72 120 0 72 48 48 72 48 48 72 48 48 72 48 48 72 48 48 72 48 48 72 48 48 72 48 48 72 48 48 72 48 48 72 48 48 72 48 48 72 48 48 72 48 48 72 48 48 72 48 48 72 48 48 72 48 48 72 48 48 72 48 48 72 48 48 72 48 48 72 48 48 72 48 48 72 48 48 72 48 48 72 48 48 72 48 48 72 48 48 72 48 48 72 48 48 72 48 48 72 48 48 72 48 48 72 48 48 72 48 48 72 48 48 72 48 48 72 48 48 72 48 48 72 48 48 72 48 48 72 48 48 72 48 48 72 48 48 72 48 48 72 48 48 72 48 48 72 48 48 72 48 48 72 48 48 72 48 48 72 48 48 72 48 48 72 48 48 72 48 48 72 48 48 72 48 48 72 48 48 72 48 48 72 48 48 72 48 48 72 48 48 72 48 48
72 120 0 72 120 0 72 120 0 72 120 0 72 120 0 72 120 0 72 120 0 72 120 0 72 120 0 72 120 0 72 120 0 72 120 0 72 120 0 72 120 0 72 120 0 72 120 0 72 120 0 72 120 0 72 120 0 72 120 0 72 120 0 72 120 0 72 120 0 72 120 0 72 120 0 72 120 0 72 120 0 72 120 0 72 120 0 72 120 0 72 120 0 72 120 0 72 120 0 72 120 0 72 120 0 72 120 0 72 120 0 72 120 0 72 120 0 72 120 0 72 120 0 72 120 0 72 120 0 72 120 0 72 120 0 72 120 0 72 120 0 72 120 0 72 120 0 72 120 0 72 120 0 72 120 0 72 120 0 72 120 0 72 120 0 72 120 0 72 120 0 72 120 0 72 120 0 72 120 0 72 120 0 72 120 0 72 120 0 72 120 0 72 48 48 72 48 48 72 48 48 72 48 48 72 48 48 72 48 48 72 48 48 72 48 48 72 48 48 72 48 48 72 48 48 72 48 48 72 48 48 72 48 48 72 48 48 72 48 48 72 48 48 72 48 48 72 48 48 72 48 48 72 48 48 72 48 48 72 48 48 72 48 48 72 48 48 72 48 48 72 48 48 72 48 48 72 48 48 72 48 48 72 48 48 72 48 48 72 48 48 72 48 48 72 48 48 72 48 48 72 48 48 72 48 48 72 48 48 72 48 48 72 48 48 72 48 48 72 48 48 72 48 48 72 48 48 72 48 48 72 48 48 72 48 48 72 48 48 72 48 48 72 48 48 72 48 48 72 48 48 72 48 48 72 48 48 72 48 48 72 48 48 72 48 48 72 48 48 72 48 48 72 48 48 72 48 48 72 48 48 72 48 48
72 120 0 72 120 0 72 120 0 72 120 0 72 120 0 72 120 0 72 120 0 72 120 0 72 120 0 72 120 0 72 120 0 72 120 0 72 120 0 72 120 0 72 120 0 72 120 0 72 120 0 72 120 0 72 120 0 72 120 0 72 120 0 72 120 0 72 120 0 72 120 0 72 120 0 72 120 0 72 120 0 72 120 0 72 120 0 72 120 0 72 120 0 72 120 0 72 120 0 72 120 0 72 120 0 72 120 0 72 120 0 72 120 0 72 120 0 72 120 0 72 120 0 72 120 0 72 120 0 72 120 0 72 120 0 72 120 0 72 120 0 72 120 0 72 120 0 72 120 0 72 120 0 72 120 0 72 120 0 72 120 0 72 120 0 72 120 0 72 120 0 72 120 0 72 120 0 72 120 0 72 120 0 72 120 0 72 120 0 72 120 0 72 48 48 72 48 48 72 48 48 72 48 48 72 48 48 72 48 48 72 48 48 72 48 48 72 48 48 72 48 48 72 48 48 72 48 48 72 48 48 72 48 48 72 48 48 72 48 48 72 48 48 72 48 48 72 48 48 72 48 48 72 48 48 72 48 48 72 48 48 72 48 48 72 48 48 72 48 48 72 48 48 72 48 48 72 48 48 72 48 48 72 48 48 72 48 48 72 48 48 72 48 48 72 48 48 72 48 48 72 48 48 72 48 48 72 48 48 72 48 48 72 48 48 72 48 48 72 48 48 72 48 48 72 48 48 72 48 48 72 48 48 72 48 48 72 48 48 72 48 48 72 48 48 72 48 48 72 48 48 72 48 48 72 48 48 72 48 48 72 48 48 72 48 48 72 48 48 72 48 48 72 48 48 72 48 48 72 48 48 72 48 48
72 120 0 72 120 0 72 120 0 72 120 0 72 120 0 72 120 0 72 120 0 72 120 0 72 120 0 72 120 0 72 120 0 72 120 0 72 120 0 72 120 0 72 120 0 72 120 0 72 120 0 72 120 0 72 120 0 72 120 0 72 120 0 72 120 0 72 120 0 72 120 0 72 120 0 72 120 0 72 120 0 72 120 0 72 120 0 72 120 0 72 120 0 72 120 0 72 120 0 72 120 0 72 120 0 72 120 0 72 120 0 72 120 0 72 120 0 72 120 0 72 120 0 72 120 0 72 120 0 72 120 0 72 120 0 72 120 0 72 120 0 72 120 0 72 120 0 72 120 0 72 120 0 72 120 0 72 120 0 72 120 0 72 120 0 72 120 0 72 120 0 72 120 0 72 120 0 72 120 0 72 120 0 72 120 0 72 120 0 72 120 0 72 48 48 72 48 48 72 48 48 72 48 48 72 48 48 72 48 48 72 48 48 72 48 48 72 48 48 72 48 48 72 48 48 72 48 48 72 48 48 72 48 48 72 48 48 72 48 48 72 48 48 72 48 48 72 48 48 72 48 48 72 48 48 72 48 48 72 48 48 72 48 48 72 48 48 72 48 48 72 48 48 72 48 48 72 48 48 72 48 48 72 48 48 72 48 48 72 48 48 72 48 48 72 48 48 72 48 48 72 48 48 72 48 48 72 48 48 72 48 48 72 48 48 72 48 48 72 48 48 72 48 48 72 48 48 72 48 48 72 48 48 72 48 48 72 48 48 72 48 48 72 48 48 72 48 48 72 48 48 72 48 48 72 48 48 72 48 48 72 48 48 72 48 48 72 48 48 72 48 48 72 48 48 72 48 48 72 48 48 72 48 48
72 120 0 72 120 0 72 120 0 72 120 0 72 120 0 72 120 0 72 120 0 72 120 0 72 120 0 72 120 0 72 120 0 72 120 0 72 120 0 72 120 0 72 120 0 72 120 0 72 120 0 72 120 0 72 120 0 72 120 0 72 120 0 72 120 0 72 120 0 72 120 0 72 120 0 72 120 0 72 120 0 72 120 0 72 120 0 72 120 0 72 120 0 72 120 0 72 120 0 72 120 0 72 120 0 72 120 0 72 120 0 72 120 0 72 120 0 72 120 0 72 120 0 72 120 0 72 120 0 72 120 0 72 120 0 72 120 0 72 120 0 72 120 0 72 120 0 72 120 0 72 120 0 72 120 0 72 120 0 72 120 0 72 120 0 72 120 0 72 120 0 72 120 0 72 120 0 72 120 0 72 120 0 72 120 0 72 120 0 72 120 0 72 48 48 72 48 48 72 48 48 72 48 48 72 48 48 72 48 48 72 48 48 72 48 48 72 48 48 72 48 48 72 48 48 72 48 48 72 48 48 72 48 48 72 48 48 72 48 48 72 48 48 72 48 48 72 48 48 72 48 48 72 48 48 72 48 48 72 48 48 72 48 48 72 48 48 72 48 48 72 48 48 72 48 48 72 48 48 72 48 48 72 48 48 72 48 48 72 48 48 72 48 48 72 48 48 72 48 48 72 48 48 72 48 48 72 48 48 72 48 48 72 48 48 72 48 48 72 48 48 72 48 48 72 48 48 72 48 48 72 48 48 72 48 48 72 48 48 72 48 48 72 48 48 72 48 48 72 48 48 72 48 48 72 48 48 72 48 48 72 48 48 72 48 48 72 48 48 72 48 48 72 48 48 72 48 48 72 48 48 72 48 48
72 48 48 72 48 48 72 48 48 72 48 48 72 48 48 72 48 48 72 48 48 72 48 48 72 48 48 72 48 48 72 48 48 72 48 48 72 48 48 72 48 48 72 48 48 72 48 48 72 48 48 72 48 48 72 48 48 72 48 48 72 48 48 72 48 48 72 48 48 72 48 48 72 48 48 72 48 48 72 48 48 72 48 48 72 48 48 72 48 48 72 48 48 72 48 48 72 48 48 72 48 48 72 48 48 72 48 48 72 48 48 72 48 48 72 48 48 72 48 48 72 48 48 72 48 48 72 48 48 72 48 48 72 48 48 72 48 48 72 48 48 72 48 48 72 48 48 72 48 48 72 48 48 72 48 48 72 48 48 72 48 48 72 48 48 72 48 48 72 48 48 72 48 48 72 48 48 72 48 48 72 48 48 72 48 48 72 48 48 72 48 48 208 112 16 208 112 16 208 112 16 208 112 16 208 112 16 208 112 16 208 112 16 208 112 16 208 112 16 208 112 16 208 112 16 208 112 16 208 112 16 208 112 16 208 112 16 208 112 16 208 112 16 208 112 16 208 112 16 208 112 16 208 112 16 208 112 16 208 112 16 208 112 16 208 112 16 208 112 16 208 112 16 208 112 16 208 112 16 208 112 16 208 112 16 208 112 16 240 112 16 240 112 16 240 112 16 240 112 16 240 112 16 240 112 16 240 112 16 240 112 16 240 112 16 240 112 16 240 112 16 240 112 16 240 112 16 240 112 16 240 112 16 240 112 16 240 112 16 240 112 16 240 112 16 240 112 16 240 112 16 240 112 16 240 112 16 240 112 16 240 112 16 240 112 16 240 112 16 240 112 16 240 112 16 240 112 16 240 112 16 240 112 16
72 48 48 72 48 48 72 48 48 72 48 48 72 48 48 72 48 48 72 48 48 72 48 48 72 48 48 72 48 48 72 48 48 72 48 48 72 48 48 72 48 48 72 48 48 72 48 48 72 48 48 72 48 48 72 48 48 72 48 48 72 48 48 72 48 48 72 48 48 72 48 48 72 48 48 72 48 48 72 48 48 72 48 48 72 48 48 72 48 48 72 48 48 72 48 48 72 48 48 72 48 48 72 48 48 72 48 48 72 48 48 72 48 48 72 48 48 72 48 48 72 48 48 72 48 48 72 48 48 72 48 48 72 48 48 72 48 48 72 48 48 72 48 48 72 48 48 72 48 48 72 48 48 72 48 48 72 48 48 72 48 48 72 48 48 72 48 48 72 48 48 72 48 48 72 48 48 72 48 48 72 48 48 72 48 48 72 48 48 72 48 48 208 112 16 208 112 16 208 112 16 208 112 16 208 112 16 208 112 16 208 112 16 208 112 16 208 112 16 208 112 16 208 112 16 208 112 16 208 112 16 208 112 16 208 112 16 208 112 16 208 112 16 208 112 16 208 112 16 208 112 16 208 112 16 208 112 16 208 112 16 208 112 16 208 112 16 208 112 16 208 112 16 208 112 16 208 112 16 208 112 16 208 112 16 208 112 16 240 112 16 240 112 16 240 112 16 240 112 16 240 112 16 240 112 16 240 112 16 240 112 16 240 112 16 240 112 16 240 112 16 240 112 16 240 112 16 240 112 16 240 112 16 240 112 16 240 112 16 240 112 16 240 112 16 240 112 16 240 112 16 240 112 16 240 112 16 240 112 16 240 112 16 240 112 16 240 112 16 240 112 16 240 112 16 240 112 16 240 112 16 240 112 16
72 48 48 72 48 48 72 48 48 72 48 48 72 48 48 72 48 48 72 48 48 72 48 48 72 48 48 72 48 48 72 48 48 72 48 48 72 48 48 72 48 48 72 48 48 72 48 48 72 48 48 72 48 48 72 48 48 72 48 48 72 48 48 72 48 48 72 48 48 72 48 48 72 48 48 72 48 48 72 48 48 72 48 48 72 48 48 72 48 48 72 48 48 72 48 48 72 48 48 72 48 48 72 48 48 72 48 48 72 48 48 72 48 48 72 48 48 72 48 48 72 48 48 72 48 48 72 48 48 72 48 48 72 48 48 72 48 48 72 48 48 72 48 48 72 48 48 72 48 48 72 48 48 72 48 48 72 48 48 72 48 48 72 48 48 72 48 48 72 48 48 72 48 48 72 48 48 72 48 48 72 48 48 72 48 48 72 48 48 72 48 48 208 112 16 208 112 16 208 112 16 208 112 16 208 112 16 208 112 16 208 112 16 208 112 16 208 112 16 208 112 16 208 112 16 208 112 16 208 112 16 208 112 16 208 112 16 208 112 16 208 112 16 208 112 16 208 112 16 208 112 16 208 112 16 208 112 16 208 112 16 208 112 16 208 112 16 208 112 16 208 112 16 208 112 16 208 112 16 208 112 16 208 112 16 208 112 16 240 112 16 240 112 16 240 112 16 240 112 16 240 112 16 240 112 16 240 112 16 240 112 16 240 112 16 240 112 16 240 112 16 240 112 16 240 112 16 240 112 16 240 112 16 240 112 16 240 112 16 240 112 16 240 112 16 240 112 16 240 112 16 240 112 16 240 112 16 240 112 16 240 112 16 240 112 16 240 112 16 240 112 16 240 112 16 240 112 16 240 112 16 240 112 16
72 48 48 72 48 48 72 48 48 72 48 48 72 48 48 72 48 48 72 48 48 72 48 48 72 48 48 72 48 48 72 48 48 72 48 48 72 48 48 72 48 48 72 48 48 72 48 48 72 48 48 72 48 48 72 48 48 72 48 48 72 48 48 72 48 48 72 48 48 72 48 48 72 48 48 72 48 48 72 48 48 72 48 48 72 48 48 72 48 48 72 48 48 72 48 48 72 48 48 72 48 48 72 48 48 72 48 48 72 48 48 72 48 48 72 48 48 72 48 48 72 48 48 72 48 48 72 48 48 72 48 48 72 48 48 72 48 48 72 48 48 72 48 48 72 48 48 72 48 48 72 48 48 72 48 48 72 48 48 72 48 48 72 48 48 72 48 48 72 48 48 72 48 48 72 48 48 72 48 48 72 48 48 72 48 48 72 48 48 72 48 48 208 112 16 208 112 16 208 112 16 208 112 16 208 112 16 208 112 16 208 112 16 208 112 16 208 112 16 208 112 16 208 112 16 208 112 16 208 112 16 208 112 16 208 112 16 208 112 16 208 112 16 208 112 16 208 112 16 208 112 16 208 112 16 208 112 16 208 112 16 208 112 16 208 112 16 208 112 16 208 112 16 208 112 16 208 112 16 208 112 16 208 112 16 208 112 16 240 112 16 240 112 16 240 112 16 240 112 16 240 112 16 240 112 16 240 112 16 240 112 16 240 112 16 240 112 16 240 112 16 240 112 16 240 112 16 240 112 16 240 112 16 240 112 16 240 112 16 240 112 16 240 112 16 240 112 16 240 112 16 240 112 16 240 112 16 240 112 16 240 112 16 240 112 16 240 112 16 240 112 16 240 112 16 240 112 16 240 112 16 240 112 16
72 48 48 72 48 48 72 48 48 72 48 48 72 48 48 72 48 48 72 48 48 72 48 48 72 48 48 72 48 48 72 48 48 72 48 48 72 48 48 72 48 48 72 48 48 72 48 48 72 48 48 72 48 48 72 48 48 72 48 48 72 48 48 72 48 48 72 48 48 72 48 48 72 48 48 72 48 48 72 48 48 72 48 48 72 48 48 72 48 48 72 48 48 72 48 48 72 48 48 72 48 48 72 48 48 72 48 48 72 48 48 72 48 48 72 48 48 72 48 48 72 48 48 72 48 48 72 48 48 72 48 48 72 48 48 72 48 48 72 48 48 72 48 48 72 48 48 72 48 48 72 48 48 72 48 48 72 48 48 72 48 48 72 48 48 72 48 48 72 48 48 72 48 48 72 48 48 72 48 48 72 48 48 72 48 48 72 48 48 72 48 48 208 112 16 208 112 16 208 112 16 208 112 16 208 112 16 208 112 16 208 112 16 208 112 16 208 112 16 208 112 16 208 112 16 208 112 16 208 112 16 208 112 16 208 112 16 208 112 16 208 112 16 208 112 16 208 112 16 208 112 16 208 112 16 208 112 16 208 112 16 208 112 16 208 112 16 208 112 16 208 112 16 208 112 16 208 112 16 208 112 16 208 112 16 208 112 16 240 112 16 240 112 16 240 112 16 240 112 16 240 112 16 240 112 16 240 112 16 240 112 16 240 112 16 240 112 16 240 112 16 240 112 16 240 112 16 240 112 16 240 112 16 240 112 16 240 112 16 240 112 16 240 112 16 240 112 16 240 112 16 240 112 16 240 112 16 240 112 16 240 112 16 240 112 16 240 112 16 240 112 16 240 112 16 240 112 16 240 112 16 240 112 16
72 48 48 72 48 48 72 48 48 72 48 48 72 48 48 72 48 48 72 48 48 72 48 48 72 48 48 72 48 48 72 48 48 72 48 48 72 48 48 72 48 48 72 48 48 72 48 48 72 48 48 72 48 48 72 48 48 72 48 48 72 48 48 72 48 48 72 48 48 72 48 48 72 48 48 72 48 48 72 48 48 72 48 48 72 48 48 72 48 48 72 48 48 72 48 48 72 48 48 72 48 48 72 48 48 72 48 48 72 48 48 72 48 48 72 48 48 72 48 48 72 48 48 72 48 48 72 48 48 72 48 48 72 48 48 72 48 48 72 48 48 72 48 48 72 48 48 72 48 48 72 48 48 72 48 48 72 48 48 72 48 48 72 48 48 72 48 48 72 48 48 72 48 48 72 48 48 72 48 48 72 48 48 72 48 48 72 48 48 72 48 48 208 112 16 208 112 16 208 112 16 208 112 16 208 112 16 208 112 16 208 112 16 208 112 16 208 112 16 208 112 16 208 112 16 208 112 16 208 112 16 208 112 16 208 112 16 208 112 16 208 112 16 208 112 16 208 112 16 208 112 16 208 112 16 208 112 16 208 112 16 208 112 16 208 112 16 208 112 16 208 112 16 208 112 16 208 112 16 208 112 16 208 112 16 208 112 16 240 112 16 240 112 16 240 112 16 240 112 16 240 112 16 240 112 16 240 112 16 240 112 16 240 112 16 240 112 16 240 112 16 240 112 16 240 112 16 240 112 16 240 112 16 240 112 16 240 112 16 240 112 16 240 112 16 240 112 16 240 112 16 240 112 16 240 112 16 240 112 16 240 112 16 240 112 16 240 112 16 240 112 16 240 112 16 240 112 16 240 112 16 240 112 16
72 48 48 72 48 48 72 48 48 72 48 48 72 48 48 72 48 48 72 48 48 72 48 48 72 48 48 72 48 48 72 48 48 72 48 48 72 48 48 72 48 48 72 48 48 72 48 48 72 48 48 72 48 48 72 48 48 72 48 48 72 48 48 72 48 48 72 48 48 72 48 48 72 48 48 72 48 48 72 48 48 72 48 48 72 48 48 72 48 48 72 48 48 72 48 48 72 48 48 72 48 48 72 48 48 72 48 48 72 48 48 72 48 48 72 48 48 72 48 48 72 48 48 72 48 48 72 48 48 72 48 48 72 48 48 72 48 48 72 48 48 72 48 48 72 48 48 72 48 48 72 48 48 72 48 48 72 48 48 72 48 48 72 48 48 72 48 48 72 48 48 72 48 48 72 48 48 72 48 48 72 48 48 72 48 48 72 48 48 72 48 48 208 112 16 208 112 16 208 112 16 208 112 16 208 112 16 208 112 16 208 112 16 208 112 16 208 112 16 208 112 16 208 112 16 208 112 16 208 112 16 208 112 16 208 112 16 208 112 16 208 112 16 208 112 16 208 112 16 208 112 16 208 112 16 208 112 16 208 112 16 208 112 16 208 112 16 208 112 16 208 112 16 208 112 16 208 112 16 208 112 16 208 112 16 208 112 16 240 112 16 240 112 16 240 112 16 240 112 16 240 112 16 240 112 16 240 112 16 240 112 16 240 112 16 240 112 16 240 112 16 240 112 16 240 112 16 240 112 16 240 112 16 240 112 16 240 112 16 240 112 16 240 112 16 240 112 16 240 112 16 240 112 16 240 112 16 240 112 16 240 112 16 240 112 16 240 112 16 240 112 16 240 112 16 240 112 16 240 112 16 240 112 16
72 48 48 72 48 48 72 48 48 72 48 48 72 48 48 72 48 48 72 48 48 72 48 48 72 48 48 72 48 48 72 48 48 72 48 48 72 48 48 72 48 48 72 48 48 72 48 48 72 48 48 72 48 48 72 48 48 72 48 48 72 48 48 72 48 48 72 48 48 72 48 48 72 48 48 72 48 48 72 48 48 72 48 48 72 48 48 72 48 48 72 48 48 72 48 48 72 48 48 72 48 48 72 48 48 72 48 48 72 48 48 72 48 48 72 48 48 72 48 48 72 48 48 72 48 48 72 48 48 72 48 48 72 48 48 72 48 48 72 48 48 72 48 48 72 48 48 72 48 48 72 48 48 72 48 48 72 48 48 72 48 48 72 48 48 72 48 48 72 48 48 72 48 48 72 48 48 72 48 48 72 48 48 72 48 48 72 48 48 72 48 48 208 112 16 208 112 16 208 112 16 208 112 16 208 112 16 208 112 16 208 112 16 208 112 16 208 112 16 208 112 16 208 112 16 208 112 16 208 112 16 208 112 16 208 112 16 208 112 16 208 112 16 208 112 16 208 112 16 208 112 16 208 112 16 208 112 16 208 112 16 208 112 16 208 112 16 208 112 16 208 112 16 208 112 16 208 112 16 208 112 16 208 112 16 208 112 16 240 112 16 240 112 16 240 112 16 240 112 16 240 112 16 240 112 16 240 112 16 240 112 16 240 112 16 240 112 16 240 112 16 240 112 16 240 112 16 240 112 16 240 112 16 240 112 16 240 112 16 240 112 16 240 112 16 240 112 16 240 112 16 240 112 16 240 112 16 240 112 16 240 112 16 240 112 16 240 112 16 240 112 16 240 112 16 240 112 16 240 112 16 240 112 16
72 48 48 72 48 48 72 48 48 72 48 48 72 48 48 72 48 48 72 48 48 72 48 48 72 48 48 72 48 48 72 48 48 72 48 48 72 48 48 72 48 48 72 48 48 72 48 48 72 48 48 72 48 48 72 48 48 72 48 48 72 48 48 72 48 48 72 48 48 72 48 48 72 48 48 72 48 48 72 48 48 72 48 48 72 48 48 72 48 48 72 48 48 72 48 48 72 48 48 72 48 48 72 48 48 72 48 48 72 48 48 72 48 48 72 48 48 72 48 48 72 48 48 72 48 48 72 48 48 72 48 48 72 48 48 72 48 48 72 48 48 72 48 48 72 48 48 72 48 48 72 48 48 72 48 48 72 48 48 72 48 48 72 48 48 72 48 48 72 48 48 72 48 48 72 48 48 72 48 48 72 48 48 72 48 48 72 48 48 72 48 48 208 112 16 208 112 16 208 112 16 208 112 16 208 112 16 208 112 16 208 112 16 208 112 16 208 112 16 208 112 16 208 112 16 208 112 16 208 112 16 208 112 16 208 112 16 208 112 16 208 112 16 208 112 16 208 112 16 208 112 16 208 112 16 208 112 16 208 112 16 208 112 16 208 112 16 208 112 16 208 112 16 208 112 16 208 112 16 208 112 16 208 112 16 208 112 16 240 112 16 240 112 16 240 112 16 240 112 16 240 112 16 240 112 16 240 112 16 240 112 16 240 112 16 240 112 16 240 112 16 240 112 16 240 112 16 240 112 16 240 112 16 240 112 16 240 112 16 240 112 16 240 112 16 240 112 16 240 112 16 240 112 16 240 112 16 240 112 16 240 112 16 240 112 16 240 112 16 240 112 16 240 112 16 240 112 16 240 112 16 240 112 16
72 48 48 72 48 48 72 48 48 72 48 48 72 48 48 72 48 48 72 48 48 72 48 48 72 48 48 72 48 48 72 48 48 72 48 48 72 48 48 72 48 48 72 48 48 72 48 48 72 48 48 72 48 48 72 48 48 72 48 48 72 48 48 72 48 48 72 48 48 72 48 48 72 48 48 72 48 48 72 48 48 72 48 48 72 48 48 72 48 48 72 48 48 72 48 48 72 48 48 72 48 48 72 48 48 72 48 48 72 48 48 72 48 48 72 48 48 72 48 48 72 48 48 72 48 48 72 48 48 72 48 48 72 48 48 72 48 48 72 48 48 72 48 48 72 48 48 72 48 48 72 48 48 72 48 48 72 48 48 72 48 48 72 48 48 72 48 48 72 48 48 72 48 48 72 48 48 72 48 48 72 48 48 72 48 48 72 48 48 72 48 48 208 112 16 208 112 16 208 112 16 208 112 16 208 112 16 208 112 16 208 112 16 208 112 16 208 112 16 208 112 16 208 112 16 208 112 16 208 112 16 208 112 16 208 112 16 208 112 16 208 112 16 208 112 16 208 112 16 208 112 16 208 112 16 208 112 16 208 112 16 208 112 16 208 112 16 208 112 16 208 112 16 208 112 16 208 112 16 208 112 16 208 112 16 208 112 16 240 112 16 240 112 16 240 112 16 240 112 16 240 112 16 240 112 16 240 112 16 240 112 16 240 112 16 240 112 16 240 112 16 240 112 16 240 112 16 240 112 16 240 112 16 240 112 16 240 112 16 240 112 16 240 112 16 240 112 16 240 112 16 240 112 16 240 112 16 240 112 16 240 112 16 240 112 16 240 112 16 240 112 16 240 112 16 240 112 16 240 112 16 240 112 16
72 48 48 72 48 48 72 48 48 72 48 48 72 48 48 72 48 48 72 48 48 72 48 48 72 48 48 72 48 48 72 48 48 72 48 48 72 48 48 72 48 48 72 48 48 72 48 48 72 48 48 72 48 48 72 48 48 72 48 48 72 48 48 72 48 48 72 48 48 72 48 48 72 48 48 72 48 48 72 48 48 72 48 48 72 48 48 72 48 48 72 48 48 72 48 48 72 48 48 72 48 48 72 48 48 72 48 48 72 48 48 72 48 48 72 48 48 72 48 48 72 48 48 72 48 48 72 48 48 72 48 48 72 48 48 72 48 48 72 48 48 72 48 48 72 48 48 72 48 48 72 48 48 72 48 48 72 48 48 72 48 48 72 48 48 72 48 48 72 48 48 72 48 48 72 48 48 72 48 48 72 48 48 72 48 48 72 48 48 72 48 48 208 112 16 208 112 16 208 112 16 208 112 16 208 112 16 208 112 16 208 112 16 208 112 16 208 112 16 208 112 16 208 112 16 208 112 16 208 112 16 208 112 16 208 112 16 208 112 16 208 112 16 208 112 16 208 112 16 208 112 16 208 112 16 208 112 16 208 112 16 208 112 16 208 112 16 208 112 16 208 112 16 208 112 16 208 112 16 208 112 16 208 112 16 208 112 16 240 112 16 240 112 16 240 112 16 240 112 16 240 112 16 240 112 16 240 112 16 240 112 16 240 112 16 240 112 16 240 112 16 240 112 16 240 112 16 240 112 16 240 112 16 240 112 16 240 112 16 240 112 16 240 112 16 240 112 16 240 112 16 240 112 16 240 112 16 240 112 16 240 112 16 240 112 16 240 112 16 240 112 16 240 112 16 240 112 16 240 112 16 240 112 16
72 48 48 72 48 48 72 48 48 72 48 48 72 48 48 72 48 48 72 48 48 72 48 48 72 48 48 72 48 48 72 48 48 72 48 48 72 48 48 72 48 48 72 48 48 72 48 48 72 48 48 72 48 48 72 48 48 72 48 48 72 48 48 72 48 48 72 48 48 72 48 48 72 48 48 72 48 48 72 48 48 72 48 48 72 48 48 72 48 48 72 48 48 72 48 48 72 48 48 72 48 48 72 48 48 72 48 48 72 48 48 72 48 48 72 48 48 72 48 48 72 48 48 72 48 48 72 48 48 72 48 48 72 48 48 72 48 48 72 48 48 72 48 48 72 48 48 72 48 48 72 48 48 72 48 48 72 48 48 72 48 48 72 48 48 72 48 48 72 48 48 72 48 48 72 48 48 72 48 48 72 48 48 72 48 48 72 48 48 72 48 48 208 112 16 208 112 16 208 112 16 208 112 16 208 112 16 208 112 16 208 112 16 208 112 16 208 112 16 208 112 16 208 112 16 208 112 16 208 112 16 208 112 16 208 112 16 208 112 16 208 112 16 208 112 16 208 112 16 208 112 16 208 112 16 208 112 16 208 112 16 208 112 16 208 112 16 208 112 16 208 112 16 208 112 16 208 112 16 208 112 16 208 112 16 208 112 16 240 112 16 240 112 16 240 112 16 240 112 16 240 112 16 240 112 16 240 112 16 240 112 16 240 112 16 240 112 16 240 112 16 240 112 16 240 112 16 240 112 16 240 112 16 240 112 16 240 112 16 240 112 16 240 112 16 240 112 16 240 112 16 240 112 16 240 112 16 240 112 16 240 112 16 240 112 16 240 112 16 240 112 16 240 112 16 240 112 16 240 112 16 240 112 16
72 48 48 72 48 48 72 48 48 72 48 48 72 48 48 72 48 48 72 48 48 72 48 48 72 48 48 72 48 48 72 48 48 72 48 48 72 48 48 72 48 48 72 48 48 72 48 48 72 48 48 72 48 48 72 48 48 72 48 48 72 48 48 72 48 48 72 48 48 72 48 48 72 48 48 72 48 48 72 48 48 72 48 48 72 48 48 72 48 48 72 48 48 72 48 48 72 48 48 72 48 48 72 48 48 72 48 48 72 48 48 72 48 48 72 48 48 72 48 48 72 48 48 72 48 48 72 48 48 72 48 48 72 48 48 72 48 48 72 48 48 72 48 48 72 48 48 72 48 48 72 48 48 72 48 48 72 48 48 72 48 48 72 48 48 72 48 48 72 48 48 72 48 48 72 48 48 72 48 48 72 48 48 72 48 48 72 48 48 72 48 48 208 112 16 208 112 16 208 112 16 208 112 16 208 112 16 208 112 16 208 112 16 208 112 16 208 112 16 208 112 16 208 112 16 208 112 16 208 112 16 208 112 16 208 112 16 208 112 16 208 112 16 208 112 16 208 112 16 208 112 16 208 112 16 208 112 16 208 112 16 208 112 16 208 112 16 208 112 16 208 112 16 208 112 16 208 112 16 208 112 16 208 112 16 208 112 16 240 112 16 240 112 16 240 112 16 240 112 16 240 112 16 240 112 16 240 112 16 240 112 16 240 112 16 240 112 16 240 112 16 240 112 16 240 112 16 240 112 16 240 112 16 240 112 16 240 112 16 240 112 16 240 112 16 240 112 16 240 112 16 240 112 16 240 112 16 240 112 16 240 112 16 240 112 16 240 112 16 240 112 16 240 112 16 240 112 16 240 112 16 240 112 16
72 48 48 72 48 48 72 48 48 72 48 48 72 48 48 72 48 48 72 48 48 72 48 48 72 48 48 72 48 48 72 48 48 72 48 48 72 48 48 72 48 48 72 48 48 72 48 48 72 48 48 72 48 48 72 48 48 72 48 48 72 48 48 72 48 48 72 48 48 72 48 48 72 48 48 72 48 48 72 48 48 72 48 48 72 48 48 72 48 48 72 48 48 72 48 48 72 48 48 72 48 48 72 48 48 72 48 48 72 48 48 72 48 48 72 48 48 72 48 48 72 48 48 72 48 48 72 48 48 72 48 48 72 48 48 72 48 48 72 48 48 72 48 48 72 48 48 72 48 48 72 48 48 72 48 48 72 48 48 72 48 48 72 48 48 72 48 48 72 48 48 72 48 48 72 48 48 72 48 48 72 48 48 72 48 48 72 48 48 72 48 48 208 112 16 208 112 16 208 112 16 208 112 16 208 112 16 208 112 16 208 112 16 208 112 16 208 112 16 208 112 16 208 112 16 208 112 16 208 112 16 208 112 16 208 112 16 208 112 16 208 112 16 208 112 16 208 112 16 208 112 16 208 112 16 208 112 16 208 112 16 208 112 16 208 112 16 208 112 16 208 112 16 208 112 16 208 112 16 208 112 16 208 112 16 208 112 16 240 112 16 240 112 16 240 112 16 240 112 16 240 112 16 240 112 16 240 112 16 240 112 16 240 112 16 240 112 16 240 112 16 240 112 16 240 112 16 240 112 16 240 112 16 240 112 16 240 112 16 240 112 16 240 112 16 240 112 16 240 112 16 240 112 16 240 112 16 240 112 16 240 112 16 240 112 16 240 112 16 240 112 16 240 112 16 240 112 16 240 112 16 240 112 16
72 48 48 72 48 48 72 48 48 72 48 48 72 48 48 72 48 48 72 48 48 72 48 48 72 48 48 72 48 48 72 48 48 72 48 48 72 48 48 72 48 48 72 48 48 72 48 48 72 48 48 72 48 48 72 48 48 72 48 48 72 48 48 72 48 48 72 48 48 72 48 48 72 48 48 72 48 48 72 48 48 72 48 48 72 48 48 72 48 48 72 48 48 72 48 48 72 48 48 72 48 48 72 48 48 72 48 48 72 48 48 72 48 48 72 48 48 72 48 48 72 48 48 72 48 48 72 48 48 72 48 48 72 48 48 72 48 48 72 48 48 72 48 48 72 48 48 72 48 48 72 48 48 72 48 48 72 48 48 72 48 48 72 48 48 72 48 48 72 48 48 72 48 48 72 48 48 72 48 48 72 48 48 72 48 48 72 48 48 72 48 48 208 112 16 208 112 16 208 112 16 208 112 16 208 112 16 208 112 16 208 112 16 208 112 16 208 112 16 208 112 16 208 112 16 208 112 16 208 112 16 208 112 16 208 112 16 208 112 16 208 112 16 208 112 16 208 112 16 208 112 16 208 112 16 208 112 16 208 112 16 208 112 16 208 112 16 208 112 16 208 112 16 208 112 16 208 112 16 208 112 16 208 112 16 208 112 16 240 112 16 240 112 16 240 112 16 240 112 16 240 112 16 240 112 16 240 112 16 240 112 16 240 112 16 240 112 16 240 112 16 240 112 16 240 112 16 240 112 16 240 112 16 240 112 16 240 112 16 240 112 16 240 112 16 240 112 16 240 112 16 240 112 16 240 112 16 240 112 16 240 112 16 240 112 16 240 112 16 240 112 16 240 112 16 240 112 16 240 112 16 240 112 16
72 48 48 72 48 48 72 48 48 72 48 48 72 48 48 72 48 48 72 48 48 72 48 48 72 48 48 72 48 48 72 48 48 72 48 48 72 48 48 72 48 48 72 48 48 72 48 48 72 48 48 72 48 48 72 48 48 72 48 48 72 48 48 72 48 48 72 48 48 72 48 48 72 48 48 72 48 48 72 48 48 72 48 48 72 48 48 72 48 48 72 48 48 72 48 48 72 48 48 72 48 48 72 48 48 72 48 48 72 48 48 72 48 48 72 48 48 72 48 48 72 48 48 72 48 48 72 48 48 72 48 48 72 48 48 72 48 48 72 48 48 72 48 48 72 48 48 72 48 48 72 48 48 72 48 48 72 48 48 72 48 48 72 48 48 72 48 48 72 48 48 72 48 48 72 48 48 72 48 48 72 48 48 72 48 48 72 48 48 72 48 48 208 112 16 208 112 16 208 112 16 208 112 16 208 112 16 208 112 16 208 112 16 208 112 16 208 112 16 208 112 16 208 112 16 208 112 16 208 112 16 208 112 16 208 112 16 208 112 16 208 112 16 208 112 16 208 112 16 208 112 16 208 112 16 208 112 16 208 112 16 208 112 16 208 112 16 208 112 16 208 112 16 208 112 16 208 112 16 208 112 16 208 112 16 208 112 16 240 112 16 240 112 16 240 112 16 240 112 16 240 112 16 240 112 16 240 112 16 240 112 16 240 112 16 240 112 16 240 112 16 240 112 16 240 112 16 240 112 16 240 112 16 240 112 16 240 112 16 240 112 16 240 112 16 240 112 16 240 112 16 240 112 16 240 112 16 240 112 16 240 112 16 240 112 16 240 112 16 240 112 16 240 112 16 240 112 16 240 112 16 240 112 16
72 48 48 72 48 48 72 48 48 72 48 48 72 48 48 72 48 48 72 48 48 72 48 48 72 48 48 72 48 48 72 48 48 72 48 48 72 48 48 72 48 48 72 48 48 72 48 48 72 48 48 72 48 48 72 48 48 72 48 48 72 48 48 72 48 48 72 48 48 72 48 48 72 48 48 72 48 48 72 48 48 72 48 48 72 48 48 72 48 48 72 48 48 72 48 48 72 48 48 72 48 48 72 48 48 72 48 48 72 48 48 72 48 48 72 48 48 72 48 48 72 48 48 72 48 48 72 48 48 72 48 48 72 48 48 72 48 48 72 48 48 72 48 48 72 48 48 72 48 48 72 48 48 72 48 48 72 48 48 72 48 48 72 48 48 72 48 48 72 48 48 72 48 48 72 48 48 72 48 48 72 48 48 72 48 48 72 48 48 72 48 48 208 112 16 208 112 16 208 112 16 208 112 16 208 112 16 208 112 16 208 112 16 208 112 16 208 112 16 208 112 16 208 112 16 208 112 16 208 112 16 208 112 16 208 112 16 208 112 16 208 112 16 208 112 16 208 112 16 208 112 16 208 112 16 208 112 16 208 112 16 208 112 16 208 112 16 208 112 16 208 112 16 208 112 16 208 112 16 208 112 16 208 112 16 208 112 16 240 112 16 240 112 16 240 112 16 240 112 16 240 112 16 240 112 16 240 112 16 240 112 16 240 112 16 240 112 16 240 112 16 240 112 16 240 112 16 240 112 16 240 112 16 240 112 16 240 112 16 240 112 16 240 112 16 240 112 16 240 112 16 240 112 16 240 112 16 240 112 16 240 112 16 240 112 16 240 112 16 240 112 16 240 112 16 240 112 16 240 112 16 240 112 16
72 48 48 72 48 48 72 48 48 72 48 48 72 48 48 72 48 48 72 48 48 72 48 48 72 48 48 72 48 48 72 48 48 72 48 48 72 48 48 72 48 48 72 48 48 72 48 48 72 48 48 72 48 48 72 48 48 72 48 48 72 48 48 72 48 48 72 48 48 72 48 48 72 48 48 72 48 48 72 48 48 72 48 48 72 48 48 72 48 48 72 48 48 72 48 48 72 48 48 72 48 48 72 48 48 72 48 48 72 48 48 72 48 48 72 48 48 72 48 48 72 48 48 72 48 48 72 48 48 72 48 48 72 48 48 72 48 48 72 48 48 72 48 48 72 48 48 72 48 48 72 48 48 72 48 48 72 48 48 72 48 48 72 48 48 72 48 48 72 48 48 72 48 48 72 48 48 72 48 48 72 48 48 72 48 48 72 48 48 72 48 48 208 112 16 208 112 16 208 112 16 208 112 16 208 112 16 208 112 16 208 112 16 208 112 16 208 112 16 208 112 16 208 112 16 208 112 16 208 112 16 208 112 16 208 112 16 208 112 16 208 112 16 208 112 16 208 112 16 208 112 16 208 112 16 208 112 16 208 112 16 208 112 16 208 112 16 208 112 16 208 112 16 208 112 16 208 112 16 208 112 16 208 112 16 208 112 16 240 112 16 240 112 16 240 112 16 240 112 16 240 112 16 240 112 16 240 112 16 240 112 16 240 112 16 240 112 16 240 112 16 240 112 16 240 112 16 240 112 16 240 112 16 240 112 16 240 112 16 240 112 16 240 112 16 240 112 16 240 112 16 240 112 16 240 112 16 240 112 16 240 112 16 240 112 16 240 112 16 240 112 16 240 112 16 240 112 16 240 112 16 240 112 16
72 48 48 72 48 48 72 48 48 72 48 48 72 48 48 72 48 48 72 48 48 72 48 48 72 48 48 72 48 48 72 48 48 72 48 48 72 48 48 72 48 48 72 48 48 72 48 48 72 48 48 72 48 48 72 48 48 72 48 48 72 48 48 72 48 48 72 48 48 72 48 48 72 48 48 72 48 48 72 48 48 72 48 48 72 48 48 72 48 48 72 48 48 72 48 48 72 48 48 72 48 48 72 48 48 72 48 48 72 48 48 72 48 48 72 48 48 72 48 48 72 48 48 72 48 48 72 48 48 72 48 48 72 48 48 72 48 48 72 48 48 72 48 48 72 48 48 72 48 48 72 48 48 72 48 48 72 48 48 72 48 48 72 48 48 72 48 48 72 48 48 72 48 48 72 48 48 72 48 48 72 48 48 72 48 48 72 48 48 72 48 48 208 112 16 208 112 16 208 112 16 208 112 16 208 112 16 208 112 16 208 112 16 208 112 16 208 112 16 208 112 16 208 112 16 208 112 16 208 112 16 208 112 16 208 112 16 208 112 16 208 112 16 208 112 16 208 112 16 208 112 16 208 112 16 208 112 16 208 112 16 208 112 16 208 112 16 208 112 16 208 112 16 208 112 16 208 112 16 208 112 16 208 112 16 208 112 16 240 112 16 240 112 16 240 112 16 240 112 16 240 112 16 240 112 16 240 112 16 240 112 16 240 112 16 240 112 16 240 112 16 240 112 16 240 112 16 240 112 16 240 112 16 240 112 16 240 112 16 240 112 16 240 112 16 240 112 16 240 112 16 240 112 16 240 112 16 240 112 16 240 112 16 240 112 16 240 112 16 240 112 16 240 112 16 240 112 16 240 112 16 240 112 16
72 48 48 72 48 48 72 48 48 72 48 48 72 48 48 72 48 48 72 48 48 72 48 48 72 48 48 72 48 48 72 48 48 72 48 48 72 48 48 72 48 48 72 48 48 72 48 48 72 48 48 72 48 48 72 48 48 72 48 48 72 48 48 72 48 48 72 48 48 72 48 48 72 48 48 72 48 48 72 48 48 72 48 48 72 48 48 72 48 48 72 48 48 72 48 48 72 48 48 72 48 48 72 48 48 72 48 48 72 48 48 72 48 48 72 48 48 72 48 48 72 48 48 72 48 48 72 48 48 72 48 48 72 48 48 72 48 48 72 48 48 72 48 48 72 48 48 72 48 48 72 48 48 72 48 48 72 48 48 72 48 48 72 48 48 72 48 48 72 48 48 72 48 48 72 48 48 72 48 48 72 48 48 72 48 48 72 48 48 72 48 48 208 112 16 208 112 16 208 112 16 208 112 16 208 112 16 208 112 16 208 112 16 208 112 16 208 112 16 208 112 16 208 112 16 208 112 16 208 112 16 208 112 16 208 112 16 208 112 16 208 112 16 208 112 16 208 112 16 208 112 16 208 112 16 208 112 16 208 112 16 208 112 16 208 112 16 208 112 16 208 112 16 208 112 16 208 112 16 208 112 16 208 112 16 208 112 16 240 112 16 240 112 16 240 112 16 240 112 16 240 112 16 240 112 16 240 112 16 240 112 16 240 112 16 240 112 16 240 112 16 240 112 16 240 112 16 240 112 16 240 112 16 240 112 16 240 112 16 240 112 16 240 112 16 240 112 16 240 112 16 240 112 16 240 112 16 240 112 16 240 112 16 240 112 16 240 112 16 240 112 16 240 112 16 240 112 16 240 112 16 240 112 16
72 48 48 72 48 48 72 48 48 72 48 48 72 48 48 72 48 48 72 48 48 72 48 48 72 48 48 72 48 48 72 48 48 72 48 48 72 48 48 72 48 48 72 48 48 72 48 48 72 48 48 72 48 48 72 48 48 72 48 48 72 48 48 72 48 48 72 48 48 72 48 48 72 48 48 72 48 48 72 48 48 72 48 48 72 48 48 72 48 48 72 48 48 72 48 48 72 48 48 72 48 48 72 48 48 72 48 48 72 48 48 72 48 48 72 48 48 72 48 48 72 48 48 72 48 48 72 48 48 72 48 48 72 48 48 72 48 48 72 48 48 72 48 48 72 48 48 72 48 48 72 48 48 72 48 48 72 48 48 72 48 48 72 48 48 72 48 48 72 48 48 72 48 48 72 48 48 72 48 48 72 48 48 72 48 48 72 48 48 72 48 48 208 112 16 208 112 16 208 112 16 208 112 16 208 112 16 208 112 16 208 112 16 208 112 16 208 112 16 208 112 16 208 112 16 208 112 16 208 112 16 208 112 16 208 112 16 208 112 16 208 112 16 208 112 16 208 112 16 208 112 16 208 112 16 208 112 16 208 112 16 208 112 16 208 112 16 208 112 16 208 112 16 208 112 16 208 112 16 208 112 16 208 112 16 208 112 16 240 112 16 240 112 16 240 112 16 240 112 16 240 112 16 240 112 16 240 112 16 240 112 16 240 112 16 240 112 16 240 112 16 240 112 16 240 112 16 240 112 16 240 112 16 240 112 16 240 112 16 240 112 16 240 112 16 240 112 16 240 112 16 240 112 16 240 112 16 240 112 16 240 112 16 240 112 16 240 112 16 240 112 16 240 112 16 240 112 16 240 112 16 240 112 16
72 48 48 72 48 48 72 48 48 72 48 48 72 48 48 72 48 48 72 48 48 72 48 48 72 48 48 72 48 48 72 48 48 72 48 48 72 48 48 72 48 48 72 48 48 72 48 48 72 48 48 72 48 48 72 48 48 72 48 48 72 48 48 72 48 48 72 48 48 72 48 48 72 48 48 72 48 48 72 48 48 72 48 48 72 48 48 72 48 48 72 48 48 72 48 48 72 48 48 72 48 48 72 48 48 72 48 48 72 48 48 72 48 48 72 48 48 72 48 48 72 48 48 72 48 48 72 48 48 72 48 48 72 48 48 72 48 48 72 48 48 72 48 48 72 48 48 72 48 48 72 48 48 72 48 48 72 48 48 72 48 48 72 48 48 72 48 48 72 48 48 72 48 48 72 48 48 72 48 48 72 48 48 72 48 48 72 48 48 72 48 48 208 112 16 208 112 16 208 112 16 208 112 16 208 112 16 208 112 16 208 112 16 208 112 16 208 112 16 208 112 16 208 112 16 208 112 16 208 112 16 208 112 16 208 112 16 208 112 16 208 112 16 208 112 16 208 112 16 208 112 16 208 112 16 208 112 16 208 112 16 208 112 16 208 112 16 208 112 16 208 112 16 208 112 16 208 112 16 208 112 16 208 112 16 208 112 16 240 112 16 240 112 16 240 112 16 240 112 16 240 112 16 240 112 16 240 112 16 240 112 16 240 112 16 240 112 16 240 112 16 240 112 16 240 112 16 240 112 16 240 112 16 240 112 16 240 112 16 240 112 16 240 112 16 240 112 16 240 112 16 240 112 16 240 112 16 240 112 16 240 112 16 240 112 16 240 112 16 240 112 16 240 112 16 240 112 16 240 112 16 240 112 16
72 48 48 72 48 48 72 48 48 72 48 48 72 48 48 72 48 48 72 48 48 72 48 48 72 48 48 72 48 48 72 48 48 72 48 48 72 48 48 72 48 48 72 48 48 72 48 48 72 48 48 72 48 48 72 48 48 72 48 48 72 48 48 72 48 48 72 48 48 72 48 48 72 48 48 72 48 48 72 48 48 72 48 48 72 48 48 72 48 48 72 48 48 72 48 48 72 48 48 72 48 48 72 48 48 72 48 48 72 48 48 72 48 48 72 48 48 72 48 48 72 48 48 72 48 48 72 48 48 72 48 48 72 48 48 72 48 48 72 48 48 72 48 48 72 48 48 72 48 48 72 48 48 72 48 48 72 48 48 72 48 48 72 48 48 72 48 48 72 48 48 72 48 48 72 48 48 72 48 48 72 48 48 72 48 48 72 48 48 72 48 48 208 112 16 208 112 16 208 112 16 208 112 16 208 112 16 208 112 16 208 112 16 208 112 16 208 112 16 208 112 16 208 112 16 208 112 16 208 112 16 208 112 16 208 112 16 208 112 16 208 112 16 208 112 16 208 112 16 208 112 16 208 112 16 208 112 16 208 112 16 208 112 16 208 112 16 208 112 16 208 112 16 208 112 16 208 112 16 208 112 16 208 112 16 208 112 16 240 112 16 240 112 16 240 112 16 240 112 16 240 112 16 240 112 16 240 112 16 240 112 16 240 112 16 240 112 16 240 112 16 240 112 16 240 112 16 240 112 16 240 112 16 240 112 16 240 112 16 240 112 16 240 112 16 240 112 16 240 112 16 240 112 16 240 112 16 240 112 16 240 112 16 240 112 16 240 112 16 240 112 16 240 112 16 240 112 16 240 112 16 240 112 16
72 48 48 72 48 48 72 48 48 72 48 48 72 48 48 72 48 48 72 48 48 72 48 48 72 48 48 72 48 48 72 48 48 72 48 48 72 48 48 72 48 48 72 48 48 72 48 48 72 48 48 72 48 48 72 48 48 72 48 48 72 48 48 72 48 48 72 48 48 72 48 48 72 48 48 72 48 48 72 48 48 72 48 48 72 48 48 72 48 48 72 48 48 72 48 48 72 48 48 72 48 48 72 48 48 72 48 48 72 48 48 72 48 48 72 48 48 72 48 48 72 48 48 72 48 48 72 48 48 72 48 48 72 48 48 72 48 48 72 48 48 72 48 48 72 48 48 72 48 48 72 48 48 72 48 48 72 48 48 72 48 48 72 48 48 72 48 48 72 48 48 72 48 48 72 48 48 72 48 48 72 48 48 72 48 48 72 48 48 72 48 48 208 112 16 208 112 16 208 112 16 208 112 16 208 112 16 208 112 16 208 112 16 208 112 16 208 112 16 208 112 16 208 112 16 208 112 16 208 112 16 208 112 16 208 112 16 208 112 16 208 112 16 208 112 16 208 112 16 208 112 16 208 112 16 208 112 16 208 112 16 208 112 16 208 112 16 208 112 16 208 112 16 208 112 16 208 112 16 208 112 16 208 112 16 208 112 16 240 112 16 240 112 16 240 112 16 240 112 16 240 112 16 240 112 16 240 112 16 240 112 16 240 112 16 240 112 16 240 112 16 240 112 16 240 112 16 240 112 16 240 112 16 240 112 16 240 112 16 240 112 16 240 112 16 240 112 16 240 112 16 240 112 16 240 112 16 240 112 16 240 112 16 240 112 16 240 112 16 240 112 16 240 112 16 240 112 16 240 112 16 240 112 16
72 48 48 72 48 48 72 48 48 72 48 48 72 48 48 72 48 48 72 48 48 72 48 48 72 48 48 72 48 48 72 48 48 72 48 48 72 48 48 72 48 48 72 48 48 72 48 48 72 48 48 72 48 48 72 48 48 72 48 48 72 48 48 72 48 48 72 48 48 72 48 48 72 48 48 72 48 48 72 48 48 72 48 48 72 48 48 72 48 48 72 48 48 72 48 48 72 48 48 72 48 48 72 48 48 72 48 48 72 48 48 72 48 48 72 48 48 72 48 48 72 48 48 72 48 48 72 48 48 72 48 48 72 48 48 72 48 48 72 48 48 72 48 48 72 48 48 72 48 48 72 48 48 72 48 48 72 48 48 72 48 48 72 48 48 72 48 48 72 48 48 72 48 48 72 48 48 72 48 48 72 48 48 72 48 48 72 48 48 72 48 48 208 112 16 208 112 16 208 112 16 208 112 16 208 112 16 208 112 16 208 112 16 208 112 16 208 112 16 208 112 16 208 112 16 208 112 16 208 112 16 208 112 16 208 112 16 208 112 16 208 112 16 208 112 16 208 112 16 208 112 16 208 112 16 208 112 16 208 112 16 208 112 16 208 112 16 208 112 16 208 112 16 208 112 16 208 112 16 208 112 16 208 112 16 208 112 16 240 112 16 240 112 16 240 112 16 240 112 16 240 112 16 240 112 16 240 112 16 240 112 16 240 112 16 240 112 16 240 112 16 240 112 16 240 112 16 240 112 16 240 112 16 240 112 16 240 112 16 240 112 16 240 112 16 240 112 16 240 112 16 240 112 16 240 112 16 240 112 16 240 112 16 240 112 16 240 112 16 240 112 16 240 112 16 240 112 16 240 112 16 240 112 16
72 48 48 72 48 48 72 48 48 72 48 48 72 48 48 72 48 48 72 48 48 72 48 48 72 48 48 72 48 48 72 48 48 72 48 48 72 48 48 72 48 48 72 48 48 72 48 48 72 48 48 72 48 48 72 48 48 72 48 48 72 48 48 72 48 48 72 48 48 72 48 48 72 48 48 72 48 48 72 48 48 72 48 48 72 48 48 72 48 48 72 48 48 72 48 48 72 48 48 72 48 48 72 48 48 72 48 48 72 48 48 72 48 48 72 48 48 72 48 48 72 48 48 72 48 48 72 48 48 72 48 48 72 48 48 72 48 48 72 48 48 72 48 48 72 48 48 72 48 48 72 48 48 72 48 48 72 48 48 72 48 48 72 48 48 72 48 48 72 48 48 72 48 48 72 48 48 72 48 48 72 48 48 72 48 48 72 48 48 72 48 48 208 112 16 208 112 16 208 112 16 208 112 16 208 112 16 208 112 16 208 112 16 208 112 16 208 112 16 208 112 16 208 112 16 208 112 16 208 112 16 208 112 16 208 112 16 208 112 16 208 112 16 208 112 16 208 112 16 208 112 16 208 112 16 208 112 16 208 112 16 208 112 16 208 112 16 208 112 16 208 112 16 208 112 16 208 112 16 208 112 16 208 112 16 208 112 16 240 112 16 240 112 16 240 112 16 240 112 16 240 112 16 240 112 16 240 112 16 240 112 16 240 112 16 240 112 16 240 112 16 240 112 16 240 112 16 240 112 16 240 112 16 240 112 16 240 112 16 240 112 16 240 112 16 240 112 16 240 112 16 240 112 16 240 112 16 240 112 16 240 112 16 240 112 16 240 112 16 240 112 16 240 112 16 240 112 16 240 112 16 240 112 16
72 48 48 72 48 48 72 48 48 72 48 48 72 48 48 72 48 48 72 48 48 72 48 48 72 48 48 72 48 48 72 48 48 72 48 48 72 48 48 72 48 48 72 48 48 72 48 48 72 48 48 72 48 48 72 48 48 72 48 48 72 48 48 72 48 48 72 48 48 72 48 48 72 48 48 72 48 48 72 48 48 72 48 48 72 48 48 72 48 48 72 48 48 72 48 48 72 48 48 72 48 48 72 48 48 72 48 48 72 48 48 72 48 48 72 48 48 72 48 48 72 48 48 72 48 48 72 48 48 72 48 48 72 48 48 72 48 48 72 48 48 72 48 48 72 48 48 72 48 48 72 48 48 72 48 48 72 48 48 72 48 48 72 48 48 72 48 48 72 48 48 72 48 48 72 48 48 72 48 48 72 48 48 72 48 48 72 48 48 72 48 48 208 112 16 208 112 16 208 112 16 208 112 16 208 112 16 208 112 16 208 112 16 208 112 16 208 112 16 208 112 16 208 112 16 208 112 16 208 112 16 208 112 16 208 112 16 208 112 16 208 112 16 208 112 16 208 112 16 208 112 16 208 112 16 208 112 16 208 112 16 208 112 16 208 112 16 208 112 16 208 112 16 208 112 16 208 112 16 208 112 16 208 112 16 208 112 16 240 112 16 240 112 16 240 112 16 240 112 16 240 112 16 240 112 16 240 112 16 240 112 16 240 112 16 240 112 16 240 112 16 240 112 16 240 112 16 240 112 16 240 112 16 240 112 16 240 112 16 240 112 16 240 112 16 240 112 16 240 112 16 240 112 16 240 112 16 240 112 16 240 112 16 240 112 16 240 112 16 240 112 16 240 112 16 240 112 16 240 112 16 240 112 16
72 48 48 72 48 48 72 48 48 72 48 48 72 48 48 72 48 48 72 48 48 72 48 48 72 48 48 72 48 48 72 48 48 72 48 48 72 48 48 72 48 48 72 48 48 72 48 48 72 48 48 72 48 48 72 48 48 72 48 48 72 48 48 72 48 48 72 48 48 72 48 48 72 48 48 72 48 48 72 48 48 72 48 48 72 48 48 72 48 48 72 48 48 72 48 48 72 48 48 72 48 48 72 48 48 72 48 48 72 48 48 72 48 48 72 48 48 72 48 48 72 48 48 72 48 48 72 48 48 72 48 48 72 48 48 72 48 48 72 48 48 72 48 48 72 48 48 72 48 48 72 48 48 72 48 48 72 48 48 72 48 48 72 48 48 72 48 48 72 48 48 72 48 48 72 48 48 72 48 48 72 48 48 72 48 48 72 48 48 72 48 48 208 112 16 208 112 16 208 112 16 208 112 16 208 112 16 208 112 16 208 112 16 208 112 16 208 112 16 208 112 16 208 112 16 208 112 16 208 112 16 208 112 16 208 112 16 208 112 16 208 112 16 208 112 16 208 112 16 208 112 16 208 112 16 208 112 16 208 112 16 208 112 16 208 112 16 208 112 16 208 112 16 208 112 16 208 112 16 208 112 16 208 112 16 208 112 16 240 112 16 240 112 16 240 112 16 240 112 16 240 112 16 240 112 16 240 112 16 240 112 16 240 112 16 240 112 16 240 112 16 240 112 16 240 112 16 240 112 16 240 112 16 240 112 16 240 112 16 240 112 16 240 112 16 240 112 16 240 112 16 240 112 16 240 112 16 240 112 16 240 112 16 240 112 16 240 112 16 240 112 16 240 112 16 240 112 16 240 112 16 240 112 16
72 48 48 72 48 48 72 48 48 72 48 48 72 48 48 72 48 48 72 48 48 72 48 48 72 48 48 72 48 48 72 48 48 72 48 48 72 48 48 72 48 48 72 48 48 72 48 48 72 48 48 72 48 48 72 48 48 72 48 48 72 48 48 72 48 48 72 48 48 72 48 48 72 48 48 72 48 48 72 48 48 72 48 48 72 48 48 72 48 48 72 48 48 72 48 48 72 48 48 72 48 48 72 48 48 72 48 48 72 48 48 72 48 48 72 48 48 72 48 48 72 48 48 72 48 48 72 48 48 72 48 48 72 48 48 72 48 48 72 48 48 72 48 48 72 48 48 72 48 48 72 48 48 72 48 48 72 48 48 72 48 48 72 48 48 72 48 48 72 48 48 72 48 48 72 48 48 72 48 48 72 48 48 72 48 48 72 48 48 72 48 48 208 112 16 208 112 16 208 112 16 208 112 16 208 112 16 208 112 16 208 112 16 208 112 16 208 112 16 208 112 16 208 112 16 208 112 16 208 112 16 208 112 16 208 112 16 208 112 16 208 112 16 208 112 16 208 112 16 208 112 16 208 112 16 208 112 16 208 112 16 208 112 16 208 112 16 208 112 16 208 112 16 208 112 16 208 112 16 208 112 16 208 112 16 208 112 16 240 112 16 240 112 16 240 112 16 240 112 16 240 112 16 240 112 16 240 112 16 240 112 16 240 112 16 240 112 16 240 112 16 240 112 16 240 112 16 240 112 16 240 112 16 240 112 16 240 112 16 240 112 16 240 112 16 240 112 16 240 112 16 240 112 16 240 112 16 240 112 16 240 112 16 240 112 16 240 112 16 240 112 16 240 112 16 240 112 16 240 112 16 240 112 16
72 48 48 72 48 48 72 48 48 72 48 48 72 48 48 72 48 48 72 48 48 72 48 48 72 48 48 72 48 48 72 48 48 72 48 48 72 48 48 72 48 48 72 48 48 72 48 48 72 48 48 72 48 48 72 48 48 72 48 48 72 48 48 72 48 48 72 48 48 72 48 48 72 48 48 72 48 48 72 48 48 72 48 48 72 48 48 72 48 48 72 48 48 72 48 48 72 48 48 72 48 48 72 48 48 72 48 48 72 48 48 72 48 48 72 48 48 72 48 48 72 48 48 72 48 48 72 48 48 72 48 48 72 48 48 72 48 48 72 48 48 72 48 48 72 48 48 72 48 48 72 48 48 72 48 48 72 48 48 72 48 48 72 48 48 72 48 48 72 48 48 72 48 48 72 48 48 72 48 48 72 48 48 72 48 48 72 48 48 72 48 48 208 112 16 208 112 16 208 112 16 208 112 16 208 112 16 208 112 16 208 112 16 208 112 16 208 112 16 208 112 16 208 112 16 208 112 16 208 112 16 208 112 16 208 112 16 208 112 16 208 112 16 208 112 16 208 112 16 208 112 16 208 112 16 208 112 16 208 112 16 208 112 16 208 112 16 208 112 16 208 112 16 208 112 16 208 112 16 208 112 16 208 112 16 208 112 16 240 112 16 240 112 16 240 112 16 240 112 16 240 112 16 240 112 16 240 112 16 240 112 16 240 112 16 240 112 16 240 112 16 240 112 16 240 112 16 240 112 16 240 112 16 240 112 16 240 112 16 240 112 16 240 112 16 240 112 16 240 112 16 240 112 16 240 112 16 240 112 16 240 112 16 240 112 16 240 112 16 240 112 16 240 112 16 240 112 16 240 112 16 240 112 16
72 48 48 72 48 48 72 48 48 72 48 48 72 48 48 72 48 48 72 48 48 72 48 48 72 48 48 72 48 48 72 48 48 72 48 48 72 48 48 72 48 48 72 48 48 72 48 48 72 48 48 72 48 48 72 48 48 72 48 48 72 48 48 72 48 48 72 48 48 72 48 48 72 48 48 72 48 48 72 48 48 72 48 48 72 48 48 72 48 48 72 48 48 72 48 48 72 48 48 72 48 48 72 48 48 72 48 48 72 48 48 72 48 48 72 48 48 72 48 48 72 48 48 72 48 48 72 48 48 72 48 48 72 48 48 72 48 48 72 48 48 72 48 48 72 48 48 72 48 48 72 48 48 72 48 48 72 48 48 72 48 48 72 48 48 72 48 48 72 48 48 72 48 48 72 48 48 72 48 48 72 48 48 72 48 48 72 48 48 72 48 48 208 112 16 208 112 16 208 112 16 208 112 16 208 112 16 208 112 16 208 112 16 208 112 16 208 112 16 208 112 16 208 112 16 208 112 16 208 112 16 208 112 16 208 112 16 208 112 16 208 112 16 208 112 16 208 112 16 208 112 16 208 112 16 208 112 16 208 112 16 208 112 16 208 112 16 208 112 16 208 112 16 208 112 16 208 112 16 208 112 16 208 112 16 208 112 16 240 112 16 240 112 16 240 112 16 240 112 16 240 112 16 240 112 16 240 112 16 240 112 16 240 112 16 240 112 16 240 112 16 240 112 16 240 112 16 240 112 16 240 112 16 240 112 16 240 112 16 240 112 16 240 112 16 240 112 16 240 112 16 240 112 16 240 112 16 240 112 16 240 112 16 240 112 16 240 112 16 240 112 16 240 112 16 240 112 16 240 112 16 240 112 16
72 48 48 72 48 48 72 48 48 72 48 48 72 48 48 72 48 48 72 48 48 72 48 48 72 48 48 72 48 48 72 48 48 72 48 48 72 48 48 72 48 48 72 48 48 72 48 48 72 48 48 72 48 48 72 48 48 72 48 48 72 48 48 72 48 48 72 48 48 72 48 48 72 48 48 72 48 48 72 48 48 72 48 48 72 48 48 72 48 48 72 48 48 72 48 48 72 48 48 72 48 48 72 48 48 72 48 48 72 48 48 72 48 48 72 48 48 72 48 48 72 48 48 72 48 48 72 48 48 72 48 48 72 48 48 72 48 48 72 48 48 72 48 48 72 48 48 72 48 48 72 48 48 72 48 48 72 48 48 72 48 48 72 48 48 72 48 48 72 48 48 72 48 48 72 48 48 72 48 48 72 48 48 72 48 48 72 48 48 72 48 48 208 112 16 208 112 16 208 112 16 208 112 16 208 112 16 208 112 16 208 112 16 208 112 16 208 112 16 208 112 16 208 112 16 208 112 16 208 112 16 208 112 16 208 112 16 208 112 16 208 112 16 208 112 16 208 112 16 208 112 16 208 112 16 208 112 16 208 112 16 208 112 16 208 112 16 208 112 16 208 112 16 208 112 16 208 112 16 208 112 16 208 112 16 208 112 16 240 112 16 240 112 16 240 112 16 240 112 16 240 112 16 240 112 16 240 112 16 240 112 16 240 112 16 240 112 16 240 112 16 240 112 16 240 112 16 240 112 16 240 112 16 240 112 16 240 112 16 240 112 16 240 112 16 240 112 16 240 112 16 240 112 16 240 112 16 240 112 16 240 112 16 240 112 16 240 112 16 240 112 16 240 112 16 240 112 16 240 112 16 240 112 16
216 112 16 216 112 16 216 112 16 216 112 16 216 112 16 216 112 16 216 112 16 216 112 16 216 112 16 216 112 16 216 112 16 216 112 16 216 112 16 216 112 16 216 112 16 216 112 16 216 112 16 216 112 16 216 112 16 216 112 16 216 112 16 216 112 16 216 112 16 216 112 16 216 112 16 216 112 16 216 112 16 216 112 16 216 112 16 216 112 16 216 112 16 216 112 16 72 120 0 72 120 0 72 120 0 72 120 0 72 120 0 72 120 0 72 120 0 72 120 0 72 120 0 72 120 0 72 120 0 72 120 0 72 120 0 72 120 0 72 120 0 72 120 0 72 120 0 72 120 0 72 120 0 72 120 0 72 120 0 72 120 0 72 120 0 72 120 0 72 120 0 72 120 0 72 120 0 72 120 0 72 120 0 72 120 0 72 120 0 72 120 0 216 112 16 216 112 16 216 112 16 216 112 16 216 112 16 216 112 16 216 112 16 216 112 16 216 112 16 216 112 16 216 112 16 216 112 16 216 112 16 216 112 16 216 112 16 216 112 16 216 112 16 216 112 16 216 112 16 216 112 16 216 112 16 216 112 16 216 112 16 216 112 16 216 112 16 216 112 16 216 112 16 216 112 16 216 112 16 216 112 16 216 112 16 216 112 16 72 120 0 72 120 0 72 120 0 72 120 0 72 120 0 72 120 0 72 120 0 72 120 0 72 120 0 72 120 0 72 120 0 72 120 0 72 120 0 72 120 0 72 120 0 72 120 0 72 120 0 72 120 0 72 120 0 72 120 0 72 120 0 72 120 0 72 120 0 72 120 0 72 120 0 72 120 0 72 120 0 72 120 0 72 120 0 72 120 0 72 120 0 72 120 0
216 112 16 216 112 16 216 112 16 216 112 16 216 112 16 216 112 16 216 112 16 216 112 16 216 112 16 216 112 16 216 112 16 216 112 16 216 112 16 216 112 16 216 112 16 216 112 16 216 112 16 216 112 16 216 112 16 216 112 16 216 112 16 216 112 16 216 112 16 216 112 16 216 112 16 216 112 16 216 112 16 216 112 16 216 112 16 216 112 16 216 112 16 216 112 16 72 120 0 72 120 0 72 120 0 72 120 0 72 120 0 72 120 0 72 120 0 72 120 0 72 120 0 72 120 0 72 120 0 72 120 0 72 120 0 72 120 0 72 120 0 72 120 0 72 120 0 72 120 0 72 120 0 72 120 0 72 120 0 72 120 0 72 120 0 72 120 0 72 120 0 72 120 0 72 120 0 72 120 0 72 120 0 72 120 0 72 120 0 72 120 0 216 112 16 216 112 16 216 112 16 216 112 16 216 112 16 216 112 16 216 112 16 216 112 16 216 112 16 216 112 16 216 112 16 216 112 16 216 112 16 216 112 16 216 112 16 216 112 16 216 112 16 216 112 16 216 112 16 216 112 16 216 112 16 216 112 16 216 112 16 216 112 16 216 112 16 216 112 16 216 112 16 216 112 16 216 112 16 216 112 16 216 112 16 216 112 16 72 120 0 72 120 0 72 120 0 72 120 0 72 120 0 72 120 0 72 120 0 72 120 0 72 120 0 72 120 0 72 120 0 72 120 0 72 120 0 72 120 0 72 120 0 72 120 0 72 120 0 72 120 0 72 120 0 72 120 0 72 120 0 72 120 0 72 120 0 72 120 0 72 120 0 72 120 0 72 120 0 72 120 0 72 120 0 72 120 0 72 120 0 72 120 0
216 112 16 216 112 16 216 112 16 216 112 16 216 112 16 216 112 16 216 112 16 216 112 16 216 112 16 216 112 16 216 112 16 216 112 16 216 112 16 216 112 16 216 112 16 216 112 16 216 112 16 216 112 16 216 112 16 216 112 16 216 112 16 216 112 16 216 112 16 216 112 16 216 112 16 216 112 16 216 112 16 216 112 16 216 112 16 216 112 16 216 112 16 216 112 16 72 120 0 72 120 0 72 120 0 72 120 0 72 120 0 72 120 0 72 120 0 72 120 0 72 120 0 72 120 0 72 120 0 72 120 0 72 120 0 72 120 0 72 120 0 72 120 0 72 120 0 72 120 0 72 120 0 72 120 0 72 120 0 72 120 0 72 120 0 72 120 0 72 120 0 72 120 0 72 120 0 72 120 0 72 120 0 72 120 0 72 120 0 72 120 0 216 112 16 216 112 16 216 112 16 216 112 16 216 112 16 216 112 16 216 112 16 216 112 16 216 112 16 216 112 16 216 112 16 216 112 16 216 112 16 216 112 16 216 112 16 216 112 16 216 112 16 216 112 16 216 112 16 216 112 16 216 112 16 216 112 16 216 112 16 216 112 16 216 112 16 216 112 16 216 112 16 216 112 16 216 112 16 216 112 16 216 112 16 216 112 16 72 120 0 72 120 0 72 120 0 72 120 0 72 120 0 72 120 0 72 120 0 72 120 0 72 120 0 72 120 0 72 120 0 72 120 0 72 120 0 72 120 0 72 120 0 72 120 0 72 120 0 72 120 0 72 120 0 72 120 0 72 120 0 72 120 0 72 120 0 72 120 0 72 120 0 72 120 0 72 120 0 72 120 0 72 120 0 72 120 0 72 120 0 72 120 0
216 112 16 216 112 16 216 112 16 216 112 16 216 112 16 216 112 16 216 112 16 216 112 16 216 112 16 216 112 16 216 112 16 216 112 16 216 112 16 216 112 16 216 112 16 216 112 16 216 112 16 216 112 16 216 112 16 216 112 16 216 112 16 216 112 16 216 112 16 216 112 16 216 112 16 216 112 16 216 112 16 216 112 16 216 112 16 216 112 16 216 112 16 216 112 16 72 120 0 72 120 0 72 120 0 72 120 0 72 120 0 72 120 0 72 120 0 72 120 0 72 120 0 72 120 0 72 120 0 72 120 0 72 120 0 72 120 0 72 120 0 72 120 0 72 120 0 72 120 0 72 120 0 72 120 0 72 120 0 72 120 0 72 120 0 72 120 0 72 120 0 72 120 0 72 120 0 72 120 0 72 120 0 72 120 0 72 120 0 72 120 0 216 112 16 216 112 16 216 112 16 216 112 16 216 112 16 216 112 16 216 112 16 216 112 16 216 112 16 216 112 16 216 112 16 216 112 16 216 112 16 216 112 16 216 112 16 216 112 16 216 112 16 216 112 16 216 112 16 216 112 16 216 112 16 216 112 16 216 112 16 216 112 16 216 112 16 216 112 16 216 112 16 216 112 16 216 112 16 216 112 16 216 112 16 216 112 16 72 120 0 72 120 0 72 120 0 72 120 0 72 120 0 72 120 0 72 120 0 72 120 0 72 120 0 72 120 0 72 120 0 72 120 0 72 120 0 72 120 0 72 120 0 72 120 0 72 120 0 72 120 0 72 120 0 72 120 0 72 120 0 72 120 0 72 120 0 72 120 0 72 120 0 72 120 0 72 120 0 72 120 0 72 120 0 72 120 0 72 120 0 72 120 0
216 112 16 216 112 16 216 112 16 216 112 16 216 112 16 216 112 16 216 112 16 216 112 16 216 112 16 216 112 16 216 112 16 216 112 16 216 112 16 216 112 16 216 112 16 216 112 16 216 112 16 216 112 16 216 112 16 216 112 16 216 112 16 216 112 16 216 112 16 216 112 16 216 112 16 216 112 16 216 112 16 216 112 16 216 112 16 216 112 16 216 112 16 216 112 16 72 120 0 72 120 0 72 120 0 72 120 0 72 120 0 72 120 0 72 120 0 72 120 0 72 120 0 72 120 0 72 120 0 72 120 0 72 120 0 72 120 0 72 120 0 72 120 0 72 120 0 72 120 0 72 120 0 72 120 0 72 120 0 72 120 0 72 120 0 72 120 0 72 120 0 72 120 0 72 120 0 72 120 0 72 120 0 72 120 0 72 120 0 72 120 0 216 112 16 216 112 16 216 112 16 216 112 16 216 112 16 216 112 16 216 112 16 216 112 16 216 112 16 216 112 16 216 112 16 216 112 16 216 112 16 216 112 16 216 112 16 216 112 16 216 112 16 216 112 16 216 112 16 216 112 16 216 112 16 216 112 16 216 112 16 216 112 16 216 112 16 216 112 16 216 112 16 216 112 16 216 112 16 216 112 16 216 112 16 216 112 16 72 120 0 72 120 0 72 120 0 72 120 0 72 120 0 72 120 0 72 120 0 72 120 0 72 120 0 72 120 0 72 120 0 72 120 0 72 120 0 72 120 0 72 120 0 72 120 0 72 120 0 72 120 0 72 120 0 72 120 0 72 120 0 72 120 0 72 120 0 72 120 0 72 120 0 72 120 0 72 120 0 72 120 0 72 120 0 72 120 0 72 120 0 72 120 0
216 112 16 216 112 16 216 112 16 216 112 16 216 112 16 216 112 16 216 112 16 216 112 16 216 112 16 216 112 16 216 112 16 216 112 16 216 112 16 216 112 16 216 112 16 216 112 16 216 112 16 216 112 16 216 112 16 216 112 16 216 112 16 216 112 16 216 112 16 216 112 16 216 112 16 216 112 16 216 112 16 216 112 16 216 112 16 216 112 16 216 112 16 216 112 16 72 120 0 72 120 0 72 120 0 72 120 0 72 120 0 72 120 0 72 120 0 72 120 0 72 120 0 72 120 0 72 120 0 72 120 0 72 120 0 72 120 0 72 120 0 72 120 0 72 120 0 72 120 0 72 120 0 72 120 0 72 120 0 72 120 0 72 120 0 72 120 0 72 120 0 72 120 0 72 120 0 72 120 0 72 120 0 72 120 0 72 120 0 72 120 0 216 112 16 216 112 16 216 112 16 216 112 16 216 112 16 216 112 16 216 112 16 216 112 16 216 112 16 216 112 16 216 112 16 216 112 16 216 112 16 216 112 16 216 112 16 216 112 16 216 112 16 216 112 16 216 112 16 216 112 16 216 112 16 216 112 16 216 112 16 216 112 16 216 112 16 216 112 16 216 112 16 216 112 16 216 112 16 216 112 16 216 112 16 216 112 16 72 120 0 72 120 0 72 120 0 72 120 0 72 120 0 72 120 0 72 120 0 72 120 0 72 120 0 72 120 0 72 120 0 72 120 0 72 120 0 72 120 0 72 120 0 72 120 0 72 120 0 72 120 0 72 120 0 72 120 0 72 120 0 72 120 0 72 120 0 72 120 0 72 120 0 72 120 0 72 120 0 72 120 0 72 120 0 72 120 0 72 120 0 72 120 0
216 112 16 216 112 16 216 112 16 216 112 16 216 112 16 216 112 16 216 112 16 216 112 16 216 112 16 216 112 16 216 112 16 216 112 16 216 112 16 216 112 16 216 112 16 216 112 16 216 112 16 216 112 16 216 112 16 216 112 16 216 112 16 216 112 16 216 112 16 216 112 16 216 112 16 216 112 16 216 112 16 216 112 16 216 112 16 216 112 16 216 112 16 216 112 16 72 120 0 72 120 0 72 120 0 72 120 0 72 120 0 72 120 0 72 120 0 72 120 0 72 120 0 72 120 0 72 120 0 72 120 0 72 120 0 72 120 0 72 120 0 72 120 0 72 120 0 72 120 0 72 120 0 72 120 0 72 120 0 72 120 0 72 120 0 72 120 0 72 120 0 72 120 0 72 120 0 72 120 0 72 120 0 72 120 0 72 120 0 72 120 0 216 112 16 216 112 16 216 112 16 216 112 16 216 112 16 216 112 16 216 112 16 216 112 16 216 112 16 216 112 16 216 112 16 216 112 16 216 112 16 216 112 16 216 112 16 216 112 16 216 112 16 216 112 16 216 112 16 216 112 16 216 112 16 216 112 16 216 112 16 216 112 16 216 112 16 216 112 16 216 112 16 216 112 16 216 112 16 216 112 16 216 112 16 216 112 16 72 120 0 72 120 0 72 120 0 72 120 0 72 120 0 72 120 0 72 120 0 72 120 0 72 120 0 72 120 0 72 120 0 72 120 0 72 120 0 72 120 0 72 120 0 72 120 0 72 120 0 72 120 0 72 120 0 72 120 0 72 120 0 72 120 0 72 120 0 72 120 0 72 120 0 72 120 0 72 120 0 72 120 0 72 120 0 72 120 0 72 120 0 72 120 0
216 112 16 216 112 16 216 112 16 216 112 16 216 112 16 216 112 16 216 112 16 216 112 16 216 112 16 216 112 16 216 112 16 216 112 16 216 112 16 216 112 16 216 112 16 216 112 16 216 112 16 216 112 16 216 112 16 216 112 16 216 112 16 216 112 16 216 112 16 216 112 16 216 112 16 216 112 16 216 112 16 216 112 16 216 112 16 216 112 16 216 112 16 216 112 16 72 120 0 72 120 0 72 120 0 72 120 0 72 120 0 72 120 0 72 120 0 72 120 0 72 120 0 72 120 0 72 120 0 72 120 0 72 120 0 72 120 0 72 120 0 72 120 0 72 120 0 72 120 0 72 120 0 72 120 0 72 120 0 72 120 0 72 120 0 72 120 0 72 120 0 72 120 0 72 120 0 72 120 0 72 120 0 72 120 0 72 120 0 72 120 0 216 112 16 216 112 16 216 112 16 216 112 16 216 112 16 216 112 16 216 112 16 216 112 16 216 112 16 216 112 16 216 112 16 216 112 16 216 112 16 216 112 16 216 112 16 216 112 16 216 112 16 216 112 16 216 112 16 216 112 16 216 112 16 216 112 16 216 112 16 216 112 16 216 112 16 216 112 16 216 112 16 216 112 16 216 112 16 216 112 16 216 112 16 216 112 16 72 120 0 72 120 0 72 120 0 72 120 0 72 120 0 72 120 0 72 120 0 72 120 0 72 120 0 72 120 0 72 120 0 72 120 0 72 120 0 72 120 0 72 120 0 72 120 0 72 120 0 72 120 0 72 120 0 72 120 0 72 120 0 72 120 0 72 120 0 72 120 0 72 120 0 72 120 0 72 120 0 72 120 0 72 120 0 72 120 0 72 120 0 72 120 0
216 112 16 216 112 16 216 112 16 216 112 16 216 112 16 216 112 16 216 112 16 216 112 16 216 112 16 216 112 16 216 112 16 216 112 16 216 112 16 216 112 16 216 112 16 216 112 16 216 112 16 216 112 16 216 112 16 216 112 16 216 112 16 216 112 16 216 112 16 216 112 16 216 112 16 216 112 16 216 112 16 216 112 16 216 112 16 216 112 16 216 112 16 216 112 16 72 120 0 72 120 0 72 120 0 72 120 0 72 120 0 72 120 0 72 120 0 72 120 0 72 120 0 72 120 0 72 120 0 72 120 0 72 120 0 72 120 0 72 120 0 72 120 0 72 120 0 72 120 0 72 120 0 72 120 0 72 120 0 72 120 0 72 120 0 72 120 0 72 120 0 72 120 0 72 120 0 72 120 0 72 120 0 72 120 0 72 120 0 72 120 0 216 112 16 216 112 16 216 112 16 216 112 16 216 112 16 216 112 16 216 112 16 216 112 16 216 112 16 216 112 16 216 112 16 216 112 16 216 112 16 216 112 16 216 112 16 216 112 16 216 112 16 216 112 16 216 112 16 216 112 16 216 112 16 216 112 16 216 112 16 216 112 16 216 112 16 216 112 16 216 112 16 216 112 16 216 112 16 216 112 16 216 112 16 216 112 16 72 120 0 72 120 0 72 120 0 72 120 0 72 120 0 72 120 0 72 120 0 72 120 0 72 120 0 72 120 0 72 120 0 72 120 0 72 120 0 72 120 0 72 120 0 72 120 0 72 120 0 72 120 0 72 120 0 72 120 0 72 120 0 72 120 0 72 120 0 72 120 0 72 120 0 72 120 0 72 120 0 72 120 0 72 120 0 72 120 0 72 120 0 72 120 0
216 112 16 216 112 16 216 112 16 216 112 16 216 112 16 216 112 16 216 112 16 216 112 16 216 112 16 216 112 16 216 112 16 216 112 16 216 112 16 216 112 16 216 112 16 216 112 16 216 112 16 216 112 16 216 112 16 216 112 16 216 112 16 216 112 16 216 112 16 216 112 16 216 112 16 216 112 16 216 112 16 216 112 16 216 112 16 216 112 16 216 112 16 216 112 16 72 120 0 72 120 0 72 120 0 72 120 0 72 120 0 72 120 0 72 120 0 72 120 0 72 120 0 72 120 0 72 120 0 72 120 0 72 120 0 72 120 0 72 120 0 72 120 0 72 120 0 72 120 0 72 120 0 72 120 0 72 120 0 72 120 0 72 120 0 72 120 0 72 120 0 72 120 0 72 120 0 72 120 0 72 120 0 72 120 0 72 120 0 72 120 0 216 112 16 216 112 16 216 112 16 216 112 16 216 112 16 216 112 16 216 112 16 216 112 16 216 112 16 216 112 16 216 112 16 216 112 16 216 112 16 216 112 16 216 112 16 216 112 16 216 112 16 216 112 16 216 112 16 216 112 16 216 112 16 216 112 16 216 112 16 216 112 16 216 112 16 216 112 16 216 112 16 216 112 16 216 112 16 216 112 16 216 112 16 216 112 16 72 120 0 72 120 0 72 120 0 72 120 0 72 120 0 72 120 0 72 120 0 72 120 0 72 120 0 72 120 0 72 120 0 72 120 0 72 120 0 72 120 0 72 120 0 72 120 0 72 120 0 72 120 0 72 120 0 72 120 0 72 120 0 72 120 0 72 120 0 72 120 0 72 120 0 72 120 0 72 120 0 72 120 0 72 120 0 72 120 0 72 120 0 72 120 0
216 112 16 216 112 16 216 112 16 216 112 16 216 112 16 216 112 16 216 112 16 216 112 16 216 112 16 216 112 16 216 112 16 216 112 16 216 112 16 216 112 16 216 112 16 216 112 16 216 112 16 216 112 16 216 112 16 216 112 16 216 112 16 216 112 16 216 112 16 216 112 16 216 112 16 216 112 16 216 112 16 216 112 16 216 112 16 216 112 16 216 112 16 216 112 16 72 120 0 72 120 0 72 120 0 72 120 0 72 120 0 72 120 0 72 120 0 72 120 0 72 120 0 72 120 0 72 120 0 72 120 0 72 120 0 72 120 0 72 120 0 72 120 0 72 120 0 72 120 0 72 120 0 72 120 0 72 120 0 72 120 0 72 120 0 72 120 0 72 120 0 72 120 0 72 120 0 72 120 0 72 120 0 72 120 0 72 120 0 72 120 0 216 112 16 216 112 16 216 112 16 216 112 16 216 112 16 216 112 16 216 112 16 216 112 16 216 112 16 216 112 16 216 112 16 216 112 16 216 112 16 216 112 16 216 112 16 216 112 16 216 112 16 216 112 16 216 112 16 216 112 16 216 112 16 216 112 16 216 112 16 216 112 16 216 112 16 216 112 16 216 112 16 216 112 16 216 112 16 216 112 16 216 112 16 216 112 16 72 120 0 72 120 0 72 120 0 72 120 0 72 120 0 72 120 0 72 120 0 72 120 0 72 120 0 72 120 0 72 120 0 72 120 0 72 120 0 72 120 0 72 120 0 72 120 0 72 120 0 72 120 0 72 120 0 72 120 0 72 120 0 72 120 0 72 120 0 72 120 0 72 120 0 72 120 0 72 120 0 72 120 0 72 120 0 72 120 0 72 120 0 72 120 0
216 112 16 216 112 16 216 112 16 216 112 16 216 112 16 216 112 16 216 112 16 216 112 16 216 112 16 216 112 16 216 112 16 216 112 16 216 112 16 216 112 16 216 112 16 216 112 16 216 112 16 216 112 16 216 112 16 216 112 16 216 112 16 216 112 16 216 112 16 216 112 16 216 112 16 216 112 16 216 112 16 216 112 16 216 112 16 216 112 16 216 112 16 216 112 16 72 120 0 72 120 0 72 120 0 72 120 0 72 120 0 72 120 0 72 120 0 72 120 0 72 120 0 72 120 0 72 120 0 72 120 0 72 120 0 72 120 0 72 120 0 72 120 0 72 120 0 72 120 0 72 120 0 72 120 0 72 120 0 72 120 0 72 120 0 72 120 0 72 120 0 72 120 0 72 120 0 72 120 0 72 120 0 72 120 0 72 120 0 72 120 0 216 112 16 216 112 16 216 112 16 216 112 16 216 112 16 216 112 16 216 112 16 216 112 16 216 112 16 216 112 16 216 112 16 216 112 16 216 112 16 216 112 16 216 112 16 216 112 16 216 112 16 216 112 16 216 112 16 216 112 16 216 112 16 216 112 16 216 112 16 216 112 16 216 112 16 216 112 16 216 112 16 216 112 16 216 112 16 216 112 16 216 112 16 216 112 16 72 120 0 72 120 0 72 120 0 72 120 0 72 120 0 72 120 0 72 120 0 72 120 0 72 120 0 72 120 0 72 120 0 72 120 0 72 120 0 72 120 0 72 120 0 72 120 0 72 120 0 72 120 0 72 120 0 72 120 0 72 120 0 72 120 0 72 120 0 72 120 0 72 120 0 72 120 0 72 120 0 72 120 0 72 120 0 72 120 0 72 120 0 72 120 0
216 112 16 216 112 16 216 112 16 216 112 16 216 112 16 216 112 16 216 112 16 216 112 16 216 112 16 216 112 16 216 112 16 216 112 16 216 112 16 216 112 16 216 112 16 216 112 16 216 112 16 216 112 16 216 112 16 216 112 16 216 112 16 216 112 16 216 112 16 216 112 16 216 112 16 216 112 16 216 112 16 216 112 16 216 112 16 216 112 16 216 112 16 216 112 16 72 120 0 72 120 0 72 120 0 72 120 0 72 120 0 72 120 0 72 120 0 72 120 0 72 120 0 72 120 0 72 120 0 72 120 0 72 120 0 72 120 0 72 120 0 72 120 0 72 120 0 72 120 0 72 120 0 72 120 0 72 120 0 72 120 0 72 120 0 72 120 0 72 120 0 72 120 0 72 120 0 72 120 0 72 120 0 72 120 0 72 120 0 72 120 0 216 112 16 216 112 16 216 112 16 216 112 16 216 112 16 216 112 16 216 112 16 216 112 16 216 112 16 216 112 16 216 112 16 216 112 16 216 112 16 216 112 16 216 112 16 216 112 16 216 112 16 216 112 16 216 112 16 216 112 16 216 112 16 216 112 16 216 112 16 216 112 16 216 112 16 216 112 16 216 112 16 216 112 16 216 112 16 216 112 16 216 112 16 216 112 16 72 120 0 72 120 0 72 120 0 72 120 0 72 120 0 72 120 0 72 120 0 72 120 0 72 120 0 72 120 0 72 120 0 72 120 0 72 120 0 72 120 0 72 120 0 72 120 0 72 120 0 72 120 0 72 120 0 72 120 0 72 120 0 72 120 0 72 120 0 72 120 0 72 120 0 72 120 0 72 120 0 72 120 0 72 120 0 72 120 0 72 120 0 72 120 0
216 112 16 216 112 16 216 112 16 216 112 16 216 112 16 216 112 16 216 112 16 216 112 16 216 112 16 216 112 16 216 112 16 216 112 16 216 112 16 216 112 16 216 112 16 216 112 16 216 112 16 216 112 16 216 112 16 216 112 16 216 112 16 216 112 16 216 112 16 216 112 16 216 112 16 216 112 16 216 112 16 216 112 16 216 112 16 216 112 16 216 112 16 216 112 16 72 120 0 72 120 0 72 120 0 72 120 0 72 120 0 72 120 0 72 120 0 72 120 0 72 120 0 72 120 0 72 120 0 72 120 0 72 120 0 72 120 0 72 120 0 72 120 0 72 120 0 72 120 0 72 120 0 72 120 0 72 120 0 72 120 0 72 120 0 72 120 0 72 120 0 72 120 0 72 120 0 72 120 0 72 120 0 72 120 0 72 120 0 72 120 0 216 112 16 216 112 16 216 112 16 216 112 16 216 112 16 216 112 16 216 112 16 216 112 16 216 112 16 216 112 16 216 112 16 216 112 16 216 112 16 216 112 16 216 112 16 216 112 16 216 112 16 216 112 16 216 112 16 216 112 16 216 112 16 216 112 16 216 112 16 216 112 16 216 112 16 216 112 16 216 112 16 216 112 16 216 112 16 216 112 16 216 112 16 216 112 16 72 120 0 72 120 0 72 120 0 72 120 0 72 120 0 72 120 0 72 120 0 72 120 0 72 120 0 72 120 0 72 120 0 72 120 0 72 120 0 72 120 0 72 120 0 72 120 0 72 120 0 72 120 0 72 120 0 72 120 0 72 120 0 72 120 0 72 120 0 72 120 0 72 120 0 72 120 0 72 120 0 72 120 0 72 120 0 72 120 0 72 120 0 72 120 0
216 112 16 216 112 16 216 112 16 216 112 16 216 112 16 216 112 16 216 112 16 216 112 16 216 112 16 216 112 16 216 112 16 216 112 16 216 112 16 216 112 16 216 112 16 216 112 16 216 112 16 216 112 16 216 112 16 216 112 16 216 112 16 216 112 16 216 112 16 216 112 16 216 112 16 216 112 16 216 112 16 216 112 16 216 112 16 216 112 16 216 112 16 216 112 16 72 120 0 72 120 0 72 120 0 72 120 0 72 120 0 72 120 0 72 120 0 72 120 0 72 120 0 72 120 0 72 120 0 72 120 0 72 120 0 72 120 0 72 120 0 72 120 0 72 120 0 72 120 0 72 120 0 72 120 0 72 120 0 72 120 0 72 120 0 72 120 0 72 120 0 72 120 0 72 120 0 72 120 0 72 120 0 72 120 0 72 120 0 72 120 0 216 112 16 216 112 16 216 112 16 216 112 16 216 112 16 216 112 16 216 112 16 216 112 16 216 112 16 216 112 16 216 112 16 216 112 16 216 112 16 216 112 16 216 112 16 216 112 16 216 112 16 216 112 16 216 112 16 216 112 16 216 112 16 216 112 16 216 112 16 216 112 16 216 112 16 216 112 16 216 112 16 216 112 16 216 112 16 216 112 16 216 112 16 216 112 16 72 120 0 72 120 0 72 120 0 72 120 0 72 120 0 72 120 0 72 120 0 72 120 0 72 120 0 72 120 0 72 120 0 72 120 0 72 120 0 72 120 0 72 120 0 72 120 0 72 120 0 72 120 0 72 120 0 72 120 0 72 120 0 72 120 0 72 120 0 72 120 0 72 120 0 72 120 0 72 120 0 72 120 0 72 120 0 72 120 0 72 120 0 72 120 0
216 112 16 216 112 16 216 112 16 216 112 16 216 112 16 216 112 16 216 112 16 216 112 16 216 112 16 216 112 16 216 112 16 216 112 16 216 112 16 216 112 16 216 112 16 216 112 16 216 112 16 216 112 16 216 112 16 216 112 16 216 112 16 216 112 16 216 112 16 216 112 16 216 112 16 216 112 16 216 112 16 216 112 16 216 112 16 216 112 16 216 112 16 216 112 16 72 120 0 72 120 0 72 120 0 72 120 0 72 120 0 72 120 0 72 120 0 72 120 0 72 120 0 72 120 0 72 120 0 72 120 0 72 120 0 72 120 0 72 120 0 72 120 0 72 120 0 72 120 0 72 120 0 72 120 0 72 120 0 72 120 0 72 120 0 72 120 0 72 120 0 72 120 0 72 120 0 72 120 0 72 120 0 72 120 0 72 120 0 72 120 0 216 112 16 216 112 16 216 112 16 216 112 16 216 112 16 216 112 16 216 112 16 216 112 16 216 112 16 216 112 16 216 112 16 216 112 16 216 112 16 216 112 16 216 112 16 216 112 16 216 112 16 216 112 16 216 112 16 216 112 16 216 112 16 216 112 16 216 112 16 216 112 16 216 112 16 216 112 16 216 112 16 216 112 16 216 112 16 216 112 16 216 112 16 216 112 16 72 120 0 72 120 0 72 120 0 72 120 0 72 120 0 72 120 0 72 120 0 72 120 0 72 120 0 72 120 0 72 120 0 72 120 0 72 120 0 72 120 0 72 120 0 72 120 0 72 120 0 72 120 0 72 120 0 72 120 0 72 120 0 72 120 0 72 120 0 72 120 0 72 120 0 72 120 0 72 120 0 72 120 0 72 120 0 72 120 0 72 120 0 72 120 0
216 112 16 216 112 16 216 112 16 216 112 16 216 112 16 216 112 16 216 112 16 216 112 16 216 112 16 216 112 16 216 112 16 216 112 16 216 112 16 216 112 16 216 112 16 216 112 16 216 112 16 216 112 16 216 112 16 216 112 16 216 112 16 216 112 16 216 112 16 216 112 16 216 112 16 216 112 16 216 112 16 216 112 16 216 112 16 216 112 16 216 112 16 216 112 16 72 120 0 72 120 0 72 120 0 72 120 0 72 120 0 72 120 0 72 120 0 72 120 0 72 120 0 72 120 0 72 120 0 72 120 0 72 120 0 72 120 0 72 120 0 72 120 0 72 120 0 72 120 0 72 120 0 72 120 0 72 120 0 72 120 0 72 120 0 72 120 0 72 120 0 72 120 0 72 120 0 72 120 0 72 120 0 72 120 0 72 120 0 72 120 0 216 112 16 216 112 16 216 112 16 216 112 16 216 112 16 216 112 16 216 112 16 216 112 16 216 112 16 216 112 16 216 112 16 216 112 16 216 112 16 216 112 16 216 112 16 216 112 16 216 112 16 216 112 16 216 112 16 216 112 16 216 112 16 216 112 16 216 112 16 216 112 16 216 112 16 216 112 16 216 112 16 216 112 16 216 112 16 216 112 16 216 112 16 216 112 16 72 120 0 72 120 0 72 120 0 72 120 0 72 120 0 72 120 0 72 120 0 72 120 0 72 120 0 72 120 0 72 120 0 72 120 0 72 120 0 72 120 0 72 120 0 72 120 0 72 120 0 72 120 0 72 120 0 72 120 0 72 120 0 72 120 0 72 120 0 72 120 0 72 120 0 72 120 0 72 120 0 72 120 0 72 120 0 72 120 0 72 120 0 72 120 0
216 112 16 216 112 16 216 112 16 216 112 16 216 112 16 216 112 16 216 112 16 216 112 16 216 112 16 216 112 16 216 112 16 216 112 16 216 112 16 216 112 16 216 112 16 216 112 16 216 112 16 216 112 16 216 112 16 216 112 16 216 112 16 216 112 16 216 112 16 216 112 16 216 112 16 216 112 16 216 112 16 216 112 16 216 112 16 216 112 16 216 112 16 216 112 16 72 120 0 72 120 0 72 120 0 72 120 0 72 120 0 72 120 0 72 120 0 72 120 0 72 120 0 72 120 0 72 120 0 72 120 0 72 120 0 72 120 0 72 120 0 72 120 0 72 120 0 72 120 0 72 120 0 72 120 0 72 120 0 72 120 0 72 120 0 72 120 0 72 120 0 72 120 0 72 120 0 72 120 0 72 120 0 72 120 0 72 120 0 72 120 0 216 112 16 216 112 16 216 112 16 216 112 16 216 112 16 216 112 16 216 112 16 216 112 16 216 112 16 216 112 16 216 112 16 216 112 16 216 112 16 216 112 16 216 112 16 216 112 16 216 112 16 216 112 16 216 112 16 216 112 16 216 112 16 216 112 16 216 112 16 216 112 16 216 112 16 216 112 16 216 112 16 216 112 16 216 112 16 216 112 16 216 112 16 216 112 16 72 120 0 72 120 0 72 120 0 72 120 0 72 120 0 72 120 0 72 120 0 72 120 0 72 120 0 72 120 0 72 120 0 72 120 0 72 120 0 72 120 0 72 120 0 72 120 0 72 120 0 72 120 0 72 120 0 72 120 0 72 120 0 72 120 0 72 120 0 72 120 0 72 120 0 72 120 0 72 120 0 72 120 0 72 120 0 72 120 0 72 120 0 72 120 0
216 112 16 216 112 16 216 112 16 216 112 16 216 112 16 216 112 16 216 112 16 216 112 16 216 112 16 216 112 16 216 112 16 216 112 16 216 112 16 216 112 16 216 112 16 216 112 16 216 112 16 216 112 16 216 112 16 216 112 16 216 112 16 216 112 16 216 112 16 216 112 16 216 112 16 216 112 16 216 112 16 216 112 16 216 112 16 216 112 16 216 112 16 216 112 16 72 120 0 72 120 0 72 120 0 72 120 0 72 120 0 72 120 0 72 120 0 72 120 0 72 120 0 72 120 0 72 120 0 72 120 0 72 120 0 72 120 0 72 120 0 72 120 0 72 120 0 72 120 0 72 120 0 72 120 0 72 120 0 72 120 0 72 120 0 72 120 0 72 120 0 72 120 0 72 120 0 72 120 0 72 120 0 72 120 0 72 120 0 72 120 0 216 112 16 216 112 16 216 112 16 216 112 16 216 112 16 216 112 16 216 112 16 216 112 16 216 112 16 216 112 16 216 112 16 216 112 16 216 112 16 216 112 16 216 112 16 216 112 16 216 112 16 216 112 16 216 112 16 216 112 16 216 112 16 216 112 16 216 112 16 216 112 16 216 112 16 216 112 16 216 112 16 216 112 16 216 112 16 216 112 16 216 112 16 216 112 16 72 120 0 72 120 0 72 120 0 72 120 0 72 120 0 72 120 0 72 120 0 72 120 0 72 120 0 72 120 0 72 120 0 72 120 0 72 120 0 72 120 0 72 120 0 72 120 0 72 120 0 72 120 0 72 120 0 72 120 0 72 120 0 72 120 0 72 120 0 72 120 0 72 120 0 72 120 0 72 120 0 72 120 0 72 120 0 72 120 0 72 120 0 72 120 0
216 112 16 216 112 16 216 112 16 216 112 16 216 112 16 216 112 16 216 112 16 216 112 16 216 112 16 216 112 16 216 112 16 216 112 16 216 112 16 216 112 16 216 112 16 216 112 16 216 112 16 216 112 16 216 112 16 216 112 16 216 112 16 216 112 16 216 112 16 216 112 16 216 112 16 216 112 16 216 112 16 216 112 16 216 112 16 216 112 16 216 112 16 216 112 16 72 120 0 72 120 0 72 120 0 72 120 0 72 120 0 72 120 0 72 120 0 72 120 0 72 120 0 72 120 0 72 120 0 72 120 0 72 120 0 72 120 0 72 120 0 72 120 0 72 120 0 72 120 0 72 120 0 72 120 0 72 120 0 72 120 0 72 120 0 72 120 0 72 120 0 72 120 0 72 120 0 72 120 0 72 120 0 72 120 0 72 120 0 72 120 0 216 112 16 216 112 16 216 112 16 216 112 16 216 112 16 216 112 16 216 112 16 216 112 16 216 112 16 216 112 16 216 112 16 216 112 16 216 112 16 216 112 16 216 112 16 216 112 16 216 112 16 216 112 16 216 112 16 216 112 16 216 112 16 216 112 16 216 112 16 216 112 16 216 112 16 216 112 16 216 112 16 216 112 16 216 112 16 216 112 16 216 112 16 216 112 16 72 120 0 72 120 0 72 120 0 72 120 0 72 120 0 72 120 0 72 120 0 72 120 0 72 120 0 72 120 0 72 120 0 72 120 0 72 120 0 72 120 0 72 120 0 72 120 0 72 120 0 72 120 0 72 120 0 72 120 0 72 120 0 72 120 0 72 120 0 72 120 0 72 120 0 72 120 0 72 120 0 72 120 0 72 120 0 72 120 0 72 120 0 72 120 0
216 112 16 216 112 16 216 112 16 216 112 16 216 112 16 216 112 16 216 112 16 216 112 16 216 112 16 216 112 16 216 112 16 216 112 16 216 112 16 216 112 16 216 112 16 216 112 16 216 112 16 216 112 16 216 112 16 216 112 16 216 112 16 216 112 16 216 112 16 216 112 16 216 112 16 216 112 16 216 112 16 216 112 16 216 112 16 216 112 16 216 112 16 216 112 16 72 120 0 72 120 0 72 120 0 72 120 0 72 120 0 72 120 0 72 120 0 72 120 0 72 120 0 72 120 0 72 120 0 72 120 0 72 120 0 72 120 0 72 120 0 72 120 0 72 120 0 72 120 0 72 120 0 72 120 0 72 120 0 72 120 0 72 120 0 72 120 0 72 120 0 72 120 0 72 120 0 72 120 0 72 120 0 72 120 0 72 120 0 72 120 0 216 112 16 216 112 16 216 112 16 216 112 16 216 112 16 216 112 16 216 112 16 216 112 16 216 112 16 216 112 16 216 112 16 216 112 16 216 112 16 216 112 16 216 112 16 216 112 16 216 112 16 216 112 16 216 112 16 216 112 16 216 112 16 216 112 16 216 112 16 216 112 16 216 112 16 216 112 16 216 112 16 216 112 16 216 112 16 216 112 16 216 112 16 216 112 16 72 120 0 72 120 0 72 120 0 72 120 0 72 120 0 72 120 0 72 120 0 72 120 0 72 120 0 72 120 0 72 120 0 72 120 0 72 120 0 72 120 0 72 120 0 72 120 0 72 120 0 72 120 0 72 120 0 72 120 0 72 120 0 72 120 0 72 120 0 72 120 0 72 120 0 72 120 0 72 120 0 72 120 0 72 120 0 72 120 0 72 120 0 72 120 0
216 112 16 216 112 16 216 112 16 216 112 16 216 112 16 216 112 16 216 112 16 216 112 16 216 112 16 216 112 16 216 112 16 216 112 16 216 112 16 216 112 16 216 112 16 216 112 16 216 112 16 216 112 16 216 112 16 216 112 16 216 112 16 216 112 16 216 112 16 216 112 16 216 112 16 216 112 16 216 112 16 216 112 16 216 112 16 216 112 16 216 112 16 216 112 16 72 120 0 72 120 0 72 120 0 72 120 0 72 120 0 72 120 0 72 120 0 72 120 0 72 120 0 72 120 0 72 120 0 72 120 0 72 120 0 72 120 0 72 120 0 72 120 0 72 120 0 72 120 0 72 120 0 72 120 0 72 120 0 72 120 0 72 120 0 72 120 0 72 120 0 72 120 0 72 120 0 72 120 0 72 120 0 72 120 0 72 120 0 72 120 0 216 112 16 216 112 16 216 112 16 216 112 16 216 112 16 216 112 16 216 112 16 216 112 16 216 112 16 216 112 16 216 112 16 216 112 16 216 112 16 216 112 16 216 112 16 216 112 16 216 112 16 216 112 16 216 112 16 216 112 16 216 112 16 216 112 16 216 112 16 216 112 16 216 112 16 216 112 16 216 112 16 216 112 16 216 112 16 216 112 16 216 112 16 216 112 16 72 120 0 72 120 0 72 120 0 72 120 0 72 120 0 72 120 0 72 120 0 72 120 0 72 120 0 72 120 0 72 120 0 72 120 0 72 120 0 72 120 0 72 120 0 72 120 0 72 120 0 72 120 0 72 120 0 72 120 0 72 120 0 72 120 0 72 120 0 72 120 0 72 120 0 72 120 0 72 120 0 72 120 0 72 120 0 72 120 0 72 120 0 72 120 0
216 112 16 216 112 16 216 112 16 216 112 16 216 112 16 216 112 16 216 112 16 216 112 16 216 112 16 216 112 16 216 112 16 216 112 16 216 112 16 216 112 16 216 112 16 216 112 16 216 112 16 216 112 16 216 112 16 216 112 16 216 112 16 216 112 16 216 112 16 216 112 16 216 112 16 216 112 16 216 112 16 216 112 16 216 112 16 216 112 16 216 112 16 216 112 16 72 120 0 72 120 0 72 120 0 72 120 0 72 120 0 72 120 0 72 120 0 72 120 0 72 120 0 72 120 0 72 120 0 72 120 0 72 120 0 72 120 0 72 120 0 72 120 0 72 120 0 72 120 0 72 120 0 72 120 0 72 120 0 72 120 0 72 120 0 72 120 0 72 120 0 72 120 0 72 120 0 72 120 0 72 120 0 72 120 0 72 120 0 72 120 0 216 112 16 216 112 16 216 112 16 216 112 16 216 112 16 216 112 16 216 112 16 216 112 16 216 112 16 216 112 16 216 112 16 216 112 16 216 112 16 216 112 16 216 112 16 216 112 16 216 112 16 216 112 16 216 112 16 216 112 16 216 112 16 216 112 16 216 112 16 216 112 16 216 112 16 216 112 16 216 112 16 216 112 16 216 112 16 216 112 16 216 112 16 216 112 16 72 120 0 72 120 0 72 120 0 72 120 0 72 120 0 72 120 0 72 120 0 72 120 0 72 120 0 72 120 0 72 120 0 72 120 0 72 120 0 72 120 0 72 120 0 72 120 0 72 120 0 72 120 0 72 120 0 72 120 0 72 120 0 72 120 0 72 120 0 72 120 0 72 120 0 72 120 0 72 120 0 72 120 0 72 120 0 72 120 0 72 120 0 72 120 0
216 112 16 216 112 16 216 112 16 216 112 16 216 112 16 216 112 16 216 112 16 216 112 16 216 112 16 216 112 16 216 112 16 216 112 16 216 112 16 216 112 16 216 112 16 216 112 16 216 112 16 216 112 16 216 112 16 216 112 16 216 112 16 216 112 16 216 112 16 216 112 16 216 112 16 216 112 16 216 112 16 216 112 16 216 112 16 216 112 16 216 112 16 216 112 16 72 120 0 72 120 0 72 120 0 72 120 0 72 120 0 72 120 0 72 120 0 72 120 0 72 120 0 72 120 0 72 120 0 72 120 0 72 120 0 72 120 0 72 120 0 72 120 0 72 120 0 72 120 0 72 120 0 72 120 0 72 120 0 72 120 0 72 120 0 72 120 0 72 120 0 72 120 0 72 120 0 72 120 0 72 120 0 72 120 0 72 120 0 72 120 0 216 112 16 216 112 16 216 112 16 216 112 16 216 112 16 216 112 16 216 112 16 216 112 16 216 112 16 216 112 16 216 112 16 216 112 16 216 112 16 216 112 16 216 112 16 216 112 16 216 112 16 216 112 16 216 112 16 216 112 16 216 112 16 216 112 16 216 112 16 216 112 16 216 112 16 216 112 16 216 112 16 216 112 16 216 112 16 216 112 16 216 112 16 216 112 16 72 120 0 72 120 0 72 120 0 72 120 0 72 120 0 72 120 0 72 120 0 72 120 0 72 120 0 72 120 0 72 120 0 72 120 0 72 120 0 72 120 0 72 120 0 72 120 0 72 120 0 72 120 0 72 120 0 72 120 0 72 120 0 72 120 0 72 120 0 72 120 0 72 120 0 72 120 0 72 120 0 72 120 0 72 120 0 72 120 0 72 120 0 72 120 0
216 112 16 216 112 16 216 112 16 216 112 16 216 112 16 216 112 16 216 112 16 216 112 16 216 112 16 216 112 16 216 112 16 216 112 16 216 112 16 216 112 16 216 112 16 216 112 16 216 112 16 216 112 16 216 112 16 216 112 16 216 112 16 216 112 16 216 112 16 216 112 16 216 112 16 216 112 16 216 112 16 216 112 16 216 112 16 216 112 16 216 112 16 216 112 16 72 120 0 72 120 0 72 120 0 72 120 0 72 120 0 72 120 0 72 120 0 72 120 0 72 120 0 72 120 0 72 120 0 72 120 0 72 120 0 72 120 0 72 120 0 72 120 0 72 120 0 72 120 0 72 120 0 72 120 0 72 120 0 72 120 0 72 120 0 72 120 0 72 120 0 72 120 0 72 120 0 72 120 0 72 120 0 72 120 0 72 120 0 72 120 0 216 112 16 216 112 16 216 112 16 216 112 16 216 112 16 216 112 16 216 112 16 216 112 16 216 112 16 216 112 16 216 112 16 216 112 16 216 112 16 216 112 16 216 112 16 216 112 16 216 112 16 216 112 16 216 112 16 216 112 16 216 112 16 216 112 16 216 112 16 216 112 16 216 112 16 216 112 16 216 112 16 216 112 16 216 112 16 216 112 16 216 112 16 216 112 16 72 120 0 72 120 0 72 120 0 72 120 0 72 120 0 72 120 0 72 120 0 72 120 0 72 120 0 72 120 0 72 120 0 72 120 0 72 120 0 72 120 0 72 120 0 72 120 0 72 120 0 72 120 0 72 120 0 72 120 0 72 120 0 72 120 0 72 120 0 72 120 0 72 120 0 72 120 0 72 120 0 72 120 0 72 120 0 72 120 0 72 120 0 72 120 0
216 112 16 216 112 16 216 112 16 216 112 16 216 112 16 216 112 16 216 112 16 216 112 16 216 112 16 216 112 16 216 112 16 216 112 16 216 112 16 216 112 16 216 112 16 216 112 16 216 112 16 216 112 16 216 112 16 216 112 16 216 112 16 216 112 16 216 112 16 216 112 16 216 112 16 216 112 16 216 112 16 216 112 16 216 112 16 216 112 16 216 112 16 216 112 16 72 120 0 72 120 0 72 120 0 72 120 0 72 120 0 72 120 0 72 120 0 72 120 0 72 120 0 72 120 0 72 120 0 72 120 0 72 120 0 72 120 0 72 120 0 72 120 0 72 120 0 72 120 0 72 120 0 72 120 0 72 120 0 72 120 0 72 120 0 72 120 0 72 120 0 72 120 0 72 120 0 72 120 0 72 120 0 72 120 0 72 120 0 72 120 0 216 112 16 216 112 16 216 112 16 216 112 16 216 112 16 216 112 16 216 112 16 216 112 16 216 112 16 216 112 16 216 112 16 216 112 16 216 112 16 216 112 16 216 112 16 216 112 16 216 112 16 216 112 16 216 112 16 216 112 16 216 112 16 216 112 16 216 112 16 216 112 16 216 112 16 216 112 16 216 112 16 216 112 16 216 112 16 216 112 16 216 112 16 216 112 16 72 120 0 72 120 0 72 120 0 72 120 0 72 120 0 72 120 0 72 120 0 72 120 0 72 120 0 72 120 0 72 120 0 72 120 0 72 120 0 72 120 0 72 120 0 72 120 0 72 120 0 72 120 0 72 120 0 72 120 0 72 120 0 72 120 0 72 120 0 72 120 0 72 120 0 72 120 0 72 120 0 72 120 0 72 120 0 72 120 0 72 120 0 72 120 0
216 112 16 216 112 16 216 112 16 216 112 16 216 112 16 216 112 16 216 112 16 216 112 16 216 112 16 216 112 16 216 112 16 216 112 16 216 112 16 216 112 16 216 112 16 216 112 16 216 112 16 216 112 16 216 112 16 216 112 16 216 112 16 216 112 16 216 112 16 216 112 16 216 112 16 216 112 16 216 112 16 216 112 16 216 112 16 216 112 16 216 112 16 216 112 16 72 120 0 72 120 0 72 120 0 72 120 0 72 120 0 72 120 0 72 120 0 72 120 0 72 120 0 72 120 0 72 120 0 72 120 0 72 120 0 72 120 0 72 120 0 72 120 0 72 120 0 72 120 0 72 120 0 72 120 0 72 120 0 72 120 0 72 120 0 72 120 0 72 120 0 72 120 0 72 120 0 72 120 0 72 120 0 72 120 0 72 120 0 72 120 0 216 112 16 216 112 16 216 112 16 216 112 16 216 112 16 216 112 16 216 112 16 216 112 16 216 112 16 216 112 16 216 112 16 216 112 16 216 112 16 216 112 16 216 112 16 216 112 16 216 112 16 216 112 16 216 112 16 216 112 16 216 112 16 216 112 16 216 112 16 216 112 16 216 112 16 216 112 16 216 112 16 216 112 16 216 112 16 216 112 16 216 112 16 216 112 16 72 120 0 72 120 0 72 120 0 72 120 0 72 120 0 72 120 0 72 120 0 72 120 0 72 120 0 72 120 0 72 120 0 72 120 0 72 120 0 72 120 0 72 120 0 72 120 0 72 120 0 72 120 0 72 120 0 72 120 0 72 120 0 72 120 0 72 120 0 72 120 0 72 120 0 72 120 0 72 120 0 72 120 0 72 120 0 72 120 0 72 120 0 72 120 0
216 112 16 216 112 16 216 112 16 216 112 16 216 112 16 216 112 16 216 112 16 216 112 16 216 112 16 216 112 16 216 112 16 216 112 16 216 112 16 216 112 16 216 112 16 216 112 16 216 112 16 216 112 16 216 112 16 216 112 16 216 112 16 216 112 16 216 112 16 216 112 16 216 112 16 216 112 16 216 112 16 216 112 16 216 112 16 216 112 16 216 112 16 216 112 16 72 120 0 72 120 0 72 120 0 72 120 0 72 120 0 72 120 0 72 120 0 72 120 0 72 120 0 72 120 0 72 120 0 72 120 0 72 120 0 72 120 0 72 120 0 72 120 0 72 120 0 72 120 0 72 120 0 72 120 0 72 120 0 72 120 0 72 120 0 72 120 0 72 120 0 72 120 0 72 120 0 72 120 0 72 120 0 72 120 0 72 120 0 72 120 0 216 112 16 216 112 16 216 112 16 216 112 16 216 112 16 216 112 16 216 112 16 216 112 16 216 112 16 216 112 16 216 112 16 216 112 16 216 112 16 216 112 16 216 112 16 216 112 16 216 112 16 216 112 16 216 112 16 216 112 16 216 112 16 216 112 16 216 112 16 216 112 16 216 112 16 216 112 16 216 112 16 216 112 16 216 112 16 216 112 16 216 112 16 216 112 16 72 120 0 72 120 0 72 120 0 72 120 0 72 120 0 72 120 0 72 120 0 72 120 0 72 120 0 72 120 0 72 120 0 72 120 0 72 120 0 72 120 0 72 120 0 72 120 0 72 120 0 72 120 0 72 120 0 72 120 0 72 120 0 72 120 0 72 120 0 72 120 0 72 120 0 72 120 0 72 120 0 72 120 0 72 120 0 72 120 0 72 120 0 72 120 0
216 112 16 216 112 16 216 112 16 216 112 16 216 112 16 216 112 16 216 112 16 216 112 16 216 112 16 216 112 16 216 112 16 216 112 16 216 112 16 216 112 16 216 112 16 216 112 16 216 112 16 216 112 16 216 112 16 216 112 16 216 112 16 216 112 16 216 112 16 216 112 16 216 112 16 216 112 16 216 112 16 216 112 16 216 112 16 216 112 16 216 112 16 216 112 16 72 120 0 72 120 0 72 120 0 72 120 0 72 120 0 72 120 0 72 120 0 72 120 0 72 120 0 72 120 0 72 120 0 72 120 0 72 120 0 72 120 0 72 120 0 72 120 0 72 120 0 72 120 0 72 120 0 72 120 0 72 120 0 72 120 0 72 120 0 72 120 0 72 120 0 72 120 0 72 120 0 72 120 0 72 120 0 72 120 0 72 120 0 72 120 0 216 112 16 216 112 16 216 112 16 216 112 16 216 112 16 216 112 16 216 112 16 216 112 16 216 112 16 216 112 16 216 112 16 216 112 16 216 112 16 216 112 16 216 112 16 216 112 16 216 112 16 216 112 16 216 112 16 216 112 16 216 112 16 216 112 16 216 112 16 216 112 16 216 112 16 216 112 16 216 112 16 216 112 16 216 112 16 216 112 16 216 112 16 216 112 16 72 120 0 72 120 0 72 120 0 72 120 0 72 120 0 72 120 0 72 120 0 72 120 0 72 120 0 72 120 0 72 120 0 72 120 0 72 120 0 72 120 0 72 120 0 72 120 0 72 120 0 72 120 0 72 120 0 72 120 0 72 120 0 72 120 0 72 120 0 72 120 0 72 120 0 72 120 0 72 120 0 72 120 0 72 120 0 72 120 0 72 120 0 72 120 0
216 112 16 216 112 16 216 112 16 216 112 16 216 112 16 216 112 16 216 112 16 216 112 16 216 112 16 216 112 16 216 112 16 216 112 16 216 112 16 216 112 16 216 112 16 216 112 16 216 112 16 216 112 16 216 112 16 216 112 16 216 112 16 216 112 16 216 112 16 216 112 16 216 112 16 216 112 16 216 112 16 216 112 16 216 112 16 216 112 16 216 112 16 216 112 16 72 120 0 72 120 0 72 120 0 72 120 0 72 120 0 72 120 0 72 120 0 72 120 0 72 120 0 72 120 0 72 120 0 72 120 0 72 120 0 72 120 0 72 120 0 72 120 0 72 120 0 72 120 0 72 120 0 72 120 0 72 120 0 72 120 0 72 120 0 72 120 0 72 120 0 72 120 0 72 120 0 72 120 0 72 120 0 72 120 0 72 120 0 72 120 0 216 112 16 216 112 16 216 112 16 216 112 16 216 112 16 216 112 16 216 112 16 216 112 16 216 112 16 216 112 16 216 112 16 216 112 16 216 112 16 216 112 16 216 112 16 216 112 16 216 112 16 216 112 16 216 112 16 216 112 16 216 112 16 216 112 16 216 112 16 216 112 16 216 112 16 216 112 16 216 112 16 216 112 16 216 112 16 216 112 16 216 112 16 216 112 16 72 120 0 72 120 0 72 120 0 72 120 0 72 120 0 72 120 0 72 120 0 72 120 0 72 120 0 72 120 0 72 120 0 72 120 0 72 120 0 72 120 0 72 120 0 72 120 0 72 120 0 72 120 0 72 120 0 72 120 0 72 120 0 72 120 0 72 120 0 72 120 0 72 120 0 72 120 0 72 120 0 72 120 0 72 120 0 72 120 0 72 120 0 72 120 0
216 112 16 216 112 16 216 112 16 216 112 16 216 112 16 216 112 16 216 112 16 216 112 16 216 112 16 216 112 16 216 112 16 216 112 16 216 112 16 216 112 16 216 112 16 216 112 16 216 112 16 216 112 16 216 112 16 216 112 16 216 112 16 216 112 16 216 112 16 216 112 16 216 112 16 216 112 16 216 112 16 216 112 16 216 112 16 216 112 16 216 112 16 216 112 16 72 120 0 72 120 0 72 120 0 72 120 0 72 120 0 72 120 0 72 120 0 72 120 0 72 120 0 72 120 0 72 120 0 72 120 0 72 120 0 72 120 0 72 120 0 72 120 0 72 120 0 72 120 0 72 120 0 72 120 0 72 120 0 72 120 0 72 120 0 72 120 0 72 120 0 72 120 0 72 120 0 72 120 0 72 120 0 72 120 0 72 120 0 72 120 0 216 112 16 216 112 16 216 112 16 216 112 16 216 112 16 216 112 16 216 112 16 216 112 16 216 112 16 216 112 16 216 112 16 216 112 16 216 112 16 216 112 16 216 112 16 216 112 16 216 112 16 216 112 16 216 112 16 216 112 16 216 112 16 216 112 16 216 112 16 216 112 16 216 112 16 216 112 16 216 112 16 216 112 16 216 112 16 216 112 16 216 112 16 216 112 16 72 120 0 72 120 0 72 120 0 72 120 0 72 120 0 72 120 0 72 120 0 72 120 0 72 120 0 72 120 0 72 120 0 72 120 0 72 120 0 72 120 0 72 120 0 72 120 0 72 120 0 72 120 0 72 120 0 72 120 0 72 120 0 72 120 0 72 120 0 72 120 0 72 120 0 72 120 0 72 120 0 72 120 0 72 120 0 72 120 0 72 120 0 72 120 0
216 112 16 216 112 16 216 112 16 216 112 16 216 112 16 216 112 16 216 112 16 216 112 16 216 112 16 216 112 16 216 112 16 216 112 16 216 112 16 216 112 16 216 112 16 216 112 16 216 112 16 216 112 16 216 112 16 216 112 16 216 112 16 216 112 16 216 112 16 216 112 16 216 112 16 216 112 16 216 112 16 216 112 16 216 112 16 216 112 16 216 112 16 216 112 16 72 120 0 72 120 0 72 120 0 72 120 0 72 120 0 72 120 0 72 120 0 72 120 0 72 120 0 72 120 0 72 120 0 72 120 0 72 120 0 72 120 0 72 120 0 72 120 0 72 120 0 72 120 0 72 120 0 72 120 0 72 120 0 72 120 0 72 120 0 72 120 0 72 120 0 72 120 0 72 120 0 72 120 0 72 120 0 72 120 0 72 120 0 72 120 0 216 112 16 216 112 16 216 112 16 216 112 16 216 112 16 216 112 16 216 112 16 216 112 16 216 112 16 216 112 16 216 112 16 216 112 16 216 112 16 216 112 16 216 112 16 216 112 16 216 112 16 216 112 16 216 112 16 216 112 16 216 112 16 216 112 16 216 112 16 216 112 16 216 112 16 216 112 16 216 112 16 216 112 16 216 112 16 216 112 16 216 112 16 216 112 16 72 120 0 72 120 0 72 120 0 72 120 0 72 120 0 72 120 0 72 120 0 72 120 0 72 120 0 72 120 0 72 120 0 72 120 0 72 120 0 72 120 0 72 120 0 72 120 0 72 120 0 72 120 0 72 120 0 72 120 0 72 120 0 72 120 0 72 120 0 72 120 0 72 120 0 72 120 0 72 120 0 72 120 0 72 120 0 72 120 0 72 120 0 72 120 0
208 112 144 208 112 144 208 112 144 208 112 144 208 112 144 208 112 144 208 112 144 208 112 144 208 112 144 208 112 144 208 112 144 208 112 144 208 112 144 208 112 144 208 112 144 208 112 144 208 112 144 208 112 144 208 112 144 208 112 144 208 112 144 208 112 144 208 112 144 208 112 144 208 112 144 208 112 144 208 112 144 208 112 144 208 112 144 208 112 144 208 112 144 208 112 144 240 112 144 240 112 144 240 112 144 240 112 144 240 112 144 240 112 144 240 112 144 240 112 144 240 112 144 240 112 144 240 112 144 240 112 144 240 112 144 240 112 144 240 112 144 240 112 144 240 112 144 240 112 144 240 112 144 240 112 144 240 112 144 240 112 144 240 112 144 240 112 144 240 112 144 240 112 144 240 112 144 240 112 144 240 112 144 240 112 144 240 112 144 240 112 144 240 112 16 240 112 16 240 112 16 240 112 16 240 112 16 240 112 16 240 112 16 240 112 16 240 112 16 240 112 16 240 112 16 240 112 16 240 112 16 240 112 16 240 112 16 240 112 16 240 112 16 240 112 16 240 112 16 240 112 16 240 112 16 240 112 16 240 112 16 240 112 16 240 112 16 240 112 16 240 112 16 240 112 16 240 112 16 240 112 16 240 112 16 240 112 16 224 112 16 224 112 16 224 112 16 224 112 16 224 112 16 224 112 16 224 112 16 224 112 16 224 112 16 224 112 16 224 112 16 224 112 16 224 112 16 224 112 16 224 112 16 224 112 16 224 112 16 224 112 16 224 112 16 224 112 16 224 112 16 224 112 16 224 112 16 224 112 16 224 112 16 224 112 16 224 112 16 224 112 16 224 112 16 224 112 16 224 112 16 224 112 16
208 112 144 208 112 144 208 112 144 208 112 144 208 112 144 208 112 144 208 112 144 208 112 144 208 112 144 208 112 144 208 112 144 208 112 144 208 112 144 208 112 144 208 112 144 208 112 144 208 112 144 208 112 144 208 112 144 208 112 144 208 112 144 208 112 144 208 112 144 208 112 144 208 112 144 208 112 144 208 112 144 208 112 144 208 112 144 208 112 144 208 112 144 208 112 144 240 112 144 240 112 144 240 112 144 240 112 144 240 112 144 240 112 144 240 112 144 240 112 144 240 112 144 240 112 144 240 112 144 240 112 144 240 112 144 240 112 144 240 112 144 240 112 144 240 112 144 240 112 144 240 112 144 240 112 144 240 112 144 240 112 144 240 112 144 240 112 144 240 112 144 240 112 144 240 112 144 240 112 144 240 112 144 240 112 144 240 112 144 240 112 144 240 112 16 240 112 16 240 112 16 240 112 16 240 112 16 240 112 16 240 112 16 240 112 16 240 112 16 240 112 16 240 112 16 240 112 16 240 112 16 240 112 16 240 112 16 240 112 16 240 112 16 240 112 16 240 112 16 240 112 16 240 112 16 240 112 16 240 112 16 240 112 16 240 112 16 240 112 16 240 112 16 240 112 16 240 112 16 240 112 16 240 112 16 240 112 16 224 112 16 224 112 16 224 112 16 224 112 16 224 112 16 224 112 16 224 112 16 224 112 16 224 112 16 224 112 16 224 112 16 224 112 16 224 112 16 224 112 16 224 112 16 224 112 16 224 112 16 224 112 16 224 112 16 224 112 16 224 112 16 224 112 16 224 112 16 224 112 16 224 112 16 224 112 16 224 112 16 224 112 16 224 112 16 224 112 16 224 112 16 224 112 16
208 112 144 208 112 144 208 112 144 208 112 144 208 112 144 208 112 144 208 112 144 208 112 144 208 112 144 208 112 144 208 112 144 208 112 144 208 112 144 208 112 144 208 112 144 208 112 144 208 112 144 208 112 144 208 112 144 208 112 144 208 112 144 208 112 144 208 112 144 208 112 144 208 112 144 208 112 144 208 112 144 208 112 144 208 112 144 208 112 144 208 112 144 208 112 144 240 112 144 240 112 144 240 112 144 240 112 144 240 112 144 240 112 144 240 112 144 240 112 144 240 112 144 240 112 144 240 112 144 240 112 144 240 112 144 240 112 144 240 112 144 240 112 144 240 112 144 240 112 144 240 112 144 240 112 144 240 112 144 240 112 144 240 112 144 240 112 144 240 112 144 240 112 144 240 112 144 240 112 144 240 112 144 240 112 144 240 112 144 240 112 144 240 112 16 240 112 16 240 112 16 240 112 16 240 112 16 240 112 16 240 112 16 240 112 16 240 112 16 240 112 16 240 112 16 240 112 16 240 112 16 240 112 16 240 112 16 240 112 16 240 112 16 240 112 16 240 112 16 240 112 16 240 112 16 240 112 16 240 112 16 240 112 16 240 112 16 240 112 16 240 112 16 240 112 16 240 112 16 240 112 16 240 112 16 240 112 16 224 112 16 224 112 16 224 112 16 224 112 16 224 112 16 224 112 16 224 112 16 224 112 16 224 112 16 224 112 16 224 112 16 224 112 16 224 112 16 224 112 16 224 112 16 224 112 16 224 112 16 224 112 16 224 112 16 224 112 16 224 112 16 224 112 16 224 112 16 224 112 16 224 112 16 224 112 16 224 112 16 224 112 16 224 112 16 224 112 16 224 112 16 224 112 16
208 112 144 208 112 144 208 112 144 208 112 144 208 112 144 208 112 144 208 112 144 208 112 144 208 112 144 208 112 144 208 112 144 208 112 144 208 112 144 208 112 144 208 112 144 208 112 144 208 112 144 208 112 144 208 112 144 208 112 144 208 112 144 208 112 144 208 112 144 208 112 144 208 112 144 208 112 144 208 112 144 208 112 144 208 112 144 208 112 144 208 112 144 208 112 144 240 112 144 240 112 144 240 112 144 240 112 144 240 112 144 240 112 144 240 112 144 240 112 144 240 112 144 240 112 144 240 112 144 240 112 144 240 112 144 240 112 144 240 112 144 240 112 144 240 112 144 240 112 144 240 112 144 240 112 144 240 112 144 240 112 144 240 112 144 240 112 144 240 112 144 240 112 144 240 112 144 240 112 144 240 112 144 240 112 144 240 112 144 240 112 144 240 112 16 240 112 16 240 112 16 240 112 16 240 112 16 240 112 16 240 112 16 240 112 16 240 112 16 240 112 16 240 112 16 240 112 16 240 112 16 240 112 16 240 112 16 240 112 16 240 112 16 240 112 16 240 112 16 240 112 16 240 112 16 240 112 16 240 112 16 240 112 16 240 112 16 240 112 16 240 112 16 240 112 16 240 112 16 240 112 16 240 112 16 240 112 16 224 112 16 224 112 16 224 112 16 224 112 16 224 112 16 224 112 16 224 112 16 224 112 16 224 112 16 224 112 16 224 112 16 224 112 16 224 112 16 224 112 16 224 112 16 224 112 16 224 112 16 224 112 16 224 112 16 224 112 16 224 112 16 224 112 16 224 112 16 224 112 16 224 112 16 224 112 16 224 112 16 224 112 16 224 112 16 224 112 16 224 112 16 224 112 16
208 112 144 208 112 144 208 112 144 208 112 144 208 112 144 208 112 144 208 112 144 208 112 144 208 112 144 208 112 144 208 112 144 208 112 144 208 112 144 208 112 144 208 112 144 208 112 144 208 112 144 208 112 144 208 112 144 208 112 144 208 112 144 208 112 144 208 112 144 208 112 144 208 112 144 208 112 144 208 112 144 208 112 144 208 112 144 208 112 144 208 112 144 208 112 144 240 112 144 240 112 144 240 112 144 240 112 144 240 112 144 240 112 144 240 112 144 240 112 144 240 112 144 240 112 144 240 112 144 240 112 144 240 112 144 240 112 144 240 112 144 240 112 144 240 112 144 240 112 144 240 112 144 240 112 144 240 112 144 240 112 144 240 112 144 240 112 144 240 112 144 240 112 144 240 112 144 240 112 144 240 112 144 240 112 144 240 112 144 240 112 144 240 112 16 240 112 16 240 112 16 240 112 16 240 112 16 240 112 16 240 112 16 240 112 16 240 112 16 240 112 16 240 112 16 240 112 16 240 112 16 240 112 16 240 112 16 240 112 16 240 112 16 240 112 16 240 112 16 240 112 16 240 112 16 240 112 16 240 112 16 240 112 16 240 112 16 240 112 16 240 112 16 240 112 16 240 112 16 240 112 16 240 112 16 240 112 16 224 112 16 224 112 16 224 112 16 224 112 16 224 112 16 224 112 16 224 112 16 224 112 16 224 112 16 224 112 16 224 112 16 224 112 16 224 112 16 224 112 16 224 112 16 224 112 16 224 112 16 224 112 16 224 112 16 224 112 16 224 112 16 224 112 16 224 112 16 224 112 16 224 112 16 224 112 16 224 112 16 224 112 16 224 112 16 224 112 16 224 112 16 224 112 16
208 112 144 208 112 144 208 112 144 208 112 144 208 112 144 208 112 144 208 112 144 208 112 144 208 112 144 208 112 144 208 112 144 208 112 144 208 112 144 208 112 144 208 112 144 208 112 144 208 112 144 208 112 144 208 112 144 208 112 144 208 112 144 208 112 144 208 112 144 208 112 144 208 112 144 208 112 144 208 112 144 208 112 144 208 112 144 208 112 144 208 112 144 208 112 144 240 112 144 240 112 144 240 112 144 240 112 144 240 112 144 240 112 144 240 112 144 240 112 144 240 112 144 240 112 144 240 112 144 240 112 144 240 112 144 240 112 144 240 112 144 240 112 144 240 112 144 240 112 144 240 112 144 240 112 144 240 112 144 240 112 144 240 112 144 240 112 144 240 112 144 240 112 144 240 112 144 240 112 144 240 112 144 240 112 144 240 112 144 240 112 144 240 112 16 240 112 16 240 112 16 240 112 16 240 112 16 240 112 16 240 112 16 240 112 16 240 112 16 240 112 16 240 112 16 240 112 16 240 112 16 240 112 16 240 112 16 240 112 16 240 112 16 240 112 16 240 112 16 240 112 16 240 112 16 240 112 16 240 112 16 240 112 16 240 112 16 240 112 16 240 112 16 240 112 16 240 112 16 240 112 16 240 112 16 240 112 16 224 112 16 224 112 16 224 112 16 224 112 16 224 112 16 224 112 16 224 112 16 224 112 16 224 112 16 224 112 16 224 112 16 224 112 16 224 112 16 224 112 16 224 112 16 224 112 16 224 112 16 224 112 16 224 112 16 224 112 16 224 112 16 224 112 16 224 112 16 224 112 16 224 112 16 224 112 16 224 112 16 224 112 16 224 112 16 224 112 16 224 112 16 224 112 16
208 112 144 208 112 144 208 112 144 208 112 144 208 112 144 208 112 144 208 112 144 208 112 144 208 112 144 208 112 144 208 112 144 208 112 144 208 112 144 208 112 144 208 112 144 208 112 144 208 112 144 208 112 144 208 112 144 208 112 144 208 112 144 208 112 144 208 112 144 208 112 144 208 112 144 208 112 144 208 112 144 208 112 144 208 112 144 208 112 144 208 112 144 208 112 144 240 112 144 240 112 144 240 112 144 240 112 144 240 112 144 240 112 144 240 112 144 240 112 144 240 112 144 240 112 144 240 112 144 240 112 144 240 112 144 240 112 144 240 112 144 240 112 144 240 112 144 240 112 144 240 112 144 240 112 144 240 112 144 240 112 144 240 112 144 240 112 144 240 112 144 240 112 144 240 112 144 240 112 144 240 112 144 240 112 144 240 112 144 240 112 144 240 112 16 240 112 16 240 112 16 240 112 16 240 112 16 240 112 16 240 112 16 240 112 16 240 112 16 240 112 16 240 112 16 240 112 16 240 112 16 240 112 16 240 112 16 240 112 16 240 112 16 240 112 16 240 112 16 240 112 16 240 112 16 240 112 16 240 112 16 240 112 16 240 112 16 240 112 16 240 112 16 240 112 16 240 112 16 240 112 16 240 112 16 240 112 16 224 112 16 224 112 16 224 112 16 224 112 16 224 112 16 224 112 16 224 112 16 224 112 16 224 112 16 224 112 16 224 112 16 224 112 16 224 112 16 224 112 16 224 112 16 224 112 16 224 112 16 224 112 16 224 112 16 224 112 16 224 112 16 224 112 16 224 112 16 224 112 16 224 112 16 224 112 16 224 112 16 224 112 16 224 112 16 224 112 16 224 112 16 224 112 16
208 112 144 208 112 144 208 112 144 208 112 144 208 112 144 208 112 144 208 112 144 208 112 144 208 112 144 208 112 144 208 112 144 208 112 144 208 112 144 208 112 144 208 112 144 208 112 144 208 112 144 208 112 144 208 112 144 208 112 144 208 112 144 208 112 144 208 112 144 208 112 144 208 112 144 208 112 144 208 112 144 208 112 144 208 112 144 208 112 144 208 112 144 208 112 144 240 112 144 240 112 144 240 112 144 240 112 144 240 112 144 240 112 144 240 112 144 240 112 144 240 112 144 240 112 144 240 112 144 240 112 144 240 112 144 240 112 144 240 112 144 240 112 144 240 112 144 240 112 144 240 112 144 240 112 144 240 112 144 240 112 144 240 112 144 240 112 144 240 112 144 240 112 144 240 112 144 240 112 144 240 112 144 240 112 144 240 112 144 240 112 144 240 112 16 240 112 16 240 112 16 240 112 16 240 112 16 240 112 16 240 112 16 240 112 16 240 112 16 240 112 16 240 112 16 240 112 16 240 112 16 240 112 16 240 112 16 240 112 16 240 112 16 240 112 16 240 112 16 240 112 16 240 112 16 240 112 16 240 112 16 240 112 16 240 112 16 240 112 16 240 112 16 240 112 16 240 112 16 240 112 16 240 112 16 240 112 16 224 112 16 224 112 16 224 112 16 224 112 16 224 112 16 224 112 16 224 112 16 224 112 16 224 112 16 224 112 16 224 112 16 224 112 16 224 112 16 224 112 16 224 112 16 224 112 16 224 112 16 224 112 16 224 112 16 224 112 16 224 112 16 224 112 16 224 112 16 224 112 16 224 112 16 224 112 16 224 112 16 224 112 16 224 112 16 224 112 16 224 112 16 224 112 16
208 112 144 208 112 144 208 112 144 208 112 144 208 112 144 208 112 144 208 112 144 208 112 144 208 112 144 208 112 144 208 112 144 208 112 144 208 112 144 208 112 144 208 112 144 208 112 144 208 112 144 208 112 144 208 112 144 208 112 144 208 112 144 208 112 144 208 112 144 208 112 144 208 112 144 208 112 144 208 112 144 208 112 144 208 112 144 208 112 144 208 112 144 208 112 144 240 112 144 240 112 144 240 112 144 240 112 144 240 112 144 240 112 144 240 112 144 240 112 144 240 112 144 240 112 144 240 112 144 240 112 144 240 112 144 240 112 144 240 112 144 240 112 144 240 112 144 240 112 144 240 112 144 240 112 144 240 112 144 240 112 144 240 112 144 240 112 144 240 112 144 240 112 144 240 112 144 240 112 144 240 112 144 240 112 144 240 112 144 240 112 144 240 112 16 240 112 16 240 112 16 240 112 16 240 112 16 240 112 16 240 112 16 240 112 16 240 112 16 240 112 16 240 112 16 240 112 16 240 112 16 240 112 16 240 112 16 240 112 16 240 112 16 240 112 16 240 112 16 240 112 16 240 112 16 240 112 16 240 112 16 240 112 16 240 112 16 240 112 16 240 112 16 240 112 16 240 112 16 240 112 16 240 112 16 240 112 16 224 112 16 224 112 16 224 112 16 224 112 16 224 112 16 224 112 16 224 112 16 224 112 16 224 112 16 224 112 16 224 112 16 224 112 16 224 112 16 224 112 16 224 112 16 224 112 16 224 112 16 224 112 16 224 112 16 224 112 16 224 112 16 224 112 16 224 112 16 224 112 16 224 112 16 224 112 16 224 112 16 224 112 16 224 112 16 224 112 16 224 112 16 224 112 16
208 112 144 208 112 144 208 112 144 208 112 144 208 112 144 208 112 144 208 112 144 208 112 144 208 112 144 208 112 144 208 112 144 208 112 144 208 112 144 208 112 144 208 112 144 208 112 144 208 112 144 208 112 144 208 112 144 208 112 144 208 112 144 208 112 144 208 112 144 208 112 144 208 112 144 208 112 144 208 112 144 208 112 144 208 112 144 208 112 144 208 112 144 208 112 144 240 112 144 240 112 144 240 112 144 240 112 144 240 112 144 240 112 144 240 112 144 240 112 144 240 112 144 240 112 144 240 112 144 240 112 144 240 112 144 240 112 144 240 112 144 240 112 144 240 112 144 240 112 144 240 112 144 240 112 144 240 112 144 240 112 144 240 112 144 240 112 144 240 112 144 240 112 144 240 112 144 240 112 144 240 112 144 240 112 144 240 112 144 240 112 144 240 112 16 240 112 16 240 112 16 240 112 16 240 112 16 240 112 16 240 112 16 240 112 16 240 112 16 240 112 16 240 112 16 240 112 16 240 112 16 240 112 16 240 112 16 240 112 16 240 112 16 240 112 16 240 112 16 240 112 16 240 112 16 240 112 16 240 112 16 240 112 16 240 112 16 240 112 16 240 112 16 240 112 16 240 112 16 240 112 16 240 112 16 240 112 16 224 112 16 224 112 16 224 112 16 224 112 16 224 112 16 224 112 16 224 112 16 224 112 16 224 112 16 224 112 16 224 112 16 224 112 16 224 112 16 224 112 16 224 112 16 224 112 16 224 112 16 224 112 16 224 112 16 224 112 16 224 112 16 224 112 16 224 112 16 224 112 16 224 112 16 224 112 16 224 112 16 224 112 16 224 112 16 224 112 16 224 112 16 224 112 16
208 112 144 208 112 144 208 112 144 208 112 144 208 112 144 208 112 144 208 112 144 208 112 144 208 112 144 208 112 144 208 112 144 208 112 144 208 112 144 208 112 144 208 112 144 208 112 144 208 112 144 208 112 144 208 112 144 208 112 144 208 112 144 208 112 144 208 112 144 208 112 144 208 112 144 208 112 144 208 112 144 208 112 144 208 112 144 208 112 144 208 112 144 208 112 144 240 112 144 240 112 144 240 112 144 240 112 144 240 112 144 240 112 144 240 112 144 240 112 144 240 112 144 240 112 144 240 112 144 240 112 144 240 112 144 240 112 144 240 112 144 240 112 144 240 112 144 240 112 144 240 112 144 240 112 144 240 112 144 240 112 144 240 112 144 240 112 144 240 112 144 240 112 144 240 112 144 240 112 144 240 112 144 240 112 144 240 112 144 240 112 144 240 112 16 240 112 16 240 112 16 240 112 16 240 112 16 240 112 16 240 112 16 240 112 16 240 112 16 240 112 16 240 112 16 240 112 16 240 112 16 240 112 16 240 112 16 240 112 16 240 112 16 240 112 16 240 112 16 240 112 16 240 112 16 240 112 16 240 112 16 240 112 16 240 112 16 240 112 16 240 112 16 240 112 16 240 112 16 240 112 16 240 112 16 240 112 16 224 112 16 224 112 16 224 112 16 224 112 16 224 112 16 224 112 16 224 112 16 224 112 16 224 112 16 224 112 16 224 112 16 224 112 16 224 112 16 224 112 16 224 112 16 224 112 16 224 112 16 224 112 16 224 112 16 224 112 16 224 112 16 224 112 16 224 112 16 224 112 16 224 112 16 224 112 16 224 112 16 224 112 16 224 112 16 224 112 16 224 112 16 224 112 16
208 112 144 208 112 144 208 112 144 208 112 144 208 112 144 208 112 144 208 112 144 208 112 144 208 112 144 208 112 144 208 112 144 208 112 144 208 112 144 208 112 144 208 112 144 208 112 144 208 112 144 208 112 144 208 112 144 208 112 144 208 112 144 208 112 144 208 112 144 208 112 144 208 112 144 208 112 144 208 112 144 208 112 144 208 112 144 208 112 144 208 112 144 208 112 144 240 112 144 240 112 144 240 112 144 240 112 144 240 112 144 240 112 144 240 112 144 240 112 144 240 112 144 240 112 144 240 112 144 240 112 144 240 112 144 240 112 144 240 112 144 240 112 144 240 112 144 240 112 144 240 112 144 240 112 144 240 112 144 240 112 144 240 112 144 240 112 144 240 112 144 240 112 144 240 112 144 240 112 144 240 112 144 240 112 144 240 112 144 240 112 144 240 112 16 240 112 16 240 112 16 240 112 16 240 112 16 240 112 16 240 112 16 240 112 16 240 112 16 240 112 16 240 112 16 240 112 16 240 112 16 240 112 16 240 112 16 240 112 16 240 112 16 240 112 16 240 112 16 240 112 16 240 112 16 240 112 16 240 112 16 240 112 16 240 112 16 240 112 16 240 112 16 240 112 16 240 112 16 240 112 16 240 112 16 240 112 16 224 112 16 224 112 16 224 112 16 224 112 16 224 112 16 224 112 16 224 112 16 224 112 16 224 112 16 224 112 16 224 112 16 224 112 16 224 112 16 224 112 16 224 112 16 224 112 16 224 112 16 224 112 16 224 112 16 224 112 16 224 112 16 224 112 16 224 112 16 224 112 16 224 112 16 224 112 16 224 112 16 224 112 16 224 112 16 224 112 16 224 112 16 224 112 16
208 112 144 208 112 144 208 112 144 208 112 144 208 112 144 208 112 144 208 112 144 208 112 144 208 112 144 208 112 144 208 112 144 208 112 144 208 112 144 208 112 144 208 112 144 208 112 144 208 112 144 208 112 144 208 112 144 208 112 144 208 112 144 208 112 144 208 112 144 208 112 144 208 112 144 208 112 144 208 112 144 208 112 144 208 112 144 208 112 144 208 112 144 208 112 144 240 112 144 240 112 144 240 112 144 240 112 144 240 112 144 240 112 144 240 112 144 240 112 144 240 112 144 240 112 144 240 112 144 240 112 144 240 112 144 240 112 144 240 112 144 240 112 144 240 112 144 240 112 144 240 112 144 240 112 144 240 112 144 240 112 144 240 112 144 240 112 144 240 112 144 240 112 144 240 112 144 240 112 144 240 112 144 240 112 144 240 112 144 240 112 144 240 112 16 240 112 16 240 112 16 240 112 16 240 112 16 240 112 16 240 112 16 240 112 16 240 112 16 240 112 16 240 112 16 240 112 16 240 112 16 240 112 16 240 112 16 240 112 16 240 112 16 240 112 16 240 112 16 240 112 16 240 112 16 240 112 16 240 112 16 240 112 16 240 112 16 240 112 16 240 112 16 240 112 16 240 112 16 240 112 16 240 112 16 240 112 16 224 112 16 224 112 16 224 112 16 224 112 16 224 112 16 224 112 16 224 112 16 224 112 16 224 112 16 224 112 16 224 112 16 224 112 16 224 112 16 224 112 16 224 112 16 224 112 16 224 112 16 224 112 16 224 112 16 224 112 16 224 112 16 224 112 16 224 112 16 224 112 16 224 112 16 224 112 16 224 112 16 224 112 16 224 112 16 224 112 16 224 112 16 224 112 16
208 112 144 208 112 144 208 112 144 208 112 144 208 112 144 208 112 144 208 112 144 208 112 144 208 112 144 208 112 144 208 112 144 208 112 144 208 112 144 208 112 144 208 112 144 208 112 144 208 112 144 208 112 144 208 112 144 208 112 144 208 112 144 208 112 144 208 112 144 208 112 144 208 112 144 208 112 144 208 112 144 208 112 144 208 112 144 208 112 144 208 112 144 208 112 144 240 112 144 240 112 144 240 112 144 240 112 144 240 112 144 240 112 144 240 112 144 240 112 144 240 112 144 240 112 144 240 112 144 240 112 144 240 112 144 240 112 144 240 112 144 240 112 144 240 112 144 240 112 144 240 112 144 240 112 144 240 112 144 240 112 144 240 112 144 240 112 144 240 112 144 240 112 144 240 112 144 240 112 144 240 112 144 240 112 144 240 112 144 240 112 144 240 112 16 240 112 16 240 112 16 240 112 16 240 112 16 240 112 16 240 112 16 240 112 16 240 112 16 240 112 16 240 112 16 240 112 16 240 112 16 240 112 16 240 112 16 240 112 16 240 112 16 240 112 16 240 112 16 240 112 16 240 112 16 240 112 16 240 112 16 240 112 16 240 112 16 240 112 16 240 112 16 240 112 16 240 112 16 240 112 16 240 112 16 240 112 16 224 112 16 224 112 16 224 112 16 224 112 16 224 112 16 224 112 16 224 112 16 224 112 16 224 112 16 224 112 16 224 112 16 224 112 16 224 112 16 224 112 16 224 112 16 224 112 16 224 112 16 224 112 16 224 112 16 224 112 16 224 112 16 224 112 16 224 112 16 224 112 16 224 112 16 224 112 16 224 112 16 224 112 16 224 112 16 224 112 16 224 112 16 224 112 16
208 112 144 208 112 144 208 112 144 208 112 144 208 112 144 208 112 144 208 112 144 208 112 144 208 112 144 208 112 144 208 112 144 208 112 144 208 112 144 208 112 144 208 112 144 208 112 144 208 112 144 208 112 144 208 112 144 208 112 144 208 112 144 208 112 144 208 112 144 208 112 144 208 112 144 208 112 144 208 112 144 208 112 144 208 112 144 208 112 144 208 112 144 208 112 144 240 112 144 240 112 144 240 112 144 240 112 144 240 112 144 240 112 144 240 112 144 240 112 144 240 112 144 240 112 144 240 112 144 240 112 144 240 112 144 240 112 144 240 112 144 240 112 144 240 112 144 240 112 144 240 112 144 240 112 144 240 112 144 240 112 144 240 112 144 240 112 144 240 112 144 240 112 144 240 112 144 240 112 144 240 112 144 240 112 144 240 112 144 240 112 144 240 112 16 240 112 16 240 112 16 240 112 16 240 112 16 240 112 16 240 112 16 240 112 16 240 112 16 240 112 16 240 112 16 240 112 16 240 112 16 240 112 16 240 112 16 240 112 16 240 112 16 240 112 16 240 112 16 240 112 16 240 112 16 240 112 16 240 112 16 240 112 16 240 112 16 240 112 16 240 112 16 240 112 16 240 112 16 240 112 16 240 112 16 240 112 16 224 112 16 224 112 16 224 112 16 224 112 16 224 112 16 224 112 16 224 112 16 224 112 16 224 112 16 224 112 16 224 112 16 224 112 16 224 112 16 224 112 16 224 112 16 224 112 16 224 112 16 224 112 16 224 112 16 224 112 16 224 112 16 224 112 16 224 112 16 224 112 16 224 112 16 224 112 16 224 112 16 224 112 16 224 112 16 224 112 16 224 112 16 224 112 16
208 112 144 208 112 144 208 112 144 208 112 144 208 112 144 208 112 144 208 112 144 208 112 144 208 112 144 208 112 144 208 112 144 208 112 144 208 112 144 208 112 144 208 112 144 208 112 144 208 112 144 208 112 144 208 112 144 208 112 144 208 112 144 208 112 144 208 112 144 208 112 144 208 112 144 208 112 144 208 112 144 208 112 144 208 112 144 208 112 144 208 112 144 208 112 144 240 112 144 240 112 144 240 112 144 240 112 144 240 112 144 240 112 144 240 112 144 240 112 144 240 112 144 240 112 144 240 112 144 240 112 144 240 112 144 240 112 144 240 112 144 240 112 144 240 112 144 240 112 144 240 112 144 240 112 144 240 112 144 240 112 144 240 112 144 240 112 144 240 112 144 240 112 144 240 112 144 240 112 144 240 112 144 240 112 144 240 112 144 240 112 144 240 112 16 240 112 16 240 112 16 240 112 16 240 112 16 240 112 16 240 112 16 240 112 16 240 112 16 240 112 16 240 112 16 240 112 16 240 112 16 240 112 16 240 112 16 240 112 16 240 112 16 240 112 16 240 112 16 240 112 16 240 112 16 240 112 16 240 112 16 240 112 16 240 112 16 240 112 16 240 112 16 240 112 16 240 112 16 240 112 16 240 112 16 240 112 16 224 112 16 224 112 16 224 112 16 224 112 16 224 112 16 224 112 16 224 112 16 224 112 16 224 112 16 224 112 16 224 112 16 224 112 16 224 112 16 224 112 16 224 112 16 224 112 16 224 112 16 224 112 16 224 112 16 224 112 16 224 112 16 224 112 16 224 112 16 224 112 16 224 112 16 224 112 16 224 112 16 224 112 16 224 112 16 224 112 16 224 112 16 224 112 16
208 112 144 208 112 144 208 112 144 208 112 144 208 112 144 208 112 144 208 112 144 208 112 144 208 112 144 208 112 144 208 112 144 208 112 144 208 112 144 208 112 144 208 112 144 208 112 144 208 112 144 208 112 144 208 112 144 208 112 144 208 112 144 208 112 144 208 112 144 208 112 144 208 112 144 208 112 144 208 112 144 208 112 144 208 112 144 208 112 144 208 112 144 208 112 144 240 112 144 240 112 144 240 112 144 240 112 144 240 112 144 240 112 144 240 112 144 240 112 144 240 112 144 240 112 144 240 112 144 240 112 144 240 112 144 240 112 144 240 112 144 240 112 144 240 112 144 240 112 144 240 112 144 240 112 144 240 112 144 240 112 144 240 112 144 240 112 144 240 112 144 240 112 144 240 112 144 240 112 144 240 112 144 240 112 144 240 112 144 240 112 144 240 112 16 240 112 16 240 112 16 240 112 16 240 112 16 240 112 16 240 112 16 240 112 16 240 112 16 240 112 16 240 112 16 240 112 16 240 112 16 240 112 16 240 112 16 240 112 16 240 112 16 240 112 16 240 112 16 240 112 16 240 112 16 240 112 16 240 112 16 240 112 16 240 112 16 240 112 16 240 112 16 240 112 16 240 112 16 240 112 16 240 112 16 240 112 16 224 112 16 224 112 16 224 112 16 224 112 16 224 112 16 224 112 16 224 112 16 224 112 16 224 112 16 224 112 16 224 112 16 224 112 16 224 112 16 224 112 16 224 112 16 224 112 16 224 112 16 224 112 16 224 112 16 224 112 16 224 112 16 224 112 16 224 112 16 224 112 16 224 112 16 224 112 16 224 112 16 224 112 16 224 112 16 224 112 16 224 112 16 224 112 16
208 112 144 208 112 144 208 112 144 208 112 144 208 112 144 208 112 144 208 112 144 208 112 144 208 112 144 208 112 144 208 112 144 208 112 144 208 112 144 208 112 144 208 112 144 208 112 144 208 112 144 208 112 144 208 112 144 208 112 144 208 112 144 208 112 144 208 112 144 208 112 144 208 112 144 208 112 144 208 112 144 208 112 144 208 112 144 208 112 144 208 112 144 208 112 144 240 112 144 240 112 144 240 112 144 240 112 144 240 112 144 240 112 144 240 112 144 240 112 144 240 112 144 240 112 144 240 112 144 240 112 144 240 112 144 240 112 144 240 112 144 240 112 144 240 112 144 240 112 144 240 112 144 240 112 144 240 112 144 240 112 144 240 112 144 240 112 144 240 112 144 240 112 144 240 112 144 240 112 144 240 112 144 240 112 144 240 112 144 240 112 144 240 112 16 240 112 16 240 112 16 240 112 16 240 112 16 240 112 16 240 112 16 240 112 16 240 112 16 240 112 16 240 112 16 240 112 16 240 112 16 240 112 16 240 112 16 240 112 16 240 112 16 240 112 16 240 112 16 240 112 16 240 112 16 240 112 16 240 112 16 240 112 16 240 112 16 240 112 16 240 112 16 240 112 16 240 112 16 240 112 16 240 112 16 240 112 16 224 112 16 224 112 16 224 112 16 224 112 16 224 112 16 224 112 16 224 112 16 224 112 16 224 112 16 224 112 16 224 112 16 224 112 16 224 112 16 224 112 16 224 112 16 224 112 16 224 112 16 224 112 16 224 112 16 224 112 16 224 112 16 224 112 16 224 112 16 224 112 16 224 112 16 224 112 16 224 112 16 224 112 16 224 112 16 224 112 16 224 112 16 224 112 16
208 112 144 208 112 144 208 112 144 208 112 144 208 112 144 208 112 144 208 112 144 208 112 144 208 112 144 208 112 144 208 112 144 208 112 144 208 112 144 208 112 144 208 112 144 208 112 144 208 112 144 208 112 144 208 112 144 208 112 144 208 112 144 208 112 144 208 112 144 208 112 144 208 112 144 208 112 144 208 112 144 208 112 144 208 112 144 208 112 144 208 112 144 208 112 144 240 112 144 240 112 144 240 112 144 240 112 144 240 112 144 240 112 144 240 112 144 240 112 144 240 112 144 240 112 144 240 112 144 240 112 144 240 112 144 240 112 144 240 112 144 240 112 144 240 112 144 240 112 144 240 112 144 240 112 144 240 112 144 240 112 144 240 112 144 240 112 144 240 112 144 240 112 144 240 112 144 240 112 144 240 112 144 240 112 144 240 112 144 240 112 144 240 112 16 240 112 16 240 112 16 240 112 16 240 112 16 240 112 16 240 112 16 240 112 16 240 112 16 240 112 16 240 112 16 240 112 16 240 112 16 240 112 16 240 112 16 240 112 16 240 112 16 240 112 16 240 112 16 240 112 16 240 112 16 240 112 16 240 112 16 240 112 16 240 112 16 240 112 16 240 112 16 240 112 16 240 112 16 240 112 16 240 112 16 240 112 16 224 112 16 224 112 16 224 112 16 224 112 16 224 112 16 224 112 16 224 112 16 224 112 16 224 112 16 224 112 16 224 112 16 224 112 16 224 112 16 224 112 16 224 112 16 224 112 16 224 112 16 224 112 16 224 112 16 224 112 16 224 112 16 224 112 16 224 112 16 224 112 16 224 112 16 224 112 16 224 112 16 224 112 16 224 112 16 224 112 16 224 112 16 224 112 16
208 112 144 208 112 144 208 112 144 208 112 144 208 112 144 208 112 144 208 112 144 208 112 144 208 112 144 208 112 144 208 112 144 208 112 144 208 112 144 208 112 144 208 112 144 208 112 144 208 112 144 208 112 144 208 112 144 208 112 144 208 112 144 208 112 144 208 112 144 208 112 144 208 112 144 208 112 144 208 112 144 208 112 144 208 112 144 208 112 144 208 112 144 208 112 144 240 112 144 240 112 144 240 112 144 240 112 144 240 112 144 240 112 144 240 112 144 240 112 144 240 112 144 240 112 144 240 112 144 240 112 144 240 112 144 240 112 144 240 112 144 240 112 144 240 112 144 240 112 144 240 112 144 240 112 144 240 112 144 240 112 144 240 112 144 240 112 144 240 112 144 240 112 144 240 112 144 240 112 144 240 112 144 240 112 144 240 112 144 240 112 144 240 112 16 240 112 16 240 112 16 240 112 16 240 112 16 240 112 16 240 112 16 240 112 16 240 112 16 240 112 16 240 112 16 240 112 16 240 112 16 240 112 16 240 112 16 240 112 16 240 112 16 240 112 16 240 112 16 240 112 16 240 112 16 240 112 16 240 112 16 240 112 16 240 112 16 240 112 16 240 112 16 240 112 16 240 112 16 240 112 16 240 112 16 240 112 16 224 112 16 224 112 16 224 112 16 224 112 16 224 112 16 224 112 16 224 112 16 224 112 16 224 112 16 224 112 16 224 112 16 224 112 16 224 112 16 224 112 16 224 112 16 224 112 16 224 112 16 224 112 16 224 112 16 224 112 16 224 112 16 224 112 16 224 112 16 224 112 16 224 112 16 224 112 16 224 112 16 224 112 16 224 112 16 224 112 16 224 112 16 224 112 16
208 112 144 208 112 144 208 112 144 208 112 144 208 112 144 208 112 144 208 112 144 208 112 144 208 112 144 208 112 144 208 112 144 208 112 144 208 112 144 208 112 144 208 112 144 208 112 144 208 112 144 208 112 144 208 112 144 208 112 144 208 112 144 208 112 144 208 112 144 208 112 144 208 112 144 208 112 144 208 112 144 208 112 144 208 112 144 208 112 144 208 112 144 208 112 144 240 112 144 240 112 144 240 112 144 240 112 144 240 112 144 240 112 144 240 112 144 240 112 144 240 112 144 240 112 144 240 112 144 240 112 144 240 112 144 240 112 144 240 112 144 240 112 144 240 112 144 240 112 144 240 112 144 240 112 144 240 112 144 240 112 144 240 112 144 240 112 144 240 112 144 240 112 144 240 112 144 240 112 144 240 112 144 240 112 144 240 112 144 240 112 144 240 112 16 240 112 16 240 112 16 240 112 16 240 112 16 240 112 16 240 112 16 240 112 16 240 112 16 240 112 16 240 112 16 240 112 16 240 112 16 240 112 16 240 112 16 240 112 16 240 112 16 240 112 16 240 112 16 240 112 16 240 112 16 240 112 16 240 112 16 240 112 16 240 112 16 240 112 16 240 112 16 240 112 16 240 112 16 240 112 16 240 112 16 240 112 16 224 112 16 224 112 16 224 112 16 224 112 16 224 112 16 224 112 16 224 112 16 224 112 16 224 112 16 224 112 16 224 112 16 224 112 16 224 112 16 224 112 16 224 112 16 224 112 16 224 112 16 224 112 16 224 112 16 224 112 16 224 112 16 224 112 16 224 112 16 224 112 16 224 112 16 224 112 16 224 112 16 224 112 16 224 112 16 224 112 16 224 112 16 224 112 16
208 112 144 208 112 144 208 112 144 208 112 144 208 112 144 208 112 144 208 112 144 208 112 144 208 112 144 208 112 144 208 112 144 208 112 144 208 112 144 208 112 144 208 112 144 208 112 144 208 112 144 208 112 144 208 112 144 208 112 144 208 112 144 208 112 144 208 112 144 208 112 144 208 112 144 208 112 144 208 112 144 208 112 144 208 112 144 208 112 144 208 112 144 208 112 144 240 112 144 240 112 144 240 112 144 240 112 144 240 112 144 240 112 144 240 112 144 240 112 144 240 112 144 240 112 144 240 112 144 240 112 144 240 112 144 240 112 144 240 112 144 240 112 144 240 112 144 240 112 144 240 112 144 240 112 144 240 112 144 240 112 144 240 112 144 240 112 144 240 112 144 240 112 144 240 112 144 240 112 144 240 112 144 240 112 144 240 112 144 240 112 144 240 112 16 240 112 16 240 112 16 240 112 16 240 112 16 240 112 16 240 112 16 240 112 16 240 112 16 240 112 16 240 112 16 240 112 16 240 112 16 240 112 16 240 112 16 240 112 16 240 112 16 240 112 16 240 112 16 240 112 16 240 112 16 240 112 16 240 112 16 240 112 16 240 112 16 240 112 16 240 112 16 240 112 16 240 112 16 240 112 16 240 112 16 240 112 16 224 112 16 224 112 16 224 112 16 224 112 16 224 112 16 224 112 16 224 112 16 224 112 16 224 112 16 224 112 16 224 112 16 224 112 16 224 112 16 224 112 16 224 112 16 224 112 16 224 112 16 224 112 16 224 112 16 224 112 16 224 112 16 224 112 16 224 112 16 224 112 16 224 112 16 224 112 16 224 112 16 224 112 16 224 112 16 224 112 16 224 112 16 224 112 16
208 112 144 208 112 144 208 112 144 208 112 144 208 112 144 208 112 144 208 112 144 208 112 144 208 112 144 208 112 144 208 112 144 208 112 144 208 112 144 208 112 144 208 112 144 208 112 144 208 112 144 208 112 144 208 112 144 208 112 144 208 112 144 208 112 144 208 112 144 208 112 144 208 112 144 208 112 144 208 112 144 208 112 144 208 112 144 208 112 144 208 112 144 208 112 144 240 112 144 240 112 144 240 112 144 240 112 144 240 112 144 240 112 144 240 112 144 240 112 144 240 112 144 240 112 144 240 112 144 240 112 144 240 112 144 240 112 144 240 112 144 240 112 144 240 112 144 240 112 144 240 112 144 240 112 144 240 112 144 240 112 144 240 112 144 240 112 144 240 112 144 240 112 144 240 112 144 240 112 144 240 112 144 240 112 144 240 112 144 240 112 144 240 112 16 240 112 16 240 112 16 240 112 16 240 112 16 240 112 16 240 112 16 240 112 16 240 112 16 240 112 16 240 112 16 240 112 16 240 112 16 240 112 16 240 112 16 240 112 16 240 112 16 240 112 16 240 112 16 240 112 16 240 112 16 240 112 16 240 112 16 240 112 16 240 112 16 240 112 16 240 112 16 240 112 16 240 112 16 240 112 16 240 112 16 240 112 16 224 112 16 224 112 16 224 112 16 224 112 16 224 112 16 224 112 16 224 112 16 224 112 16 224 112 16 224 112 16 224 112 16 224 112 16 224 112 16 224 112 16 224 112 16 224 112 16 224 112 16 224 112 16 224 112 16 224 112 16 224 112 16 224 112 16 224 112 16 224 112 16 224 112 16 224 112 16 224 112 16 224 112 16 224 112 16 224 112 16 224 112 16 224 112 16
208 112 144 208 112 144 208 112 144 208 112 144 208 112 144 208 112 144 208 112 144 208 112 144 208 112 144 208 112 144 208 112 144 208 112 144 208 112 144 208 112 144 208 112 144 208 112 144 208 112 144 208 112 144 208 112 144 208 112 144 208 112 144 208 112 144 208 112 144 208 112 144 208 112 144 208 112 144 208 112 144 208 112 144 208 112 144 208 112 144 208 112 144 208 112 144 240 112 144 240 112 144 240 112 144 240 112 144 240 112 144 240 112 144 240 112 144 240 112 144 240 112 144 240 112 144 240 112 144 240 112 144 240 112 144 240 112 144 240 112 144 240 112 144 240 112 144 240 112 144 240 112 144 240 112 144 240 112 144 240 112 144 240 112 144 240 112 144 240 112 144 240 112 144 240 112 144 240 112 144 240 112 144 240 112 144 240 112 144 240 112 144 240 112 16 240 112 16 240 112 16 240 112 16 240 112 16 240 112 16 240 112 16 240 112 16 240 112 16 240 112 16 240 112 16 240 112 16 240 112 16 240 112 16 240 112 16 240 112 16 240 112 16 240 112 16 240 112 16 240 112 16 240 112 16 240 112 16 240 112 16 240 112 16 240 112 16 240 112 16 240 112 16 240 112 16 240 112 16 240 112 16 240 112 16 240 112 16 224 112 16 224 112 16 224 112 16 224 112 16 224 112 16 224 112 16 224 112 16 224 112 16 224 112 16 224 112 16 224 112 16 224 112 16 224 112 16 224 112 16 224 112 16 224 112 16 224 112 16 224 112 16 224 112 16 224 112 16 224 112 16 224 112 16 224 112 16 224 112 16 224 112 16 224 112 16 224 112 16 224 112 16 224 112 16 224 112 16 224 112 16 224 112 16
208 112 144 208 112 144 208 112 144 208 112 144 208 112 144 208 112 144 208 112 144 208 112 144 208 112 144 208 112 144 208 112 144 208 112 144 208 112 144 208 112 144 208 112 144 208 112 144 208 112 144 208 112 144 208 112 144 208 112 144 208 112 144 208 112 144 208 112 144 208 112 144 208 112 144 208 112 144 208 112 144 208 112 144 208 112 144 208 112 144 208 112 144 208 112 144 240 112 144 240 112 144 240 112 144 240 112 144 240 112 144 240 112 144 240 112 144 240 112 144 240 112 144 240 112 144 240 112 144 240 112 144 240 112 144 240 112 144 240 112 144 240 112 144 240 112 144 240 112 144 240 112 144 240 112 144 240 112 144 240 112 144 240 112 144 240 112 144 240 112 144 240 112 144 240 112 144 240 112 144 240 112 144 240 112 144 240 112 144 240 112 144 240 112 16 240 112 16 240 112 16 240 112 16 240 112 16 240 112 16 240 112 16 240 112 16 240 112 16 240 112 16 240 112 16 240 112 16 240 112 16 240 112 16 240 112 16 240 112 16 240 112 16 240 112 16 240 112 16 240 112 16 240 112 16 240 112 16 240 112 16 240 112 16 240 112 16 240 112 16 240 112 16 240 112 16 240 112 16 240 112 16 240 112 16 240 112 16 224 112 16 224 112 16 224 112 16 224 112 16 224 112 16 224 112 16 224 112 16 224 112 16 224 112 16 224 112 16 224 112 16 224 112 16 224 112 16 224 112 16 224 112 16 224 112 16 224 112 16 224 112 16 224 112 16 224 112 16 224 112 16 224 112 16 224 112 16 224 112 16 224 112 16 224 112 16 224 112 16 224 112 16 224 112 16 224 112 16 224 112 16 224 112 16
208 112 144 208 112 144 208 112 144 208 112 144 208 112 144 208 112 144 208 112 144 208 112 144 208 112 144 208 112 144 208 112 144 208 112 144 208 112 144 208 112 144 208 112 144 208 112 144 208 112 144 208 112 144 208 112 144 208 112 144 208 112 144 208 112 144 208 112 144 208 112 144 208 112 144 208 112 144 208 112 144 208 112 144 208 112 144 208 112 144 208 112 144 208 112 144 240 112 144 240 112 144 240 112 144 240 112 144 240 112 144 240 112 144 240 112 144 240 112 144 240 112 144 240 112 144 240 112 144 240 112 144 240 112 144 240 112 144 240 112 144 240 112 144 240 112 144 240 112 144 240 112 144 240 112 144 240 112 144 240 112 144 240 112 144 240 112 144 240 112 144 240 112 144 240 112 144 240 112 144 240 112 144 240 112 144 240 112 144 240 112 144 240 112 16 240 112 16 240 112 16 240 112 16 240 112 16 240 112 16 240 112 16 240 112 16 240 112 16 240 112 16 240 112 16 240 112 16 240 112 16 240 112 16 240 112 16 240 112 16 240 112 16 240 112 16 240 112 16 240 112 16 240 112 16 240 112 16 240 112 16 240 112 16 240 112 16 240 112 16 240 112 16 240 112 16 240 112 16 240 112 16 240 112 16 240 112 16 224 112 16 224 112 16 224 112 16 224 112 16 224 112 16 224 112 16 224 112 16 224 112 16 224 112 16 224 112 16 224 112 16 224 112 16 224 112 16 224 112 16 224 112 16 224 112 16 224 112 16 224 112 16 224 112 16 224 112 16 224 112 16 224 112 16 224 112 16 224 112 16 224 112 16 224 112 16 224 112 16 224 112 16 224 112 16 224 112 16 224 112 16 224 112 16
208 112 144 208 112 144 208 112 144 208 112 144 208 112 144 208 112 144 208 112 144 208 112 144 208 112 144 208 112 144 208 112 144 208 112 144 208 112 144 208 112 144 208 112 144 208 112 144 208 112 144 208 112 144 208 112 144 208 112 144 208 112 144 208 112 144 208 112 144 208 112 144 208 112 144 208 112 144 208 112 144 208 112 144 208 112 144 208 112 144 208 112 144 208 112 144 240 112 144 240 112 144 240 112 144 240 112 144 240 112 144 240 112 144 240 112 144 240 112 144 240 112 144 240 112 144 240 112 144 240 112 144 240 112 144 240 112 144 240 112 144 240 112 144 240 112 144 240 112 144 240 112 144 240 112 144 240 112 144 240 112 144 240 112 144 240 112 144 240 112 144 240 112 144 240 112 144 240 112 144 240 112 144 240 112 144 240 112 144 240 112 144 240 112 16 240 112 16 240 112 16 240 112 16 240 112 16 240 112 16 240 112 16 240 112 16 240 112 16 240 112 16 240 112 16 240 112 16 240 112 16 240 112 16 240 112 16 240 112 16 240 112 16 240 112 16 240 112 16 240 112 16 240 112 16 240 112 16 240 112 16 240 112 16 240 112 16 240 112 16 240 112 16 240 112 16 240 112 16 240 112 16 240 112 16 240 112 16 224 112 16 224 112 16 224 112 16 224 112 16 224 112 16 224 112 16 224 112 16 224 112 16 224 112 16 224 112 16 224 112 16 224 112 16 224 112 16 224 112 16 224 112 16 224 112 16 224 112 16 224 112 16 224 112 16 224 112 16 224 112 16 224 112 16 224 112 16 224 112 16 224 112 16 224 112 16 224 112 16 224 112 16 224 112 16 224 112 16 224 112 16 224 112 16
208 112 144 208 112 144 208 112 144 208 112 144 208 112 144 208 112 144 208 112 144 208 112 144 208 112 144 208 112 144 208 112 144 208 112 144 208 112 144 208 112 144 208 112 144 208 112 144 208 112 144 208 112 144 208 112 144 208 112 144 208 112 144 208 112 144 208 112 144 208 112 144 208 112 144 208 112 144 208 112 144 208 112 144 208 112 144 208 112 144 208 112 144 208 112 144 240 112 144 240 112 144 240 112 144 240 112 144 240 112 144 240 112 144 240 112 144 240 112 144 240 112 144 240 112 144 240 112 144 240 112 144 240 112 144 240 112 144 240 112 144 240 112 144 240 112 144 240 112 144 240 112 144 240 112 144 240 112 144 240 112 144 240 112 144 240 112 144 240 112 144 240 112 144 240 112 144 240 112 144 240 112 144 240 112 144 240 112 144 240 112 144 240 112 16 240 112 16 240 112 16 240 112 16 240 112 16 240 112 16 240 112 16 240 112 16 240 112 16 240 112 16 240 112 16 240 112 16 240 112 16 240 112 16 240 112 16 240 112 16 240 112 16 240 112 16 240 112 16 240 112 16 240 112 16 240 112 16 240 112 16 240 112 16 240 112 16 240 112 16 240 112 16 240 112 16 240 112 16 240 112 16 240 112 16 240 112 16 224 112 16 224 112 16 224 112 16 224 112 16 224 112 16 224 112 16 224 112 16 224 112 16 224 112 16 224 112 16 224 112 16 224 112 16 224 112 16 224 112 16 224 112 16 224 112 16 224 112 16 224 112 16 224 112 16 224 112 16 224 112 16 224 112 16 224 112 16 224 112 16 224 112 16 224 112 16 224 112 16 224 112 16 224 112 16 224 112 16 224 112 16 224 112 16
208 112 144 208 112 144 208 112 144 208 112 144 208 112 144 208 112 144 208 112 144 208 112 144 208 112 144 208 112 144 208 112 144 208 112 144 208 112 144 208 112 144 208 112 144 208 112 144 208 112 144 208 112 144 208 112 144 208 112 144 208 112 144 208 112 144 208 112 144 208 112 144 208 112 144 208 112 144 208 112 144 208 112 144 208 112 144 208 112 144 208 112 144 208 112 144 240 112 144 240 112 144 240 112 144 240 112 144 240 112 144 240 112 144 240 112 144 240 112 144 240 112 144 240 112 144 240 112 144 240 112 144 240 112 144 240 112 144 240 112 144 240 112 144 240 112 144 240 112 144 240 112 144 240 112 144 240 112 144 240 112 144 240 112 144 240 112 144 240 112 144 240 112 144 240 112 144 240 112 144 240 112 144 240 112 144 240 112 144 240 112 144 240 112 16 240 112 16 240 112 16 240 112 16 240 112 16 240 112 16 240 112 16 240 112 16 240 112 16 240 112 16 240 112 16 240 112 16 240 112 16 240 112 16 240 112 16 240 112 16 240 112 16 240 112 16 240 112 16 240 112 16 240 112 16 240 112 16 240 112 16 240 112 16 240 112 16 240 112 16 240 112 16 240 112 16 240 112 16 240 112 16 240 112 16 240 112 16 224 112 16 224 112 16 224 112 16 224 112 16 224 112 16 224 112 16 224 112 16 224 112 16 224 112 16 224 112 16 224 112 16 224 112 16 224 112 16 224 112 16 224 112 16 224 112 16 224 112 16 224 112 16 224 112 16 224 112 16 224 112 16 224 112 16 224 112 16 224 112 16 224 112 16 224 112 16 224 112 16 224 112 16 224 112 16 224 112 16 224 112 16 224 112 16
208 112 144 208 112 144 208 112 144 208 112 144 208 112 144 208 112 144 208 112 144 208 112 144 208 112 144 208 112 144 208 112 144 208 112 144 208 112 144 208 112 144 208 112 144 208 112 144 208 112 144 208 112 144 208 112 144 208 112 144 208 112 144 208 112 144 208 112 144 208 112 144 208 112 144 208 112 144 208 112 144 208 112 144 208 112 144 208 112 144 208 112 144 208 112 144 240 112 144 240 112 144 240 112 144 240 112 144 240 112 144 240 112 144 240 112 144 240 112 144 240 112 144 240 112 144 240 112 144 240 112 144 240 112 144 240 112 144 240 112 144 240 112 144 240 112 144 240 112 144 240 112 144 240 112 144 240 112 144 240 112 144 240 112 144 240 112 144 240 112 144 240 112 144 240 112 144 240 112 144 240 112 144 240 112 144 240 112 144 240 112 144 240 112 16 240 112 16 240 112 16 240 112 16 240 112 16 240 112 16 240 112 16 240 112 16 240 112 16 240 112 16 240 112 16 240 112 16 240 112 16 240 112 16 240 112 16 240 112 16 240 112 16 240 112 16 240 112 16 240 112 16 240 112 16 240 112 16 240 112 16 240 112 16 240 112 16 240 112 16 240 112 16 240 112 16 240 112 16 240 112 16 240 112 16 240 112 16 224 112 16 224 112 16 224 112 16 224 112 16 224 112 16 224 112 16 224 112 16 224 112 16 224 112 16 224 112 16 224 112 16 224 112 16 224 112 16 224 112 16 224 112 16 224 112 16 224 112 16 224 112 16 224 112 16 224 112 16 224 112 16 224 112 16 224 112 16 224 112 16 224 112 16 224 112 16 224 112 16 224 112 16 224 112 16 224 112 16 224 112 16 224 112 16
208 112 144 208 112 144 208 112 144 208 112 144 208 112 144 208 112 144 208 112 144 208 112 144 208 112 144 208 112 144 208 112 144 208 112 144 208 112 144 208 112 144 208 112 144 208 112 144 208 112 144 208 112 144 208 112 144 208 112 144 208 112 144 208 112 144 208 112 144 208 112 144 208 112 144 208 112 144 208 112 144 208 112 144 208 112 144 208 112 144 208 112 144 208 112 144 240 112 144 240 112 144 240 112 144 240 112 144 240 112 144 240 112 144 240 112 144 240 112 144 240 112 144 240 112 144 240 112 144 240 112 144 240 112 144 240 112 144 240 112 144 240 112 144 240 112 144 240 112 144 240 112 144 240 112 144 240 112 144 240 112 144 240 112 144 240 112 144 240 112 144 240 112 144 240 112 144 240 112 144 240 112 144 240 112 144 240 112 144 240 112 144 240 112 16 240 112 16 240 112 16 240 112 16 240 112 16 240 112 16 240 112 16 240 112 16 240 112 16 240 112 16 240 112 16 240 112 16 240 112 16 240 112 16 240 112 16 240 112 16 240 112 16 240 112 16 240 112 16 240 112 16 240 112 16 240 112 16 240 112 16 240 112 16 240 112 16 240 112 16 240 112 16 240 112 16 240 112 16 240 112 16 240 112 16 240 112 16 224 112 16 224 112 16 224 112 16 224 112 16 224 112 16 224 112 16 224 112 16 224 112 16 224 112 16 224 112 16 224 112 16 224 112 16 224 112 16 224 112 16 224 112 16 224 112 16 224 112 16 224 112 16 224 112 16 224 112 16 224 112 16 224 112 16 224 112 16 224 112 16 224 112 16 224 112 16 224 112 16 224 112 16 224 112 16 224 112 16 224 112 16 224 112 16
208 112 144 208 112 144 208 112 144 208 112 144 208 112 144 208 112 144 208 112 144 208 112 144 208 112 144 208 112 144 208 112 144 208 112 144 208 112 144 208 112 144 208 112 144 208 112 144 208 112 144 208 112 144 208 112 144 208 112 144 208 112 144 208 112 144 208 112 144 208 112 144 208 112 144 208 112 144 208 112 144 208 112 144 208 112 144 208 112 144 208 112 144 208 112 144 240 112 144 240 112 144 240 112 144 240 112 144 240 112 144 240 112 144 240 112 144 240 112 144 240 112 144 240 112 144 240 112 144 240 112 144 240 112 144 240 112 144 240 112 144 240 112 144 240 112 144 240 112 144 240 112 144 240 112 144 240 112 144 240 112 144 240 112 144 240 112 144 240 112 144 240 112 144 240 112 144 240 112 144 240 112 144 240 112 144 240 112 144 240 112 144 240 112 16 240 112 16 240 112 16 240 112 16 240 112 16 240 112 16 240 112 16 240 112 16 240 112 16 240 112 16 240 112 16 240 112 16 240 112 16 240 112 16 240 112 16 240 112 16 240 112 16 240 112 16 240 112 16 240 112 16 240 112 16 240 112 16 240 112 16 240 112 16 240 112 16 240 112 16 240 112 16 240 112 16 240 112 16 240 112 16 240 112 16 240 112 16 224 112 16 224 112 16 224 112 16 224 112 16 224 112 16 224 112 16 224 112 16 224 112 16 224 112 16 224 112 16 224 112 16 224 112 16 224 112 16 224 112 16 224 112 16 224 112 16 224 112 16 224 112 16 224 112 16 224 112 16 224 112 16 224 112 16 224 112 16 224 112 16 224 112 16 224 112 16 224 112 16 224 112 16 224 112 16 224 112 16 224 112 16 224 112 16