P3
128 128
255
32 40 144 32 40 144 32 40 144 32 40 144 32 40 144 32 40 144 32 40 144 32 40 144 32 40 144 32 40 144 32 40 144 32 40 144 32 40 144 32 40 144 32 40 144 32 40 144 32 40 144 32 40 144 32 40 144 32 40 144 32 40 144 32 40 144 32 40 144 32 40 144 32 40 144 32 40 144 32 40 144 32 40 144 32 40 144 32 40 144 32 40 144 32 40 144 40 40 144 40 40 144 40 40 144 40 40 144 40 40 144 40 40 144 40 40 144 40 40 144 40 40 144 40 40 144 40 40 144 40 40 144 40 40 144 40 40 144 40 40 144 40 40 144 40 40 144 40 40 144 40 40 144 40 40 144 40 40 144 40 40 144 40 40 144 40 40 144 40 40 144 40 40 144 40 40 144 40 40 144 40 40 144 40 40 144 40 40 144 40 40 144 56 40 144 56 40 144 56 40 144 56 40 144 56 40 144 56 40 144 56 40 144 56 40 144 56 40 144 56 40 144 56 40 144 56 40 144 56 40 144 56 40 144 56 40 144 56 40 144 56 40 144 56 40 144 56 40 144 56 40 144 56 40 144 56 40 144 56 40 144 56 40 144 56 40 144 56 40 144 56 40 144 56 40 144 56 40 144 56 40 144 56 40 144 56 40 144 96 40 152 96 40 152 96 40 152 96 40 152 96 40 152 96 40 152 96 40 152 96 40 152 96 40 152 96 40 152 96 40 152 96 40 152 96 40 152 96 40 152 96 40 152 96 40 152 96 40 152 96 40 152 96 40 152 96 40 152 96 40 152 96 40 152 96 40 152 96 40 152 96 40 152 96 40 152 96 40 152 96 40 152 96 40 152 96 40 152 96 40 152 96 40 152
32 40 144 32 40 144 32 40 144 32 40 144 32 40 144 32 40 144 32 40 144 32 40 144 32 40 144 32 40 144 32 40 144 32 40 144 32 40 144 32 40 144 32 40 144 32 40 144 32 40 144 32 40 144 32 40 144 32 40 144 32 40 144 32 40 144 32 40 144 32 40 144 32 40 144 32 40 144 32 40 144 32 40 144 32 40 144 32 40 144 32 40 144 32 40 144 40 40 144 40 40 144 40 40 144 40 40 144 40 40 144 40 40 144 40 40 144 40 40 144 40 40 144 40 40 144 40 40 144 40 40 144 40 40 144 40 40 144 40 40 144 40 40 144 40 40 144 40 40 144 40 40 144 40 40 144 40 40 144 40 40 144 40 40 144 40 40 144 40 40 144 40 40 144 40 40 144 40 40 144 40 40 144 40 40 144 40 40 144 40 40 144 56 40 144 56 40 144 56 40 144 56 40 144 56 40 144 56 40 144 56 40 144 56 40 144 56 40 144 56 40 144 56 40 144 56 40 144 56 40 144 56 40 144 56 40 144 56 40 144 56 40 144 56 40 144 56 40 144 56 40 144 56 40 144 56 40 144 56 40 144 56 40 144 56 40 144 56 40 144 56 40 144 56 40 144 56 40 144 56 40 144 56 40 144 56 40 144 96 40 152 96 40 152 96 40 152 96 40 152 96 40 152 96 40 152 96 40 152 96 40 152 96 40 152 96 40 152 96 40 152 96 40 152 96 40 152 96 40 152 96 40 152 96 40 152 96 40 152 96 40 152 96 40 152 96 40 152 96 40 152 96 40 152 96 40 152 96 40 152 96 40 152 96 40 152 96 40 152 96 40 152 96 40 152 96 40 152 96 40 152 96 40 152
32 40 144 32 40 144 32 40 144 32 40 144 32 40 144 32 40 144 32 40 144 32 40 144 32 40 144 32 40 144 32 40 144 32 40 144 32 40 144 32 40 144 32 40 144 32 40 144 32 40 144 32 40 144 32 40 144 32 40 144 32 40 144 32 40 144 32 40 144 32 40 144 32 40 144 32 40 144 32 40 144 32 40 144 32 40 144 32 40 144 32 40 144 32 40 144 40 40 144 40 40 144 40 40 144 40 40 144 40 40 144 40 40 144 40 40 144 40 40 144 40 40 144 40 40 144 40 40 144 40 40 144 40 40 144 40 40 144 40 40 144 40 40 144 40 40 144 40 40 144 40 40 144 40 40 144 40 40 144 40 40 144 40 40 144 40 40 144 40 40 144 40 40 144 40 40 144 40 40 144 40 40 144 40 40 144 40 40 144 40 40 144 56 40 144 56 40 144 56 40 144 56 40 144 56 40 144 56 40 144 56 40 144 56 40 144 56 40 144 56 40 144 56 40 144 56 40 144 56 40 144 56 40 144 56 40 144 56 40 144 56 40 144 56 40 144 56 40 144 56 40 144 56 40 144 56 40 144 56 40 144 56 40 144 56 40 144 56 40 144 56 40 144 56 40 144 56 40 144 56 40 144 56 40 144 56 40 144 96 40 152 96 40 152 96 40 152 96 40 152 96 40 152 96 40 152 96 40 152 96 40 152 96 40 152 96 40 152 96 40 152 96 40 152 96 40 152 96 40 152 96 40 152 96 40 152 96 40 152 96 40 152 96 40 152 96 40 152 96 40 152 96 40 152 96 40 152 96 40 152 96 40 152 96 40 152 96 40 152 96 40 152 96 40 152 96 40 152 96 40 152 96 40 152
32 40 144 32 40 144 32 40 144 32 40 144 32 40 144 32 40 144 32 40 144 32 40 144 32 40 144 32 40 144 32 40 144 32 40 144 32 40 144 32 40 144 32 40 144 32 40 144 32 40 144 32 40 144 32 40 144 32 40 144 32 40 144 32 40 144 32 40 144 32 40 144 32 40 144 32 40 144 32 40 144 32 40 144 32 40 144 32 40 144 32 40 144 32 40 144 40 40 144 40 40 144 40 40 144 40 40 144 40 40 144 40 40 144 40 40 144 40 40 144 40 40 144 40 40 144 40 40 144 40 40 144 40 40 144 40 40 144 40 40 144 40 40 144 40 40 144 40 40 144 40 40 144 40 40 144 40 40 144 40 40 144 40 40 144 40 40 144 40 40 144 40 40 144 40 40 144 40 40 144 40 40 144 40 40 144 40 40 144 40 40 144 56 40 144 56 40 144 56 40 144 56 40 144 56 40 144 56 40 144 56 40 144 56 40 144 56 40 144 56 40 144 56 40 144 56 40 144 56 40 144 56 40 144 56 40 144 56 40 144 56 40 144 56 40 144 56 40 144 56 40 144 56 40 144 56 40 144 56 40 144 56 40 144 56 40 144 56 40 144 56 40 144 56 40 144 56 40 144 56 40 144 56 40 144 56 40 144 96 40 152 96 40 152 96 40 152 96 40 152 96 40 152 96 40 152 96 40 152 96 40 152 96 40 152 96 40 152 96 40 152 96 40 152 96 40 152 96 40 152 96 40 152 96 40 152 96 40 152 96 40 152 96 40 152 96 40 152 96 40 152 96 40 152 96 40 152 96 40 152 96 40 152 96 40 152 96 40 152 96 40 152 96 40 152 96 40 152 96 40 152 96 40 152
32 40 144 32 40 144 32 40 144 32 40 144 32 40 144 32 40 144 32 40 144 32 40 144 32 40 144 32 40 144 32 40 144 32 40 144 32 40 144 32 40 144 32 40 144 32 40 144 32 40 144 32 40 144 32 40 144 32 40 144 32 40 144 32 40 144 32 40 144 32 40 144 32 40 144 32 40 144 32 40 144 32 40 144 32 40 144 32 40 144 32 40 144 32 40 144 40 40 144 40 40 144 40 40 144 40 40 144 40 40 144 40 40 144 40 40 144 40 40 144 40 40 144 40 40 144 40 40 144 40 40 144 40 40 144 40 40 144 40 40 144 40 40 144 40 40 144 40 40 144 40 40 144 40 40 144 40 40 144 40 40 144 40 40 144 40 40 144 40 40 144 40 40 144 40 40 144 40 40 144 40 40 144 40 40 144 40 40 144 40 40 144 56 40 144 56 40 144 56 40 144 56 40 144 56 40 144 56 40 144 56 40 144 56 40 144 56 40 144 56 40 144 56 40 144 56 40 144 56 40 144 56 40 144 56 40 144 56 40 144 56 40 144 56 40 144 56 40 144 56 40 144 56 40 144 56 40 144 56 40 144 56 40 144 56 40 144 56 40 144 56 40 144 56 40 144 56 40 144 56 40 144 56 40 144 56 40 144 96 40 152 96 40 152 96 40 152 96 40 152 96 40 152 96 40 152 96 40 152 96 40 152 96 40 152 96 40 152 96 40 152 96 40 152 96 40 152 96 40 152 96 40 152 96 40 152 96 40 152 96 40 152 96 40 152 96 40 152 96 40 152 96 40 152 96 40 152 96 40 152 96 40 152 96 40 152 96 40 152 96 40 152 96 40 152 96 40 152 96 40 152 96 40 152
32 40 144 32 40 144 32 40 144 32 40 144 32 40 144 32 40 144 32 40 144 32 40 144 32 40 144 32 40 144 32 40 144 32 40 144 32 40 144 32 40 144 32 40 144 32 40 144 32 40 144 32 40 144 32 40 144 32 40 144 32 40 144 32 40 144 32 40 144 32 40 144 32 40 144 32 40 144 32 40 144 32 40 144 32 40 144 32 40 144 32 40 144 32 40 144 40 40 144 40 40 144 40 40 144 40 40 144 40 40 144 40 40 144 40 40 144 40 40 144 40 40 144 40 40 144 40 40 144 40 40 144 40 40 144 40 40 144 40 40 144 40 40 144 40 40 144 40 40 144 40 40 144 40 40 144 40 40 144 40 40 144 40 40 144 40 40 144 40 40 144 40 40 144 40 40 144 40 40 144 40 40 144 40 40 144 40 40 144 40 40 144 56 40 144 56 40 144 56 40 144 56 40 144 56 40 144 56 40 144 56 40 144 56 40 144 56 40 144 56 40 144 56 40 144 56 40 144 56 40 144 56 40 144 56 40 144 56 40 144 56 40 144 56 40 144 56 40 144 56 40 144 56 40 144 56 40 144 56 40 144 56 40 144 56 40 144 56 40 144 56 40 144 56 40 144 56 40 144 56 40 144 56 40 144 56 40 144 96 40 152 96 40 152 96 40 152 96 40 152 96 40 152 96 40 152 96 40 152 96 40 152 96 40 152 96 40 152 96 40 152 96 40 152 96 40 152 96 40 152 96 40 152 96 40 152 96 40 152 96 40 152 96 40 152 96 40 152 96 40 152 96 40 152 96 40 152 96 40 152 96 40 152 96 40 152 96 40 152 96 40 152 96 40 152 96 40 152 96 40 152 96 40 152
32 40 144 32 40 144 32 40 144 32 40 144 32 40 144 32 40 144 32 40 144 32 40 144 32 40 144 32 40 144 32 40 144 32 40 144 32 40 144 32 40 144 32 40 144 32 40 144 32 40 144 32 40 144 32 40 144 32 40 144 32 40 144 32 40 144 32 40 144 32 40 144 32 40 144 32 40 144 32 40 144 32 40 144 32 40 144 32 40 144 32 40 144 32 40 144 40 40 144 40 40 144 40 40 144 40 40 144 40 40 144 40 40 144 40 40 144 40 40 144 40 40 144 40 40 144 40 40 144 40 40 144 40 40 144 40 40 144 40 40 144 40 40 144 40 40 144 40 40 144 40 40 144 40 40 144 40 40 144 40 40 144 40 40 144 40 40 144 40 40 144 40 40 144 40 40 144 40 40 144 40 40 144 40 40 144 40 40 144 40 40 144 56 40 144 56 40 144 56 40 144 56 40 144 56 40 144 56 40 144 56 40 144 56 40 144 56 40 144 56 40 144 56 40 144 56 40 144 56 40 144 56 40 144 56 40 144 56 40 144 56 40 144 56 40 144 56 40 144 56 40 144 56 40 144 56 40 144 56 40 144 56 40 144 56 40 144 56 40 144 56 40 144 56 40 144 56 40 144 56 40 144 56 40 144 56 40 144 96 40 152 96 40 152 96 40 152 96 40 152 96 40 152 96 40 152 96 40 152 96 40 152 96 40 152 96 40 152 96 40 152 96 40 152 96 40 152 96 40 152 96 40 152 96 40 152 96 40 152 96 40 152 96 40 152 96 40 152 96 40 152 96 40 152 96 40 152 96 40 152 96 40 152 96 40 152 96 40 152 96 40 152 96 40 152 96 40 152 96 40 152 96 40 152
32 40 144 32 40 144 32 40 144 32 40 144 32 40 144 32 40 144 32 40 144 32 40 144 32 40 144 32 40 144 32 40 144 32 40 144 32 40 144 32 40 144 32 40 144 32 40 144 32 40 144 32 40 144 32 40 144 32 40 144 32 40 144 32 40 144 32 40 144 32 40 144 32 40 144 32 40 144 32 40 144 32 40 144 32 40 144 32 40 144 32 40 144 32 40 144 40 40 144 40 40 144 40 40 144 40 40 144 40 40 144 40 40 144 40 40 144 40 40 144 40 40 144 40 40 144 40 40 144 40 40 144 40 40 144 40 40 144 40 40 144 40 40 144 40 40 144 40 40 144 40 40 144 40 40 144 40 40 144 40 40 144 40 40 144 40 40 144 40 40 144 40 40 144 40 40 144 40 40 144 40 40 144 40 40 144 40 40 144 40 40 144 56 40 144 56 40 144 56 40 144 56 40 144 56 40 144 56 40 144 56 40 144 56 40 144 56 40 144 56 40 144 56 40 144 56 40 144 56 40 144 56 40 144 56 40 144 56 40 144 56 40 144 56 40 144 56 40 144 56 40 144 56 40 144 56 40 144 56 40 144 56 40 144 56 40 144 56 40 144 56 40 144 56 40 144 56 40 144 56 40 144 56 40 144 56 40 144 96 40 152 96 40 152 96 40 152 96 40 152 96 40 152 96 40 152 96 40 152 96 40 152 96 40 152 96 40 152 96 40 152 96 40 152 96 40 152 96 40 152 96 40 152 96 40 152 96 40 152 96 40 152 96 40 152 96 40 152 96 40 152 96 40 152 96 40 152 96 40 152 96 40 152 96 40 152 96 40 152 96 40 152 96 40 152 96 40 152 96 40 152 96 40 152
32 40 144 32 40 144 32 40 144 32 40 144 32 40 144 32 40 144 32 40 144 32 40 144 32 40 144 32 40 144 32 40 144 32 40 144 32 40 144 32 40 144 32 40 144 32 40 144 32 40 144 32 40 144 32 40 144 32 40 144 32 40 144 32 40 144 32 40 144 32 40 144 32 40 144 32 40 144 32 40 144 32 40 144 32 40 144 32 40 144 32 40 144 32 40 144 40 40 144 40 40 144 40 40 144 40 40 144 40 40 144 40 40 144 40 40 144 40 40 144 40 40 144 40 40 144 40 40 144 40 40 144 40 40 144 40 40 144 40 40 144 40 40 144 40 40 144 40 40 144 40 40 144 40 40 144 40 40 144 40 40 144 40 40 144 40 40 144 40 40 144 40 40 144 40 40 144 40 40 144 40 40 144 40 40 144 40 40 144 40 40 144 56 40 144 56 40 144 56 40 144 56 40 144 56 40 144 56 40 144 56 40 144 56 40 144 56 40 144 56 40 144 56 40 144 56 40 144 56 40 144 56 40 144 56 40 144 56 40 144 56 40 144 56 40 144 56 40 144 56 40 144 56 40 144 56 40 144 56 40 144 56 40 144 56 40 144 56 40 144 56 40 144 56 40 144 56 40 144 56 40 144 56 40 144 56 40 144 96 40 152 96 40 152 96 40 152 96 40 152 96 40 152 96 40 152 96 40 152 96 40 152 96 40 152 96 40 152 96 40 152 96 40 152 96 40 152 96 40 152 96 40 152 96 40 152 96 40 152 96 40 152 96 40 152 96 40 152 96 40 152 96 40 152 96 40 152 96 40 152 96 40 152 96 40 152 96 40 152 96 40 152 96 40 152 96 40 152 96 40 152 96 40 152
32 40 144 32 40 144 32 40 144 32 40 144 32 40 144 32 40 144 32 40 144 32 40 144 32 40 144 32 40 144 32 40 144 32 40 144 32 40 144 32 40 144 32 40 144 32 40 144 32 40 144 32 40 144 32 40 144 32 40 144 32 40 144 32 40 144 32 40 144 32 40 144 32 40 144 32 40 144 32 40 144 32 40 144 32 40 144 32 40 144 32 40 144 32 40 144 40 40 144 40 40 144 40 40 144 40 40 144 40 40 144 40 40 144 40 40 144 40 40 144 40 40 144 40 40 144 40 40 144 40 40 144 40 40 144 40 40 144 40 40 144 40 40 144 40 40 144 40 40 144 40 40 144 40 40 144 40 40 144 40 40 144 40 40 144 40 40 144 40 40 144 40 40 144 40 40 144 40 40 144 40 40 144 40 40 144 40 40 144 40 40 144 56 40 144 56 40 144 56 40 144 56 40 144 56 40 144 56 40 144 56 40 144 56 40 144 56 40 144 56 40 144 56 40 144 56 40 144 56 40 144 56 40 144 56 40 144 56 40 144 56 40 144 56 40 144 56 40 144 56 40 144 56 40 144 56 40 144 56 40 144 56 40 144 56 40 144 56 40 144 56 40 144 56 40 144 56 40 144 56 40 144 56 40 144 56 40 144 96 40 152 96 40 152 96 40 152 96 40 152 96 40 152 96 40 152 96 40 152 96 40 152 96 40 152 96 40 152 96 40 152 96 40 152 96 40 152 96 40 152 96 40 152 96 40 152 96 40 152 96 40 152 96 40 152 96 40 152 96 40 152 96 40 152 96 40 152 96 40 152 96 40 152 96 40 152 96 40 152 96 40 152 96 40 152 96 40 152 96 40 152 96 40 152
32 40 144 32 40 144 32 40 144 32 40 144 32 40 144 32 40 144 32 40 144 32 40 144 32 40 144 32 40 144 32 40 144 32 40 144 32 40 144 32 40 144 32 40 144 32 40 144 32 40 144 32 40 144 32 40 144 32 40 144 32 40 144 32 40 144 32 40 144 32 40 144 32 40 144 32 40 144 32 40 144 32 40 144 32 40 144 32 40 144 32 40 144 32 40 144 40 40 144 40 40 144 40 40 144 40 40 144 40 40 144 40 40 144 40 40 144 40 40 144 40 40 144 40 40 144 40 40 144 40 40 144 40 40 144 40 40 144 40 40 144 40 40 144 40 40 144 40 40 144 40 40 144 40 40 144 40 40 144 40 40 144 40 40 144 40 40 144 40 40 144 40 40 144 40 40 144 40 40 144 40 40 144 40 40 144 40 40 144 40 40 144 56 40 144 56 40 144 56 40 144 56 40 144 56 40 144 56 40 144 56 40 144 56 40 144 56 40 144 56 40 144 56 40 144 56 40 144 56 40 144 56 40 144 56 40 144 56 40 144 56 40 144 56 40 144 56 40 144 56 40 144 56 40 144 56 40 144 56 40 144 56 40 144 56 40 144 56 40 144 56 40 144 56 40 144 56 40 144 56 40 144 56 40 144 56 40 144 96 40 152 96 40 152 96 40 152 96 40 152 96 40 152 96 40 152 96 40 152 96 40 152 96 40 152 96 40 152 96 40 152 96 40 152 96 40 152 96 40 152 96 40 152 96 40 152 96 40 152 96 40 152 96 40 152 96 40 152 96 40 152 96 40 152 96 40 152 96 40 152 96 40 152 96 40 152 96 40 152 96 40 152 96 40 152 96 40 152 96 40 152 96 40 152
32 40 144 32 40 144 32 40 144 32 40 144 32 40 144 32 40 144 32 40 144 32 40 144 32 40 144 32 40 144 32 40 144 32 40 144 32 40 144 32 40 144 32 40 144 32 40 144 32 40 144 32 40 144 32 40 144 32 40 144 32 40 144 32 40 144 32 40 144 32 40 144 32 40 144 32 40 144 32 40 144 32 40 144 32 40 144 32 40 144 32 40 144 32 40 144 40 40 144 40 40 144 40 40 144 40 40 144 40 40 144 40 40 144 40 40 144 40 40 144 40 40 144 40 40 144 40 40 144 40 40 144 40 40 144 40 40 144 40 40 144 40 40 144 40 40 144 40 40 144 40 40 144 40 40 144 40 40 144 40 40 144 40 40 144 40 40 144 40 40 144 40 40 144 40 40 144 40 40 144 40 40 144 40 40 144 40 40 144 40 40 144 56 40 144 56 40 144 56 40 144 56 40 144 56 40 144 56 40 144 56 40 144 56 40 144 56 40 144 56 40 144 56 40 144 56 40 144 56 40 144 56 40 144 56 40 144 56 40 144 56 40 144 56 40 144 56 40 144 56 40 144 56 40 144 56 40 144 56 40 144 56 40 144 56 40 144 56 40 144 56 40 144 56 40 144 56 40 144 56 40 144 56 40 144 56 40 144 96 40 152 96 40 152 96 40 152 96 40 152 96 40 152 96 40 152 96 40 152 96 40 152 96 40 152 96 40 152 96 40 152 96 40 152 96 40 152 96 40 152 96 40 152 96 40 152 96 40 152 96 40 152 96 40 152 96 40 152 96 40 152 96 40 152 96 40 152 96 40 152 96 40 152 96 40 152 96 40 152 96 40 152 96 40 152 96 40 152 96 40 152 96 40 152
32 40 144 32 40 144 32 40 144 32 40 144 32 40 144 32 40 144 32 40 144 32 40 144 32 40 144 32 40 144 32 40 144 32 40 144 32 40 144 32 40 144 32 40 144 32 40 144 32 40 144 32 40 144 32 40 144 32 40 144 32 40 144 32 40 144 32 40 144 32 40 144 32 40 144 32 40 144 32 40 144 32 40 144 32 40 144 32 40 144 32 40 144 32 40 144 40 40 144 40 40 144 40 40 144 40 40 144 40 40 144 40 40 144 40 40 144 40 40 144 40 40 144 40 40 144 40 40 144 40 40 144 40 40 144 40 40 144 40 40 144 40 40 144 40 40 144 40 40 144 40 40 144 40 40 144 40 40 144 40 40 144 40 40 144 40 40 144 40 40 144 40 40 144 40 40 144 40 40 144 40 40 144 40 40 144 40 40 144 40 40 144 56 40 144 56 40 144 56 40 144 56 40 144 56 40 144 56 40 144 56 40 144 56 40 144 56 40 144 56 40 144 56 40 144 56 40 144 56 40 144 56 40 144 56 40 144 56 40 144 56 40 144 56 40 144 56 40 144 56 40 144 56 40 144 56 40 144 56 40 144 56 40 144 56 40 144 56 40 144 56 40 144 56 40 144 56 40 144 56 40 144 56 40 144 56 40 144 96 40 152 96 40 152 96 40 152 96 40 152 96 40 152 96 40 152 96 40 152 96 40 152 96 40 152 96 40 152 96 40 152 96 40 152 96 40 152 96 40 152 96 40 152 96 40 152 96 40 152 96 40 152 96 40 152 96 40 152 96 40 152 96 40 152 96 40 152 96 40 152 96 40 152 96 40 152 96 40 152 96 40 152 96 40 152 96 40 152 96 40 152 96 40 152
32 40 144 32 40 144 32 40 144 32 40 144 32 40 144 32 40 144 32 40 144 32 40 144 32 40 144 32 40 144 32 40 144 32 40 144 32 40 144 32 40 144 32 40 144 32 40 144 32 40 144 32 40 144 32 40 144 32 40 144 32 40 144 32 40 144 32 40 144 32 40 144 32 40 144 32 40 144 32 40 144 32 40 144 32 40 144 32 40 144 32 40 144 32 40 144 40 40 144 40 40 144 40 40 144 40 40 144 40 40 144 40 40 144 40 40 144 40 40 144 40 40 144 40 40 144 40 40 144 40 40 144 40 40 144 40 40 144 40 40 144 40 40 144 40 40 144 40 40 144 40 40 144 40 40 144 40 40 144 40 40 144 40 40 144 40 40 144 40 40 144 40 40 144 40 40 144 40 40 144 40 40 144 40 40 144 40 40 144 40 40 144 56 40 144 56 40 144 56 40 144 56 40 144 56 40 144 56 40 144 56 40 144 56 40 144 56 40 144 56 40 144 56 40 144 56 40 144 56 40 144 56 40 144 56 40 144 56 40 144 56 40 144 56 40 144 56 40 144 56 40 144 56 40 144 56 40 144 56 40 144 56 40 144 56 40 144 56 40 144 56 40 144 56 40 144 56 40 144 56 40 144 56 40 144 56 40 144 96 40 152 96 40 152 96 40 152 96 40 152 96 40 152 96 40 152 96 40 152 96 40 152 96 40 152 96 40 152 96 40 152 96 40 152 96 40 152 96 40 152 96 40 152 96 40 152 96 40 152 96 40 152 96 40 152 96 40 152 96 40 152 96 40 152 96 40 152 96 40 152 96 40 152 96 40 152 96 40 152 96 40 152 96 40 152 96 40 152 96 40 152 96 40 152
32 40 144 32 40 144 32 40 144 32 40 144 32 40 144 32 40 144 32 40 144 32 40 144 32 40 144 32 40 144 32 40 144 32 40 144 32 40 144 32 40 144 32 40 144 32 40 144 32 40 144 32 40 144 32 40 144 32 40 144 32 40 144 32 40 144 32 40 144 32 40 144 32 40 144 32 40 144 32 40 144 32 40 144 32 40 144 32 40 144 32 40 144 32 40 144 40 40 144 40 40 144 40 40 144 40 40 144 40 40 144 40 40 144 40 40 144 40 40 144 40 40 144 40 40 144 40 40 144 40 40 144 40 40 144 40 40 144 40 40 144 40 40 144 40 40 144 40 40 144 40 40 144 40 40 144 40 40 144 40 40 144 40 40 144 40 40 144 40 40 144 40 40 144 40 40 144 40 40 144 40 40 144 40 40 144 40 40 144 40 40 144 56 40 144 56 40 144 56 40 144 56 40 144 56 40 144 56 40 144 56 40 144 56 40 144 56 40 144 56 40 144 56 40 144 56 40 144 56 40 144 56 40 144 56 40 144 56 40 144 56 40 144 56 40 144 56 40 144 56 40 144 56 40 144 56 40 144 56 40 144 56 40 144 56 40 144 56 40 144 56 40 144 56 40 144 56 40 144 56 40 144 56 40 144 56 40 144 96 40 152 96 40 152 96 40 152 96 40 152 96 40 152 96 40 152 96 40 152 96 40 152 96 40 152 96 40 152 96 40 152 96 40 152 96 40 152 96 40 152 96 40 152 96 40 152 96 40 152 96 40 152 96 40 152 96 40 152 96 40 152 96 40 152 96 40 152 96 40 152 96 40 152 96 40 152 96 40 152 96 40 152 96 40 152 96 40 152 96 40 152 96 40 152
32 40 144 32 40 144 32 40 144 32 40 144 32 40 144 32 40 144 32 40 144 32 40 144 32 40 144 32 40 144 32 40 144 32 40 144 32 40 144 32 40 144 32 40 144 32 40 144 32 40 144 32 40 144 32 40 144 32 40 144 32 40 144 32 40 144 32 40 144 32 40 144 32 40 144 32 40 144 32 40 144 32 40 144 32 40 144 32 40 144 32 40 144 32 40 144 40 40 144 40 40 144 40 40 144 40 40 144 40 40 144 40 40 144 40 40 144 40 40 144 40 40 144 40 40 144 40 40 144 40 40 144 40 40 144 40 40 144 40 40 144 40 40 144 40 40 144 40 40 144 40 40 144 40 40 144 40 40 144 40 40 144 40 40 144 40 40 144 40 40 144 40 40 144 40 40 144 40 40 144 40 40 144 40 40 144 40 40 144 40 40 144 56 40 144 56 40 144 56 40 144 56 40 144 56 40 144 56 40 144 56 40 144 56 40 144 56 40 144 56 40 144 56 40 144 56 40 144 56 40 144 56 40 144 56 40 144 56 40 144 56 40 144 56 40 144 56 40 144 56 40 144 56 40 144 56 40 144 56 40 144 56 40 144 56 40 144 56 40 144 56 40 144 56 40 144 56 40 144 56 40 144 56 40 144 56 40 144 96 40 152 96 40 152 96 40 152 96 40 152 96 40 152 96 40 152 96 40 152 96 40 152 96 40 152 96 40 152 96 40 152 96 40 152 96 40 152 96 40 152 96 40 152 96 40 152 96 40 152 96 40 152 96 40 152 96 40 152 96 40 152 96 40 152 96 40 152 96 40 152 96 40 152 96 40 152 96 40 152 96 40 152 96 40 152 96 40 152 96 40 152 96 40 152
32 40 144 32 40 144 32 40 144 32 40 144 32 40 144 32 40 144 32 40 144 32 40 144 32 40 144 32 40 144 32 40 144 32 40 144 32 40 144 32 40 144 32 40 144 32 40 144 32 40 144 32 40 144 32 40 144 32 40 144 32 40 144 32 40 144 32 40 144 32 40 144 32 40 144 32 40 144 32 40 144 32 40 144 32 40 144 32 40 144 32 40 144 32 40 144 40 40 144 40 40 144 40 40 144 40 40 144 40 40 144 40 40 144 40 40 144 40 40 144 40 40 144 40 40 144 40 40 144 40 40 144 40 40 144 40 40 144 40 40 144 40 40 144 40 40 144 40 40 144 40 40 144 40 40 144 40 40 144 40 40 144 40 40 144 40 40 144 40 40 144 40 40 144 40 40 144 40 40 144 40 40 144 40 40 144 40 40 144 40 40 144 56 40 144 56 40 144 56 40 144 56 40 144 56 40 144 56 40 144 56 40 144 56 40 144 56 40 144 56 40 144 56 40 144 56 40 144 56 40 144 56 40 144 56 40 144 56 40 144 56 40 144 56 40 144 56 40 144 56 40 144 56 40 144 56 40 144 56 40 144 56 40 144 56 40 144 56 40 144 56 40 144 56 40 144 56 40 144 56 40 144 56 40 144 56 40 144 96 40 152 96 40 152 96 40 152 96 40 152 96 40 152 96 40 152 96 40 152 96 40 152 96 40 152 96 40 152 96 40 152 96 40 152 96 40 152 96 40 152 96 40 152 96 40 152 96 40 152 96 40 152 96 40 152 96 40 152 96 40 152 96 40 152 96 40 152 96 40 152 96 40 152 96 40 152 96 40 152 96 40 152 96 40 152 96 40 152 96 40 152 96 40 152
32 40 144 32 40 144 32 40 144 32 40 144 32 40 144 32 40 144 32 40 144 32 40 144 32 40 144 32 40 144 32 40 144 32 40 144 32 40 144 32 40 144 32 40 144 32 40 144 32 40 144 32 40 144 32 40 144 32 40 144 32 40 144 32 40 144 32 40 144 32 40 144 32 40 144 32 40 144 32 40 144 32 40 144 32 40 144 32 40 144 32 40 144 32 40 144 40 40 144 40 40 144 40 40 144 40 40 144 40 40 144 40 40 144 40 40 144 40 40 144 40 40 144 40 40 144 40 40 144 40 40 144 40 40 144 40 40 144 40 40 144 40 40 144 40 40 144 40 40 144 40 40 144 40 40 144 40 40 144 40 40 144 40 40 144 40 40 144 40 40 144 40 40 144 40 40 144 40 40 144 40 40 144 40 40 144 40 40 144 40 40 144 56 40 144 56 40 144 56 40 144 56 40 144 56 40 144 56 40 144 56 40 144 56 40 144 56 40 144 56 40 144 56 40 144 56 40 144 56 40 144 56 40 144 56 40 144 56 40 144 56 40 144 56 40 144 56 40 144 56 40 144 56 40 144 56 40 144 56 40 144 56 40 144 56 40 144 56 40 144 56 40 144 56 40 144 56 40 144 56 40 144 56 40 144 56 40 144 96 40 152 96 40 152 96 40 152 96 40 152 96 40 152 96 40 152 96 40 152 96 40 152 96 40 152 96 40 152 96 40 152 96 40 152 96 40 152 96 40 152 96 40 152 96 40 152 96 40 152 96 40 152 96 40 152 96 40 152 96 40 152 96 40 152 96 40 152 96 40 152 96 40 152 96 40 152 96 40 152 96 40 152 96 40 152 96 40 152 96 40 152 96 40 152
32 40 144 32 40 144 32 40 144 32 40 144 32 40 144 32 40 144 32 40 144 32 40 144 32 40 144 32 40 144 32 40 144 32 40 144 32 40 144 32 40 144 32 40 144 32 40 144 32 40 144 32 40 144 32 40 144 32 40 144 32 40 144 32 40 144 32 40 144 32 40 144 32 40 144 32 40 144 32 40 144 32 40 144 32 40 144 32 40 144 32 40 144 32 40 144 40 40 144 40 40 144 40 40 144 40 40 144 40 40 144 40 40 144 40 40 144 40 40 144 40 40 144 40 40 144 40 40 144 40 40 144 40 40 144 40 40 144 40 40 144 40 40 144 40 40 144 40 40 144 40 40 144 40 40 144 40 40 144 40 40 144 40 40 144 40 40 144 40 40 144 40 40 144 40 40 144 40 40 144 40 40 144 40 40 144 40 40 144 40 40 144 56 40 144 56 40 144 56 40 144 56 40 144 56 40 144 56 40 144 56 40 144 56 40 144 56 40 144 56 40 144 56 40 144 56 40 144 56 40 144 56 40 144 56 40 144 56 40 144 56 40 144 56 40 144 56 40 144 56 40 144 56 40 144 56 40 144 56 40 144 56 40 144 56 40 144 56 40 144 56 40 144 56 40 144 56 40 144 56 40 144 56 40 144 56 40 144 96 40 152 96 40 152 96 40 152 96 40 152 96 40 152 96 40 152 96 40 152 96 40 152 96 40 152 96 40 152 96 40 152 96 40 152 96 40 152 96 40 152 96 40 152 96 40 152 96 40 152 96 40 152 96 40 152 96 40 152 96 40 152 96 40 152 96 40 152 96 40 152 96 40 152 96 40 152 96 40 152 96 40 152 96 40 152 96 40 152 96 40 152 96 40 152
32 40 144 32 40 144 32 40 144 32 40 144 32 40 144 32 40 144 32 40 144 32 40 144 32 40 144 32 40 144 32 40 144 32 40 144 32 40 144 32 40 144 32 40 144 32 40 144 32 40 144 32 40 144 32 40 144 32 40 144 32 40 144 32 40 144 32 40 144 32 40 144 32 40 144 32 40 144 32 40 144 32 40 144 32 40 144 32 40 144 32 40 144 32 40 144 40 40 144 40 40 144 40 40 144 40 40 144 40 40 144 40 40 144 40 40 144 40 40 144 40 40 144 40 40 144 40 40 144 40 40 144 40 40 144 40 40 144 40 40 144 40 40 144 40 40 144 40 40 144 40 40 144 40 40 144 40 40 144 40 40 144 40 40 144 40 40 144 40 40 144 40 40 144 40 40 144 40 40 144 40 40 144 40 40 144 40 40 144 40 40 144 56 40 144 56 40 144 56 40 144 56 40 144 56 40 144 56 40 144 56 40 144 56 40 144 56 40 144 56 40 144 56 40 144 56 40 144 56 40 144 56 40 144 56 40 144 56 40 144 56 40 144 56 40 144 56 40 144 56 40 144 56 40 144 56 40 144 56 40 144 56 40 144 56 40 144 56 40 144 56 40 144 56 40 144 56 40 144 56 40 144 56 40 144 56 40 144 96 40 152 96 40 152 96 40 152 96 40 152 96 40 152 96 40 152 96 40 152 96 40 152 96 40 152 96 40 152 96 40 152 96 40 152 96 40 152 96 40 152 96 40 152 96 40 152 96 40 152 96 40 152 96 40 152 96 40 152 96 40 152 96 40 152 96 40 152 96 40 152 96 40 152 96 40 152 96 40 152 96 40 152 96 40 152 96 40 152 96 40 152 96 40 152
32 40 144 32 40 144 32 40 144 32 40 144 32 40 144 32 40 144 32 40 144 32 40 144 32 40 144 32 40 144 32 40 144 32 40 144 32 40 144 32 40 144 32 40 144 32 40 144 32 40 144 32 40 144 32 40 144 32 40 144 32 40 144 32 40 144 32 40 144 32 40 144 32 40 144 32 40 144 32 40 144 32 40 144 32 40 144 32 40 144 32 40 144 32 40 144 40 40 144 40 40 144 40 40 144 40 40 144 40 40 144 40 40 144 40 40 144 40 40 144 40 40 144 40 40 144 40 40 144 40 40 144 40 40 144 40 40 144 40 40 144 40 40 144 40 40 144 40 40 144 40 40 144 40 40 144 40 40 144 40 40 144 40 40 144 40 40 144 40 40 144 40 40 144 40 40 144 40 40 144 40 40 144 40 40 144 40 40 144 40 40 144 56 40 144 56 40 144 56 40 144 56 40 144 56 40 144 56 40 144 56 40 144 56 40 144 56 40 144 56 40 144 56 40 144 56 40 144 56 40 144 56 40 144 56 40 144 56 40 144 56 40 144 56 40 144 56 40 144 56 40 144 56 40 144 56 40 144 56 40 144 56 40 144 56 40 144 56 40 144 56 40 144 56 40 144 56 40 144 56 40 144 56 40 144 56 40 144 96 40 152 96 40 152 96 40 152 96 40 152 96 40 152 96 40 152 96 40 152 96 40 152 96 40 152 96 40 152 96 40 152 96 40 152 96 40 152 96 40 152 96 40 152 96 40 152 96 40 152 96 40 152 96 40 152 96 40 152 96 40 152 96 40 152 96 40 152 96 40 152 96 40 152 96 40 152 96 40 152 96 40 152 96 40 152 96 40 152 96 40 152 96 40 152
32 40 144 32 40 144 32 40 144 32 40 144 32 40 144 32 40 144 32 40 144 32 40 144 32 40 144 32 40 144 32 40 144 32 40 144 32 40 144 32 40 144 32 40 144 32 40 144 32 40 144 32 40 144 32 40 144 32 40 144 32 40 144 32 40 144 32 40 144 32 40 144 32 40 144 32 40 144 32 40 144 32 40 144 32 40 144 32 40 144 32 40 144 32 40 144 40 40 144 40 40 144 40 40 144 40 40 144 40 40 144 40 40 144 40 40 144 40 40 144 40 40 144 40 40 144 40 40 144 40 40 144 40 40 144 40 40 144 40 40 144 40 40 144 40 40 144 40 40 144 40 40 144 40 40 144 40 40 144 40 40 144 40 40 144 40 40 144 40 40 144 40 40 144 40 40 144 40 40 144 40 40 144 40 40 144 40 40 144 40 40 144 56 40 144 56 40 144 56 40 144 56 40 144 56 40 144 56 40 144 56 40 144 56 40 144 56 40 144 56 40 144 56 40 144 56 40 144 56 40 144 56 40 144 56 40 144 56 40 144 56 40 144 56 40 144 56 40 144 56 40 144 56 40 144 56 40 144 56 40 144 56 40 144 56 40 144 56 40 144 56 40 144 56 40 144 56 40 144 56 40 144 56 40 144 56 40 144 96 40 152 96 40 152 96 40 152 96 40 152 96 40 152 96 40 152 96 40 152 96 40 152 96 40 152 96 40 152 96 40 152 96 40 152 96 40 152 96 40 152 96 40 152 96 40 152 96 40 152 96 40 152 96 40 152 96 40 152 96 40 152 96 40 152 96 40 152 96 40 152 96 40 152 96 40 152 96 40 152 96 40 152 96 40 152 96 40 152 96 40 152 96 40 152
32 40 144 32 40 144 32 40 144 32 40 144 32 40 144 32 40 144 32 40 144 32 40 144 32 40 144 32 40 144 32 40 144 32 40 144 32 40 144 32 40 144 32 40 144 32 40 144 32 40 144 32 40 144 32 40 144 32 40 144 32 40 144 32 40 144 32 40 144 32 40 144 32 40 144 32 40 144 32 40 144 32 40 144 32 40 144 32 40 144 32 40 144 32 40 144 40 40 144 40 40 144 40 40 144 40 40 144 40 40 144 40 40 144 40 40 144 40 40 144 40 40 144 40 40 144 40 40 144 40 40 144 40 40 144 40 40 144 40 40 144 40 40 144 40 40 144 40 40 144 40 40 144 40 40 144 40 40 144 40 40 144 40 40 144 40 40 144 40 40 144 40 40 144 40 40 144 40 40 144 40 40 144 40 40 144 40 40 144 40 40 144 56 40 144 56 40 144 56 40 144 56 40 144 56 40 144 56 40 144 56 40 144 56 40 144 56 40 144 56 40 144 56 40 144 56 40 144 56 40 144 56 40 144 56 40 144 56 40 144 56 40 144 56 40 144 56 40 144 56 40 144 56 40 144 56 40 144 56 40 144 56 40 144 56 40 144 56 40 144 56 40 144 56 40 144 56 40 144 56 40 144 56 40 144 56 40 144 96 40 152 96 40 152 96 40 152 96 40 152 96 40 152 96 40 152 96 40 152 96 40 152 96 40 152 96 40 152 96 40 152 96 40 152 96 40 152 96 40 152 96 40 152 96 40 152 96 40 152 96 40 152 96 40 152 96 40 152 96 40 152 96 40 152 96 40 152 96 40 152 96 40 152 96 40 152 96 40 152 96 40 152 96 40 152 96 40 152 96 40 152 96 40 152
32 40 144 32 40 144 32 40 144 32 40 144 32 40 144 32 40 144 32 40 144 32 40 144 32 40 144 32 40 144 32 40 144 32 40 144 32 40 144 32 40 144 32 40 144 32 40 144 32 40 144 32 40 144 32 40 144 32 40 144 32 40 144 32 40 144 32 40 144 32 40 144 32 40 144 32 40 144 32 40 144 32 40 144 32 40 144 32 40 144 32 40 144 32 40 144 40 40 144 40 40 144 40 40 144 40 40 144 40 40 144 40 40 144 40 40 144 40 40 144 40 40 144 40 40 144 40 40 144 40 40 144 40 40 144 40 40 144 40 40 144 40 40 144 40 40 144 40 40 144 40 40 144 40 40 144 40 40 144 40 40 144 40 40 144 40 40 144 40 40 144 40 40 144 40 40 144 40 40 144 40 40 144 40 40 144 40 40 144 40 40 144 56 40 144 56 40 144 56 40 144 56 40 144 56 40 144 56 40 144 56 40 144 56 40 144 56 40 144 56 40 144 56 40 144 56 40 144 56 40 144 56 40 144 56 40 144 56 40 144 56 40 144 56 40 144 56 40 144 56 40 144 56 40 144 56 40 144 56 40 144 56 40 144 56 40 144 56 40 144 56 40 144 56 40 144 56 40 144 56 40 144 56 40 144 56 40 144 96 40 152 96 40 152 96 40 152 96 40 152 96 40 152 96 40 152 96 40 152 96 40 152 96 40 152 96 40 152 96 40 152 96 40 152 96 40 152 96 40 152 96 40 152 96 40 152 96 40 152 96 40 152 96 40 152 96 40 152 96 40 152 96 40 152 96 40 152 96 40 152 96 40 152 96 40 152 96 40 152 96 40 152 96 40 152 96 40 152 96 40 152 96 40 152
32 40 144 32 40 144 32 40 144 32 40 144 32 40 144 32 40 144 32 40 144 32 40 144 32 40 144 32 40 144 32 40 144 32 40 144 32 40 144 32 40 144 32 40 144 32 40 144 32 40 144 32 40 144 32 40 144 32 40 144 32 40 144 32 40 144 32 40 144 32 40 144 32 40 144 32 40 144 32 40 144 32 40 144 32 40 144 32 40 144 32 40 144 32 40 144 40 40 144 40 40 144 40 40 144 40 40 144 40 40 144 40 40 144 40 40 144 40 40 144 40 40 144 40 40 144 40 40 144 40 40 144 40 40 144 40 40 144 40 40 144 40 40 144 40 40 144 40 40 144 40 40 144 40 40 144 40 40 144 40 40 144 40 40 144 40 40 144 40 40 144 40 40 144 40 40 144 40 40 144 40 40 144 40 40 144 40 40 144 40 40 144 56 40 144 56 40 144 56 40 144 56 40 144 56 40 144 56 40 144 56 40 144 56 40 144 56 40 144 56 40 144 56 40 144 56 40 144 56 40 144 56 40 144 56 40 144 56 40 144 56 40 144 56 40 144 56 40 144 56 40 144 56 40 144 56 40 144 56 40 144 56 40 144 56 40 144 56 40 144 56 40 144 56 40 144 56 40 144 56 40 144 56 40 144 56 40 144 96 40 152 96 40 152 96 40 152 96 40 152 96 40 152 96 40 152 96 40 152 96 40 152 96 40 152 96 40 152 96 40 152 96 40 152 96 40 152 96 40 152 96 40 152 96 40 152 96 40 152 96 40 152 96 40 152 96 40 152 96 40 152 96 40 152 96 40 152 96 40 152 96 40 152 96 40 152 96 40 152 96 40 152 96 40 152 96 40 152 96 40 152 96 40 152
32 40 144 32 40 144 32 40 144 32 40 144 32 40 144 32 40 144 32 40 144 32 40 144 32 40 144 32 40 144 32 40 144 32 40 144 32 40 144 32 40 144 32 40 144 32 40 144 32 40 144 32 40 144 32 40 144 32 40 144 32 40 144 32 40 144 32 40 144 32 40 144 32 40 144 32 40 144 32 40 144 32 40 144 32 40 144 32 40 144 32 40 144 32 40 144 40 40 144 40 40 144 40 40 144 40 40 144 40 40 144 40 40 144 40 40 144 40 40 144 40 40 144 40 40 144 40 40 144 40 40 144 40 40 144 40 40 144 40 40 144 40 40 144 40 40 144 40 40 144 40 40 144 40 40 144 40 40 144 40 40 144 40 40 144 40 40 144 40 40 144 40 40 144 40 40 144 40 40 144 40 40 144 40 40 144 40 40 144 40 40 144 56 40 144 56 40 144 56 40 144 56 40 144 56 40 144 56 40 144 56 40 144 56 40 144 56 40 144 56 40 144 56 40 144 56 40 144 56 40 144 56 40 144 56 40 144 56 40 144 56 40 144 56 40 144 56 40 144 56 40 144 56 40 144 56 40 144 56 40 144 56 40 144 56 40 144 56 40 144 56 40 144 56 40 144 56 40 144 56 40 144 56 40 144 56 40 144 96 40 152 96 40 152 96 40 152 96 40 152 96 40 152 96 40 152 96 40 152 96 40 152 96 40 152 96 40 152 96 40 152 96 40 152 96 40 152 96 40 152 96 40 152 96 40 152 96 40 152 96 40 152 96 40 152 96 40 152 96 40 152 96 40 152 96 40 152 96 40 152 96 40 152 96 40 152 96 40 152 96 40 152 96 40 152 96 40 152 96 40 152 96 40 152
32 40 144 32 40 144 32 40 144 32 40 144 32 40 144 32 40 144 32 40 144 32 40 144 32 40 144 32 40 144 32 40 144 32 40 144 32 40 144 32 40 144 32 40 144 32 40 144 32 40 144 32 40 144 32 40 144 32 40 144 32 40 144 32 40 144 32 40 144 32 40 144 32 40 144 32 40 144 32 40 144 32 40 144 32 40 144 32 40 144 32 40 144 32 40 144 40 40 144 40 40 144 40 40 144 40 40 144 40 40 144 40 40 144 40 40 144 40 40 144 40 40 144 40 40 144 40 40 144 40 40 144 40 40 144 40 40 144 40 40 144 40 40 144 40 40 144 40 40 144 40 40 144 40 40 144 40 40 144 40 40 144 40 40 144 40 40 144 40 40 144 40 40 144 40 40 144 40 40 144 40 40 144 40 40 144 40 40 144 40 40 144 56 40 144 56 40 144 56 40 144 56 40 144 56 40 144 56 40 144 56 40 144 56 40 144 56 40 144 56 40 144 56 40 144 56 40 144 56 40 144 56 40 144 56 40 144 56 40 144 56 40 144 56 40 144 56 40 144 56 40 144 56 40 144 56 40 144 56 40 144 56 40 144 56 40 144 56 40 144 56 40 144 56 40 144 56 40 144 56 40 144 56 40 144 56 40 144 96 40 152 96 40 152 96 40 152 96 40 152 96 40 152 96 40 152 96 40 152 96 40 152 96 40 152 96 40 152 96 40 152 96 40 152 96 40 152 96 40 152 96 40 152 96 40 152 96 40 152 96 40 152 96 40 152 96 40 152 96 40 152 96 40 152 96 40 152 96 40 152 96 40 152 96 40 152 96 40 152 96 40 152 96 40 152 96 40 152 96 40 152 96 40 152
32 40 144 32 40 144 32 40 144 32 40 144 32 40 144 32 40 144 32 40 144 32 40 144 32 40 144 32 40 144 32 40 144 32 40 144 32 40 144 32 40 144 32 40 144 32 40 144 32 40 144 32 40 144 32 40 144 32 40 144 32 40 144 32 40 144 32 40 144 32 40 144 32 40 144 32 40 144 32 40 144 32 40 144 32 40 144 32 40 144 32 40 144 32 40 144 40 40 144 40 40 144 40 40 144 40 40 144 40 40 144 40 40 144 40 40 144 40 40 144 40 40 144 40 40 144 40 40 144 40 40 144 40 40 144 40 40 144 40 40 144 40 40 144 40 40 144 40 40 144 40 40 144 40 40 144 40 40 144 40 40 144 40 40 144 40 40 144 40 40 144 40 40 144 40 40 144 40 40 144 40 40 144 40 40 144 40 40 144 40 40 144 56 40 144 56 40 144 56 40 144 56 40 144 56 40 144 56 40 144 56 40 144 56 40 144 56 40 144 56 40 144 56 40 144 56 40 144 56 40 144 56 40 144 56 40 144 56 40 144 56 40 144 56 40 144 56 40 144 56 40 144 56 40 144 56 40 144 56 40 144 56 40 144 56 40 144 56 40 144 56 40 144 56 40 144 56 40 144 56 40 144 56 40 144 56 40 144 96 40 152 96 40 152 96 40 152 96 40 152 96 40 152 96 40 152 96 40 152 96 40 152 96 40 152 96 40 152 96 40 152 96 40 152 96 40 152 96 40 152 96 40 152 96 40 152 96 40 152 96 40 152 96 40 152 96 40 152 96 40 152 96 40 152 96 40 152 96 40 152 96 40 152 96 40 152 96 40 152 96 40 152 96 40 152 96 40 152 96 40 152 96 40 152
32 40 144 32 40 144 32 40 144 32 40 144 32 40 144 32 40 144 32 40 144 32 40 144 32 40 144 32 40 144 32 40 144 32 40 144 32 40 144 32 40 144 32 40 144 32 40 144 32 40 144 32 40 144 32 40 144 32 40 144 32 40 144 32 40 144 32 40 144 32 40 144 32 40 144 32 40 144 32 40 144 32 40 144 32 40 144 32 40 144 32 40 144 32 40 144 40 40 144 40 40 144 40 40 144 40 40 144 40 40 144 40 40 144 40 40 144 40 40 144 40 40 144 40 40 144 40 40 144 40 40 144 40 40 144 40 40 144 40 40 144 40 40 144 40 40 144 40 40 144 40 40 144 40 40 144 40 40 144 40 40 144 40 40 144 40 40 144 40 40 144 40 40 144 40 40 144 40 40 144 40 40 144 40 40 144 40 40 144 40 40 144 56 40 144 56 40 144 56 40 144 56 40 144 56 40 144 56 40 144 56 40 144 56 40 144 56 40 144 56 40 144 56 40 144 56 40 144 56 40 144 56 40 144 56 40 144 56 40 144 56 40 144 56 40 144 56 40 144 56 40 144 56 40 144 56 40 144 56 40 144 56 40 144 56 40 144 56 40 144 56 40 144 56 40 144 56 40 144 56 40 144 56 40 144 56 40 144 96 40 152 96 40 152 96 40 152 96 40 152 96 40 152 96 40 152 96 40 152 96 40 152 96 40 152 96 40 152 96 40 152 96 40 152 96 40 152 96 40 152 96 40 152 96 40 152 96 40 152 96 40 152 96 40 152 96 40 152 96 40 152 96 40 152 96 40 152 96 40 152 96 40 152 96 40 152 96 40 152 96 40 152 96 40 152 96 40 152 96 40 152 96 40 152
32 40 144 32 40 144 32 40 144 32 40 144 32 40 144 32 40 144 32 40 144 32 40 144 32 40 144 32 40 144 32 40 144 32 40 144 32 40 144 32 40 144 32 40 144 32 40 144 32 40 144 32 40 144 32 40 144 32 40 144 32 40 144 32 40 144 32 40 144 32 40 144 32 40 144 32 40 144 32 40 144 32 40 144 32 40 144 32 40 144 32 40 144 32 40 144 40 40 144 40 40 144 40 40 144 40 40 144 40 40 144 40 40 144 40 40 144 40 40 144 40 40 144 40 40 144 40 40 144 40 40 144 40 40 144 40 40 144 40 40 144 40 40 144 40 40 144 40 40 144 40 40 144 40 40 144 40 40 144 40 40 144 40 40 144 40 40 144 40 40 144 40 40 144 40 40 144 40 40 144 40 40 144 40 40 144 40 40 144 40 40 144 56 40 144 56 40 144 56 40 144 56 40 144 56 40 144 56 40 144 56 40 144 56 40 144 56 40 144 56 40 144 56 40 144 56 40 144 56 40 144 56 40 144 56 40 144 56 40 144 56 40 144 56 40 144 56 40 144 56 40 144 56 40 144 56 40 144 56 40 144 56 40 144 56 40 144 56 40 144 56 40 144 56 40 144 56 40 144 56 40 144 56 40 144 56 40 144 96 40 152 96 40 152 96 40 152 96 40 152 96 40 152 96 40 152 96 40 152 96 40 152 96 40 152 96 40 152 96 40 152 96 40 152 96 40 152 96 40 152 96 40 152 96 40 152 96 40 152 96 40 152 96 40 152 96 40 152 96 40 152 96 40 152 96 40 152 96 40 152 96 40 152 96 40 152 96 40 152 96 40 152 96 40 152 96 40 152 96 40 152 96 40 152
32 40 144 32 40 144 32 40 144 32 40 144 32 40 144 32 40 144 32 40 144 32 40 144 32 40 144 32 40 144 32 40 144 32 40 144 32 40 144 32 40 144 32 40 144 32 40 144 32 40 144 32 40 144 32 40 144 32 40 144 32 40 144 32 40 144 32 40 144 32 40 144 32 40 144 32 40 144 32 40 144 32 40 144 32 40 144 32 40 144 32 40 144 32 40 144 40 40 144 40 40 144 40 40 144 40 40 144 40 40 144 40 40 144 40 40 144 40 40 144 40 40 144 40 40 144 40 40 144 40 40 144 40 40 144 40 40 144 40 40 144 40 40 144 40 40 144 40 40 144 40 40 144 40 40 144 40 40 144 40 40 144 40 40 144 40 40 144 40 40 144 40 40 144 40 40 144 40 40 144 40 40 144 40 40 144 40 40 144 40 40 144 56 40 144 56 40 144 56 40 144 56 40 144 56 40 144 56 40 144 56 40 144 56 40 144 56 40 144 56 40 144 56 40 144 56 40 144 56 40 144 56 40 144 56 40 144 56 40 144 56 40 144 56 40 144 56 40 144 56 40 144 56 40 144 56 40 144 56 40 144 56 40 144 56 40 144 56 40 144 56 40 144 56 40 144 56 40 144 56 40 144 56 40 144 56 40 144 96 40 152 96 40 152 96 40 152 96 40 152 96 40 152 96 40 152 96 40 152 96 40 152 96 40 152 96 40 152 96 40 152 96 40 152 96 40 152 96 40 152 96 40 152 96 40 152 96 40 152 96 40 152 96 40 152 96 40 152 96 40 152 96 40 152 96 40 152 96 40 152 96 40 152 96 40 152 96 40 152 96 40 152 96 40 152 96 40 152 96 40 152 96 40 152
32 40 144 32 40 144 32 40 144 32 40 144 32 40 144 32 40 144 32 40 144 32 40 144 32 40 144 32 40 144 32 40 144 32 40 144 32 40 144 32 40 144 32 40 144 32 40 144 32 40 144 32 40 144 32 40 144 32 40 144 32 40 144 32 40 144 32 40 144 32 40 144 32 40 144 32 40 144 32 40 144 32 40 144 32 40 144 32 40 144 32 40 144 32 40 144 40 40 144 40 40 144 40 40 144 40 40 144 40 40 144 40 40 144 40 40 144 40 40 144 40 40 144 40 40 144 40 40 144 40 40 144 40 40 144 40 40 144 40 40 144 40 40 144 40 40 144 40 40 144 40 40 144 40 40 144 40 40 144 40 40 144 40 40 144 40 40 144 40 40 144 40 40 144 40 40 144 40 40 144 40 40 144 40 40 144 40 40 144 40 40 144 56 40 144 56 40 144 56 40 144 56 40 144 56 40 144 56 40 144 56 40 144 56 40 144 56 40 144 56 40 144 56 40 144 56 40 144 56 40 144 56 40 144 56 40 144 56 40 144 56 40 144 56 40 144 56 40 144 56 40 144 56 40 144 56 40 144 56 40 144 56 40 144 56 40 144 56 40 144 56 40 144 56 40 144 56 40 144 56 40 144 56 40 144 56 40 144 96 40 152 96 40 152 96 40 152 96 40 152 96 40 152 96 40 152 96 40 152 96 40 152 96 40 152 96 40 152 96 40 152 96 40 152 96 40 152 96 40 152 96 40 152 96 40 152 96 40 152 96 40 152 96 40 152 96 40 152 96 40 152 96 40 152 96 40 152 96 40 152 96 40 152 96 40 152 96 40 152 96 40 152 96 40 152 96 40 152 96 40 152 96 40 152
192 32 144 192 32 144 192 32 144 192 32 144 192 32 144 192 32 144 192 32 144 192 32 144 192 32 144 192 32 144 192 32 144 192 32 144 192 32 144 192 32 144 192 32 144 192 32 144 192 32 144 192 32 144 192 32 144 192 32 144 192 32 144 192 32 144 192 32 144 192 32 144 192 32 144 192 32 144 192 32 144 192 32 144 192 32 144 192 32 144 192 32 144 192 32 144 248 32 144 248 32 144 248 32 144 248 32 144 248 32 144 248 32 144 248 32 144 248 32 144 248 32 144 248 32 144 248 32 144 248 32 144 248 32 144 248 32 144 248 32 144 248 32 144 248 32 144 248 32 144 248 32 144 248 32 144 248 32 144 248 32 144 248 32 144 248 32 144 248 32 144 248 32 144 248 32 144 248 32 144 248 32 144 248 32 144 248 32 144 248 32 144 16 40 16 16 40 16 16 40 16 16 40 16 16 40 16 16 40 16 16 40 16 16 40 16 16 40 16 16 40 16 16 40 16 16 40 16 16 40 16 16 40 16 16 40 16 16 40 16 16 40 16 16 40 16 16 40 16 16 40 16 16 40 16 16 40 16 16 40 16 16 40 16 16 40 16 16 40 16 16 40 16 16 40 16 16 40 16 16 40 16 16 40 16 16 40 16 96 40 24 96 40 24 96 40 24 96 40 24 96 40 24 96 40 24 96 40 24 96 40 24 96 40 24 96 40 24 96 40 24 96 40 24 96 40 24 96 40 24 96 40 24 96 40 24 96 40 24 96 40 24 96 40 24 96 40 24 96 40 24 96 40 24 96 40 24 96 40 24 96 40 24 96 40 24 96 40 24 96 40 24 96 40 24 96 40 24 96 40 24 96 40 24
192 32 144 192 32 144 192 32 144 192 32 144 192 32 144 192 32 144 192 32 144 192 32 144 192 32 144 192 32 144 192 32 144 192 32 144 192 32 144 192 32 144 192 32 144 192 32 144 192 32 144 192 32 144 192 32 144 192 32 144 192 32 144 192 32 144 192 32 144 192 32 144 192 32 144 192 32 144 192 32 144 192 32 144 192 32 144 192 32 144 192 32 144 192 32 144 248 32 144 248 32 144 248 32 144 248 32 144 248 32 144 248 32 144 248 32 144 248 32 144 248 32 144 248 32 144 248 32 144 248 32 144 248 32 144 248 32 144 248 32 144 248 32 144 248 32 144 248 32 144 248 32 144 248 32 144 248 32 144 248 32 144 248 32 144 248 32 144 248 32 144 248 32 144 248 32 144 248 32 144 248 32 144 248 32 144 248 32 144 248 32 144 16 40 16 16 40 16 16 40 16 16 40 16 16 40 16 16 40 16 16 40 16 16 40 16 16 40 16 16 40 16 16 40 16 16 40 16 16 40 16 16 40 16 16 40 16 16 40 16 16 40 16 16 40 16 16 40 16 16 40 16 16 40 16 16 40 16 16 40 16 16 40 16 16 40 16 16 40 16 16 40 16 16 40 16 16 40 16 16 40 16 16 40 16 16 40 16 96 40 24 96 40 24 96 40 24 96 40 24 96 40 24 96 40 24 96 40 24 96 40 24 96 40 24 96 40 24 96 40 24 96 40 24 96 40 24 96 40 24 96 40 24 96 40 24 96 40 24 96 40 24 96 40 24 96 40 24 96 40 24 96 40 24 96 40 24 96 40 24 96 40 24 96 40 24 96 40 24 96 40 24 96 40 24 96 40 24 96 40 24 96 40 24
192 32 144 192 32 144 192 32 144 192 32 144 192 32 144 192 32 144 192 32 144 192 32 144 192 32 144 192 32 144 192 32 144 192 32 144 192 32 144 192 32 144 192 32 144 192 32 144 192 32 144 192 32 144 192 32 144 192 32 144 192 32 144 192 32 144 192 32 144 192 32 144 192 32 144 192 32 144 192 32 144 192 32 144 192 32 144 192 32 144 192 32 144 192 32 144 248 32 144 248 32 144 248 32 144 248 32 144 248 32 144 248 32 144 248 32 144 248 32 144 248 32 144 248 32 144 248 32 144 248 32 144 248 32 144 248 32 144 248 32 144 248 32 144 248 32 144 248 32 144 248 32 144 248 32 144 248 32 144 248 32 144 248 32 144 248 32 144 248 32 144 248 32 144 248 32 144 248 32 144 248 32 144 248 32 144 248 32 144 248 32 144 16 40 16 16 40 16 16 40 16 16 40 16 16 40 16 16 40 16 16 40 16 16 40 16 16 40 16 16 40 16 16 40 16 16 40 16 16 40 16 16 40 16 16 40 16 16 40 16 16 40 16 16 40 16 16 40 16 16 40 16 16 40 16 16 40 16 16 40 16 16 40 16 16 40 16 16 40 16 16 40 16 16 40 16 16 40 16 16 40 16 16 40 16 16 40 16 96 40 24 96 40 24 96 40 24 96 40 24 96 40 24 96 40 24 96 40 24 96 40 24 96 40 24 96 40 24 96 40 24 96 40 24 96 40 24 96 40 24 96 40 24 96 40 24 96 40 24 96 40 24 96 40 24 96 40 24 96 40 24 96 40 24 96 40 24 96 40 24 96 40 24 96 40 24 96 40 24 96 40 24 96 40 24 96 40 24 96 40 24 96 40 24
192 32 144 192 32 144 192 32 144 192 32 144 192 32 144 192 32 144 192 32 144 192 32 144 192 32 144 192 32 144 192 32 144 192 32 144 192 32 144 192 32 144 192 32 144 192 32 144 192 32 144 192 32 144 192 32 144 192 32 144 192 32 144 192 32 144 192 32 144 192 32 144 192 32 144 192 32 144 192 32 144 192 32 144 192 32 144 192 32 144 192 32 144 192 32 144 248 32 144 248 32 144 248 32 144 248 32 144 248 32 144 248 32 144 248 32 144 248 32 144 248 32 144 248 32 144 248 32 144 248 32 144 248 32 144 248 32 144 248 32 144 248 32 144 248 32 144 248 32 144 248 32 144 248 32 144 248 32 144 248 32 144 248 32 144 248 32 144 248 32 144 248 32 144 248 32 144 248 32 144 248 32 144 248 32 144 248 32 144 248 32 144 16 40 16 16 40 16 16 40 16 16 40 16 16 40 16 16 40 16 16 40 16 16 40 16 16 40 16 16 40 16 16 40 16 16 40 16 16 40 16 16 40 16 16 40 16 16 40 16 16 40 16 16 40 16 16 40 16 16 40 16 16 40 16 16 40 16 16 40 16 16 40 16 16 40 16 16 40 16 16 40 16 16 40 16 16 40 16 16 40 16 16 40 16 16 40 16 96 40 24 96 40 24 96 40 24 96 40 24 96 40 24 96 40 24 96 40 24 96 40 24 96 40 24 96 40 24 96 40 24 96 40 24 96 40 24 96 40 24 96 40 24 96 40 24 96 40 24 96 40 24 96 40 24 96 40 24 96 40 24 96 40 24 96 40 24 96 40 24 96 40 24 96 40 24 96 40 24 96 40 24 96 40 24 96 40 24 96 40 24 96 40 24
192 32 144 192 32 144 192 32 144 192 32 144 192 32 144 192 32 144 192 32 144 192 32 144 192 32 144 192 32 144 192 32 144 192 32 144 192 32 144 192 32 144 192 32 144 192 32 144 192 32 144 192 32 144 192 32 144 192 32 144 192 32 144 192 32 144 192 32 144 192 32 144 192 32 144 192 32 144 192 32 144 192 32 144 192 32 144 192 32 144 192 32 144 192 32 144 248 32 144 248 32 144 248 32 144 248 32 144 248 32 144 248 32 144 248 32 144 248 32 144 248 32 144 248 32 144 248 32 144 248 32 144 248 32 144 248 32 144 248 32 144 248 32 144 248 32 144 248 32 144 248 32 144 248 32 144 248 32 144 248 32 144 248 32 144 248 32 144 248 32 144 248 32 144 248 32 144 248 32 144 248 32 144 248 32 144 248 32 144 248 32 144 16 40 16 16 40 16 16 40 16 16 40 16 16 40 16 16 40 16 16 40 16 16 40 16 16 40 16 16 40 16 16 40 16 16 40 16 16 40 16 16 40 16 16 40 16 16 40 16 16 40 16 16 40 16 16 40 16 16 40 16 16 40 16 16 40 16 16 40 16 16 40 16 16 40 16 16 40 16 16 40 16 16 40 16 16 40 16 16 40 16 16 40 16 16 40 16 96 40 24 96 40 24 96 40 24 96 40 24 96 40 24 96 40 24 96 40 24 96 40 24 96 40 24 96 40 24 96 40 24 96 40 24 96 40 24 96 40 24 96 40 24 96 40 24 96 40 24 96 40 24 96 40 24 96 40 24 96 40 24 96 40 24 96 40 24 96 40 24 96 40 24 96 40 24 96 40 24 96 40 24 96 40 24 96 40 24 96 40 24 96 40 24
192 32 144 192 32 144 192 32 144 192 32 144 192 32 144 192 32 144 192 32 144 192 32 144 192 32 144 192 32 144 192 32 144 192 32 144 192 32 144 192 32 144 192 32 144 192 32 144 192 32 144 192 32 144 192 32 144 192 32 144 192 32 144 192 32 144 192 32 144 192 32 144 192 32 144 192 32 144 192 32 144 192 32 144 192 32 144 192 32 144 192 32 144 192 32 144 248 32 144 248 32 144 248 32 144 248 32 144 248 32 144 248 32 144 248 32 144 248 32 144 248 32 144 248 32 144 248 32 144 248 32 144 248 32 144 248 32 144 248 32 144 248 32 144 248 32 144 248 32 144 248 32 144 248 32 144 248 32 144 248 32 144 248 32 144 248 32 144 248 32 144 248 32 144 248 32 144 248 32 144 248 32 144 248 32 144 248 32 144 248 32 144 16 40 16 16 40 16 16 40 16 16 40 16 16 40 16 16 40 16 16 40 16 16 40 16 16 40 16 16 40 16 16 40 16 16 40 16 16 40 16 16 40 16 16 40 16 16 40 16 16 40 16 16 40 16 16 40 16 16 40 16 16 40 16 16 40 16 16 40 16 16 40 16 16 40 16 16 40 16 16 40 16 16 40 16 16 40 16 16 40 16 16 40 16 16 40 16 96 40 24 96 40 24 96 40 24 96 40 24 96 40 24 96 40 24 96 40 24 96 40 24 96 40 24 96 40 24 96 40 24 96 40 24 96 40 24 96 40 24 96 40 24 96 40 24 96 40 24 96 40 24 96 40 24 96 40 24 96 40 24 96 40 24 96 40 24 96 40 24 96 40 24 96 40 24 96 40 24 96 40 24 96 40 24 96 40 24 96 40 24 96 40 24
192 32 144 192 32 144 192 32 144 192 32 144 192 32 144 192 32 144 192 32 144 192 32 144 192 32 144 192 32 144 192 32 144 192 32 144 192 32 144 192 32 144 192 32 144 192 32 144 192 32 144 192 32 144 192 32 144 192 32 144 192 32 144 192 32 144 192 32 144 192 32 144 192 32 144 192 32 144 192 32 144 192 32 144 192 32 144 192 32 144 192 32 144 192 32 144 248 32 144 248 32 144 248 32 144 248 32 144 248 32 144 248 32 144 248 32 144 248 32 144 248 32 144 248 32 144 248 32 144 248 32 144 248 32 144 248 32 144 248 32 144 248 32 144 248 32 144 248 32 144 248 32 144 248 32 144 248 32 144 248 32 144 248 32 144 248 32 144 248 32 144 248 32 144 248 32 144 248 32 144 248 32 144 248 32 144 248 32 144 248 32 144 16 40 16 16 40 16 16 40 16 16 40 16 16 40 16 16 40 16 16 40 16 16 40 16 16 40 16 16 40 16 16 40 16 16 40 16 16 40 16 16 40 16 16 40 16 16 40 16 16 40 16 16 40 16 16 40 16 16 40 16 16 40 16 16 40 16 16 40 16 16 40 16 16 40 16 16 40 16 16 40 16 16 40 16 16 40 16 16 40 16 16 40 16 16 40 16 96 40 24 96 40 24 96 40 24 96 40 24 96 40 24 96 40 24 96 40 24 96 40 24 96 40 24 96 40 24 96 40 24 96 40 24 96 40 24 96 40 24 96 40 24 96 40 24 96 40 24 96 40 24 96 40 24 96 40 24 96 40 24 96 40 24 96 40 24 96 40 24 96 40 24 96 40 24 96 40 24 96 40 24 96 40 24 96 40 24 96 40 24 96 40 24
192 32 144 192 32 144 192 32 144 192 32 144 192 32 144 192 32 144 192 32 144 192 32 144 192 32 144 192 32 144 192 32 144 192 32 144 192 32 144 192 32 144 192 32 144 192 32 144 192 32 144 192 32 144 192 32 144 192 32 144 192 32 144 192 32 144 192 32 144 192 32 144 192 32 144 192 32 144 192 32 144 192 32 144 192 32 144 192 32 144 192 32 144 192 32 144 248 32 144 248 32 144 248 32 144 248 32 144 248 32 144 248 32 144 248 32 144 248 32 144 248 32 144 248 32 144 248 32 144 248 32 144 248 32 144 248 32 144 248 32 144 248 32 144 248 32 144 248 32 144 248 32 144 248 32 144 248 32 144 248 32 144 248 32 144 248 32 144 248 32 144 248 32 144 248 32 144 248 32 144 248 32 144 248 32 144 248 32 144 248 32 144 16 40 16 16 40 16 16 40 16 16 40 16 16 40 16 16 40 16 16 40 16 16 40 16 16 40 16 16 40 16 16 40 16 16 40 16 16 40 16 16 40 16 16 40 16 16 40 16 16 40 16 16 40 16 16 40 16 16 40 16 16 40 16 16 40 16 16 40 16 16 40 16 16 40 16 16 40 16 16 40 16 16 40 16 16 40 16 16 40 16 16 40 16 16 40 16 96 40 24 96 40 24 96 40 24 96 40 24 96 40 24 96 40 24 96 40 24 96 40 24 96 40 24 96 40 24 96 40 24 96 40 24 96 40 24 96 40 24 96 40 24 96 40 24 96 40 24 96 40 24 96 40 24 96 40 24 96 40 24 96 40 24 96 40 24 96 40 24 96 40 24 96 40 24 96 40 24 96 40 24 96 40 24 96 40 24 96 40 24 96 40 24
192 32 144 192 32 144 192 32 144 192 32 144 192 32 144 192 32 144 192 32 144 192 32 144 192 32 144 192 32 144 192 32 144 192 32 144 192 32 144 192 32 144 192 32 144 192 32 144 192 32 144 192 32 144 192 32 144 192 32 144 192 32 144 192 32 144 192 32 144 192 32 144 192 32 144 192 32 144 192 32 144 192 32 144 192 32 144 192 32 144 192 32 144 192 32 144 248 32 144 248 32 144 248 32 144 248 32 144 248 32 144 248 32 144 248 32 144 248 32 144 248 32 144 248 32 144 248 32 144 248 32 144 248 32 144 248 32 144 248 32 144 248 32 144 248 32 144 248 32 144 248 32 144 248 32 144 248 32 144 248 32 144 248 32 144 248 32 144 248 32 144 248 32 144 248 32 144 248 32 144 248 32 144 248 32 144 248 32 144 248 32 144 16 40 16 16 40 16 16 40 16 16 40 16 16 40 16 16 40 16 16 40 16 16 40 16 16 40 16 16 40 16 16 40 16 16 40 16 16 40 16 16 40 16 16 40 16 16 40 16 16 40 16 16 40 16 16 40 16 16 40 16 16 40 16 16 40 16 16 40 16 16 40 16 16 40 16 16 40 16 16 40 16 16 40 16 16 40 16 16 40 16 16 40 16 16 40 16 96 40 24 96 40 24 96 40 24 96 40 24 96 40 24 96 40 24 96 40 24 96 40 24 96 40 24 96 40 24 96 40 24 96 40 24 96 40 24 96 40 24 96 40 24 96 40 24 96 40 24 96 40 24 96 40 24 96 40 24 96 40 24 96 40 24 96 40 24 96 40 24 96 40 24 96 40 24 96 40 24 96 40 24 96 40 24 96 40 24 96 40 24 96 40 24
192 32 144 192 32 144 192 32 144 192 32 144 192 32 144 192 32 144 192 32 144 192 32 144 192 32 144 192 32 144 192 32 144 192 32 144 192 32 144 192 32 144 192 32 144 192 32 144 192 32 144 192 32 144 192 32 144 192 32 144 192 32 144 192 32 144 192 32 144 192 32 144 192 32 144 192 32 144 192 32 144 192 32 144 192 32 144 192 32 144 192 32 144 192 32 144 248 32 144 248 32 144 248 32 144 248 32 144 248 32 144 248 32 144 248 32 144 248 32 144 248 32 144 248 32 144 248 32 144 248 32 144 248 32 144 248 32 144 248 32 144 248 32 144 248 32 144 248 32 144 248 32 144 248 32 144 248 32 144 248 32 144 248 32 144 248 32 144 248 32 144 248 32 144 248 32 144 248 32 144 248 32 144 248 32 144 248 32 144 248 32 144 16 40 16 16 40 16 16 40 16 16 40 16 16 40 16 16 40 16 16 40 16 16 40 16 16 40 16 16 40 16 16 40 16 16 40 16 16 40 16 16 40 16 16 40 16 16 40 16 16 40 16 16 40 16 16 40 16 16 40 16 16 40 16 16 40 16 16 40 16 16 40 16 16 40 16 16 40 16 16 40 16 16 40 16 16 40 16 16 40 16 16 40 16 16 40 16 96 40 24 96 40 24 96 40 24 96 40 24 96 40 24 96 40 24 96 40 24 96 40 24 96 40 24 96 40 24 96 40 24 96 40 24 96 40 24 96 40 24 96 40 24 96 40 24 96 40 24 96 40 24 96 40 24 96 40 24 96 40 24 96 40 24 96 40 24 96 40 24 96 40 24 96 40 24 96 40 24 96 40 24 96 40 24 96 40 24 96 40 24 96 40 24
192 32 144 192 32 144 192 32 144 192 32 144 192 32 144 192 32 144 192 32 144 192 32 144 192 32 144 192 32 144 192 32 144 192 32 144 192 32 144 192 32 144 192 32 144 192 32 144 192 32 144 192 32 144 192 32 144 192 32 144 192 32 144 192 32 144 192 32 144 192 32 144 192 32 144 192 32 144 192 32 144 192 32 144 192 32 144 192 32 144 192 32 144 192 32 144 248 32 144 248 32 144 248 32 144 248 32 144 248 32 144 248 32 144 248 32 144 248 32 144 248 32 144 248 32 144 248 32 144 248 32 144 248 32 144 248 32 144 248 32 144 248 32 144 248 32 144 248 32 144 248 32 144 248 32 144 248 32 144 248 32 144 248 32 144 248 32 144 248 32 144 248 32 144 248 32 144 248 32 144 248 32 144 248 32 144 248 32 144 248 32 144 16 40 16 16 40 16 16 40 16 16 40 16 16 40 16 16 40 16 16 40 16 16 40 16 16 40 16 16 40 16 16 40 16 16 40 16 16 40 16 16 40 16 16 40 16 16 40 16 16 40 16 16 40 16 16 40 16 16 40 16 16 40 16 16 40 16 16 40 16 16 40 16 16 40 16 16 40 16 16 40 16 16 40 16 16 40 16 16 40 16 16 40 16 16 40 16 96 40 24 96 40 24 96 40 24 96 40 24 96 40 24 96 40 24 96 40 24 96 40 24 96 40 24 96 40 24 96 40 24 96 40 24 96 40 24 96 40 24 96 40 24 96 40 24 96 40 24 96 40 24 96 40 24 96 40 24 96 40 24 96 40 24 96 40 24 96 40 24 96 40 24 96 40 24 96 40 24 96 40 24 96 40 24 96 40 24 96 40 24 96 40 24
192 32 144 192 32 144 192 32 144 192 32 144 192 32 144 192 32 144 192 32 144 192 32 144 192 32 144 192 32 144 192 32 144 192 32 144 192 32 144 192 32 144 192 32 144 192 32 144 192 32 144 192 32 144 192 32 144 192 32 144 192 32 144 192 32 144 192 32 144 192 32 144 192 32 144 192 32 144 192 32 144 192 32 144 192 32 144 192 32 144 192 32 144 192 32 144 248 32 144 248 32 144 248 32 144 248 32 144 248 32 144 248 32 144 248 32 144 248 32 144 248 32 144 248 32 144 248 32 144 248 32 144 248 32 144 248 32 144 248 32 144 248 32 144 248 32 144 248 32 144 248 32 144 248 32 144 248 32 144 248 32 144 248 32 144 248 32 144 248 32 144 248 32 144 248 32 144 248 32 144 248 32 144 248 32 144 248 32 144 248 32 144 16 40 16 16 40 16 16 40 16 16 40 16 16 40 16 16 40 16 16 40 16 16 40 16 16 40 16 16 40 16 16 40 16 16 40 16 16 40 16 16 40 16 16 40 16 16 40 16 16 40 16 16 40 16 16 40 16 16 40 16 16 40 16 16 40 16 16 40 16 16 40 16 16 40 16 16 40 16 16 40 16 16 40 16 16 40 16 16 40 16 16 40 16 16 40 16 96 40 24 96 40 24 96 40 24 96 40 24 96 40 24 96 40 24 96 40 24 96 40 24 96 40 24 96 40 24 96 40 24 96 40 24 96 40 24 96 40 24 96 40 24 96 40 24 96 40 24 96 40 24 96 40 24 96 40 24 96 40 24 96 40 24 96 40 24 96 40 24 96 40 24 96 40 24 96 40 24 96 40 24 96 40 24 96 40 24 96 40 24 96 40 24
192 32 144 192 32 144 192 32 144 192 32 144 192 32 144 192 32 144 192 32 144 192 32 144 192 32 144 192 32 144 192 32 144 192 32 144 192 32 144 192 32 144 192 32 144 192 32 144 192 32 144 192 32 144 192 32 144 192 32 144 192 32 144 192 32 144 192 32 144 192 32 144 192 32 144 192 32 144 192 32 144 192 32 144 192 32 144 192 32 144 192 32 144 192 32 144 248 32 144 248 32 144 248 32 144 248 32 144 248 32 144 248 32 144 248 32 144 248 32 144 248 32 144 248 32 144 248 32 144 248 32 144 248 32 144 248 32 144 248 32 144 248 32 144 248 32 144 248 32 144 248 32 144 248 32 144 248 32 144 248 32 144 248 32 144 248 32 144 248 32 144 248 32 144 248 32 144 248 32 144 248 32 144 248 32 144 248 32 144 248 32 144 16 40 16 16 40 16 16 40 16 16 40 16 16 40 16 16 40 16 16 40 16 16 40 16 16 40 16 16 40 16 16 40 16 16 40 16 16 40 16 16 40 16 16 40 16 16 40 16 16 40 16 16 40 16 16 40 16 16 40 16 16 40 16 16 40 16 16 40 16 16 40 16 16 40 16 16 40 16 16 40 16 16 40 16 16 40 16 16 40 16 16 40 16 16 40 16 96 40 24 96 40 24 96 40 24 96 40 24 96 40 24 96 40 24 96 40 24 96 40 24 96 40 24 96 40 24 96 40 24 96 40 24 96 40 24 96 40 24 96 40 24 96 40 24 96 40 24 96 40 24 96 40 24 96 40 24 96 40 24 96 40 24 96 40 24 96 40 24 96 40 24 96 40 24 96 40 24 96 40 24 96 40 24 96 40 24 96 40 24 96 40 24
192 32 144 192 32 144 192 32 144 192 32 144 192 32 144 192 32 144 192 32 144 192 32 144 192 32 144 192 32 144 192 32 144 192 32 144 192 32 144 192 32 144 192 32 144 192 32 144 192 32 144 192 32 144 192 32 144 192 32 144 192 32 144 192 32 144 192 32 144 192 32 144 192 32 144 192 32 144 192 32 144 192 32 144 192 32 144 192 32 144 192 32 144 192 32 144 248 32 144 248 32 144 248 32 144 248 32 144 248 32 144 248 32 144 248 32 144 248 32 144 248 32 144 248 32 144 248 32 144 248 32 144 248 32 144 248 32 144 248 32 144 248 32 144 248 32 144 248 32 144 248 32 144 248 32 144 248 32 144 248 32 144 248 32 144 248 32 144 248 32 144 248 32 144 248 32 144 248 32 144 248 32 144 248 32 144 248 32 144 248 32 144 16 40 16 16 40 16 16 40 16 16 40 16 16 40 16 16 40 16 16 40 16 16 40 16 16 40 16 16 40 16 16 40 16 16 40 16 16 40 16 16 40 16 16 40 16 16 40 16 16 40 16 16 40 16 16 40 16 16 40 16 16 40 16 16 40 16 16 40 16 16 40 16 16 40 16 16 40 16 16 40 16 16 40 16 16 40 16 16 40 16 16 40 16 16 40 16 96 40 24 96 40 24 96 40 24 96 40 24 96 40 24 96 40 24 96 40 24 96 40 24 96 40 24 96 40 24 96 40 24 96 40 24 96 40 24 96 40 24 96 40 24 96 40 24 96 40 24 96 40 24 96 40 24 96 40 24 96 40 24 96 40 24 96 40 24 96 40 24 96 40 24 96 40 24 96 40 24 96 40 24 96 40 24 96 40 24 96 40 24 96 40 24
192 32 144 192 32 144 192 32 144 192 32 144 192 32 144 192 32 144 192 32 144 192 32 144 192 32 144 192 32 144 192 32 144 192 32 144 192 32 144 192 32 144 192 32 144 192 32 144 192 32 144 192 32 144 192 32 144 192 32 144 192 32 144 192 32 144 192 32 144 192 32 144 192 32 144 192 32 144 192 32 144 192 32 144 192 32 144 192 32 144 192 32 144 192 32 144 248 32 144 248 32 144 248 32 144 248 32 144 248 32 144 248 32 144 248 32 144 248 32 144 248 32 144 248 32 144 248 32 144 248 32 144 248 32 144 248 32 144 248 32 144 248 32 144 248 32 144 248 32 144 248 32 144 248 32 144 248 32 144 248 32 144 248 32 144 248 32 144 248 32 144 248 32 144 248 32 144 248 32 144 248 32 144 248 32 144 248 32 144 248 32 144 16 40 16 16 40 16 16 40 16 16 40 16 16 40 16 16 40 16 16 40 16 16 40 16 16 40 16 16 40 16 16 40 16 16 40 16 16 40 16 16 40 16 16 40 16 16 40 16 16 40 16 16 40 16 16 40 16 16 40 16 16 40 16 16 40 16 16 40 16 16 40 16 16 40 16 16 40 16 16 40 16 16 40 16 16 40 16 16 40 16 16 40 16 16 40 16 96 40 24 96 40 24 96 40 24 96 40 24 96 40 24 96 40 24 96 40 24 96 40 24 96 40 24 96 40 24 96 40 24 96 40 24 96 40 24 96 40 24 96 40 24 96 40 24 96 40 24 96 40 24 96 40 24 96 40 24 96 40 24 96 40 24 96 40 24 96 40 24 96 40 24 96 40 24 96 40 24 96 40 24 96 40 24 96 40 24 96 40 24 96 40 24
192 32 144 192 32 144 192 32 144 192 32 144 192 32 144 192 32 144 192 32 144 192 32 144 192 32 144 192 32 144 192 32 144 192 32 144 192 32 144 192 32 144 192 32 144 192 32 144 192 32 144 192 32 144 192 32 144 192 32 144 192 32 144 192 32 144 192 32 144 192 32 144 192 32 144 192 32 144 192 32 144 192 32 144 192 32 144 192 32 144 192 32 144 192 32 144 248 32 144 248 32 144 248 32 144 248 32 144 248 32 144 248 32 144 248 32 144 248 32 144 248 32 144 248 32 144 248 32 144 248 32 144 248 32 144 248 32 144 248 32 144 248 32 144 248 32 144 248 32 144 248 32 144 248 32 144 248 32 144 248 32 144 248 32 144 248 32 144 248 32 144 248 32 144 248 32 144 248 32 144 248 32 144 248 32 144 248 32 144 248 32 144 16 40 16 16 40 16 16 40 16 16 40 16 16 40 16 16 40 16 16 40 16 16 40 16 16 40 16 16 40 16 16 40 16 16 40 16 16 40 16 16 40 16 16 40 16 16 40 16 16 40 16 16 40 16 16 40 16 16 40 16 16 40 16 16 40 16 16 40 16 16 40 16 16 40 16 16 40 16 16 40 16 16 40 16 16 40 16 16 40 16 16 40 16 16 40 16 96 40 24 96 40 24 96 40 24 96 40 24 96 40 24 96 40 24 96 40 24 96 40 24 96 40 24 96 40 24 96 40 24 96 40 24 96 40 24 96 40 24 96 40 24 96 40 24 96 40 24 96 40 24 96 40 24 96 40 24 96 40 24 96 40 24 96 40 24 96 40 24 96 40 24 96 40 24 96 40 24 96 40 24 96 40 24 96 40 24 96 40 24 96 40 24
192 32 144 192 32 144 192 32 144 192 32 144 192 32 144 192 32 144 192 32 144 192 32 144 192 32 144 192 32 144 192 32 144 192 32 144 192 32 144 192 32 144 192 32 144 192 32 144 192 32 144 192 32 144 192 32 144 192 32 144 192 32 144 192 32 144 192 32 144 192 32 144 192 32 144 192 32 144 192 32 144 192 32 144 192 32 144 192 32 144 192 32 144 192 32 144 248 32 144 248 32 144 248 32 144 248 32 144 248 32 144 248 32 144 248 32 144 248 32 144 248 32 144 248 32 144 248 32 144 248 32 144 248 32 144 248 32 144 248 32 144 248 32 144 248 32 144 248 32 144 248 32 144 248 32 144 248 32 144 248 32 144 248 32 144 248 32 144 248 32 144 248 32 144 248 32 144 248 32 144 248 32 144 248 32 144 248 32 144 248 32 144 16 40 16 16 40 16 16 40 16 16 40 16 16 40 16 16 40 16 16 40 16 16 40 16 16 40 16 16 40 16 16 40 16 16 40 16 16 40 16 16 40 16 16 40 16 16 40 16 16 40 16 16 40 16 16 40 16 16 40 16 16 40 16 16 40 16 16 40 16 16 40 16 16 40 16 16 40 16 16 40 16 16 40 16 16 40 16 16 40 16 16 40 16 16 40 16 96 40 24 96 40 24 96 40 24 96 40 24 96 40 24 96 40 24 96 40 24 96 40 24 96 40 24 96 40 24 96 40 24 96 40 24 96 40 24 96 40 24 96 40 24 96 40 24 96 40 24 96 40 24 96 40 24 96 40 24 96 40 24 96 40 24 96 40 24 96 40 24 96 40 24 96 40 24 96 40 24 96 40 24 96 40 24 96 40 24 96 40 24 96 40 24
192 32 144 192 32 144 192 32 144 192 32 144 192 32 144 192 32 144 192 32 144 192 32 144 192 32 144 192 32 144 192 32 144 192 32 144 192 32 144 192 32 144 192 32 144 192 32 144 192 32 144 192 32 144 192 32 144 192 32 144 192 32 144 192 32 144 192 32 144 192 32 144 192 32 144 192 32 144 192 32 144 192 32 144 192 32 144 192 32 144 192 32 144 192 32 144 248 32 144 248 32 144 248 32 144 248 32 144 248 32 144 248 32 144 248 32 144 248 32 144 248 32 144 248 32 144 248 32 144 248 32 144 248 32 144 248 32 144 248 32 144 248 32 144 248 32 144 248 32 144 248 32 144 248 32 144 248 32 144 248 32 144 248 32 144 248 32 144 248 32 144 248 32 144 248 32 144 248 32 144 248 32 144 248 32 144 248 32 144 248 32 144 16 40 16 16 40 16 16 40 16 16 40 16 16 40 16 16 40 16 16 40 16 16 40 16 16 40 16 16 40 16 16 40 16 16 40 16 16 40 16 16 40 16 16 40 16 16 40 16 16 40 16 16 40 16 16 40 16 16 40 16 16 40 16 16 40 16 16 40 16 16 40 16 16 40 16 16 40 16 16 40 16 16 40 16 16 40 16 16 40 16 16 40 16 16 40 16 96 40 24 96 40 24 96 40 24 96 40 24 96 40 24 96 40 24 96 40 24 96 40 24 96 40 24 96 40 24 96 40 24 96 40 24 96 40 24 96 40 24 96 40 24 96 40 24 96 40 24 96 40 24 96 40 24 96 40 24 96 40 24 96 40 24 96 40 24 96 40 24 96 40 24 96 40 24 96 40 24 96 40 24 96 40 24 96 40 24 96 40 24 96 40 24
192 32 144 192 32 144 192 32 144 192 32 144 192 32 144 192 32 144 192 32 144 192 32 144 192 32 144 192 32 144 192 32 144 192 32 144 192 32 144 192 32 144 192 32 144 192 32 144 192 32 144 192 32 144 192 32 144 192 32 144 192 32 144 192 32 144 192 32 144 192 32 144 192 32 144 192 32 144 192 32 144 192 32 144 192 32 144 192 32 144 192 32 144 192 32 144 248 32 144 248 32 144 248 32 144 248 32 144 248 32 144 248 32 144 248 32 144 248 32 144 248 32 144 248 32 144 248 32 144 248 32 144 248 32 144 248 32 144 248 32 144 248 32 144 248 32 144 248 32 144 248 32 144 248 32 144 248 32 144 248 32 144 248 32 144 248 32 144 248 32 144 248 32 144 248 32 144 248 32 144 248 32 144 248 32 144 248 32 144 248 32 144 16 40 16 16 40 16 16 40 16 16 40 16 16 40 16 16 40 16 16 40 16 16 40 16 16 40 16 16 40 16 16 40 16 16 40 16 16 40 16 16 40 16 16 40 16 16 40 16 16 40 16 16 40 16 16 40 16 16 40 16 16 40 16 16 40 16 16 40 16 16 40 16 16 40 16 16 40 16 16 40 16 16 40 16 16 40 16 16 40 16 16 40 16 16 40 16 96 40 24 96 40 24 96 40 24 96 40 24 96 40 24 96 40 24 96 40 24 96 40 24 96 40 24 96 40 24 96 40 24 96 40 24 96 40 24 96 40 24 96 40 24 96 40 24 96 40 24 96 40 24 96 40 24 96 40 24 96 40 24 96 40 24 96 40 24 96 40 24 96 40 24 96 40 24 96 40 24 96 40 24 96 40 24 96 40 24 96 40 24 96 40 24
192 32 144 192 32 144 192 32 144 192 32 144 192 32 144 192 32 144 192 32 144 192 32 144 192 32 144 192 32 144 192 32 144 192 32 144 192 32 144 192 32 144 192 32 144 192 32 144 192 32 144 192 32 144 192 32 144 192 32 144 192 32 144 192 32 144 192 32 144 192 32 144 192 32 144 192 32 144 192 32 144 192 32 144 192 32 144 192 32 144 192 32 144 192 32 144 248 32 144 248 32 144 248 32 144 248 32 144 248 32 144 248 32 144 248 32 144 248 32 144 248 32 144 248 32 144 248 32 144 248 32 144 248 32 144 248 32 144 248 32 144 248 32 144 248 32 144 248 32 144 248 32 144 248 32 144 248 32 144 248 32 144 248 32 144 248 32 144 248 32 144 248 32 144 248 32 144 248 32 144 248 32 144 248 32 144 248 32 144 248 32 144 16 40 16 16 40 16 16 40 16 16 40 16 16 40 16 16 40 16 16 40 16 16 40 16 16 40 16 16 40 16 16 40 16 16 40 16 16 40 16 16 40 16 16 40 16 16 40 16 16 40 16 16 40 16 16 40 16 16 40 16 16 40 16 16 40 16 16 40 16 16 40 16 16 40 16 16 40 16 16 40 16 16 40 16 16 40 16 16 40 16 16 40 16 16 40 16 96 40 24 96 40 24 96 40 24 96 40 24 96 40 24 96 40 24 96 40 24 96 40 24 96 40 24 96 40 24 96 40 24 96 40 24 96 40 24 96 40 24 96 40 24 96 40 24 96 40 24 96 40 24 96 40 24 96 40 24 96 40 24 96 40 24 96 40 24 96 40 24 96 40 24 96 40 24 96 40 24 96 40 24 96 40 24 96 40 24 96 40 24 96 40 24
192 32 144 192 32 144 192 32 144 192 32 144 192 32 144 192 32 144 192 32 144 192 32 144 192 32 144 192 32 144 192 32 144 192 32 144 192 32 144 192 32 144 192 32 144 192 32 144 192 32 144 192 32 144 192 32 144 192 32 144 192 32 144 192 32 144 192 32 144 192 32 144 192 32 144 192 32 144 192 32 144 192 32 144 192 32 144 192 32 144 192 32 144 192 32 144 248 32 144 248 32 144 248 32 144 248 32 144 248 32 144 248 32 144 248 32 144 248 32 144 248 32 144 248 32 144 248 32 144 248 32 144 248 32 144 248 32 144 248 32 144 248 32 144 248 32 144 248 32 144 248 32 144 248 32 144 248 32 144 248 32 144 248 32 144 248 32 144 248 32 144 248 32 144 248 32 144 248 32 144 248 32 144 248 32 144 248 32 144 248 32 144 16 40 16 16 40 16 16 40 16 16 40 16 16 40 16 16 40 16 16 40 16 16 40 16 16 40 16 16 40 16 16 40 16 16 40 16 16 40 16 16 40 16 16 40 16 16 40 16 16 40 16 16 40 16 16 40 16 16 40 16 16 40 16 16 40 16 16 40 16 16 40 16 16 40 16 16 40 16 16 40 16 16 40 16 16 40 16 16 40 16 16 40 16 16 40 16 96 40 24 96 40 24 96 40 24 96 40 24 96 40 24 96 40 24 96 40 24 96 40 24 96 40 24 96 40 24 96 40 24 96 40 24 96 40 24 96 40 24 96 40 24 96 40 24 96 40 24 96 40 24 96 40 24 96 40 24 96 40 24 96 40 24 96 40 24 96 40 24 96 40 24 96 40 24 96 40 24 96 40 24 96 40 24 96 40 24 96 40 24 96 40 24
192 32 144 192 32 144 192 32 144 192 32 144 192 32 144 192 32 144 192 32 144 192 32 144 192 32 144 192 32 144 192 32 144 192 32 144 192 32 144 192 32 144 192 32 144 192 32 144 192 32 144 192 32 144 192 32 144 192 32 144 192 32 144 192 32 144 192 32 144 192 32 144 192 32 144 192 32 144 192 32 144 192 32 144 192 32 144 192 32 144 192 32 144 192 32 144 248 32 144 248 32 144 248 32 144 248 32 144 248 32 144 248 32 144 248 32 144 248 32 144 248 32 144 248 32 144 248 32 144 248 32 144 248 32 144 248 32 144 248 32 144 248 32 144 248 32 144 248 32 144 248 32 144 248 32 144 248 32 144 248 32 144 248 32 144 248 32 144 248 32 144 248 32 144 248 32 144 248 32 144 248 32 144 248 32 144 248 32 144 248 32 144 16 40 16 16 40 16 16 40 16 16 40 16 16 40 16 16 40 16 16 40 16 16 40 16 16 40 16 16 40 16 16 40 16 16 40 16 16 40 16 16 40 16 16 40 16 16 40 16 16 40 16 16 40 16 16 40 16 16 40 16 16 40 16 16 40 16 16 40 16 16 40 16 16 40 16 16 40 16 16 40 16 16 40 16 16 40 16 16 40 16 16 40 16 16 40 16 96 40 24 96 40 24 96 40 24 96 40 24 96 40 24 96 40 24 96 40 24 96 40 24 96 40 24 96 40 24 96 40 24 96 40 24 96 40 24 96 40 24 96 40 24 96 40 24 96 40 24 96 40 24 96 40 24 96 40 24 96 40 24 96 40 24 96 40 24 96 40 24 96 40 24 96 40 24 96 40 24 96 40 24 96 40 24 96 40 24 96 40 24 96 40 24
192 32 144 192 32 144 192 32 144 192 32 144 192 32 144 192 32 144 192 32 144 192 32 144 192 32 144 192 32 144 192 32 144 192 32 144 192 32 144 192 32 144 192 32 144 192 32 144 192 32 144 192 32 144 192 32 144 192 32 144 192 32 144 192 32 144 192 32 144 192 32 144 192 32 144 192 32 144 192 32 144 192 32 144 192 32 144 192 32 144 192 32 144 192 32 144 248 32 144 248 32 144 248 32 144 248 32 144 248 32 144 248 32 144 248 32 144 248 32 144 248 32 144 248 32 144 248 32 144 248 32 144 248 32 144 248 32 144 248 32 144 248 32 144 248 32 144 248 32 144 248 32 144 248 32 144 248 32 144 248 32 144 248 32 144 248 32 144 248 32 144 248 32 144 248 32 144 248 32 144 248 32 144 248 32 144 248 32 144 248 32 144 16 40 16 16 40 16 16 40 16 16 40 16 16 40 16 16 40 16 16 40 16 16 40 16 16 40 16 16 40 16 16 40 16 16 40 16 16 40 16 16 40 16 16 40 16 16 40 16 16 40 16 16 40 16 16 40 16 16 40 16 16 40 16 16 40 16 16 40 16 16 40 16 16 40 16 16 40 16 16 40 16 16 40 16 16 40 16 16 40 16 16 40 16 16 40 16 96 40 24 96 40 24 96 40 24 96 40 24 96 40 24 96 40 24 96 40 24 96 40 24 96 40 24 96 40 24 96 40 24 96 40 24 96 40 24 96 40 24 96 40 24 96 40 24 96 40 24 96 40 24 96 40 24 96 40 24 96 40 24 96 40 24 96 40 24 96 40 24 96 40 24 96 40 24 96 40 24 96 40 24 96 40 24 96 40 24 96 40 24 96 40 24
192 32 144 192 32 144 192 32 144 192 32 144 192 32 144 192 32 144 192 32 144 192 32 144 192 32 144 192 32 144 192 32 144 192 32 144 192 32 144 192 32 144 192 32 144 192 32 144 192 32 144 192 32 144 192 32 144 192 32 144 192 32 144 192 32 144 192 32 144 192 32 144 192 32 144 192 32 144 192 32 144 192 32 144 192 32 144 192 32 144 192 32 144 192 32 144 248 32 144 248 32 144 248 32 144 248 32 144 248 32 144 248 32 144 248 32 144 248 32 144 248 32 144 248 32 144 248 32 144 248 32 144 248 32 144 248 32 144 248 32 144 248 32 144 248 32 144 248 32 144 248 32 144 248 32 144 248 32 144 248 32 144 248 32 144 248 32 144 248 32 144 248 32 144 248 32 144 248 32 144 248 32 144 248 32 144 248 32 144 248 32 144 16 40 16 16 40 16 16 40 16 16 40 16 16 40 16 16 40 16 16 40 16 16 40 16 16 40 16 16 40 16 16 40 16 16 40 16 16 40 16 16 40 16 16 40 16 16 40 16 16 40 16 16 40 16 16 40 16 16 40 16 16 40 16 16 40 16 16 40 16 16 40 16 16 40 16 16 40 16 16 40 16 16 40 16 16 40 16 16 40 16 16 40 16 16 40 16 96 40 24 96 40 24 96 40 24 96 40 24 96 40 24 96 40 24 96 40 24 96 40 24 96 40 24 96 40 24 96 40 24 96 40 24 96 40 24 96 40 24 96 40 24 96 40 24 96 40 24 96 40 24 96 40 24 96 40 24 96 40 24 96 40 24 96 40 24 96 40 24 96 40 24 96 40 24 96 40 24 96 40 24 96 40 24 96 40 24 96 40 24 96 40 24
192 32 144 192 32 144 192 32 144 192 32 144 192 32 144 192 32 144 192 32 144 192 32 144 192 32 144 192 32 144 192 32 144 192 32 144 192 32 144 192 32 144 192 32 144 192 32 144 192 32 144 192 32 144 192 32 144 192 32 144 192 32 144 192 32 144 192 32 144 192 32 144 192 32 144 192 32 144 192 32 144 192 32 144 192 32 144 192 32 144 192 32 144 192 32 144 248 32 144 248 32 144 248 32 144 248 32 144 248 32 144 248 32 144 248 32 144 248 32 144 248 32 144 248 32 144 248 32 144 248 32 144 248 32 144 248 32 144 248 32 144 248 32 144 248 32 144 248 32 144 248 32 144 248 32 144 248 32 144 248 32 144 248 32 144 248 32 144 248 32 144 248 32 144 248 32 144 248 32 144 248 32 144 248 32 144 248 32 144 248 32 144 16 40 16 16 40 16 16 40 16 16 40 16 16 40 16 16 40 16 16 40 16 16 40 16 16 40 16 16 40 16 16 40 16 16 40 16 16 40 16 16 40 16 16 40 16 16 40 16 16 40 16 16 40 16 16 40 16 16 40 16 16 40 16 16 40 16 16 40 16 16 40 16 16 40 16 16 40 16 16 40 16 16 40 16 16 40 16 16 40 16 16 40 16 16 40 16 96 40 24 96 40 24 96 40 24 96 40 24 96 40 24 96 40 24 96 40 24 96 40 24 96 40 24 96 40 24 96 40 24 96 40 24 96 40 24 96 40 24 96 40 24 96 40 24 96 40 24 96 40 24 96 40 24 96 40 24 96 40 24 96 40 24 96 40 24 96 40 24 96 40 24 96 40 24 96 40 24 96 40 24 96 40 24 96 40 24 96 40 24 96 40 24
192 32 144 192 32 144 192 32 144 192 32 144 192 32 144 192 32 144 192 32 144 192 32 144 192 32 144 192 32 144 192 32 144 192 32 144 192 32 144 192 32 144 192 32 144 192 32 144 192 32 144 192 32 144 192 32 144 192 32 144 192 32 144 192 32 144 192 32 144 192 32 144 192 32 144 192 32 144 192 32 144 192 32 144 192 32 144 192 32 144 192 32 144 192 32 144 248 32 144 248 32 144 248 32 144 248 32 144 248 32 144 248 32 144 248 32 144 248 32 144 248 32 144 248 32 144 248 32 144 248 32 144 248 32 144 248 32 144 248 32 144 248 32 144 248 32 144 248 32 144 248 32 144 248 32 144 248 32 144 248 32 144 248 32 144 248 32 144 248 32 144 248 32 144 248 32 144 248 32 144 248 32 144 248 32 144 248 32 144 248 32 144 16 40 16 16 40 16 16 40 16 16 40 16 16 40 16 16 40 16 16 40 16 16 40 16 16 40 16 16 40 16 16 40 16 16 40 16 16 40 16 16 40 16 16 40 16 16 40 16 16 40 16 16 40 16 16 40 16 16 40 16 16 40 16 16 40 16 16 40 16 16 40 16 16 40 16 16 40 16 16 40 16 16 40 16 16 40 16 16 40 16 16 40 16 16 40 16 96 40 24 96 40 24 96 40 24 96 40 24 96 40 24 96 40 24 96 40 24 96 40 24 96 40 24 96 40 24 96 40 24 96 40 24 96 40 24 96 40 24 96 40 24 96 40 24 96 40 24 96 40 24 96 40 24 96 40 24 96 40 24 96 40 24 96 40 24 96 40 24 96 40 24 96 40 24 96 40 24 96 40 24 96 40 24 96 40 24 96 40 24 96 40 24
192 32 144 192 32 144 192 32 144 192 32 144 192 32 144 192 32 144 192 32 144 192 32 144 192 32 144 192 32 144 192 32 144 192 32 144 192 32 144 192 32 144 192 32 144 192 32 144 192 32 144 192 32 144 192 32 144 192 32 144 192 32 144 192 32 144 192 32 144 192 32 144 192 32 144 192 32 144 192 32 144 192 32 144 192 32 144 192 32 144 192 32 144 192 32 144 248 32 144 248 32 144 248 32 144 248 32 144 248 32 144 248 32 144 248 32 144 248 32 144 248 32 144 248 32 144 248 32 144 248 32 144 248 32 144 248 32 144 248 32 144 248 32 144 248 32 144 248 32 144 248 32 144 248 32 144 248 32 144 248 32 144 248 32 144 248 32 144 248 32 144 248 32 144 248 32 144 248 32 144 248 32 144 248 32 144 248 32 144 248 32 144 16 40 16 16 40 16 16 40 16 16 40 16 16 40 16 16 40 16 16 40 16 16 40 16 16 40 16 16 40 16 16 40 16 16 40 16 16 40 16 16 40 16 16 40 16 16 40 16 16 40 16 16 40 16 16 40 16 16 40 16 16 40 16 16 40 16 16 40 16 16 40 16 16 40 16 16 40 16 16 40 16 16 40 16 16 40 16 16 40 16 16 40 16 16 40 16 96 40 24 96 40 24 96 40 24 96 40 24 96 40 24 96 40 24 96 40 24 96 40 24 96 40 24 96 40 24 96 40 24 96 40 24 96 40 24 96 40 24 96 40 24 96 40 24 96 40 24 96 40 24 96 40 24 96 40 24 96 40 24 96 40 24 96 40 24 96 40 24 96 40 24 96 40 24 96 40 24 96 40 24 96 40 24 96 40 24 96 40 24 96 40 24
192 32 144 192 32 144 192 32 144 192 32 144 192 32 144 192 32 144 192 32 144 192 32 144 192 32 144 192 32 144 192 32 144 192 32 144 192 32 144 192 32 144 192 32 144 192 32 144 192 32 144 192 32 144 192 32 144 192 32 144 192 32 144 192 32 144 192 32 144 192 32 144 192 32 144 192 32 144 192 32 144 192 32 144 192 32 144 192 32 144 192 32 144 192 32 144 248 32 144 248 32 144 248 32 144 248 32 144 248 32 144 248 32 144 248 32 144 248 32 144 248 32 144 248 32 144 248 32 144 248 32 144 248 32 144 248 32 144 248 32 144 248 32 144 248 32 144 248 32 144 248 32 144 248 32 144 248 32 144 248 32 144 248 32 144 248 32 144 248 32 144 248 32 144 248 32 144 248 32 144 248 32 144 248 32 144 248 32 144 248 32 144 16 40 16 16 40 16 16 40 16 16 40 16 16 40 16 16 40 16 16 40 16 16 40 16 16 40 16 16 40 16 16 40 16 16 40 16 16 40 16 16 40 16 16 40 16 16 40 16 16 40 16 16 40 16 16 40 16 16 40 16 16 40 16 16 40 16 16 40 16 16 40 16 16 40 16 16 40 16 16 40 16 16 40 16 16 40 16 16 40 16 16 40 16 16 40 16 96 40 24 96 40 24 96 40 24 96 40 24 96 40 24 96 40 24 96 40 24 96 40 24 96 40 24 96 40 24 96 40 24 96 40 24 96 40 24 96 40 24 96 40 24 96 40 24 96 40 24 96 40 24 96 40 24 96 40 24 96 40 24 96 40 24 96 40 24 96 40 24 96 40 24 96 40 24 96 40 24 96 40 24 96 40 24 96 40 24 96 40 24 96 40 24
192 32 144 192 32 144 192 32 144 192 32 144 192 32 144 192 32 144 192 32 144 192 32 144 192 32 144 192 32 144 192 32 144 192 32 144 192 32 144 192 32 144 192 32 144 192 32 144 192 32 144 192 32 144 192 32 144 192 32 144 192 32 144 192 32 144 192 32 144 192 32 144 192 32 144 192 32 144 192 32 144 192 32 144 192 32 144 192 32 144 192 32 144 192 32 144 248 32 144 248 32 144 248 32 144 248 32 144 248 32 144 248 32 144 248 32 144 248 32 144 248 32 144 248 32 144 248 32 144 248 32 144 248 32 144 248 32 144 248 32 144 248 32 144 248 32 144 248 32 144 248 32 144 248 32 144 248 32 144 248 32 144 248 32 144 248 32 144 248 32 144 248 32 144 248 32 144 248 32 144 248 32 144 248 32 144 248 32 144 248 32 144 16 40 16 16 40 16 16 40 16 16 40 16 16 40 16 16 40 16 16 40 16 16 40 16 16 40 16 16 40 16 16 40 16 16 40 16 16 40 16 16 40 16 16 40 16 16 40 16 16 40 16 16 40 16 16 40 16 16 40 16 16 40 16 16 40 16 16 40 16 16 40 16 16 40 16 16 40 16 16 40 16 16 40 16 16 40 16 16 40 16 16 40 16 16 40 16 96 40 24 96 40 24 96 40 24 96 40 24 96 40 24 96 40 24 96 40 24 96 40 24 96 40 24 96 40 24 96 40 24 96 40 24 96 40 24 96 40 24 96 40 24 96 40 24 96 40 24 96 40 24 96 40 24 96 40 24 96 40 24 96 40 24 96 40 24 96 40 24 96 40 24 96 40 24 96 40 24 96 40 24 96 40 24 96 40 24 96 40 24 96 40 24
192 32 144 192 32 144 192 32 144 192 32 144 192 32 144 192 32 144 192 32 144 192 32 144 192 32 144 192 32 144 192 32 144 192 32 144 192 32 144 192 32 144 192 32 144 192 32 144 192 32 144 192 32 144 192 32 144 192 32 144 192 32 144 192 32 144 192 32 144 192 32 144 192 32 144 192 32 144 192 32 144 192 32 144 192 32 144 192 32 144 192 32 144 192 32 144 248 32 144 248 32 144 248 32 144 248 32 144 248 32 144 248 32 144 248 32 144 248 32 144 248 32 144 248 32 144 248 32 144 248 32 144 248 32 144 248 32 144 248 32 144 248 32 144 248 32 144 248 32 144 248 32 144 248 32 144 248 32 144 248 32 144 248 32 144 248 32 144 248 32 144 248 32 144 248 32 144 248 32 144 248 32 144 248 32 144 248 32 144 248 32 144 16 40 16 16 40 16 16 40 16 16 40 16 16 40 16 16 40 16 16 40 16 16 40 16 16 40 16 16 40 16 16 40 16 16 40 16 16 40 16 16 40 16 16 40 16 16 40 16 16 40 16 16 40 16 16 40 16 16 40 16 16 40 16 16 40 16 16 40 16 16 40 16 16 40 16 16 40 16 16 40 16 16 40 16 16 40 16 16 40 16 16 40 16 16 40 16 96 40 24 96 40 24 96 40 24 96 40 24 96 40 24 96 40 24 96 40 24 96 40 24 96 40 24 96 40 24 96 40 24 96 40 24 96 40 24 96 40 24 96 40 24 96 40 24 96 40 24 96 40 24 96 40 24 96 40 24 96 40 24 96 40 24 96 40 24 96 40 24 96 40 24 96 40 24 96 40 24 96 40 24 96 40 24 96 40 24 96 40 24 96 40 24
192 32 144 192 32 144 192 32 144 192 32 144 192 32 144 192 32 144 192 32 144 192 32 144 192 32 144 192 32 144 192 32 144 192 32 144 192 32 144 192 32 144 192 32 144 192 32 144 192 32 144 192 32 144 192 32 144 192 32 144 192 32 144 192 32 144 192 32 144 192 32 144 192 32 144 192 32 144 192 32 144 192 32 144 192 32 144 192 32 144 192 32 144 192 32 144 248 32 144 248 32 144 248 32 144 248 32 144 248 32 144 248 32 144 248 32 144 248 32 144 248 32 144 248 32 144 248 32 144 248 32 144 248 32 144 248 32 144 248 32 144 248 32 144 248 32 144 248 32 144 248 32 144 248 32 144 248 32 144 248 32 144 248 32 144 248 32 144 248 32 144 248 32 144 248 32 144 248 32 144 248 32 144 248 32 144 248 32 144 248 32 144 16 40 16 16 40 16 16 40 16 16 40 16 16 40 16 16 40 16 16 40 16 16 40 16 16 40 16 16 40 16 16 40 16 16 40 16 16 40 16 16 40 16 16 40 16 16 40 16 16 40 16 16 40 16 16 40 16 16 40 16 16 40 16 16 40 16 16 40 16 16 40 16 16 40 16 16 40 16 16 40 16 16 40 16 16 40 16 16 40 16 16 40 16 16 40 16 96 40 24 96 40 24 96 40 24 96 40 24 96 40 24 96 40 24 96 40 24 96 40 24 96 40 24 96 40 24 96 40 24 96 40 24 96 40 24 96 40 24 96 40 24 96 40 24 96 40 24 96 40 24 96 40 24 96 40 24 96 40 24 96 40 24 96 40 24 96 40 24 96 40 24 96 40 24 96 40 24 96 40 24 96 40 24 96 40 24 96 40 24 96 40 24
192 32 144 192 32 144 192 32 144 192 32 144 192 32 144 192 32 144 192 32 144 192 32 144 192 32 144 192 32 144 192 32 144 192 32 144 192 32 144 192 32 144 192 32 144 192 32 144 192 32 144 192 32 144 192 32 144 192 32 144 192 32 144 192 32 144 192 32 144 192 32 144 192 32 144 192 32 144 192 32 144 192 32 144 192 32 144 192 32 144 192 32 144 192 32 144 248 32 144 248 32 144 248 32 144 248 32 144 248 32 144 248 32 144 248 32 144 248 32 144 248 32 144 248 32 144 248 32 144 248 32 144 248 32 144 248 32 144 248 32 144 248 32 144 248 32 144 248 32 144 248 32 144 248 32 144 248 32 144 248 32 144 248 32 144 248 32 144 248 32 144 248 32 144 248 32 144 248 32 144 248 32 144 248 32 144 248 32 144 248 32 144 16 40 16 16 40 16 16 40 16 16 40 16 16 40 16 16 40 16 16 40 16 16 40 16 16 40 16 16 40 16 16 40 16 16 40 16 16 40 16 16 40 16 16 40 16 16 40 16 16 40 16 16 40 16 16 40 16 16 40 16 16 40 16 16 40 16 16 40 16 16 40 16 16 40 16 16 40 16 16 40 16 16 40 16 16 40 16 16 40 16 16 40 16 16 40 16 96 40 24 96 40 24 96 40 24 96 40 24 96 40 24 96 40 24 96 40 24 96 40 24 96 40 24 96 40 24 96 40 24 96 40 24 96 40 24 96 40 24 96 40 24 96 40 24 96 40 24 96 40 24 96 40 24 96 40 24 96 40 24 96 40 24 96 40 24 96 40 24 96 40 24 96 40 24 96 40 24 96 40 24 96 40 24 96 40 24 96 40 24 96 40 24
168 32 144 168 32 144 168 32 144 168 32 144 168 32 144 168 32 144 168 32 144 168 32 144 168 32 144 168 32 144 168 32 144 168 32 144 168 32 144 168 32 144 168 32 144 168 32 144 168 32 144 168 32 144 168 32 144 168 32 144 168 32 144 168 32 144 168 32 144 168 32 144 168 32 144 168 32 144 168 32 144 168 32 144 168 32 144 168 32 144 168 32 144 168 32 144 184 32 16 184 32 16 184 32 16 184 32 16 184 32 16 184 32 16 184 32 16 184 32 16 184 32 16 184 32 16 184 32 16 184 32 16 184 32 16 184 32 16 184 32 16 184 32 16 184 32 16 184 32 16 184 32 16 184 32 16 184 32 16 184 32 16 184 32 16 184 32 16 184 32 16 184 32 16 184 32 16 184 32 16 184 32 16 184 32 16 184 32 16 184 32 16 24 40 16 24 40 16 24 40 16 24 40 16 24 40 16 24 40 16 24 40 16 24 40 16 24 40 16 24 40 16 24 40 16 24 40 16 24 40 16 24 40 16 24 40 16 24 40 16 24 40 16 24 40 16 24 40 16 24 40 16 24 40 16 24 40 16 24 40 16 24 40 16 24 40 16 24 40 16 24 40 16 24 40 16 24 40 16 24 40 16 24 40 16 24 40 16 96 40 152 96 40 152 96 40 152 96 40 152 96 40 152 96 40 152 96 40 152 96 40 152 96 40 152 96 40 152 96 40 152 96 40 152 96 40 152 96 40 152 96 40 152 96 40 152 96 40 152 96 40 152 96 40 152 96 40 152 96 40 152 96 40 152 96 40 152 96 40 152 96 40 152 96 40 152 96 40 152 96 40 152 96 40 152 96 40 152 96 40 152 96 40 152
168 32 144 168 32 144 168 32 144 168 32 144 168 32 144 168 32 144 168 32 144 168 32 144 168 32 144 168 32 144 168 32 144 168 32 144 168 32 144 168 32 144 168 32 144 168 32 144 168 32 144 168 32 144 168 32 144 168 32 144 168 32 144 168 32 144 168 32 144 168 32 144 168 32 144 168 32 144 168 32 144 168 32 144 168 32 144 168 32 144 168 32 144 168 32 144 184 32 16 184 32 16 184 32 16 184 32 16 184 32 16 184 32 16 184 32 16 184 32 16 184 32 16 184 32 16 184 32 16 184 32 16 184 32 16 184 32 16 184 32 16 184 32 16 184 32 16 184 32 16 184 32 16 184 32 16 184 32 16 184 32 16 184 32 16 184 32 16 184 32 16 184 32 16 184 32 16 184 32 16 184 32 16 184 32 16 184 32 16 184 32 16 24 40 16 24 40 16 24 40 16 24 40 16 24 40 16 24 40 16 24 40 16 24 40 16 24 40 16 24 40 16 24 40 16 24 40 16 24 40 16 24 40 16 24 40 16 24 40 16 24 40 16 24 40 16 24 40 16 24 40 16 24 40 16 24 40 16 24 40 16 24 40 16 24 40 16 24 40 16 24 40 16 24 40 16 24 40 16 24 40 16 24 40 16 24 40 16 96 40 152 96 40 152 96 40 152 96 40 152 96 40 152 96 40 152 96 40 152 96 40 152 96 40 152 96 40 152 96 40 152 96 40 152 96 40 152 96 40 152 96 40 152 96 40 152 96 40 152 96 40 152 96 40 152 96 40 152 96 40 152 96 40 152 96 40 152 96 40 152 96 40 152 96 40 152 96 40 152 96 40 152 96 40 152 96 40 152 96 40 152 96 40 152
168 32 144 168 32 144 168 32 144 168 32 144 168 32 144 168 32 144 168 32 144 168 32 144 168 32 144 168 32 144 168 32 144 168 32 144 168 32 144 168 32 144 168 32 144 168 32 144 168 32 144 168 32 144 168 32 144 168 32 144 168 32 144 168 32 144 168 32 144 168 32 144 168 32 144 168 32 144 168 32 144 168 32 144 168 32 144 168 32 144 168 32 144 168 32 144 184 32 16 184 32 16 184 32 16 184 32 16 184 32 16 184 32 16 184 32 16 184 32 16 184 32 16 184 32 16 184 32 16 184 32 16 184 32 16 184 32 16 184 32 16 184 32 16 184 32 16 184 32 16 184 32 16 184 32 16 184 32 16 184 32 16 184 32 16 184 32 16 184 32 16 184 32 16 184 32 16 184 32 16 184 32 16 184 32 16 184 32 16 184 32 16 24 40 16 24 40 16 24 40 16 24 40 16 24 40 16 24 40 16 24 40 16 24 40 16 24 40 16 24 40 16 24 40 16 24 40 16 24 40 16 24 40 16 24 40 16 24 40 16 24 40 16 24 40 16 24 40 16 24 40 16 24 40 16 24 40 16 24 40 16 24 40 16 24 40 16 24 40 16 24 40 16 24 40 16 24 40 16 24 40 16 24 40 16 24 40 16 96 40 152 96 40 152 96 40 152 96 40 152 96 40 152 96 40 152 96 40 152 96 40 152 96 40 152 96 40 152 96 40 152 96 40 152 96 40 152 96 40 152 96 40 152 96 40 152 96 40 152 96 40 152 96 40 152 96 40 152 96 40 152 96 40 152 96 40 152 96 40 152 96 40 152 96 40 152 96 40 152 96 40 152 96 40 152 96 40 152 96 40 152 96 40 152
168 32 144 168 32 144 168 32 144 168 32 144 168 32 144 168 32 144 168 32 144 168 32 144 168 32 144 168 32 144 168 32 144 168 32 144 168 32 144 168 32 144 168 32 144 168 32 144 168 32 144 168 32 144 168 32 144 168 32 144 168 32 144 168 32 144 168 32 144 168 32 144 168 32 144 168 32 144 168 32 144 168 32 144 168 32 144 168 32 144 168 32 144 168 32 144 184 32 16 184 32 16 184 32 16 184 32 16 184 32 16 184 32 16 184 32 16 184 32 16 184 32 16 184 32 16 184 32 16 184 32 16 184 32 16 184 32 16 184 32 16 184 32 16 184 32 16 184 32 16 184 32 16 184 32 16 184 32 16 184 32 16 184 32 16 184 32 16 184 32 16 184 32 16 184 32 16 184 32 16 184 32 16 184 32 16 184 32 16 184 32 16 24 40 16 24 40 16 24 40 16 24 40 16 24 40 16 24 40 16 24 40 16 24 40 16 24 40 16 24 40 16 24 40 16 24 40 16 24 40 16 24 40 16 24 40 16 24 40 16 24 40 16 24 40 16 24 40 16 24 40 16 24 40 16 24 40 16 24 40 16 24 40 16 24 40 16 24 40 16 24 40 16 24 40 16 24 40 16 24 40 16 24 40 16 24 40 16 96 40 152 96 40 152 96 40 152 96 40 152 96 40 152 96 40 152 96 40 152 96 40 152 96 40 152 96 40 152 96 40 152 96 40 152 96 40 152 96 40 152 96 40 152 96 40 152 96 40 152 96 40 152 96 40 152 96 40 152 96 40 152 96 40 152 96 40 152 96 40 152 96 40 152 96 40 152 96 40 152 96 40 152 96 40 152 96 40 152 96 40 152 96 40 152
168 32 144 168 32 144 168 32 144 168 32 144 168 32 144 168 32 144 168 32 144 168 32 144 168 32 144 168 32 144 168 32 144 168 32 144 168 32 144 168 32 144 168 32 144 168 32 144 168 32 144 168 32 144 168 32 144 168 32 144 168 32 144 168 32 144 168 32 144 168 32 144 168 32 144 168 32 144 168 32 144 168 32 144 168 32 144 168 32 144 168 32 144 168 32 144 184 32 16 184 32 16 184 32 16 184 32 16 184 32 16 184 32 16 184 32 16 184 32 16 184 32 16 184 32 16 184 32 16 184 32 16 184 32 16 184 32 16 184 32 16 184 32 16 184 32 16 184 32 16 184 32 16 184 32 16 184 32 16 184 32 16 184 32 16 184 32 16 184 32 16 184 32 16 184 32 16 184 32 16 184 32 16 184 32 16 184 32 16 184 32 16 24 40 16 24 40 16 24 40 16 24 40 16 24 40 16 24 40 16 24 40 16 24 40 16 24 40 16 24 40 16 24 40 16 24 40 16 24 40 16 24 40 16 24 40 16 24 40 16 24 40 16 24 40 16 24 40 16 24 40 16 24 40 16 24 40 16 24 40 16 24 40 16 24 40 16 24 40 16 24 40 16 24 40 16 24 40 16 24 40 16 24 40 16 24 40 16 96 40 152 96 40 152 96 40 152 96 40 152 96 40 152 96 40 152 96 40 152 96 40 152 96 40 152 96 40 152 96 40 152 96 40 152 96 40 152 96 40 152 96 40 152 96 40 152 96 40 152 96 40 152 96 40 152 96 40 152 96 40 152 96 40 152 96 40 152 96 40 152 96 40 152 96 40 152 96 40 152 96 40 152 96 40 152 96 40 152 96 40 152 96 40 152
168 32 144 168 32 144 168 32 144 168 32 144 168 32 144 168 32 144 168 32 144 168 32 144 168 32 144 168 32 144 168 32 144 168 32 144 168 32 144 168 32 144 168 32 144 168 32 144 168 32 144 168 32 144 168 32 144 168 32 144 168 32 144 168 32 144 168 32 144 168 32 144 168 32 144 168 32 144 168 32 144 168 32 144 168 32 144 168 32 144 168 32 144 168 32 144 184 32 16 184 32 16 184 32 16 184 32 16 184 32 16 184 32 16 184 32 16 184 32 16 184 32 16 184 32 16 184 32 16 184 32 16 184 32 16 184 32 16 184 32 16 184 32 16 184 32 16 184 32 16 184 32 16 184 32 16 184 32 16 184 32 16 184 32 16 184 32 16 184 32 16 184 32 16 184 32 16 184 32 16 184 32 16 184 32 16 184 32 16 184 32 16 24 40 16 24 40 16 24 40 16 24 40 16 24 40 16 24 40 16 24 40 16 24 40 16 24 40 16 24 40 16 24 40 16 24 40 16 24 40 16 24 40 16 24 40 16 24 40 16 24 40 16 24 40 16 24 40 16 24 40 16 24 40 16 24 40 16 24 40 16 24 40 16 24 40 16 24 40 16 24 40 16 24 40 16 24 40 16 24 40 16 24 40 16 24 40 16 96 40 152 96 40 152 96 40 152 96 40 152 96 40 152 96 40 152 96 40 152 96 40 152 96 40 152 96 40 152 96 40 152 96 40 152 96 40 152 96 40 152 96 40 152 96 40 152 96 40 152 96 40 152 96 40 152 96 40 152 96 40 152 96 40 152 96 40 152 96 40 152 96 40 152 96 40 152 96 40 152 96 40 152 96 40 152 96 40 152 96 40 152 96 40 152
168 32 144 168 32 144 168 32 144 168 32 144 168 32 144 168 32 144 168 32 144 168 32 144 168 32 144 168 32 144 168 32 144 168 32 144 168 32 144 168 32 144 168 32 144 168 32 144 168 32 144 168 32 144 168 32 144 168 32 144 168 32 144 168 32 144 168 32 144 168 32 144 168 32 144 168 32 144 168 32 144 168 32 144 168 32 144 168 32 144 168 32 144 168 32 144 184 32 16 184 32 16 184 32 16 184 32 16 184 32 16 184 32 16 184 32 16 184 32 16 184 32 16 184 32 16 184 32 16 184 32 16 184 32 16 184 32 16 184 32 16 184 32 16 184 32 16 184 32 16 184 32 16 184 32 16 184 32 16 184 32 16 184 32 16 184 32 16 184 32 16 184 32 16 184 32 16 184 32 16 184 32 16 184 32 16 184 32 16 184 32 16 24 40 16 24 40 16 24 40 16 24 40 16 24 40 16 24 40 16 24 40 16 24 40 16 24 40 16 24 40 16 24 40 16 24 40 16 24 40 16 24 40 16 24 40 16 24 40 16 24 40 16 24 40 16 24 40 16 24 40 16 24 40 16 24 40 16 24 40 16 24 40 16 24 40 16 24 40 16 24 40 16 24 40 16 24 40 16 24 40 16 24 40 16 24 40 16 96 40 152 96 40 152 96 40 152 96 40 152 96 40 152 96 40 152 96 40 152 96 40 152 96 40 152 96 40 152 96 40 152 96 40 152 96 40 152 96 40 152 96 40 152 96 40 152 96 40 152 96 40 152 96 40 152 96 40 152 96 40 152 96 40 152 96 40 152 96 40 152 96 40 152 96 40 152 96 40 152 96 40 152 96 40 152 96 40 152 96 40 152 96 40 152
168 32 144 168 32 144 168 32 144 168 32 144 168 32 144 168 32 144 168 32 144 168 32 144 168 32 144 168 32 144 168 32 144 168 32 144 168 32 144 168 32 144 168 32 144 168 32 144 168 32 144 168 32 144 168 32 144 168 32 144 168 32 144 168 32 144 168 32 144 168 32 144 168 32 144 168 32 144 168 32 144 168 32 144 168 32 144 168 32 144 168 32 144 168 32 144 184 32 16 184 32 16 184 32 16 184 32 16 184 32 16 184 32 16 184 32 16 184 32 16 184 32 16 184 32 16 184 32 16 184 32 16 184 32 16 184 32 16 184 32 16 184 32 16 184 32 16 184 32 16 184 32 16 184 32 16 184 32 16 184 32 16 184 32 16 184 32 16 184 32 16 184 32 16 184 32 16 184 32 16 184 32 16 184 32 16 184 32 16 184 32 16 24 40 16 24 40 16 24 40 16 24 40 16 24 40 16 24 40 16 24 40 16 24 40 16 24 40 16 24 40 16 24 40 16 24 40 16 24 40 16 24 40 16 24 40 16 24 40 16 24 40 16 24 40 16 24 40 16 24 40 16 24 40 16 24 40 16 24 40 16 24 40 16 24 40 16 24 40 16 24 40 16 24 40 16 24 40 16 24 40 16 24 40 16 24 40 16 96 40 152 96 40 152 96 40 152 96 40 152 96 40 152 96 40 152 96 40 152 96 40 152 96 40 152 96 40 152 96 40 152 96 40 152 96 40 152 96 40 152 96 40 152 96 40 152 96 40 152 96 40 152 96 40 152 96 40 152 96 40 152 96 40 152 96 40 152 96 40 152 96 40 152 96 40 152 96 40 152 96 40 152 96 40 152 96 40 152 96 40 152 96 40 152
168 32 144 168 32 144 168 32 144 168 32 144 168 32 144 168 32 144 168 32 144 168 32 144 168 32 144 168 32 144 168 32 144 168 32 144 168 32 144 168 32 144 168 32 144 168 32 144 168 32 144 168 32 144 168 32 144 168 32 144 168 32 144 168 32 144 168 32 144 168 32 144 168 32 144 168 32 144 168 32 144 168 32 144 168 32 144 168 32 144 168 32 144 168 32 144 184 32 16 184 32 16 184 32 16 184 32 16 184 32 16 184 32 16 184 32 16 184 32 16 184 32 16 184 32 16 184 32 16 184 32 16 184 32 16 184 32 16 184 32 16 184 32 16 184 32 16 184 32 16 184 32 16 184 32 16 184 32 16 184 32 16 184 32 16 184 32 16 184 32 16 184 32 16 184 32 16 184 32 16 184 32 16 184 32 16 184 32 16 184 32 16 24 40 16 24 40 16 24 40 16 24 40 16 24 40 16 24 40 16 24 40 16 24 40 16 24 40 16 24 40 16 24 40 16 24 40 16 24 40 16 24 40 16 24 40 16 24 40 16 24 40 16 24 40 16 24 40 16 24 40 16 24 40 16 24 40 16 24 40 16 24 40 16 24 40 16 24 40 16 24 40 16 24 40 16 24 40 16 24 40 16 24 40 16 24 40 16 96 40 152 96 40 152 96 40 152 96 40 152 96 40 152 96 40 152 96 40 152 96 40 152 96 40 152 96 40 152 96 40 152 96 40 152 96 40 152 96 40 152 96 40 152 96 40 152 96 40 152 96 40 152 96 40 152 96 40 152 96 40 152 96 40 152 96 40 152 96 40 152 96 40 152 96 40 152 96 40 152 96 40 152 96 40 152 96 40 152 96 40 152 96 40 152
168 32 144 168 32 144 168 32 144 168 32 144 168 32 144 168 32 144 168 32 144 168 32 144 168 32 144 168 32 144 168 32 144 168 32 144 168 32 144 168 32 144 168 32 144 168 32 144 168 32 144 168 32 144 168 32 144 168 32 144 168 32 144 168 32 144 168 32 144 168 32 144 168 32 144 168 32 144 168 32 144 168 32 144 168 32 144 168 32 144 168 32 144 168 32 144 184 32 16 184 32 16 184 32 16 184 32 16 184 32 16 184 32 16 184 32 16 184 32 16 184 32 16 184 32 16 184 32 16 184 32 16 184 32 16 184 32 16 184 32 16 184 32 16 184 32 16 184 32 16 184 32 16 184 32 16 184 32 16 184 32 16 184 32 16 184 32 16 184 32 16 184 32 16 184 32 16 184 32 16 184 32 16 184 32 16 184 32 16 184 32 16 24 40 16 24 40 16 24 40 16 24 40 16 24 40 16 24 40 16 24 40 16 24 40 16 24 40 16 24 40 16 24 40 16 24 40 16 24 40 16 24 40 16 24 40 16 24 40 16 24 40 16 24 40 16 24 40 16 24 40 16 24 40 16 24 40 16 24 40 16 24 40 16 24 40 16 24 40 16 24 40 16 24 40 16 24 40 16 24 40 16 24 40 16 24 40 16 96 40 152 96 40 152 96 40 152 96 40 152 96 40 152 96 40 152 96 40 152 96 40 152 96 40 152 96 40 152 96 40 152 96 40 152 96 40 152 96 40 152 96 40 152 96 40 152 96 40 152 96 40 152 96 40 152 96 40 152 96 40 152 96 40 152 96 40 152 96 40 152 96 40 152 96 40 152 96 40 152 96 40 152 96 40 152 96 40 152 96 40 152 96 40 152
168 32 144 168 32 144 168 32 144 168 32 144 168 32 144 168 32 144 168 32 144 168 32 144 168 32 144 168 32 144 168 32 144 168 32 144 168 32 144 168 32 144 168 32 144 168 32 144 168 32 144 168 32 144 168 32 144 168 32 144 168 32 144 168 32 144 168 32 144 168 32 144 168 32 144 168 32 144 168 32 144 168 32 144 168 32 144 168 32 144 168 32 144 168 32 144 184 32 16 184 32 16 184 32 16 184 32 16 184 32 16 184 32 16 184 32 16 184 32 16 184 32 16 184 32 16 184 32 16 184 32 16 184 32 16 184 32 16 184 32 16 184 32 16 184 32 16 184 32 16 184 32 16 184 32 16 184 32 16 184 32 16 184 32 16 184 32 16 184 32 16 184 32 16 184 32 16 184 32 16 184 32 16 184 32 16 184 32 16 184 32 16 24 40 16 24 40 16 24 40 16 24 40 16 24 40 16 24 40 16 24 40 16 24 40 16 24 40 16 24 40 16 24 40 16 24 40 16 24 40 16 24 40 16 24 40 16 24 40 16 24 40 16 24 40 16 24 40 16 24 40 16 24 40 16 24 40 16 24 40 16 24 40 16 24 40 16 24 40 16 24 40 16 24 40 16 24 40 16 24 40 16 24 40 16 24 40 16 96 40 152 96 40 152 96 40 152 96 40 152 96 40 152 96 40 152 96 40 152 96 40 152 96 40 152 96 40 152 96 40 152 96 40 152 96 40 152 96 40 152 96 40 152 96 40 152 96 40 152 96 40 152 96 40 152 96 40 152 96 40 152 96 40 152 96 40 152 96 40 152 96 40 152 96 40 152 96 40 152 96 40 152 96 40 152 96 40 152 96 40 152 96 40 152
168 32 144 168 32 144 168 32 144 168 32 144 168 32 144 168 32 144 168 32 144 168 32 144 168 32 144 168 32 144 168 32 144 168 32 144 168 32 144 168 32 144 168 32 144 168 32 144 168 32 144 168 32 144 168 32 144 168 32 144 168 32 144 168 32 144 168 32 144 168 32 144 168 32 144 168 32 144 168 32 144 168 32 144 168 32 144 168 32 144 168 32 144 168 32 144 184 32 16 184 32 16 184 32 16 184 32 16 184 32 16 184 32 16 184 32 16 184 32 16 184 32 16 184 32 16 184 32 16 184 32 16 184 32 16 184 32 16 184 32 16 184 32 16 184 32 16 184 32 16 184 32 16 184 32 16 184 32 16 184 32 16 184 32 16 184 32 16 184 32 16 184 32 16 184 32 16 184 32 16 184 32 16 184 32 16 184 32 16 184 32 16 24 40 16 24 40 16 24 40 16 24 40 16 24 40 16 24 40 16 24 40 16 24 40 16 24 40 16 24 40 16 24 40 16 24 40 16 24 40 16 24 40 16 24 40 16 24 40 16 24 40 16 24 40 16 24 40 16 24 40 16 24 40 16 24 40 16 24 40 16 24 40 16 24 40 16 24 40 16 24 40 16 24 40 16 24 40 16 24 40 16 24 40 16 24 40 16 96 40 152 96 40 152 96 40 152 96 40 152 96 40 152 96 40 152 96 40 152 96 40 152 96 40 152 96 40 152 96 40 152 96 40 152 96 40 152 96 40 152 96 40 152 96 40 152 96 40 152 96 40 152 96 40 152 96 40 152 96 40 152 96 40 152 96 40 152 96 40 152 96 40 152 96 40 152 96 40 152 96 40 152 96 40 152 96 40 152 96 40 152 96 40 152
168 32 144 168 32 144 168 32 144 168 32 144 168 32 144 168 32 144 168 32 144 168 32 144 168 32 144 168 32 144 168 32 144 168 32 144 168 32 144 168 32 144 168 32 144 168 32 144 168 32 144 168 32 144 168 32 144 168 32 144 168 32 144 168 32 144 168 32 144 168 32 144 168 32 144 168 32 144 168 32 144 168 32 144 168 32 144 168 32 144 168 32 144 168 32 144 184 32 16 184 32 16 184 32 16 184 32 16 184 32 16 184 32 16 184 32 16 184 32 16 184 32 16 184 32 16 184 32 16 184 32 16 184 32 16 184 32 16 184 32 16 184 32 16 184 32 16 184 32 16 184 32 16 184 32 16 184 32 16 184 32 16 184 32 16 184 32 16 184 32 16 184 32 16 184 32 16 184 32 16 184 32 16 184 32 16 184 32 16 184 32 16 24 40 16 24 40 16 24 40 16 24 40 16 24 40 16 24 40 16 24 40 16 24 40 16 24 40 16 24 40 16 24 40 16 24 40 16 24 40 16 24 40 16 24 40 16 24 40 16 24 40 16 24 40 16 24 40 16 24 40 16 24 40 16 24 40 16 24 40 16 24 40 16 24 40 16 24 40 16 24 40 16 24 40 16 24 40 16 24 40 16 24 40 16 24 40 16 96 40 152 96 40 152 96 40 152 96 40 152 96 40 152 96 40 152 96 40 152 96 40 152 96 40 152 96 40 152 96 40 152 96 40 152 96 40 152 96 40 152 96 40 152 96 40 152 96 40 152 96 40 152 96 40 152 96 40 152 96 40 152 96 40 152 96 40 152 96 40 152 96 40 152 96 40 152 96 40 152 96 40 152 96 40 152 96 40 152 96 40 152 96 40 152
168 32 144 168 32 144 168 32 144 168 32 144 168 32 144 168 32 144 168 32 144 168 32 144 168 32 144 168 32 144 168 32 144 168 32 144 168 32 144 168 32 144 168 32 144 168 32 144 168 32 144 168 32 144 168 32 144 168 32 144 168 32 144 168 32 144 168 32 144 168 32 144 168 32 144 168 32 144 168 32 144 168 32 144 168 32 144 168 32 144 168 32 144 168 32 144 184 32 16 184 32 16 184 32 16 184 32 16 184 32 16 184 32 16 184 32 16 184 32 16 184 32 16 184 32 16 184 32 16 184 32 16 184 32 16 184 32 16 184 32 16 184 32 16 184 32 16 184 32 16 184 32 16 184 32 16 184 32 16 184 32 16 184 32 16 184 32 16 184 32 16 184 32 16 184 32 16 184 32 16 184 32 16 184 32 16 184 32 16 184 32 16 24 40 16 24 40 16 24 40 16 24 40 16 24 40 16 24 40 16 24 40 16 24 40 16 24 40 16 24 40 16 24 40 16 24 40 16 24 40 16 24 40 16 24 40 16 24 40 16 24 40 16 24 40 16 24 40 16 24 40 16 24 40 16 24 40 16 24 40 16 24 40 16 24 40 16 24 40 16 24 40 16 24 40 16 24 40 16 24 40 16 24 40 16 24 40 16 96 40 152 96 40 152 96 40 152 96 40 152 96 40 152 96 40 152 96 40 152 96 40 152 96 40 152 96 40 152 96 40 152 96 40 152 96 40 152 96 40 152 96 40 152 96 40 152 96 40 152 96 40 152 96 40 152 96 40 152 96 40 152 96 40 152 96 40 152 96 40 152 96 40 152 96 40 152 96 40 152 96 40 152 96 40 152 96 40 152 96 40 152 96 40 152
168 32 144 168 32 144 168 32 144 168 32 144 168 32 144 168 32 144 168 32 144 168 32 144 168 32 144 168 32 144 168 32 144 168 32 144 168 32 144 168 32 144 168 32 144 168 32 144 168 32 144 168 32 144 168 32 144 168 32 144 168 32 144 168 32 144 168 32 144 168 32 144 168 32 144 168 32 144 168 32 144 168 32 144 168 32 144 168 32 144 168 32 144 168 32 144 184 32 16 184 32 16 184 32 16 184 32 16 184 32 16 184 32 16 184 32 16 184 32 16 184 32 16 184 32 16 184 32 16 184 32 16 184 32 16 184 32 16 184 32 16 184 32 16 184 32 16 184 32 16 184 32 16 184 32 16 184 32 16 184 32 16 184 32 16 184 32 16 184 32 16 184 32 16 184 32 16 184 32 16 184 32 16 184 32 16 184 32 16 184 32 16 24 40 16 24 40 16 24 40 16 24 40 16 24 40 16 24 40 16 24 40 16 24 40 16 24 40 16 24 40 16 24 40 16 24 40 16 24 40 16 24 40 16 24 40 16 24 40 16 24 40 16 24 40 16 24 40 16 24 40 16 24 40 16 24 40 16 24 40 16 24 40 16 24 40 16 24 40 16 24 40 16 24 40 16 24 40 16 24 40 16 24 40 16 24 40 16 96 40 152 96 40 152 96 40 152 96 40 152 96 40 152 96 40 152 96 40 152 96 40 152 96 40 152 96 40 152 96 40 152 96 40 152 96 40 152 96 40 152 96 40 152 96 40 152 96 40 152 96 40 152 96 40 152 96 40 152 96 40 152 96 40 152 96 40 152 96 40 152 96 40 152 96 40 152 96 40 152 96 40 152 96 40 152 96 40 152 96 40 152 96 40 152
168 32 144 168 32 144 168 32 144 168 32 144 168 32 144 168 32 144 168 32 144 168 32 144 168 32 144 168 32 144 168 32 144 168 32 144 168 32 144 168 32 144 168 32 144 168 32 144 168 32 144 168 32 144 168 32 144 168 32 144 168 32 144 168 32 144 168 32 144 168 32 144 168 32 144 168 32 144 168 32 144 168 32 144 168 32 144 168 32 144 168 32 144 168 32 144 184 32 16 184 32 16 184 32 16 184 32 16 184 32 16 184 32 16 184 32 16 184 32 16 184 32 16 184 32 16 184 32 16 184 32 16 184 32 16 184 32 16 184 32 16 184 32 16 184 32 16 184 32 16 184 32 16 184 32 16 184 32 16 184 32 16 184 32 16 184 32 16 184 32 16 184 32 16 184 32 16 184 32 16 184 32 16 184 32 16 184 32 16 184 32 16 24 40 16 24 40 16 24 40 16 24 40 16 24 40 16 24 40 16 24 40 16 24 40 16 24 40 16 24 40 16 24 40 16 24 40 16 24 40 16 24 40 16 24 40 16 24 40 16 24 40 16 24 40 16 24 40 16 24 40 16 24 40 16 24 40 16 24 40 16 24 40 16 24 40 16 24 40 16 24 40 16 24 40 16 24 40 16 24 40 16 24 40 16 24 40 16 96 40 152 96 40 152 96 40 152 96 40 152 96 40 152 96 40 152 96 40 152 96 40 152 96 40 152 96 40 152 96 40 152 96 40 152 96 40 152 96 40 152 96 40 152 96 40 152 96 40 152 96 40 152 96 40 152 96 40 152 96 40 152 96 40 152 96 40 152 96 40 152 96 40 152 96 40 152 96 40 152 96 40 152 96 40 152 96 40 152 96 40 152 96 40 152
168 32 144 168 32 144 168 32 144 168 32 144 168 32 144 168 32 144 168 32 144 168 32 144 168 32 144 168 32 144 168 32 144 168 32 144 168 32 144 168 32 144 168 32 144 168 32 144 168 32 144 168 32 144 168 32 144 168 32 144 168 32 144 168 32 144 168 32 144 168 32 144 168 32 144 168 32 144 168 32 144 168 32 144 168 32 144 168 32 144 168 32 144 168 32 144 184 32 16 184 32 16 184 32 16 184 32 16 184 32 16 184 32 16 184 32 16 184 32 16 184 32 16 184 32 16 184 32 16 184 32 16 184 32 16 184 32 16 184 32 16 184 32 16 184 32 16 184 32 16 184 32 16 184 32 16 184 32 16 184 32 16 184 32 16 184 32 16 184 32 16 184 32 16 184 32 16 184 32 16 184 32 16 184 32 16 184 32 16 184 32 16 24 40 16 24 40 16 24 40 16 24 40 16 24 40 16 24 40 16 24 40 16 24 40 16 24 40 16 24 40 16 24 40 16 24 40 16 24 40 16 24 40 16 24 40 16 24 40 16 24 40 16 24 40 16 24 40 16 24 40 16 24 40 16 24 40 16 24 40 16 24 40 16 24 40 16 24 40 16 24 40 16 24 40 16 24 40 16 24 40 16 24 40 16 24 40 16 96 40 152 96 40 152 96 40 152 96 40 152 96 40 152 96 40 152 96 40 152 96 40 152 96 40 152 96 40 152 96 40 152 96 40 152 96 40 152 96 40 152 96 40 152 96 40 152 96 40 152 96 40 152 96 40 152 96 40 152 96 40 152 96 40 152 96 40 152 96 40 152 96 40 152 96 40 152 96 40 152 96 40 152 96 40 152 96 40 152 96 40 152 96 40 152
168 32 144 168 32 144 168 32 144 168 32 144 168 32 144 168 32 144 168 32 144 168 32 144 168 32 144 168 32 144 168 32 144 168 32 144 168 32 144 168 32 144 168 32 144 168 32 144 168 32 144 168 32 144 168 32 144 168 32 144 168 32 144 168 32 144 168 32 144 168 32 144 168 32 144 168 32 144 168 32 144 168 32 144 168 32 144 168 32 144 168 32 144 168 32 144 184 32 16 184 32 16 184 32 16 184 32 16 184 32 16 184 32 16 184 32 16 184 32 16 184 32 16 184 32 16 184 32 16 184 32 16 184 32 16 184 32 16 184 32 16 184 32 16 184 32 16 184 32 16 184 32 16 184 32 16 184 32 16 184 32 16 184 32 16 184 32 16 184 32 16 184 32 16 184 32 16 184 32 16 184 32 16 184 32 16 184 32 16 184 32 16 24 40 16 24 40 16 24 40 16 24 40 16 24 40 16 24 40 16 24 40 16 24 40 16 24 40 16 24 40 16 24 40 16 24 40 16 24 40 16 24 40 16 24 40 16 24 40 16 24 40 16 24 40 16 24 40 16 24 40 16 24 40 16 24 40 16 24 40 16 24 40 16 24 40 16 24 40 16 24 40 16 24 40 16 24 40 16 24 40 16 24 40 16 24 40 16 96 40 152 96 40 152 96 40 152 96 40 152 96 40 152 96 40 152 96 40 152 96 40 152 96 40 152 96 40 152 96 40 152 96 40 152 96 40 152 96 40 152 96 40 152 96 40 152 96 40 152 96 40 152 96 40 152 96 40 152 96 40 152 96 40 152 96 40 152 96 40 152 96 40 152 96 40 152 96 40 152 96 40 152 96 40 152 96 40 152 96 40 152 96 40 152
168 32 144 168 32 144 168 32 144 168 32 144 168 32 144 168 32 144 168 32 144 168 32 144 168 32 144 168 32 144 168 32 144 168 32 144 168 32 144 168 32 144 168 32 144 168 32 144 168 32 144 168 32 144 168 32 144 168 32 144 168 32 144 168 32 144 168 32 144 168 32 144 168 32 144 168 32 144 168 32 144 168 32 144 168 32 144 168 32 144 168 32 144 168 32 144 184 32 16 184 32 16 184 32 16 184 32 16 184 32 16 184 32 16 184 32 16 184 32 16 184 32 16 184 32 16 184 32 16 184 32 16 184 32 16 184 32 16 184 32 16 184 32 16 184 32 16 184 32 16 184 32 16 184 32 16 184 32 16 184 32 16 184 32 16 184 32 16 184 32 16 184 32 16 184 32 16 184 32 16 184 32 16 184 32 16 184 32 16 184 32 16 24 40 16 24 40 16 24 40 16 24 40 16 24 40 16 24 40 16 24 40 16 24 40 16 24 40 16 24 40 16 24 40 16 24 40 16 24 40 16 24 40 16 24 40 16 24 40 16 24 40 16 24 40 16 24 40 16 24 40 16 24 40 16 24 40 16 24 40 16 24 40 16 24 40 16 24 40 16 24 40 16 24 40 16 24 40 16 24 40 16 24 40 16 24 40 16 96 40 152 96 40 152 96 40 152 96 40 152 96 40 152 96 40 152 96 40 152 96 40 152 96 40 152 96 40 152 96 40 152 96 40 152 96 40 152 96 40 152 96 40 152 96 40 152 96 40 152 96 40 152 96 40 152 96 40 152 96 40 152 96 40 152 96 40 152 96 40 152 96 40 152 96 40 152 96 40 152 96 40 152 96 40 152 96 40 152 96 40 152 96 40 152
168 32 144 168 32 144 168 32 144 168 32 144 168 32 144 168 32 144 168 32 144 168 32 144 168 32 144 168 32 144 168 32 144 168 32 144 168 32 144 168 32 144 168 32 144 168 32 144 168 32 144 168 32 144 168 32 144 168 32 144 168 32 144 168 32 144 168 32 144 168 32 144 168 32 144 168 32 144 168 32 144 168 32 144 168 32 144 168 32 144 168 32 144 168 32 144 184 32 16 184 32 16 184 32 16 184 32 16 184 32 16 184 32 16 184 32 16 184 32 16 184 32 16 184 32 16 184 32 16 184 32 16 184 32 16 184 32 16 184 32 16 184 32 16 184 32 16 184 32 16 184 32 16 184 32 16 184 32 16 184 32 16 184 32 16 184 32 16 184 32 16 184 32 16 184 32 16 184 32 16 184 32 16 184 32 16 184 32 16 184 32 16 24 40 16 24 40 16 24 40 16 24 40 16 24 40 16 24 40 16 24 40 16 24 40 16 24 40 16 24 40 16 24 40 16 24 40 16 24 40 16 24 40 16 24 40 16 24 40 16 24 40 16 24 40 16 24 40 16 24 40 16 24 40 16 24 40 16 24 40 16 24 40 16 24 40 16 24 40 16 24 40 16 24 40 16 24 40 16 24 40 16 24 40 16 24 40 16 96 40 152 96 40 152 96 40 152 96 40 152 96 40 152 96 40 152 96 40 152 96 40 152 96 40 152 96 40 152 96 40 152 96 40 152 96 40 152 96 40 152 96 40 152 96 40 152 96 40 152 96 40 152 96 40 152 96 40 152 96 40 152 96 40 152 96 40 152 96 40 152 96 40 152 96 40 152 96 40 152 96 40 152 96 40 152 96 40 152 96 40 152 96 40 152
168 32 144 168 32 144 168 32 144 168 32 144 168 32 144 168 32 144 168 32 144 168 32 144 168 32 144 168 32 144 168 32 144 168 32 144 168 32 144 168 32 144 168 32 144 168 32 144 168 32 144 168 32 144 168 32 144 168 32 144 168 32 144 168 32 144 168 32 144 168 32 144 168 32 144 168 32 144 168 32 144 168 32 144 168 32 144 168 32 144 168 32 144 168 32 144 184 32 16 184 32 16 184 32 16 184 32 16 184 32 16 184 32 16 184 32 16 184 32 16 184 32 16 184 32 16 184 32 16 184 32 16 184 32 16 184 32 16 184 32 16 184 32 16 184 32 16 184 32 16 184 32 16 184 32 16 184 32 16 184 32 16 184 32 16 184 32 16 184 32 16 184 32 16 184 32 16 184 32 16 184 32 16 184 32 16 184 32 16 184 32 16 24 40 16 24 40 16 24 40 16 24 40 16 24 40 16 24 40 16 24 40 16 24 40 16 24 40 16 24 40 16 24 40 16 24 40 16 24 40 16 24 40 16 24 40 16 24 40 16 24 40 16 24 40 16 24 40 16 24 40 16 24 40 16 24 40 16 24 40 16 24 40 16 24 40 16 24 40 16 24 40 16 24 40 16 24 40 16 24 40 16 24 40 16 24 40 16 96 40 152 96 40 152 96 40 152 96 40 152 96 40 152 96 40 152 96 40 152 96 40 152 96 40 152 96 40 152 96 40 152 96 40 152 96 40 152 96 40 152 96 40 152 96 40 152 96 40 152 96 40 152 96 40 152 96 40 152 96 40 152 96 40 152 96 40 152 96 40 152 96 40 152 96 40 152 96 40 152 96 40 152 96 40 152 96 40 152 96 40 152 96 40 152
168 32 144 168 32 144 168 32 144 168 32 144 168 32 144 168 32 144 168 32 144 168 32 144 168 32 144 168 32 144 168 32 144 168 32 144 168 32 144 168 32 144 168 32 144 168 32 144 168 32 144 168 32 144 168 32 144 168 32 144 168 32 144 168 32 144 168 32 144 168 32 144 168 32 144 168 32 144 168 32 144 168 32 144 168 32 144 168 32 144 168 32 144 168 32 144 184 32 16 184 32 16 184 32 16 184 32 16 184 32 16 184 32 16 184 32 16 184 32 16 184 32 16 184 32 16 184 32 16 184 32 16 184 32 16 184 32 16 184 32 16 184 32 16 184 32 16 184 32 16 184 32 16 184 32 16 184 32 16 184 32 16 184 32 16 184 32 16 184 32 16 184 32 16 184 32 16 184 32 16 184 32 16 184 32 16 184 32 16 184 32 16 24 40 16 24 40 16 24 40 16 24 40 16 24 40 16 24 40 16 24 40 16 24 40 16 24 40 16 24 40 16 24 40 16 24 40 16 24 40 16 24 40 16 24 40 16 24 40 16 24 40 16 24 40 16 24 40 16 24 40 16 24 40 16 24 40 16 24 40 16 24 40 16 24 40 16 24 40 16 24 40 16 24 40 16 24 40 16 24 40 16 24 40 16 24 40 16 96 40 152 96 40 152 96 40 152 96 40 152 96 40 152 96 40 152 96 40 152 96 40 152 96 40 152 96 40 152 96 40 152 96 40 152 96 40 152 96 40 152 96 40 152 96 40 152 96 40 152 96 40 152 96 40 152 96 40 152 96 40 152 96 40 152 96 40 152 96 40 152 96 40 152 96 40 152 96 40 152 96 40 152 96 40 152 96 40 152 96 40 152 96 40 152
168 32 144 168 32 144 168 32 144 168 32 144 168 32 144 168 32 144 168 32 144 168 32 144 168 32 144 168 32 144 168 32 144 168 32 144 168 32 144 168 32 144 168 32 144 168 32 144 168 32 144 168 32 144 168 32 144 168 32 144 168 32 144 168 32 144 168 32 144 168 32 144 168 32 144 168 32 144 168 32 144 168 32 144 168 32 144 168 32 144 168 32 144 168 32 144 184 32 16 184 32 16 184 32 16 184 32 16 184 32 16 184 32 16 184 32 16 184 32 16 184 32 16 184 32 16 184 32 16 184 32 16 184 32 16 184 32 16 184 32 16 184 32 16 184 32 16 184 32 16 184 32 16 184 32 16 184 32 16 184 32 16 184 32 16 184 32 16 184 32 16 184 32 16 184 32 16 184 32 16 184 32 16 184 32 16 184 32 16 184 32 16 24 40 16 24 40 16 24 40 16 24 40 16 24 40 16 24 40 16 24 40 16 24 40 16 24 40 16 24 40 16 24 40 16 24 40 16 24 40 16 24 40 16 24 40 16 24 40 16 24 40 16 24 40 16 24 40 16 24 40 16 24 40 16 24 40 16 24 40 16 24 40 16 24 40 16 24 40 16 24 40 16 24 40 16 24 40 16 24 40 16 24 40 16 24 40 16 96 40 152 96 40 152 96 40 152 96 40 152 96 40 152 96 40 152 96 40 152 96 40 152 96 40 152 96 40 152 96 40 152 96 40 152 96 40 152 96 40 152 96 40 152 96 40 152 96 40 152 96 40 152 96 40 152 96 40 152 96 40 152 96 40 152 96 40 152 96 40 152 96 40 152 96 40 152 96 40 152 96 40 152 96 40 152 96 40 152 96 40 152 96 40 152
168 32 144 168 32 144 168 32 144 168 32 144 168 32 144 168 32 144 168 32 144 168 32 144 168 32 144 168 32 144 168 32 144 168 32 144 168 32 144 168 32 144 168 32 144 168 32 144 168 32 144 168 32 144 168 32 144 168 32 144 168 32 144 168 32 144 168 32 144 168 32 144 168 32 144 168 32 144 168 32 144 168 32 144 168 32 144 168 32 144 168 32 144 168 32 144 184 32 16 184 32 16 184 32 16 184 32 16 184 32 16 184 32 16 184 32 16 184 32 16 184 32 16 184 32 16 184 32 16 184 32 16 184 32 16 184 32 16 184 32 16 184 32 16 184 32 16 184 32 16 184 32 16 184 32 16 184 32 16 184 32 16 184 32 16 184 32 16 184 32 16 184 32 16 184 32 16 184 32 16 184 32 16 184 32 16 184 32 16 184 32 16 24 40 16 24 40 16 24 40 16 24 40 16 24 40 16 24 40 16 24 40 16 24 40 16 24 40 16 24 40 16 24 40 16 24 40 16 24 40 16 24 40 16 24 40 16 24 40 16 24 40 16 24 40 16 24 40 16 24 40 16 24 40 16 24 40 16 24 40 16 24 40 16 24 40 16 24 40 16 24 40 16 24 40 16 24 40 16 24 40 16 24 40 16 24 40 16 96 40 152 96 40 152 96 40 152 96 40 152 96 40 152 96 40 152 96 40 152 96 40 152 96 40 152 96 40 152 96 40 152 96 40 152 96 40 152 96 40 152 96 40 152 96 40 152 96 40 152 96 40 152 96 40 152 96 40 152 96 40 152 96 40 152 96 40 152 96 40 152 96 40 152 96 40 152 96 40 152 96 40 152 96 40 152 96 40 152 96 40 152 96 40 152
168 32 144 168 32 144 168 32 144 168 32 144 168 32 144 168 32 144 168 32 144 168 32 144 168 32 144 168 32 144 168 32 144 168 32 144 168 32 144 168 32 144 168 32 144 168 32 144 168 32 144 168 32 144 168 32 144 168 32 144 168 32 144 168 32 144 168 32 144 168 32 144 168 32 144 168 32 144 168 32 144 168 32 144 168 32 144 168 32 144 168 32 144 168 32 144 184 32 16 184 32 16 184 32 16 184 32 16 184 32 16 184 32 16 184 32 16 184 32 16 184 32 16 184 32 16 184 32 16 184 32 16 184 32 16 184 32 16 184 32 16 184 32 16 184 32 16 184 32 16 184 32 16 184 32 16 184 32 16 184 32 16 184 32 16 184 32 16 184 32 16 184 32 16 184 32 16 184 32 16 184 32 16 184 32 16 184 32 16 184 32 16 24 40 16 24 40 16 24 40 16 24 40 16 24 40 16 24 40 16 24 40 16 24 40 16 24 40 16 24 40 16 24 40 16 24 40 16 24 40 16 24 40 16 24 40 16 24 40 16 24 40 16 24 40 16 24 40 16 24 40 16 24 40 16 24 40 16 24 40 16 24 40 16 24 40 16 24 40 16 24 40 16 24 40 16 24 40 16 24 40 16 24 40 16 24 40 16 96 40 152 96 40 152 96 40 152 96 40 152 96 40 152 96 40 152 96 40 152 96 40 152 96 40 152 96 40 152 96 40 152 96 40 152 96 40 152 96 40 152 96 40 152 96 40 152 96 40 152 96 40 152 96 40 152 96 40 152 96 40 152 96 40 152 96 40 152 96 40 152 96 40 152 96 40 152 96 40 152 96 40 152 96 40 152 96 40 152 96 40 152 96 40 152
168 32 144 168 32 144 168 32 144 168 32 144 168 32 144 168 32 144 168 32 144 168 32 144 168 32 144 168 32 144 168 32 144 168 32 144 168 32 144 168 32 144 168 32 144 168 32 144 168 32 144 168 32 144 168 32 144 168 32 144 168 32 144 168 32 144 168 32 144 168 32 144 168 32 144 168 32 144 168 32 144 168 32 144 168 32 144 168 32 144 168 32 144 168 32 144 184 32 16 184 32 16 184 32 16 184 32 16 184 32 16 184 32 16 184 32 16 184 32 16 184 32 16 184 32 16 184 32 16 184 32 16 184 32 16 184 32 16 184 32 16 184 32 16 184 32 16 184 32 16 184 32 16 184 32 16 184 32 16 184 32 16 184 32 16 184 32 16 184 32 16 184 32 16 184 32 16 184 32 16 184 32 16 184 32 16 184 32 16 184 32 16 24 40 16 24 40 16 24 40 16 24 40 16 24 40 16 24 40 16 24 40 16 24 40 16 24 40 16 24 40 16 24 40 16 24 40 16 24 40 16 24 40 16 24 40 16 24 40 16 24 40 16 24 40 16 24 40 16 24 40 16 24 40 16 24 40 16 24 40 16 24 40 16 24 40 16 24 40 16 24 40 16 24 40 16 24 40 16 24 40 16 24 40 16 24 40 16 96 40 152 96 40 152 96 40 152 96 40 152 96 40 152 96 40 152 96 40 152 96 40 152 96 40 152 96 40 152 96 40 152 96 40 152 96 40 152 96 40 152 96 40 152 96 40 152 96 40 152 96 40 152 96 40 152 96 40 152 96 40 152 96 40 152 96 40 152 96 40 152 96 40 152 96 40 152 96 40 152 96 40 152 96 40 152 96 40 152 96 40 152 96 40 152
168 32 144 168 32 144 168 32 144 168 32 144 168 32 144 168 32 144 168 32 144 168 32 144 168 32 144 168 32 144 168 32 144 168 32 144 168 32 144 168 32 144 168 32 144 168 32 144 168 32 144 168 32 144 168 32 144 168 32 144 168 32 144 168 32 144 168 32 144 168 32 144 168 32 144 168 32 144 168 32 144 168 32 144 168 32 144 168 32 144 168 32 144 168 32 144 184 32 16 184 32 16 184 32 16 184 32 16 184 32 16 184 32 16 184 32 16 184 32 16 184 32 16 184 32 16 184 32 16 184 32 16 184 32 16 184 32 16 184 32 16 184 32 16 184 32 16 184 32 16 184 32 16 184 32 16 184 32 16 184 32 16 184 32 16 184 32 16 184 32 16 184 32 16 184 32 16 184 32 16 184 32 16 184 32 16 184 32 16 184 32 16 24 40 16 24 40 16 24 40 16 24 40 16 24 40 16 24 40 16 24 40 16 24 40 16 24 40 16 24 40 16 24 40 16 24 40 16 24 40 16 24 40 16 24 40 16 24 40 16 24 40 16 24 40 16 24 40 16 24 40 16 24 40 16 24 40 16 24 40 16 24 40 16 24 40 16 24 40 16 24 40 16 24 40 16 24 40 16 24 40 16 24 40 16 24 40 16 96 40 152 96 40 152 96 40 152 96 40 152 96 40 152 96 40 152 96 40 152 96 40 152 96 40 152 96 40 152 96 40 152 96 40 152 96 40 152 96 40 152 96 40 152 96 40 152 96 40 152 96 40 152 96 40 152 96 40 152 96 40 152 96 40 152 96 40 152 96 40 152 96 40 152 96 40 152 96 40 152 96 40 152 96 40 152 96 40 152 96 40 152 96 40 152
168 32 144 168 32 144 168 32 144 168 32 144 168 32 144 168 32 144 168 32 144 168 32 144 168 32 144 168 32 144 168 32 144 168 32 144 168 32 144 168 32 144 168 32 144 168 32 144 168 32 144 168 32 144 168 32 144 168 32 144 168 32 144 168 32 144 168 32 144 168 32 144 168 32 144 168 32 144 168 32 144 168 32 144 168 32 144 168 32 144 168 32 144 168 32 144 184 32 16 184 32 16 184 32 16 184 32 16 184 32 16 184 32 16 184 32 16 184 32 16 184 32 16 184 32 16 184 32 16 184 32 16 184 32 16 184 32 16 184 32 16 184 32 16 184 32 16 184 32 16 184 32 16 184 32 16 184 32 16 184 32 16 184 32 16 184 32 16 184 32 16 184 32 16 184 32 16 184 32 16 184 32 16 184 32 16 184 32 16 184 32 16 24 40 16 24 40 16 24 40 16 24 40 16 24 40 16 24 40 16 24 40 16 24 40 16 24 40 16 24 40 16 24 40 16 24 40 16 24 40 16 24 40 16 24 40 16 24 40 16 24 40 16 24 40 16 24 40 16 24 40 16 24 40 16 24 40 16 24 40 16 24 40 16 24 40 16 24 40 16 24 40 16 24 40 16 24 40 16 24 40 16 24 40 16 24 40 16 96 40 152 96 40 152 96 40 152 96 40 152 96 40 152 96 40 152 96 40 152 96 40 152 96 40 152 96 40 152 96 40 152 96 40 152 96 40 152 96 40 152 96 40 152 96 40 152 96 40 152 96 40 152 96 40 152 96 40 152 96 40 152 96 40 152 96 40 152 96 40 152 96 40 152 96 40 152 96 40 152 96 40 152 96 40 152 96 40 152 96 40 152 96 40 152
168 32 144 168 32 144 168 32 144 168 32 144 168 32 144 168 32 144 168 32 144 168 32 144 168 32 144 168 32 144 168 32 144 168 32 144 168 32 144 168 32 144 168 32 144 168 32 144 168 32 144 168 32 144 168 32 144 168 32 144 168 32 144 168 32 144 168 32 144 168 32 144 168 32 144 168 32 144 168 32 144 168 32 144 168 32 144 168 32 144 168 32 144 168 32 144 184 32 16 184 32 16 184 32 16 184 32 16 184 32 16 184 32 16 184 32 16 184 32 16 184 32 16 184 32 16 184 32 16 184 32 16 184 32 16 184 32 16 184 32 16 184 32 16 184 32 16 184 32 16 184 32 16 184 32 16 184 32 16 184 32 16 184 32 16 184 32 16 184 32 16 184 32 16 184 32 16 184 32 16 184 32 16 184 32 16 184 32 16 184 32 16 24 40 16 24 40 16 24 40 16 24 40 16 24 40 16 24 40 16 24 40 16 24 40 16 24 40 16 24 40 16 24 40 16 24 40 16 24 40 16 24 40 16 24 40 16 24 40 16 24 40 16 24 40 16 24 40 16 24 40 16 24 40 16 24 40 16 24 40 16 24 40 16 24 40 16 24 40 16 24 40 16 24 40 16 24 40 16 24 40 16 24 40 16 24 40 16 96 40 152 96 40 152 96 40 152 96 40 152 96 40 152 96 40 152 96 40 152 96 40 152 96 40 152 96 40 152 96 40 152 96 40 152 96 40 152 96 40 152 96 40 152 96 40 152 96 40 152 96 40 152 96 40 152 96 40 152 96 40 152 96 40 152 96 40 152 96 40 152 96 40 152 96 40 152 96 40 152 96 40 152 96 40 152 96 40 152 96 40 152 96 40 152
168 32 144 168 32 144 168 32 144 168 32 144 168 32 144 168 32 144 168 32 144 168 32 144 168 32 144 168 32 144 168 32 144 168 32 144 168 32 144 168 32 144 168 32 144 168 32 144 168 32 144 168 32 144 168 32 144 168 32 144 168 32 144 168 32 144 168 32 144 168 32 144 168 32 144 168 32 144 168 32 144 168 32 144 168 32 144 168 32 144 168 32 144 168 32 144 184 32 16 184 32 16 184 32 16 184 32 16 184 32 16 184 32 16 184 32 16 184 32 16 184 32 16 184 32 16 184 32 16 184 32 16 184 32 16 184 32 16 184 32 16 184 32 16 184 32 16 184 32 16 184 32 16 184 32 16 184 32 16 184 32 16 184 32 16 184 32 16 184 32 16 184 32 16 184 32 16 184 32 16 184 32 16 184 32 16 184 32 16 184 32 16 24 40 16 24 40 16 24 40 16 24 40 16 24 40 16 24 40 16 24 40 16 24 40 16 24 40 16 24 40 16 24 40 16 24 40 16 24 40 16 24 40 16 24 40 16 24 40 16 24 40 16 24 40 16 24 40 16 24 40 16 24 40 16 24 40 16 24 40 16 24 40 16 24 40 16 24 40 16 24 40 16 24 40 16 24 40 16 24 40 16 24 40 16 24 40 16 96 40 152 96 40 152 96 40 152 96 40 152 96 40 152 96 40 152 96 40 152 96 40 152 96 40 152 96 40 152 96 40 152 96 40 152 96 40 152 96 40 152 96 40 152 96 40 152 96 40 152 96 40 152 96 40 152 96 40 152 96 40 152 96 40 152 96 40 152 96 40 152 96 40 152 96 40 152 96 40 152 96 40 152 96 40 152 96 40 152 96 40 152 96 40 152
168 32 144 168 32 144 168 32 144 168 32 144 168 32 144 168 32 144 168 32 144 168 32 144 168 32 144 168 32 144 168 32 144 168 32 144 168 32 144 168 32 144 168 32 144 168 32 144 168 32 144 168 32 144 168 32 144 168 32 144 168 32 144 168 32 144 168 32 144 168 32 144 168 32 144 168 32 144 168 32 144 168 32 144 168 32 144 168 32 144 168 32 144 168 32 144 184 32 16 184 32 16 184 32 16 184 32 16 184 32 16 184 32 16 184 32 16 184 32 16 184 32 16 184 32 16 184 32 16 184 32 16 184 32 16 184 32 16 184 32 16 184 32 16 184 32 16 184 32 16 184 32 16 184 32 16 184 32 16 184 32 16 184 32 16 184 32 16 184 32 16 184 32 16 184 32 16 184 32 16 184 32 16 184 32 16 184 32 16 184 32 16 24 40 16 24 40 16 24 40 16 24 40 16 24 40 16 24 40 16 24 40 16 24 40 16 24 40 16 24 40 16 24 40 16 24 40 16 24 40 16 24 40 16 24 40 16 24 40 16 24 40 16 24 40 16 24 40 16 24 40 16 24 40 16 24 40 16 24 40 16 24 40 16 24 40 16 24 40 16 24 40 16 24 40 16 24 40 16 24 40 16 24 40 16 24 40 16 96 40 152 96 40 152 96 40 152 96 40 152 96 40 152 96 40 152 96 40 152 96 40 152 96 40 152 96 40 152 96 40 152 96 40 152 96 40 152 96 40 152 96 40 152 96 40 152 96 40 152 96 40 152 96 40 152 96 40 152 96 40 152 96 40 152 96 40 152 96 40 152 96 40 152 96 40 152 96 40 152 96 40 152 96 40 152 96 40 152 96 40 152 96 40 152
168 32 144 168 32 144 168 32 144 168 32 144 168 32 144 168 32 144 168 32 144 168 32 144 168 32 144 168 32 144 168 32 144 168 32 144 168 32 144 168 32 144 168 32 144 168 32 144 168 32 144 168 32 144 168 32 144 168 32 144 168 32 144 168 32 144 168 32 144 168 32 144 168 32 144 168 32 144 168 32 144 168 32 144 168 32 144 168 32 144 168 32 144 168 32 144 184 32 16 184 32 16 184 32 16 184 32 16 184 32 16 184 32 16 184 32 16 184 32 16 184 32 16 184 32 16 184 32 16 184 32 16 184 32 16 184 32 16 184 32 16 184 32 16 184 32 16 184 32 16 184 32 16 184 32 16 184 32 16 184 32 16 184 32 16 184 32 16 184 32 16 184 32 16 184 32 16 184 32 16 184 32 16 184 32 16 184 32 16 184 32 16 24 40 16 24 40 16 24 40 16 24 40 16 24 40 16 24 40 16 24 40 16 24 40 16 24 40 16 24 40 16 24 40 16 24 40 16 24 40 16 24 40 16 24 40 16 24 40 16 24 40 16 24 40 16 24 40 16 24 40 16 24 40 16 24 40 16 24 40 16 24 40 16 24 40 16 24 40 16 24 40 16 24 40 16 24 40 16 24 40 16 24 40 16 24 40 16 96 40 152 96 40 152 96 40 152 96 40 152 96 40 152 96 40 152 96 40 152 96 40 152 96 40 152 96 40 152 96 40 152 96 40 152 96 40 152 96 40 152 96 40 152 96 40 152 96 40 152 96 40 152 96 40 152 96 40 152 96 40 152 96 40 152 96 40 152 96 40 152 96 40 152 96 40 152 96 40 152 96 40 152 96 40 152 96 40 152 96 40 152 96 40 152
120 40 152 120 40 152 120 40 152 120 40 152 120 40 152 120 40 152 120 40 152 120 40 152 120 40 152 120 40 152 120 40 152 120 40 152 120 40 152 120 40 152 120 40 152 120 40 152 120 40 152 120 40 152 120 40 152 120 40 152 120 40 152 120 40 152 120 40 152 120 40 152 120 40 152 120 40 152 120 40 152 120 40 152 120 40 152 120 40 152 120 40 152 120 40 152 104 40 152 104 40 152 104 40 152 104 40 152 104 40 152 104 40 152 104 40 152 104 40 152 104 40 152 104 40 152 104 40 152 104 40 152 104 40 152 104 40 152 104 40 152 104 40 152 104 40 152 104 40 152 104 40 152 104 40 152 104 40 152 104 40 152 104 40 152 104 40 152 104 40 152 104 40 152 104 40 152 104 40 152 104 40 152 104 40 152 104 40 152 104 40 152 104 40 152 104 40 152 104 40 152 104 40 152 104 40 152 104 40 152 104 40 152 104 40 152 104 40 152 104 40 152 104 40 152 104 40 152 104 40 152 104 40 152 104 40 152 104 40 152 104 40 152 104 40 152 104 40 152 104 40 152 104 40 152 104 40 152 104 40 152 104 40 152 104 40 152 104 40 152 104 40 152 104 40 152 104 40 152 104 40 152 104 40 152 104 40 152 104 40 152 104 40 152 104 40 152 104 40 152 104 40 152 104 40 152 104 40 152 104 40 152 104 40 152 104 40 152 104 40 152 104 40 152 104 40 152 104 40 152 104 40 152 104 40 152 104 40 152 104 40 152 104 40 152 104 40 152 104 40 152 104 40 152 104 40 152 104 40 152 104 40 152 104 40 152 104 40 152 104 40 152 104 40 152 104 40 152 104 40 152 104 40 152
120 40 152 120 40 152 120 40 152 120 40 152 120 40 152 120 40 152 120 40 152 120 40 152 120 40 152 120 40 152 120 40 152 120 40 152 120 40 152 120 40 152 120 40 152 120 40 152 120 40 152 120 40 152 120 40 152 120 40 152 120 40 152 120 40 152 120 40 152 120 40 152 120 40 152 120 40 152 120 40 152 120 40 152 120 40 152 120 40 152 120 40 152 120 40 152 104 40 152 104 40 152 104 40 152 104 40 152 104 40 152 104 40 152 104 40 152 104 40 152 104 40 152 104 40 152 104 40 152 104 40 152 104 40 152 104 40 152 104 40 152 104 40 152 104 40 152 104 40 152 104 40 152 104 40 152 104 40 152 104 40 152 104 40 152 104 40 152 104 40 152 104 40 152 104 40 152 104 40 152 104 40 152 104 40 152 104 40 152 104 40 152 104 40 152 104 40 152 104 40 152 104 40 152 104 40 152 104 40 152 104 40 152 104 40 152 104 40 152 104 40 152 104 40 152 104 40 152 104 40 152 104 40 152 104 40 152 104 40 152 104 40 152 104 40 152 104 40 152 104 40 152 104 40 152 104 40 152 104 40 152 104 40 152 104 40 152 104 40 152 104 40 152 104 40 152 104 40 152 104 40 152 104 40 152 104 40 152 104 40 152 104 40 152 104 40 152 104 40 152 104 40 152 104 40 152 104 40 152 104 40 152 104 40 152 104 40 152 104 40 152 104 40 152 104 40 152 104 40 152 104 40 152 104 40 152 104 40 152 104 40 152 104 40 152 104 40 152 104 40 152 104 40 152 104 40 152 104 40 152 104 40 152 104 40 152 104 40 152 104 40 152 104 40 152 104 40 152 104 40 152 104 40 152
120 40 152 120 40 152 120 40 152 120 40 152 120 40 152 120 40 152 120 40 152 120 40 152 120 40 152 120 40 152 120 40 152 120 40 152 120 40 152 120 40 152 120 40 152 120 40 152 120 40 152 120 40 152 120 40 152 120 40 152 120 40 152 120 40 152 120 40 152 120 40 152 120 40 152 120 40 152 120 40 152 120 40 152 120 40 152 120 40 152 120 40 152 120 40 152 104 40 152 104 40 152 104 40 152 104 40 152 104 40 152 104 40 152 104 40 152 104 40 152 104 40 152 104 40 152 104 40 152 104 40 152 104 40 152 104 40 152 104 40 152 104 40 152 104 40 152 104 40 152 104 40 152 104 40 152 104 40 152 104 40 152 104 40 152 104 40 152 104 40 152 104 40 152 104 40 152 104 40 152 104 40 152 104 40 152 104 40 152 104 40 152 104 40 152 104 40 152 104 40 152 104 40 152 104 40 152 104 40 152 104 40 152 104 40 152 104 40 152 104 40 152 104 40 152 104 40 152 104 40 152 104 40 152 104 40 152 104 40 152 104 40 152 104 40 152 104 40 152 104 40 152 104 40 152 104 40 152 104 40 152 104 40 152 104 40 152 104 40 152 104 40 152 104 40 152 104 40 152 104 40 152 104 40 152 104 40 152 104 40 152 104 40 152 104 40 152 104 40 152 104 40 152 104 40 152 104 40 152 104 40 152 104 40 152 104 40 152 104 40 152 104 40 152 104 40 152 104 40 152 104 40 152 104 40 152 104 40 152 104 40 152 104 40 152 104 40 152 104 40 152 104 40 152 104 40 152 104 40 152 104 40 152 104 40 152 104 40 152 104 40 152 104 40 152 104 40 152 104 40 152 104 40 152
120 40 152 120 40 152 120 40 152 120 40 152 120 40 152 120 40 152 120 40 152 120 40 152 120 40 152 120 40 152 120 40 152 120 40 152 120 40 152 120 40 152 120 40 152 120 40 152 120 40 152 120 40 152 120 40 152 120 40 152 120 40 152 120 40 152 120 40 152 120 40 152 120 40 152 120 40 152 120 40 152 120 40 152 120 40 152 120 40 152 120 40 152 120 40 152 104 40 152 104 40 152 104 40 152 104 40 152 104 40 152 104 40 152 104 40 152 104 40 152 104 40 152 104 40 152 104 40 152 104 40 152 104 40 152 104 40 152 104 40 152 104 40 152 104 40 152 104 40 152 104 40 152 104 40 152 104 40 152 104 40 152 104 40 152 104 40 152 104 40 152 104 40 152 104 40 152 104 40 152 104 40 152 104 40 152 104 40 152 104 40 152 104 40 152 104 40 152 104 40 152 104 40 152 104 40 152 104 40 152 104 40 152 104 40 152 104 40 152 104 40 152 104 40 152 104 40 152 104 40 152 104 40 152 104 40 152 104 40 152 104 40 152 104 40 152 104 40 152 104 40 152 104 40 152 104 40 152 104 40 152 104 40 152 104 40 152 104 40 152 104 40 152 104 40 152 104 40 152 104 40 152 104 40 152 104 40 152 104 40 152 104 40 152 104 40 152 104 40 152 104 40 152 104 40 152 104 40 152 104 40 152 104 40 152 104 40 152 104 40 152 104 40 152 104 40 152 104 40 152 104 40 152 104 40 152 104 40 152 104 40 152 104 40 152 104 40 152 104 40 152 104 40 152 104 40 152 104 40 152 104 40 152 104 40 152 104 40 152 104 40 152 104 40 152 104 40 152 104 40 152 104 40 152
120 40 152 120 40 152 120 40 152 120 40 152 120 40 152 120 40 152 120 40 152 120 40 152 120 40 152 120 40 152 120 40 152 120 40 152 120 40 152 120 40 152 120 40 152 120 40 152 120 40 152 120 40 152 120 40 152 120 40 152 120 40 152 120 40 152 120 40 152 120 40 152 120 40 152 120 40 152 120 40 152 120 40 152 120 40 152 120 40 152 120 40 152 120 40 152 104 40 152 104 40 152 104 40 152 104 40 152 104 40 152 104 40 152 104 40 152 104 40 152 104 40 152 104 40 152 104 40 152 104 40 152 104 40 152 104 40 152 104 40 152 104 40 152 104 40 152 104 40 152 104 40 152 104 40 152 104 40 152 104 40 152 104 40 152 104 40 152 104 40 152 104 40 152 104 40 152 104 40 152 104 40 152 104 40 152 104 40 152 104 40 152 104 40 152 104 40 152 104 40 152 104 40 152 104 40 152 104 40 152 104 40 152 104 40 152 104 40 152 104 40 152 104 40 152 104 40 152 104 40 152 104 40 152 104 40 152 104 40 152 104 40 152 104 40 152 104 40 152 104 40 152 104 40 152 104 40 152 104 40 152 104 40 152 104 40 152 104 40 152 104 40 152 104 40 152 104 40 152 104 40 152 104 40 152 104 40 152 104 40 152 104 40 152 104 40 152 104 40 152 104 40 152 104 40 152 104 40 152 104 40 152 104 40 152 104 40 152 104 40 152 104 40 152 104 40 152 104 40 152 104 40 152 104 40 152 104 40 152 104 40 152 104 40 152 104 40 152 104 40 152 104 40 152 104 40 152 104 40 152 104 40 152 104 40 152 104 40 152 104 40 152 104 40 152 104 40 152 104 40 152 104 40 152
120 40 152 120 40 152 120 40 152 120 40 152 120 40 152 120 40 152 120 40 152 120 40 152 120 40 152 120 40 152 120 40 152 120 40 152 120 40 152 120 40 152 120 40 152 120 40 152 120 40 152 120 40 152 120 40 152 120 40 152 120 40 152 120 40 152 120 40 152 120 40 152 120 40 152 120 40 152 120 40 152 120 40 152 120 40 152 120 40 152 120 40 152 120 40 152 104 40 152 104 40 152 104 40 152 104 40 152 104 40 152 104 40 152 104 40 152 104 40 152 104 40 152 104 40 152 104 40 152 104 40 152 104 40 152 104 40 152 104 40 152 104 40 152 104 40 152 104 40 152 104 40 152 104 40 152 104 40 152 104 40 152 104 40 152 104 40 152 104 40 152 104 40 152 104 40 152 104 40 152 104 40 152 104 40 152 104 40 152 104 40 152 104 40 152 104 40 152 104 40 152 104 40 152 104 40 152 104 40 152 104 40 152 104 40 152 104 40 152 104 40 152 104 40 152 104 40 152 104 40 152 104 40 152 104 40 152 104 40 152 104 40 152 104 40 152 104 40 152 104 40 152 104 40 152 104 40 152 104 40 152 104 40 152 104 40 152 104 40 152 104 40 152 104 40 152 104 40 152 104 40 152 104 40 152 104 40 152 104 40 152 104 40 152 104 40 152 104 40 152 104 40 152 104 40 152 104 40 152 104 40 152 104 40 152 104 40 152 104 40 152 104 40 152 104 40 152 104 40 152 104 40 152 104 40 152 104 40 152 104 40 152 104 40 152 104 40 152 104 40 152 104 40 152 104 40 152 104 40 152 104 40 152 104 40 152 104 40 152 104 40 152 104 40 152 104 40 152 104 40 152 104 40 152
120 40 152 120 40 152 120 40 152 120 40 152 120 40 152 120 40 152 120 40 152 120 40 152 120 40 152 120 40 152 120 40 152 120 40 152 120 40 152 120 40 152 120 40 152 120 40 152 120 40 152 120 40 152 120 40 152 120 40 152 120 40 152 120 40 152 120 40 152 120 40 152 120 40 152 120 40 152 120 40 152 120 40 152 120 40 152 120 40 152 120 40 152 120 40 152 104 40 152 104 40 152 104 40 152 104 40 152 104 40 152 104 40 152 104 40 152 104 40 152 104 40 152 104 40 152 104 40 152 104 40 152 104 40 152 104 40 152 104 40 152 104 40 152 104 40 152 104 40 152 104 40 152 104 40 152 104 40 152 104 40 152 104 40 152 104 40 152 104 40 152 104 40 152 104 40 152 104 40 152 104 40 152 104 40 152 104 40 152 104 40 152 104 40 152 104 40 152 104 40 152 104 40 152 104 40 152 104 40 152 104 40 152 104 40 152 104 40 152 104 40 152 104 40 152 104 40 152 104 40 152 104 40 152 104 40 152 104 40 152 104 40 152 104 40 152 104 40 152 104 40 152 104 40 152 104 40 152 104 40 152 104 40 152 104 40 152 104 40 152 104 40 152 104 40 152 104 40 152 104 40 152 104 40 152 104 40 152 104 40 152 104 40 152 104 40 152 104 40 152 104 40 152 104 40 152 104 40 152 104 40 152 104 40 152 104 40 152 104 40 152 104 40 152 104 40 152 104 40 152 104 40 152 104 40 152 104 40 152 104 40 152 104 40 152 104 40 152 104 40 152 104 40 152 104 40 152 104 40 152 104 40 152 104 40 152 104 40 152 104 40 152 104 40 152 104 40 152 104 40 152 104 40 152
120 40 152 120 40 152 120 40 152 120 40 152 120 40 152 120 40 152 120 40 152 120 40 152 120 40 152 120 40 152 120 40 152 120 40 152 120 40 152 120 40 152 120 40 152 120 40 152 120 40 152 120 40 152 120 40 152 120 40 152 120 40 152 120 40 152 120 40 152 120 40 152 120 40 152 120 40 152 120 40 152 120 40 152 120 40 152 120 40 152 120 40 152 120 40 152 104 40 152 104 40 152 104 40 152 104 40 152 104 40 152 104 40 152 104 40 152 104 40 152 104 40 152 104 40 152 104 40 152 104 40 152 104 40 152 104 40 152 104 40 152 104 40 152 104 40 152 104 40 152 104 40 152 104 40 152 104 40 152 104 40 152 104 40 152 104 40 152 104 40 152 104 40 152 104 40 152 104 40 152 104 40 152 104 40 152 104 40 152 104 40 152 104 40 152 104 40 152 104 40 152 104 40 152 104 40 152 104 40 152 104 40 152 104 40 152 104 40 152 104 40 152 104 40 152 104 40 152 104 40 152 104 40 152 104 40 152 104 40 152 104 40 152 104 40 152 104 40 152 104 40 152 104 40 152 104 40 152 104 40 152 104 40 152 104 40 152 104 40 152 104 40 152 104 40 152 104 40 152 104 40 152 104 40 152 104 40 152 104 40 152 104 40 152 104 40 152 104 40 152 104 40 152 104 40 152 104 40 152 104 40 152 104 40 152 104 40 152 104 40 152 104 40 152 104 40 152 104 40 152 104 40 152 104 40 152 104 40 152 104 40 152 104 40 152 104 40 152 104 40 152 104 40 152 104 40 152 104 40 152 104 40 152 104 40 152 104 40 152 104 40 152 104 40 152 104 40 152 104 40 152 104 40 152
120 40 152 120 40 152 120 40 152 120 40 152 120 40 152 120 40 152 120 40 152 120 40 152 120 40 152 120 40 152 120 40 152 120 40 152 120 40 152 120 40 152 120 40 152 120 40 152 120 40 152 120 40 152 120 40 152 120 40 152 120 40 152 120 40 152 120 40 152 120 40 152 120 40 152 120 40 152 120 40 152 120 40 152 120 40 152 120 40 152 120 40 152 120 40 152 104 40 152 104 40 152 104 40 152 104 40 152 104 40 152 104 40 152 104 40 152 104 40 152 104 40 152 104 40 152 104 40 152 104 40 152 104 40 152 104 40 152 104 40 152 104 40 152 104 40 152 104 40 152 104 40 152 104 40 152 104 40 152 104 40 152 104 40 152 104 40 152 104 40 152 104 40 152 104 40 152 104 40 152 104 40 152 104 40 152 104 40 152 104 40 152 104 40 152 104 40 152 104 40 152 104 40 152 104 40 152 104 40 152 104 40 152 104 40 152 104 40 152 104 40 152 104 40 152 104 40 152 104 40 152 104 40 152 104 40 152 104 40 152 104 40 152 104 40 152 104 40 152 104 40 152 104 40 152 104 40 152 104 40 152 104 40 152 104 40 152 104 40 152 104 40 152 104 40 152 104 40 152 104 40 152 104 40 152 104 40 152 104 40 152 104 40 152 104 40 152 104 40 152 104 40 152 104 40 152 104 40 152 104 40 152 104 40 152 104 40 152 104 40 152 104 40 152 104 40 152 104 40 152 104 40 152 104 40 152 104 40 152 104 40 152 104 40 152 104 40 152 104 40 152 104 40 152 104 40 152 104 40 152 104 40 152 104 40 152 104 40 152 104 40 152 104 40 152 104 40 152 104 40 152 104 40 152
120 40 152 120 40 152 120 40 152 120 40 152 120 40 152 120 40 152 120 40 152 120 40 152 120 40 152 120 40 152 120 40 152 120 40 152 120 40 152 120 40 152 120 40 152 120 40 152 120 40 152 120 40 152 120 40 152 120 40 152 120 40 152 120 40 152 120 40 152 120 40 152 120 40 152 120 40 152 120 40 152 120 40 152 120 40 152 120 40 152 120 40 152 120 40 152 104 40 152 104 40 152 104 40 152 104 40 152 104 40 152 104 40 152 104 40 152 104 40 152 104 40 152 104 40 152 104 40 152 104 40 152 104 40 152 104 40 152 104 40 152 104 40 152 104 40 152 104 40 152 104 40 152 104 40 152 104 40 152 104 40 152 104 40 152 104 40 152 104 40 152 104 40 152 104 40 152 104 40 152 104 40 152 104 40 152 104 40 152 104 40 152 104 40 152 104 40 152 104 40 152 104 40 152 104 40 152 104 40 152 104 40 152 104 40 152 104 40 152 104 40 152 104 40 152 104 40 152 104 40 152 104 40 152 104 40 152 104 40 152 104 40 152 104 40 152 104 40 152 104 40 152 104 40 152 104 40 152 104 40 152 104 40 152 104 40 152 104 40 152 104 40 152 104 40 152 104 40 152 104 40 152 104 40 152 104 40 152 104 40 152 104 40 152 104 40 152 104 40 152 104 40 152 104 40 152 104 40 152 104 40 152 104 40 152 104 40 152 104 40 152 104 40 152 104 40 152 104 40 152 104 40 152 104 40 152 104 40 152 104 40 152 104 40 152 104 40 152 104 40 152 104 40 152 104 40 152 104 40 152 104 40 152 104 40 152 104 40 152 104 40 152 104 40 152 104 40 152 104 40 152 104 40 152
120 40 152 120 40 152 120 40 152 120 40 152 120 40 152 120 40 152 120 40 152 120 40 152 120 40 152 120 40 152 120 40 152 120 40 152 120 40 152 120 40 152 120 40 152 120 40 152 120 40 152 120 40 152 120 40 152 120 40 152 120 40 152 120 40 152 120 40 152 120 40 152 120 40 152 120 40 152 120 40 152 120 40 152 120 40 152 120 40 152 120 40 152 120 40 152 104 40 152 104 40 152 104 40 152 104 40 152 104 40 152 104 40 152 104 40 152 104 40 152 104 40 152 104 40 152 104 40 152 104 40 152 104 40 152 104 40 152 104 40 152 104 40 152 104 40 152 104 40 152 104 40 152 104 40 152 104 40 152 104 40 152 104 40 152 104 40 152 104 40 152 104 40 152 104 40 152 104 40 152 104 40 152 104 40 152 104 40 152 104 40 152 104 40 152 104 40 152 104 40 152 104 40 152 104 40 152 104 40 152 104 40 152 104 40 152 104 40 152 104 40 152 104 40 152 104 40 152 104 40 152 104 40 152 104 40 152 104 40 152 104 40 152 104 40 152 104 40 152 104 40 152 104 40 152 104 40 152 104 40 152 104 40 152 104 40 152 104 40 152 104 40 152 104 40 152 104 40 152 104 40 152 104 40 152 104 40 152 104 40 152 104 40 152 104 40 152 104 40 152 104 40 152 104 40 152 104 40 152 104 40 152 104 40 152 104 40 152 104 40 152 104 40 152 104 40 152 104 40 152 104 40 152 104 40 152 104 40 152 104 40 152 104 40 152 104 40 152 104 40 152 104 40 152 104 40 152 104 40 152 104 40 152 104 40 152 104 40 152 104 40 152 104 40 152 104 40 152 104 40 152 104 40 152
120 40 152 120 40 152 120 40 152 120 40 152 120 40 152 120 40 152 120 40 152 120 40 152 120 40 152 120 40 152 120 40 152 120 40 152 120 40 152 120 40 152 120 40 152 120 40 152 120 40 152 120 40 152 120 40 152 120 40 152 120 40 152 120 40 152 120 40 152 120 40 152 120 40 152 120 40 152 120 40 152 120 40 152 120 40 152 120 40 152 120 40 152 120 40 152 104 40 152 104 40 152 104 40 152 104 40 152 104 40 152 104 40 152 104 40 152 104 40 152 104 40 152 104 40 152 104 40 152 104 40 152 104 40 152 104 40 152 104 40 152 104 40 152 104 40 152 104 40 152 104 40 152 104 40 152 104 40 152 104 40 152 104 40 152 104 40 152 104 40 152 104 40 152 104 40 152 104 40 152 104 40 152 104 40 152 104 40 152 104 40 152 104 40 152 104 40 152 104 40 152 104 40 152 104 40 152 104 40 152 104 40 152 104 40 152 104 40 152 104 40 152 104 40 152 104 40 152 104 40 152 104 40 152 104 40 152 104 40 152 104 40 152 104 40 152 104 40 152 104 40 152 104 40 152 104 40 152 104 40 152 104 40 152 104 40 152 104 40 152 104 40 152 104 40 152 104 40 152 104 40 152 104 40 152 104 40 152 104 40 152 104 40 152 104 40 152 104 40 152 104 40 152 104 40 152 104 40 152 104 40 152 104 40 152 104 40 152 104 40 152 104 40 152 104 40 152 104 40 152 104 40 152 104 40 152 104 40 152 104 40 152 104 40 152 104 40 152 104 40 152 104 40 152 104 40 152 104 40 152 104 40 152 104 40 152 104 40 152 104 40 152 104 40 152 104 40 152 104 40 152 104 40 152
120 40 152 120 40 152 120 40 152 120 40 152 120 40 152 120 40 152 120 40 152 120 40 152 120 40 152 120 40 152 120 40 152 120 40 152 120 40 152 120 40 152 120 40 152 120 40 152 120 40 152 120 40 152 120 40 152 120 40 152 120 40 152 120 40 152 120 40 152 120 40 152 120 40 152 120 40 152 120 40 152 120 40 152 120 40 152 120 40 152 120 40 152 120 40 152 104 40 152 104 40 152 104 40 152 104 40 152 104 40 152 104 40 152 104 40 152 104 40 152 104 40 152 104 40 152 104 40 152 104 40 152 104 40 152 104 40 152 104 40 152 104 40 152 104 40 152 104 40 152 104 40 152 104 40 152 104 40 152 104 40 152 104 40 152 104 40 152 104 40 152 104 40 152 104 40 152 104 40 152 104 40 152 104 40 152 104 40 152 104 40 152 104 40 152 104 40 152 104 40 152 104 40 152 104 40 152 104 40 152 104 40 152 104 40 152 104 40 152 104 40 152 104 40 152 104 40 152 104 40 152 104 40 152 104 40 152 104 40 152 104 40 152 104 40 152 104 40 152 104 40 152 104 40 152 104 40 152 104 40 152 104 40 152 104 40 152 104 40 152 104 40 152 104 40 152 104 40 152 104 40 152 104 40 152 104 40 152 104 40 152 104 40 152 104 40 152 104 40 152 104 40 152 104 40 152 104 40 152 104 40 152 104 40 152 104 40 152 104 40 152 104 40 152 104 40 152 104 40 152 104 40 152 104 40 152 104 40 152 104 40 152 104 40 152 104 40 152 104 40 152 104 40 152 104 40 152 104 40 152 104 40 152 104 40 152 104 40 152 104 40 152 104 40 152 104 40 152 104 40 152 104 40 152
120 40 152 120 40 152 120 40 152 120 40 152 120 40 152 120 40 152 120 40 152 120 40 152 120 40 152 120 40 152 120 40 152 120 40 152 120 40 152 120 40 152 120 40 152 120 40 152 120 40 152 120 40 152 120 40 152 120 40 152 120 40 152 120 40 152 120 40 152 120 40 152 120 40 152 120 40 152 120 40 152 120 40 152 120 40 152 120 40 152 120 40 152 120 40 152 104 40 152 104 40 152 104 40 152 104 40 152 104 40 152 104 40 152 104 40 152 104 40 152 104 40 152 104 40 152 104 40 152 104 40 152 104 40 152 104 40 152 104 40 152 104 40 152 104 40 152 104 40 152 104 40 152 104 40 152 104 40 152 104 40 152 104 40 152 104 40 152 104 40 152 104 40 152 104 40 152 104 40 152 104 40 152 104 40 152 104 40 152 104 40 152 104 40 152 104 40 152 104 40 152 104 40 152 104 40 152 104 40 152 104 40 152 104 40 152 104 40 152 104 40 152 104 40 152 104 40 152 104 40 152 104 40 152 104 40 152 104 40 152 104 40 152 104 40 152 104 40 152 104 40 152 104 40 152 104 40 152 104 40 152 104 40 152 104 40 152 104 40 152 104 40 152 104 40 152 104 40 152 104 40 152 104 40 152 104 40 152 104 40 152 104 40 152 104 40 152 104 40 152 104 40 152 104 40 152 104 40 152 104 40 152 104 40 152 104 40 152 104 40 152 104 40 152 104 40 152 104 40 152 104 40 152 104 40 152 104 40 152 104 40 152 104 40 152 104 40 152 104 40 152 104 40 152 104 40 152 104 40 152 104 40 152 104 40 152 104 40 152 104 40 152 104 40 152 104 40 152 104 40 152 104 40 152
120 40 152 120 40 152 120 40 152 120 40 152 120 40 152 120 40 152 120 40 152 120 40 152 120 40 152 120 40 152 120 40 152 120 40 152 120 40 152 120 40 152 120 40 152 120 40 152 120 40 152 120 40 152 120 40 152 120 40 152 120 40 152 120 40 152 120 40 152 120 40 152 120 40 152 120 40 152 120 40 152 120 40 152 120 40 152 120 40 152 120 40 152 120 40 152 104 40 152 104 40 152 104 40 152 104 40 152 104 40 152 104 40 152 104 40 152 104 40 152 104 40 152 104 40 152 104 40 152 104 40 152 104 40 152 104 40 152 104 40 152 104 40 152 104 40 152 104 40 152 104 40 152 104 40 152 104 40 152 104 40 152 104 40 152 104 40 152 104 40 152 104 40 152 104 40 152 104 40 152 104 40 152 104 40 152 104 40 152 104 40 152 104 40 152 104 40 152 104 40 152 104 40 152 104 40 152 104 40 152 104 40 152 104 40 152 104 40 152 104 40 152 104 40 152 104 40 152 104 40 152 104 40 152 104 40 152 104 40 152 104 40 152 104 40 152 104 40 152 104 40 152 104 40 152 104 40 152 104 40 152 104 40 152 104 40 152 104 40 152 104 40 152 104 40 152 104 40 152 104 40 152 104 40 152 104 40 152 104 40 152 104 40 152 104 40 152 104 40 152 104 40 152 104 40 152 104 40 152 104 40 152 104 40 152 104 40 152 104 40 152 104 40 152 104 40 152 104 40 152 104 40 152 104 40 152 104 40 152 104 40 152 104 40 152 104 40 152 104 40 152 104 40 152 104 40 152 104 40 152 104 40 152 104 40 152 104 40 152 104 40 152 104 40 152 104 40 152 104 40 152 104 40 152
120 40 152 120 40 152 120 40 152 120 40 152 120 40 152 120 40 152 120 40 152 120 40 152 120 40 152 120 40 152 120 40 152 120 40 152 120 40 152 120 40 152 120 40 152 120 40 152 120 40 152 120 40 152 120 40 152 120 40 152 120 40 152 120 40 152 120 40 152 120 40 152 120 40 152 120 40 152 120 40 152 120 40 152 120 40 152 120 40 152 120 40 152 120 40 152 104 40 152 104 40 152 104 40 152 104 40 152 104 40 152 104 40 152 104 40 152 104 40 152 104 40 152 104 40 152 104 40 152 104 40 152 104 40 152 104 40 152 104 40 152 104 40 152 104 40 152 104 40 152 104 40 152 104 40 152 104 40 152 104 40 152 104 40 152 104 40 152 104 40 152 104 40 152 104 40 152 104 40 152 104 40 152 104 40 152 104 40 152 104 40 152 104 40 152 104 40 152 104 40 152 104 40 152 104 40 152 104 40 152 104 40 152 104 40 152 104 40 152 104 40 152 104 40 152 104 40 152 104 40 152 104 40 152 104 40 152 104 40 152 104 40 152 104 40 152 104 40 152 104 40 152 104 40 152 104 40 152 104 40 152 104 40 152 104 40 152 104 40 152 104 40 152 104 40 152 104 40 152 104 40 152 104 40 152 104 40 152 104 40 152 104 40 152 104 40 152 104 40 152 104 40 152 104 40 152 104 40 152 104 40 152 104 40 152 104 40 152 104 40 152 104 40 152 104 40 152 104 40 152 104 40 152 104 40 152 104 40 152 104 40 152 104 40 152 104 40 152 104 40 152 104 40 152 104 40 152 104 40 152 104 40 152 104 40 152 104 40 152 104 40 152 104 40 152 104 40 152 104 40 152 104 40 152
120 40 152 120 40 152 120 40 152 120 40 152 120 40 152 120 40 152 120 40 152 120 40 152 120 40 152 120 40 152 120 40 152 120 40 152 120 40 152 120 40 152 120 40 152 120 40 152 120 40 152 120 40 152 120 40 152 120 40 152 120 40 152 120 40 152 120 40 152 120 40 152 120 40 152 120 40 152 120 40 152 120 40 152 120 40 152 120 40 152 120 40 152 120 40 152 104 40 152 104 40 152 104 40 152 104 40 152 104 40 152 104 40 152 104 40 152 104 40 152 104 40 152 104 40 152 104 40 152 104 40 152 104 40 152 104 40 152 104 40 152 104 40 152 104 40 152 104 40 152 104 40 152 104 40 152 104 40 152 104 40 152 104 40 152 104 40 152 104 40 152 104 40 152 104 40 152 104 40 152 104 40 152 104 40 152 104 40 152 104 40 152 104 40 152 104 40 152 104 40 152 104 40 152 104 40 152 104 40 152 104 40 152 104 40 152 104 40 152 104 40 152 104 40 152 104 40 152 104 40 152 104 40 152 104 40 152 104 40 152 104 40 152 104 40 152 104 40 152 104 40 152 104 40 152 104 40 152 104 40 152 104 40 152 104 40 152 104 40 152 104 40 152 104 40 152 104 40 152 104 40 152 104 40 152 104 40 152 104 40 152 104 40 152 104 40 152 104 40 152 104 40 152 104 40 152 104 40 152 104 40 152 104 40 152 104 40 152 104 40 152 104 40 152 104 40 152 104 40 152 104 40 152 104 40 152 104 40 152 104 40 152 104 40 152 104 40 152 104 40 152 104 40 152 104 40 152 104 40 152 104 40 152 104 40 152 104 40 152 104 40 152 104 40 152 104 40 152 104 40 152 104 40 152
120 40 152 120 40 152 120 40 152 120 40 152 120 40 152 120 40 152 120 40 152 120 40 152 120 40 152 120 40 152 120 40 152 120 40 152 120 40 152 120 40 152 120 40 152 120 40 152 120 40 152 120 40 152 120 40 152 120 40 152 120 40 152 120 40 152 120 40 152 120 40 152 120 40 152 120 40 152 120 40 152 120 40 152 120 40 152 120 40 152 120 40 152 120 40 152 104 40 152 104 40 152 104 40 152 104 40 152 104 40 152 104 40 152 104 40 152 104 40 152 104 40 152 104 40 152 104 40 152 104 40 152 104 40 152 104 40 152 104 40 152 104 40 152 104 40 152 104 40 152 104 40 152 104 40 152 104 40 152 104 40 152 104 40 152 104 40 152 104 40 152 104 40 152 104 40 152 104 40 152 104 40 152 104 40 152 104 40 152 104 40 152 104 40 152 104 40 152 104 40 152 104 40 152 104 40 152 104 40 152 104 40 152 104 40 152 104 40 152 104 40 152 104 40 152 104 40 152 104 40 152 104 40 152 104 40 152 104 40 152 104 40 152 104 40 152 104 40 152 104 40 152 104 40 152 104 40 152 104 40 152 104 40 152 104 40 152 104 40 152 104 40 152 104 40 152 104 40 152 104 40 152 104 40 152 104 40 152 104 40 152 104 40 152 104 40 152 104 40 152 104 40 152 104 40 152 104 40 152 104 40 152 104 40 152 104 40 152 104 40 152 104 40 152 104 40 152 104 40 152 104 40 152 104 40 152 104 40 152 104 40 152 104 40 152 104 40 152 104 40 152 104 40 152 104 40 152 104 40 152 104 40 152 104 40 152 104 40 152 104 40 152 104 40 152 104 40 152 104 40 152 104 40 152
120 40 152 120 40 152 120 40 152 120 40 152 120 40 152 120 40 152 120 40 152 120 40 152 120 40 152 120 40 152 120 40 152 120 40 152 120 40 152 120 40 152 120 40 152 120 40 152 120 40 152 120 40 152 120 40 152 120 40 152 120 40 152 120 40 152 120 40 152 120 40 152 120 40 152 120 40 152 120 40 152 120 40 152 120 40 152 120 40 152 120 40 152 120 40 152 104 40 152 104 40 152 104 40 152 104 40 152 104 40 152 104 40 152 104 40 152 104 40 152 104 40 152 104 40 152 104 40 152 104 40 152 104 40 152 104 40 152 104 40 152 104 40 152 104 40 152 104 40 152 104 40 152 104 40 152 104 40 152 104 40 152 104 40 152 104 40 152 104 40 152 104 40 152 104 40 152 104 40 152 104 40 152 104 40 152 104 40 152 104 40 152 104 40 152 104 40 152 104 40 152 104 40 152 104 40 152 104 40 152 104 40 152 104 40 152 104 40 152 104 40 152 104 40 152 104 40 152 104 40 152 104 40 152 104 40 152 104 40 152 104 40 152 104 40 152 104 40 152 104 40 152 104 40 152 104 40 152 104 40 152 104 40 152 104 40 152 104 40 152 104 40 152 104 40 152 104 40 152 104 40 152 104 40 152 104 40 152 104 40 152 104 40 152 104 40 152 104 40 152 104 40 152 104 40 152 104 40 152 104 40 152 104 40 152 104 40 152 104 40 152 104 40 152 104 40 152 104 40 152 104 40 152 104 40 152 104 40 152 104 40 152 104 40 152 104 40 152 104 40 152 104 40 152 104 40 152 104 40 152 104 40 152 104 40 152 104 40 152 104 40 152 104 40 152 104 40 152 104 40 152 104 40 152
120 40 152 120 40 152 120 40 152 120 40 152 120 40 152 120 40 152 120 40 152 120 40 152 120 40 152 120 40 152 120 40 152 120 40 152 120 40 152 120 40 152 120 40 152 120 40 152 120 40 152 120 40 152 120 40 152 120 40 152 120 40 152 120 40 152 120 40 152 120 40 152 120 40 152 120 40 152 120 40 152 120 40 152 120 40 152 120 40 152 120 40 152 120 40 152 104 40 152 104 40 152 104 40 152 104 40 152 104 40 152 104 40 152 104 40 152 104 40 152 104 40 152 104 40 152 104 40 152 104 40 152 104 40 152 104 40 152 104 40 152 104 40 152 104 40 152 104 40 152 104 40 152 104 40 152 104 40 152 104 40 152 104 40 152 104 40 152 104 40 152 104 40 152 104 40 152 104 40 152 104 40 152 104 40 152 104 40 152 104 40 152 104 40 152 104 40 152 104 40 152 104 40 152 104 40 152 104 40 152 104 40 152 104 40 152 104 40 152 104 40 152 104 40 152 104 40 152 104 40 152 104 40 152 104 40 152 104 40 152 104 40 152 104 40 152 104 40 152 104 40 152 104 40 152 104 40 152 104 40 152 104 40 152 104 40 152 104 40 152 104 40 152 104 40 152 104 40 152 104 40 152 104 40 152 104 40 152 104 40 152 104 40 152 104 40 152 104 40 152 104 40 152 104 40 152 104 40 152 104 40 152 104 40 152 104 40 152 104 40 152 104 40 152 104 40 152 104 40 152 104 40 152 104 40 152 104 40 152 104 40 152 104 40 152 104 40 152 104 40 152 104 40 152 104 40 152 104 40 152 104 40 152 104 40 152 104 40 152 104 40 152 104 40 152 104 40 152 104 40 152 104 40 152
120 40 152 120 40 152 120 40 152 120 40 152 120 40 152 120 40 152 120 40 152 120 40 152 120 40 152 120 40 152 120 40 152 120 40 152 120 40 152 120 40 152 120 40 152 120 40 152 120 40 152 120 40 152 120 40 152 120 40 152 120 40 152 120 40 152 120 40 152 120 40 152 120 40 152 120 40 152 120 40 152 120 40 152 120 40 152 120 40 152 120 40 152 120 40 152 104 40 152 104 40 152 104 40 152 104 40 152 104 40 152 104 40 152 104 40 152 104 40 152 104 40 152 104 40 152 104 40 152 104 40 152 104 40 152 104 40 152 104 40 152 104 40 152 104 40 152 104 40 152 104 40 152 104 40 152 104 40 152 104 40 152 104 40 152 104 40 152 104 40 152 104 40 152 104 40 152 104 40 152 104 40 152 104 40 152 104 40 152 104 40 152 104 40 152 104 40 152 104 40 152 104 40 152 104 40 152 104 40 152 104 40 152 104 40 152 104 40 152 104 40 152 104 40 152 104 40 152 104 40 152 104 40 152 104 40 152 104 40 152 104 40 152 104 40 152 104 40 152 104 40 152 104 40 152 104 40 152 104 40 152 104 40 152 104 40 152 104 40 152 104 40 152 104 40 152 104 40 152 104 40 152 104 40 152 104 40 152 104 40 152 104 40 152 104 40 152 104 40 152 104 40 152 104 40 152 104 40 152 104 40 152 104 40 152 104 40 152 104 40 152 104 40 152 104 40 152 104 40 152 104 40 152 104 40 152 104 40 152 104 40 152 104 40 152 104 40 152 104 40 152 104 40 152 104 40 152 104 40 152 104 40 152 104 40 152 104 40 152 104 40 152 104 40 152 104 40 152 104 40 152 104 40 152
120 40 152 120 40 152 120 40 152 120 40 152 120 40 152 120 40 152 120 40 152 120 40 152 120 40 152 120 40 152 120 40 152 120 40 152 120 40 152 120 40 152 120 40 152 120 40 152 120 40 152 120 40 152 120 40 152 120 40 152 120 40 152 120 40 152 120 40 152 120 40 152 120 40 152 120 40 152 120 40 152 120 40 152 120 40 152 120 40 152 120 40 152 120 40 152 104 40 152 104 40 152 104 40 152 104 40 152 104 40 152 104 40 152 104 40 152 104 40 152 104 40 152 104 40 152 104 40 152 104 40 152 104 40 152 104 40 152 104 40 152 104 40 152 104 40 152 104 40 152 104 40 152 104 40 152 104 40 152 104 40 152 104 40 152 104 40 152 104 40 152 104 40 152 104 40 152 104 40 152 104 40 152 104 40 152 104 40 152 104 40 152 104 40 152 104 40 152 104 40 152 104 40 152 104 40 152 104 40 152 104 40 152 104 40 152 104 40 152 104 40 152 104 40 152 104 40 152 104 40 152 104 40 152 104 40 152 104 40 152 104 40 152 104 40 152 104 40 152 104 40 152 104 40 152 104 40 152 104 40 152 104 40 152 104 40 152 104 40 152 104 40 152 104 40 152 104 40 152 104 40 152 104 40 152 104 40 152 104 40 152 104 40 152 104 40 152 104 40 152 104 40 152 104 40 152 104 40 152 104 40 152 104 40 152 104 40 152 104 40 152 104 40 152 104 40 152 104 40 152 104 40 152 104 40 152 104 40 152 104 40 152 104 40 152 104 40 152 104 40 152 104 40 152 104 40 152 104 40 152 104 40 152 104 40 152 104 40 152 104 40 152 104 40 152 104 40 152 104 40 152 104 40 152
120 40 152 120 40 152 120 40 152 120 40 152 120 40 152 120 40 152 120 40 152 120 40 152 120 40 152 120 40 152 120 40 152 120 40 152 120 40 152 120 40 152 120 40 152 120 40 152 120 40 152 120 40 152 120 40 152 120 40 152 120 40 152 120 40 152 120 40 152 120 40 152 120 40 152 120 40 152 120 40 152 120 40 152 120 40 152 120 40 152 120 40 152 120 40 152 104 40 152 104 40 152 104 40 152 104 40 152 104 40 152 104 40 152 104 40 152 104 40 152 104 40 152 104 40 152 104 40 152 104 40 152 104 40 152 104 40 152 104 40 152 104 40 152 104 40 152 104 40 152 104 40 152 104 40 152 104 40 152 104 40 152 104 40 152 104 40 152 104 40 152 104 40 152 104 40 152 104 40 152 104 40 152 104 40 152 104 40 152 104 40 152 104 40 152 104 40 152 104 40 152 104 40 152 104 40 152 104 40 152 104 40 152 104 40 152 104 40 152 104 40 152 104 40 152 104 40 152 104 40 152 104 40 152 104 40 152 104 40 152 104 40 152 104 40 152 104 40 152 104 40 152 104 40 152 104 40 152 104 40 152 104 40 152 104 40 152 104 40 152 104 40 152 104 40 152 104 40 152 104 40 152 104 40 152 104 40 152 104 40 152 104 40 152 104 40 152 104 40 152 104 40 152 104 40 152 104 40 152 104 40 152 104 40 152 104 40 152 104 40 152 104 40 152 104 40 152 104 40 152 104 40 152 104 40 152 104 40 152 104 40 152 104 40 152 104 40 152 104 40 152 104 40 152 104 40 152 104 40 152 104 40 152 104 40 152 104 40 152 104 40 152 104 40 152 104 40 152 104 40 152 104 40 152
120 40 152 120 40 152 120 40 152 120 40 152 120 40 152 120 40 152 120 40 152 120 40 152 120 40 152 120 40 152 120 40 152 120 40 152 120 40 152 120 40 152 120 40 152 120 40 152 120 40 152 120 40 152 120 40 152 120 40 152 120 40 152 120 40 152 120 40 152 120 40 152 120 40 152 120 40 152 120 40 152 120 40 152 120 40 152 120 40 152 120 40 152 120 40 152 104 40 152 104 40 152 104 40 152 104 40 152 104 40 152 104 40 152 104 40 152 104 40 152 104 40 152 104 40 152 104 40 152 104 40 152 104 40 152 104 40 152 104 40 152 104 40 152 104 40 152 104 40 152 104 40 152 104 40 152 104 40 152 104 40 152 104 40 152 104 40 152 104 40 152 104 40 152 104 40 152 104 40 152 104 40 152 104 40 152 104 40 152 104 40 152 104 40 152 104 40 152 104 40 152 104 40 152 104 40 152 104 40 152 104 40 152 104 40 152 104 40 152 104 40 152 104 40 152 104 40 152 104 40 152 104 40 152 104 40 152 104 40 152 104 40 152 104 40 152 104 40 152 104 40 152 104 40 152 104 40 152 104 40 152 104 40 152 104 40 152 104 40 152 104 40 152 104 40 152 104 40 152 104 40 152 104 40 152 104 40 152 104 40 152 104 40 152 104 40 152 104 40 152 104 40 152 104 40 152 104 40 152 104 40 152 104 40 152 104 40 152 104 40 152 104 40 152 104 40 152 104 40 152 104 40 152 104 40 152 104 40 152 104 40 152 104 40 152 104 40 152 104 40 152 104 40 152 104 40 152 104 40 152 104 40 152 104 40 152 104 40 152 104 40 152 104 40 152 104 40 152 104 40 152 104 40 152
120 40 152 120 40 152 120 40 152 120 40 152 120 40 152 120 40 152 120 40 152 120 40 152 120 40 152 120 40 152 120 40 152 120 40 152 120 40 152 120 40 152 120 40 152 120 40 152 120 40 152 120 40 152 120 40 152 120 40 152 120 40 152 120 40 152 120 40 152 120 40 152 120 40 152 120 40 152 120 40 152 120 40 152 120 40 152 120 40 152 120 40 152 120 40 152 104 40 152 104 40 152 104 40 152 104 40 152 104 40 152 104 40 152 104 40 152 104 40 152 104 40 152 104 40 152 104 40 152 104 40 152 104 40 152 104 40 152 104 40 152 104 40 152 104 40 152 104 40 152 104 40 152 104 40 152 104 40 152 104 40 152 104 40 152 104 40 152 104 40 152 104 40 152 104 40 152 104 40 152 104 40 152 104 40 152 104 40 152 104 40 152 104 40 152 104 40 152 104 40 152 104 40 152 104 40 152 104 40 152 104 40 152 104 40 152 104 40 152 104 40 152 104 40 152 104 40 152 104 40 152 104 40 152 104 40 152 104 40 152 104 40 152 104 40 152 104 40 152 104 40 152 104 40 152 104 40 152 104 40 152 104 40 152 104 40 152 104 40 152 104 40 152 104 40 152 104 40 152 104 40 152 104 40 152 104 40 152 104 40 152 104 40 152 104 40 152 104 40 152 104 40 152 104 40 152 104 40 152 104 40 152 104 40 152 104 40 152 104 40 152 104 40 152 104 40 152 104 40 152 104 40 152 104 40 152 104 40 152 104 40 152 104 40 152 104 40 152 104 40 152 104 40 152 104 40 152 104 40 152 104 40 152 104 40 152 104 40 152 104 40 152 104 40 152 104 40 152 104 40 152 104 40 152
120 40 152 120 40 152 120 40 152 120 40 152 120 40 152 120 40 152 120 40 152 120 40 152 120 40 152 120 40 152 120 40 152 120 40 152 120 40 152 120 40 152 120 40 152 120 40 152 120 40 152 120 40 152 120 40 152 120 40 152 120 40 152 120 40 152 120 40 152 120 40 152 120 40 152 120 40 152 120 40 152 120 40 152 120 40 152 120 40 152 120 40 152 120 40 152 104 40 152 104 40 152 104 40 152 104 40 152 104 40 152 104 40 152 104 40 152 104 40 152 104 40 152 104 40 152 104 40 152 104 40 152 104 40 152 104 40 152 104 40 152 104 40 152 104 40 152 104 40 152 104 40 152 104 40 152 104 40 152 104 40 152 104 40 152 104 40 152 104 40 152 104 40 152 104 40 152 104 40 152 104 40 152 104 40 152 104 40 152 104 40 152 104 40 152 104 40 152 104 40 152 104 40 152 104 40 152 104 40 152 104 40 152 104 40 152 104 40 152 104 40 152 104 40 152 104 40 152 104 40 152 104 40 152 104 40 152 104 40 152 104 40 152 104 40 152 104 40 152 104 40 152 104 40 152 104 40 152 104 40 152 104 40 152 104 40 152 104 40 152 104 40 152 104 40 152 104 40 152 104 40 152 104 40 152 104 40 152 104 40 152 104 40 152 104 40 152 104 40 152 104 40 152 104 40 152 104 40 152 104 40 152 104 40 152 104 40 152 104 40 152 104 40 152 104 40 152 104 40 152 104 40 152 104 40 152 104 40 152 104 40 152 104 40 152 104 40 152 104 40 152 104 40 152 104 40 152 104 40 152 104 40 152 104 40 152 104 40 152 104 40 152 104 40 152 104 40 152 104 40 152 104 40 152
120 40 152 120 40 152 120 40 152 120 40 152 120 40 152 120 40 152 120 40 152 120 40 152 120 40 152 120 40 152 120 40 152 120 40 152 120 40 152 120 40 152 120 40 152 120 40 152 120 40 152 120 40 152 120 40 152 120 40 152 120 40 152 120 40 152 120 40 152 120 40 152 120 40 152 120 40 152 120 40 152 120 40 152 120 40 152 120 40 152 120 40 152 120 40 152 104 40 152 104 40 152 104 40 152 104 40 152 104 40 152 104 40 152 104 40 152 104 40 152 104 40 152 104 40 152 104 40 152 104 40 152 104 40 152 104 40 152 104 40 152 104 40 152 104 40 152 104 40 152 104 40 152 104 40 152 104 40 152 104 40 152 104 40 152 104 40 152 104 40 152 104 40 152 104 40 152 104 40 152 104 40 152 104 40 152 104 40 152 104 40 152 104 40 152 104 40 152 104 40 152 104 40 152 104 40 152 104 40 152 104 40 152 104 40 152 104 40 152 104 40 152 104 40 152 104 40 152 104 40 152 104 40 152 104 40 152 104 40 152 104 40 152 104 40 152 104 40 152 104 40 152 104 40 152 104 40 152 104 40 152 104 40 152 104 40 152 104 40 152 104 40 152 104 40 152 104 40 152 104 40 152 104 40 152 104 40 152 104 40 152 104 40 152 104 40 152 104 40 152 104 40 152 104 40 152 104 40 152 104 40 152 104 40 152 104 40 152 104 40 152 104 40 152 104 40 152 104 40 152 104 40 152 104 40 152 104 40 152 104 40 152 104 40 152 104 40 152 104 40 152 104 40 152 104 40 152 104 40 152 104 40 152 104 40 152 104 40 152 104 40 152 104 40 152 104 40 152 104 40 152 104 40 152
120 40 152 120 40 152 120 40 152 120 40 152 120 40 152 120 40 152 120 40 152 120 40 152 120 40 152 120 40 152 120 40 152 120 40 152 120 40 152 120 40 152 120 40 152 120 40 152 120 40 152 120 40 152 120 40 152 120 40 152 120 40 152 120 40 152 120 40 152 120 40 152 120 40 152 120 40 152 120 40 152 120 40 152 120 40 152 120 40 152 120 40 152 120 40 152 104 40 152 104 40 152 104 40 152 104 40 152 104 40 152 104 40 152 104 40 152 104 40 152 104 40 152 104 40 152 104 40 152 104 40 152 104 40 152 104 40 152 104 40 152 104 40 152 104 40 152 104 40 152 104 40 152 104 40 152 104 40 152 104 40 152 104 40 152 104 40 152 104 40 152 104 40 152 104 40 152 104 40 152 104 40 152 104 40 152 104 40 152 104 40 152 104 40 152 104 40 152 104 40 152 104 40 152 104 40 152 104 40 152 104 40 152 104 40 152 104 40 152 104 40 152 104 40 152 104 40 152 104 40 152 104 40 152 104 40 152 104 40 152 104 40 152 104 40 152 104 40 152 104 40 152 104 40 152 104 40 152 104 40 152 104 40 152 104 40 152 104 40 152 104 40 152 104 40 152 104 40 152 104 40 152 104 40 152 104 40 152 104 40 152 104 40 152 104 40 152 104 40 152 104 40 152 104 40 152 104 40 152 104 40 152 104 40 152 104 40 152 104 40 152 104 40 152 104 40 152 104 40 152 104 40 152 104 40 152 104 40 152 104 40 152 104 40 152 104 40 152 104 40 152 104 40 152 104 40 152 104 40 152 104 40 152 104 40 152 104 40 152 104 40 152 104 40 152 104 40 152 104 40 152 104 40 152
120 40 152 120 40 152 120 40 152 120 40 152 120 40 152 120 40 152 120 40 152 120 40 152 120 40 152 120 40 152 120 40 152 120 40 152 120 40 152 120 40 152 120 40 152 120 40 152 120 40 152 120 40 152 120 40 152 120 40 152 120 40 152 120 40 152 120 40 152 120 40 152 120 40 152 120 40 152 120 40 152 120 40 152 120 40 152 120 40 152 120 40 152 120 40 152 104 40 152 104 40 152 104 40 152 104 40 152 104 40 152 104 40 152 104 40 152 104 40 152 104 40 152 104 40 152 104 40 152 104 40 152 104 40 152 104 40 152 104 40 152 104 40 152 104 40 152 104 40 152 104 40 152 104 40 152 104 40 152 104 40 152 104 40 152 104 40 152 104 40 152 104 40 152 104 40 152 104 40 152 104 40 152 104 40 152 104 40 152 104 40 152 104 40 152 104 40 152 104 40 152 104 40 152 104 40 152 104 40 152 104 40 152 104 40 152 104 40 152 104 40 152 104 40 152 104 40 152 104 40 152 104 40 152 104 40 152 104 40 152 104 40 152 104 40 152 104 40 152 104 40 152 104 40 152 104 40 152 104 40 152 104 40 152 104 40 152 104 40 152 104 40 152 104 40 152 104 40 152 104 40 152 104 40 152 104 40 152 104 40 152 104 40 152 104 40 152 104 40 152 104 40 152 104 40 152 104 40 152 104 40 152 104 40 152 104 40 152 104 40 152 104 40 152 104 40 152 104 40 152 104 40 152 104 40 152 104 40 152 104 40 152 104 40 152 104 40 152 104 40 152 104 40 152 104 40 152 104 40 152 104 40 152 104 40 152 104 40 152 104 40 152 104 40 152 104 40 152 104 40 152 104 40 152
120 40 152 120 40 152 120 40 152 120 40 152 120 40 152 120 40 152 120 40 152 120 40 152 120 40 152 120 40 152 120 40 152 120 40 152 120 40 152 120 40 152 120 40 152 120 40 152 120 40 152 120 40 152 120 40 152 120 40 152 120 40 152 120 40 152 120 40 152 120 40 152 120 40 152 120 40 152 120 40 152 120 40 152 120 40 152 120 40 152 120 40 152 120 40 152 104 40 152 104 40 152 104 40 152 104 40 152 104 40 152 104 40 152 104 40 152 104 40 152 104 40 152 104 40 152 104 40 152 104 40 152 104 40 152 104 40 152 104 40 152 104 40 152 104 40 152 104 40 152 104 40 152 104 40 152 104 40 152 104 40 152 104 40 152 104 40 152 104 40 152 104 40 152 104 40 152 104 40 152 104 40 152 104 40 152 104 40 152 104 40 152 104 40 152 104 40 152 104 40 152 104 40 152 104 40 152 104 40 152 104 40 152 104 40 152 104 40 152 104 40 152 104 40 152 104 40 152 104 40 152 104 40 152 104 40 152 104 40 152 104 40 152 104 40 152 104 40 152 104 40 152 104 40 152 104 40 152 104 40 152 104 40 152 104 40 152 104 40 152 104 40 152 104 40 152 104 40 152 104 40 152 104 40 152 104 40 152 104 40 152 104 40 152 104 40 152 104 40 152 104 40 152 104 40 152 104 40 152 104 40 152 104 40 152 104 40 152 104 40 152 104 40 152 104 40 152 104 40 152 104 40 152 104 40 152 104 40 152 104 40 152 104 40 152 104 40 152 104 40 152 104 40 152 104 40 152 104 40 152 104 40 152 104 40 152 104 40 152 104 40 152 104 40 152 104 40 152 104 40 152 104 40 152
120 40 152 120 40 152 120 40 152 120 40 152 120 40 152 120 40 152 120 40 152 120 40 152 120 40 152 120 40 152 120 40 152 120 40 152 120 40 152 120 40 152 120 40 152 120 40 152 120 40 152 120 40 152 120 40 152 120 40 152 120 40 152 120 40 152 120 40 152 120 40 152 120 40 152 120 40 152 120 40 152 120 40 152 120 40 152 120 40 152 120 40 152 120 40 152 104 40 152 104 40 152 104 40 152 104 40 152 104 40 152 104 40 152 104 40 152 104 40 152 104 40 152 104 40 152 104 40 152 104 40 152 104 40 152 104 40 152 104 40 152 104 40 152 104 40 152 104 40 152 104 40 152 104 40 152 104 40 152 104 40 152 104 40 152 104 40 152 104 40 152 104 40 152 104 40 152 104 40 152 104 40 152 104 40 152 104 40 152 104 40 152 104 40 152 104 40 152 104 40 152 104 40 152 104 40 152 104 40 152 104 40 152 104 40 152 104 40 152 104 40 152 104 40 152 104 40 152 104 40 152 104 40 152 104 40 152 104 40 152 104 40 152 104 40 152 104 40 152 104 40 152 104 40 152 104 40 152 104 40 152 104 40 152 104 40 152 104 40 152 104 40 152 104 40 152 104 40 152 104 40 152 104 40 152 104 40 152 104 40 152 104 40 152 104 40 152 104 40 152 104 40 152 104 40 152 104 40 152 104 40 152 104 40 152 104 40 152 104 40 152 104 40 152 104 40 152 104 40 152 104 40 152 104 40 152 104 40 152 104 40 152 104 40 152 104 40 152 104 40 152 104 40 152 104 40 152 104 40 152 104 40 152 104 40 152 104 40 152 104 40 152 104 40 152 104 40 152 104 40 152 104 40 152
120 40 152 120 40 152 120 40 152 120 40 152 120 40 152 120 40 152 120 40 152 120 40 152 120 40 152 120 40 152 120 40 152 120 40 152 120 40 152 120 40 152 120 40 152 120 40 152 120 40 152 120 40 152 120 40 152 120 40 152 120 40 152 120 40 152 120 40 152 120 40 152 120 40 152 120 40 152 120 40 152 120 40 152 120 40 152 120 40 152 120 40 152 120 40 152 104 40 152 104 40 152 104 40 152 104 40 152 104 40 152 104 40 152 104 40 152 104 40 152 104 40 152 104 40 152 104 40 152 104 40 152 104 40 152 104 40 152 104 40 152 104 40 152 104 40 152 104 40 152 104 40 152 104 40 152 104 40 152 104 40 152 104 40 152 104 40 152 104 40 152 104 40 152 104 40 152 104 40 152 104 40 152 104 40 152 104 40 152 104 40 152 104 40 152 104 40 152 104 40 152 104 40 152 104 40 152 104 40 152 104 40 152 104 40 152 104 40 152 104 40 152 104 40 152 104 40 152 104 40 152 104 40 152 104 40 152 104 40 152 104 40 152 104 40 152 104 40 152 104 40 152 104 40 152 104 40 152 104 40 152 104 40 152 104 40 152 104 40 152 104 40 152 104 40 152 104 40 152 104 40 152 104 40 152 104 40 152 104 40 152 104 40 152 104 40 152 104 40 152 104 40 152 104 40 152 104 40 152 104 40 152 104 40 152 104 40 152 104 40 152 104 40 152 104 40 152 104 40 152 104 40 152 104 40 152 104 40 152 104 40 152 104 40 152 104 40 152 104 40 152 104 40 152 104 40 152 104 40 152 104 40 152 104 40 152 104 40 152 104 40 152 104 40 152 104 40 152 104 40 152 104 40 152