P3
128 128
255
80 16 144 80 16 144 80 16 144 80 16 144 80 16 144 80 16 144 80 16 144 80 16 144 80 16 144 80 16 144 80 16 144 80 16 144 80 16 144 80 16 144 80 16 144 80 16 144 80 16 144 80 16 144 80 16 144 80 16 144 80 16 144 80 16 144 80 16 144 80 16 144 80 16 144 80 16 144 80 16 144 80 16 144 80 16 144 80 16 144 80 16 144 80 16 144 88 16 144 88 16 144 88 16 144 88 16 144 88 16 144 88 16 144 88 16 144 88 16 144 88 16 144 88 16 144 88 16 144 88 16 144 88 16 144 88 16 144 88 16 144 88 16 144 88 16 144 88 16 144 88 16 144 88 16 144 88 16 144 88 16 144 88 16 144 88 16 144 88 16 144 88 16 144 88 16 144 88 16 144 88 16 144 88 16 144 88 16 144 88 16 144 224 32 144 224 32 144 224 32 144 224 32 144 224 32 144 224 32 144 224 32 144 224 32 144 224 32 144 224 32 144 224 32 144 224 32 144 224 32 144 224 32 144 224 32 144 224 32 144 224 32 144 224 32 144 224 32 144 224 32 144 224 32 144 224 32 144 224 32 144 224 32 144 224 32 144 224 32 144 224 32 144 224 32 144 224 32 144 224 32 144 224 32 144 224 32 144 88 40 176 88 40 176 88 40 176 88 40 176 88 40 176 88 40 176 88 40 176 88 40 176 88 40 176 88 40 176 88 40 176 88 40 176 88 40 176 88 40 176 88 40 176 88 40 176 88 40 176 88 40 176 88 40 176 88 40 176 88 40 176 88 40 176 88 40 176 88 40 176 88 40 176 88 40 176 88 40 176 88 40 176 88 40 176 88 40 176 88 40 176 88 40 176
80 16 144 80 16 144 80 16 144 80 16 144 80 16 144 80 16 144 80 16 144 80 16 144 80 16 144 80 16 144 80 16 144 80 16 144 80 16 144 80 16 144 80 16 144 80 16 144 80 16 144 80 16 144 80 16 144 80 16 144 80 16 144 80 16 144 80 16 144 80 16 144 80 16 144 80 16 144 80 16 144 80 16 144 80 16 144 80 16 144 80 16 144 80 16 144 88 16 144 88 16 144 88 16 144 88 16 144 88 16 144 88 16 144 88 16 144 88 16 144 88 16 144 88 16 144 88 16 144 88 16 144 88 16 144 88 16 144 88 16 144 88 16 144 88 16 144 88 16 144 88 16 144 88 16 144 88 16 144 88 16 144 88 16 144 88 16 144 88 16 144 88 16 144 88 16 144 88 16 144 88 16 144 88 16 144 88 16 144 88 16 144 224 32 144 224 32 144 224 32 144 224 32 144 224 32 144 224 32 144 224 32 144 224 32 144 224 32 144 224 32 144 224 32 144 224 32 144 224 32 144 224 32 144 224 32 144 224 32 144 224 32 144 224 32 144 224 32 144 224 32 144 224 32 144 224 32 144 224 32 144 224 32 144 224 32 144 224 32 144 224 32 144 224 32 144 224 32 144 224 32 144 224 32 144 224 32 144 88 40 176 88 40 176 88 40 176 88 40 176 88 40 176 88 40 176 88 40 176 88 40 176 88 40 176 88 40 176 88 40 176 88 40 176 88 40 176 88 40 176 88 40 176 88 40 176 88 40 176 88 40 176 88 40 176 88 40 176 88 40 176 88 40 176 88 40 176 88 40 176 88 40 176 88 40 176 88 40 176 88 40 176 88 40 176 88 40 176 88 40 176 88 40 176
80 16 144 80 16 144 80 16 144 80 16 144 80 16 144 80 16 144 80 16 144 80 16 144 80 16 144 80 16 144 80 16 144 80 16 144 80 16 144 80 16 144 80 16 144 80 16 144 80 16 144 80 16 144 80 16 144 80 16 144 80 16 144 80 16 144 80 16 144 80 16 144 80 16 144 80 16 144 80 16 144 80 16 144 80 16 144 80 16 144 80 16 144 80 16 144 88 16 144 88 16 144 88 16 144 88 16 144 88 16 144 88 16 144 88 16 144 88 16 144 88 16 144 88 16 144 88 16 144 88 16 144 88 16 144 88 16 144 88 16 144 88 16 144 88 16 144 88 16 144 88 16 144 88 16 144 88 16 144 88 16 144 88 16 144 88 16 144 88 16 144 88 16 144 88 16 144 88 16 144 88 16 144 88 16 144 88 16 144 88 16 144 224 32 144 224 32 144 224 32 144 224 32 144 224 32 144 224 32 144 224 32 144 224 32 144 224 32 144 224 32 144 224 32 144 224 32 144 224 32 144 224 32 144 224 32 144 224 32 144 224 32 144 224 32 144 224 32 144 224 32 144 224 32 144 224 32 144 224 32 144 224 32 144 224 32 144 224 32 144 224 32 144 224 32 144 224 32 144 224 32 144 224 32 144 224 32 144 88 40 176 88 40 176 88 40 176 88 40 176 88 40 176 88 40 176 88 40 176 88 40 176 88 40 176 88 40 176 88 40 176 88 40 176 88 40 176 88 40 176 88 40 176 88 40 176 88 40 176 88 40 176 88 40 176 88 40 176 88 40 176 88 40 176 88 40 176 88 40 176 88 40 176 88 40 176 88 40 176 88 40 176 88 40 176 88 40 176 88 40 176 88 40 176
80 16 144 80 16 144 80 16 144 80 16 144 80 16 144 80 16 144 80 16 144 80 16 144 80 16 144 80 16 144 80 16 144 80 16 144 80 16 144 80 16 144 80 16 144 80 16 144 80 16 144 80 16 144 80 16 144 80 16 144 80 16 144 80 16 144 80 16 144 80 16 144 80 16 144 80 16 144 80 16 144 80 16 144 80 16 144 80 16 144 80 16 144 80 16 144 88 16 144 88 16 144 88 16 144 88 16 144 88 16 144 88 16 144 88 16 144 88 16 144 88 16 144 88 16 144 88 16 144 88 16 144 88 16 144 88 16 144 88 16 144 88 16 144 88 16 144 88 16 144 88 16 144 88 16 144 88 16 144 88 16 144 88 16 144 88 16 144 88 16 144 88 16 144 88 16 144 88 16 144 88 16 144 88 16 144 88 16 144 88 16 144 224 32 144 224 32 144 224 32 144 224 32 144 224 32 144 224 32 144 224 32 144 224 32 144 224 32 144 224 32 144 224 32 144 224 32 144 224 32 144 224 32 144 224 32 144 224 32 144 224 32 144 224 32 144 224 32 144 224 32 144 224 32 144 224 32 144 224 32 144 224 32 144 224 32 144 224 32 144 224 32 144 224 32 144 224 32 144 224 32 144 224 32 144 224 32 144 88 40 176 88 40 176 88 40 176 88 40 176 88 40 176 88 40 176 88 40 176 88 40 176 88 40 176 88 40 176 88 40 176 88 40 176 88 40 176 88 40 176 88 40 176 88 40 176 88 40 176 88 40 176 88 40 176 88 40 176 88 40 176 88 40 176 88 40 176 88 40 176 88 40 176 88 40 176 88 40 176 88 40 176 88 40 176 88 40 176 88 40 176 88 40 176
80 16 144 80 16 144 80 16 144 80 16 144 80 16 144 80 16 144 80 16 144 80 16 144 80 16 144 80 16 144 80 16 144 80 16 144 80 16 144 80 16 144 80 16 144 80 16 144 80 16 144 80 16 144 80 16 144 80 16 144 80 16 144 80 16 144 80 16 144 80 16 144 80 16 144 80 16 144 80 16 144 80 16 144 80 16 144 80 16 144 80 16 144 80 16 144 88 16 144 88 16 144 88 16 144 88 16 144 88 16 144 88 16 144 88 16 144 88 16 144 88 16 144 88 16 144 88 16 144 88 16 144 88 16 144 88 16 144 88 16 144 88 16 144 88 16 144 88 16 144 88 16 144 88 16 144 88 16 144 88 16 144 88 16 144 88 16 144 88 16 144 88 16 144 88 16 144 88 16 144 88 16 144 88 16 144 88 16 144 88 16 144 224 32 144 224 32 144 224 32 144 224 32 144 224 32 144 224 32 144 224 32 144 224 32 144 224 32 144 224 32 144 224 32 144 224 32 144 224 32 144 224 32 144 224 32 144 224 32 144 224 32 144 224 32 144 224 32 144 224 32 144 224 32 144 224 32 144 224 32 144 224 32 144 224 32 144 224 32 144 224 32 144 224 32 144 224 32 144 224 32 144 224 32 144 224 32 144 88 40 176 88 40 176 88 40 176 88 40 176 88 40 176 88 40 176 88 40 176 88 40 176 88 40 176 88 40 176 88 40 176 88 40 176 88 40 176 88 40 176 88 40 176 88 40 176 88 40 176 88 40 176 88 40 176 88 40 176 88 40 176 88 40 176 88 40 176 88 40 176 88 40 176 88 40 176 88 40 176 88 40 176 88 40 176 88 40 176 88 40 176 88 40 176
80 16 144 80 16 144 80 16 144 80 16 144 80 16 144 80 16 144 80 16 144 80 16 144 80 16 144 80 16 144 80 16 144 80 16 144 80 16 144 80 16 144 80 16 144 80 16 144 80 16 144 80 16 144 80 16 144 80 16 144 80 16 144 80 16 144 80 16 144 80 16 144 80 16 144 80 16 144 80 16 144 80 16 144 80 16 144 80 16 144 80 16 144 80 16 144 88 16 144 88 16 144 88 16 144 88 16 144 88 16 144 88 16 144 88 16 144 88 16 144 88 16 144 88 16 144 88 16 144 88 16 144 88 16 144 88 16 144 88 16 144 88 16 144 88 16 144 88 16 144 88 16 144 88 16 144 88 16 144 88 16 144 88 16 144 88 16 144 88 16 144 88 16 144 88 16 144 88 16 144 88 16 144 88 16 144 88 16 144 88 16 144 224 32 144 224 32 144 224 32 144 224 32 144 224 32 144 224 32 144 224 32 144 224 32 144 224 32 144 224 32 144 224 32 144 224 32 144 224 32 144 224 32 144 224 32 144 224 32 144 224 32 144 224 32 144 224 32 144 224 32 144 224 32 144 224 32 144 224 32 144 224 32 144 224 32 144 224 32 144 224 32 144 224 32 144 224 32 144 224 32 144 224 32 144 224 32 144 88 40 176 88 40 176 88 40 176 88 40 176 88 40 176 88 40 176 88 40 176 88 40 176 88 40 176 88 40 176 88 40 176 88 40 176 88 40 176 88 40 176 88 40 176 88 40 176 88 40 176 88 40 176 88 40 176 88 40 176 88 40 176 88 40 176 88 40 176 88 40 176 88 40 176 88 40 176 88 40 176 88 40 176 88 40 176 88 40 176 88 40 176 88 40 176
80 16 144 80 16 144 80 16 144 80 16 144 80 16 144 80 16 144 80 16 144 80 16 144 80 16 144 80 16 144 80 16 144 80 16 144 80 16 144 80 16 144 80 16 144 80 16 144 80 16 144 80 16 144 80 16 144 80 16 144 80 16 144 80 16 144 80 16 144 80 16 144 80 16 144 80 16 144 80 16 144 80 16 144 80 16 144 80 16 144 80 16 144 80 16 144 88 16 144 88 16 144 88 16 144 88 16 144 88 16 144 88 16 144 88 16 144 88 16 144 88 16 144 88 16 144 88 16 144 88 16 144 88 16 144 88 16 144 88 16 144 88 16 144 88 16 144 88 16 144 88 16 144 88 16 144 88 16 144 88 16 144 88 16 144 88 16 144 88 16 144 88 16 144 88 16 144 88 16 144 88 16 144 88 16 144 88 16 144 88 16 144 224 32 144 224 32 144 224 32 144 224 32 144 224 32 144 224 32 144 224 32 144 224 32 144 224 32 144 224 32 144 224 32 144 224 32 144 224 32 144 224 32 144 224 32 144 224 32 144 224 32 144 224 32 144 224 32 144 224 32 144 224 32 144 224 32 144 224 32 144 224 32 144 224 32 144 224 32 144 224 32 144 224 32 144 224 32 144 224 32 144 224 32 144 224 32 144 88 40 176 88 40 176 88 40 176 88 40 176 88 40 176 88 40 176 88 40 176 88 40 176 88 40 176 88 40 176 88 40 176 88 40 176 88 40 176 88 40 176 88 40 176 88 40 176 88 40 176 88 40 176 88 40 176 88 40 176 88 40 176 88 40 176 88 40 176 88 40 176 88 40 176 88 40 176 88 40 176 88 40 176 88 40 176 88 40 176 88 40 176 88 40 176
80 16 144 80 16 144 80 16 144 80 16 144 80 16 144 80 16 144 80 16 144 80 16 144 80 16 144 80 16 144 80 16 144 80 16 144 80 16 144 80 16 144 80 16 144 80 16 144 80 16 144 80 16 144 80 16 144 80 16 144 80 16 144 80 16 144 80 16 144 80 16 144 80 16 144 80 16 144 80 16 144 80 16 144 80 16 144 80 16 144 80 16 144 80 16 144 88 16 144 88 16 144 88 16 144 88 16 144 88 16 144 88 16 144 88 16 144 88 16 144 88 16 144 88 16 144 88 16 144 88 16 144 88 16 144 88 16 144 88 16 144 88 16 144 88 16 144 88 16 144 88 16 144 88 16 144 88 16 144 88 16 144 88 16 144 88 16 144 88 16 144 88 16 144 88 16 144 88 16 144 88 16 144 88 16 144 88 16 144 88 16 144 224 32 144 224 32 144 224 32 144 224 32 144 224 32 144 224 32 144 224 32 144 224 32 144 224 32 144 224 32 144 224 32 144 224 32 144 224 32 144 224 32 144 224 32 144 224 32 144 224 32 144 224 32 144 224 32 144 224 32 144 224 32 144 224 32 144 224 32 144 224 32 144 224 32 144 224 32 144 224 32 144 224 32 144 224 32 144 224 32 144 224 32 144 224 32 144 88 40 176 88 40 176 88 40 176 88 40 176 88 40 176 88 40 176 88 40 176 88 40 176 88 40 176 88 40 176 88 40 176 88 40 176 88 40 176 88 40 176 88 40 176 88 40 176 88 40 176 88 40 176 88 40 176 88 40 176 88 40 176 88 40 176 88 40 176 88 40 176 88 40 176 88 40 176 88 40 176 88 40 176 88 40 176 88 40 176 88 40 176 88 40 176
80 16 144 80 16 144 80 16 144 80 16 144 80 16 144 80 16 144 80 16 144 80 16 144 80 16 144 80 16 144 80 16 144 80 16 144 80 16 144 80 16 144 80 16 144 80 16 144 80 16 144 80 16 144 80 16 144 80 16 144 80 16 144 80 16 144 80 16 144 80 16 144 80 16 144 80 16 144 80 16 144 80 16 144 80 16 144 80 16 144 80 16 144 80 16 144 88 16 144 88 16 144 88 16 144 88 16 144 88 16 144 88 16 144 88 16 144 88 16 144 88 16 144 88 16 144 88 16 144 88 16 144 88 16 144 88 16 144 88 16 144 88 16 144 88 16 144 88 16 144 88 16 144 88 16 144 88 16 144 88 16 144 88 16 144 88 16 144 88 16 144 88 16 144 88 16 144 88 16 144 88 16 144 88 16 144 88 16 144 88 16 144 224 32 144 224 32 144 224 32 144 224 32 144 224 32 144 224 32 144 224 32 144 224 32 144 224 32 144 224 32 144 224 32 144 224 32 144 224 32 144 224 32 144 224 32 144 224 32 144 224 32 144 224 32 144 224 32 144 224 32 144 224 32 144 224 32 144 224 32 144 224 32 144 224 32 144 224 32 144 224 32 144 224 32 144 224 32 144 224 32 144 224 32 144 224 32 144 88 40 176 88 40 176 88 40 176 88 40 176 88 40 176 88 40 176 88 40 176 88 40 176 88 40 176 88 40 176 88 40 176 88 40 176 88 40 176 88 40 176 88 40 176 88 40 176 88 40 176 88 40 176 88 40 176 88 40 176 88 40 176 88 40 176 88 40 176 88 40 176 88 40 176 88 40 176 88 40 176 88 40 176 88 40 176 88 40 176 88 40 176 88 40 176
80 16 144 80 16 144 80 16 144 80 16 144 80 16 144 80 16 144 80 16 144 80 16 144 80 16 144 80 16 144 80 16 144 80 16 144 80 16 144 80 16 144 80 16 144 80 16 144 80 16 144 80 16 144 80 16 144 80 16 144 80 16 144 80 16 144 80 16 144 80 16 144 80 16 144 80 16 144 80 16 144 80 16 144 80 16 144 80 16 144 80 16 144 80 16 144 88 16 144 88 16 144 88 16 144 88 16 144 88 16 144 88 16 144 88 16 144 88 16 144 88 16 144 88 16 144 88 16 144 88 16 144 88 16 144 88 16 144 88 16 144 88 16 144 88 16 144 88 16 144 88 16 144 88 16 144 88 16 144 88 16 144 88 16 144 88 16 144 88 16 144 88 16 144 88 16 144 88 16 144 88 16 144 88 16 144 88 16 144 88 16 144 224 32 144 224 32 144 224 32 144 224 32 144 224 32 144 224 32 144 224 32 144 224 32 144 224 32 144 224 32 144 224 32 144 224 32 144 224 32 144 224 32 144 224 32 144 224 32 144 224 32 144 224 32 144 224 32 144 224 32 144 224 32 144 224 32 144 224 32 144 224 32 144 224 32 144 224 32 144 224 32 144 224 32 144 224 32 144 224 32 144 224 32 144 224 32 144 88 40 176 88 40 176 88 40 176 88 40 176 88 40 176 88 40 176 88 40 176 88 40 176 88 40 176 88 40 176 88 40 176 88 40 176 88 40 176 88 40 176 88 40 176 88 40 176 88 40 176 88 40 176 88 40 176 88 40 176 88 40 176 88 40 176 88 40 176 88 40 176 88 40 176 88 40 176 88 40 176 88 40 176 88 40 176 88 40 176 88 40 176 88 40 176
80 16 144 80 16 144 80 16 144 80 16 144 80 16 144 80 16 144 80 16 144 80 16 144 80 16 144 80 16 144 80 16 144 80 16 144 80 16 144 80 16 144 80 16 144 80 16 144 80 16 144 80 16 144 80 16 144 80 16 144 80 16 144 80 16 144 80 16 144 80 16 144 80 16 144 80 16 144 80 16 144 80 16 144 80 16 144 80 16 144 80 16 144 80 16 144 88 16 144 88 16 144 88 16 144 88 16 144 88 16 144 88 16 144 88 16 144 88 16 144 88 16 144 88 16 144 88 16 144 88 16 144 88 16 144 88 16 144 88 16 144 88 16 144 88 16 144 88 16 144 88 16 144 88 16 144 88 16 144 88 16 144 88 16 144 88 16 144 88 16 144 88 16 144 88 16 144 88 16 144 88 16 144 88 16 144 88 16 144 88 16 144 224 32 144 224 32 144 224 32 144 224 32 144 224 32 144 224 32 144 224 32 144 224 32 144 224 32 144 224 32 144 224 32 144 224 32 144 224 32 144 224 32 144 224 32 144 224 32 144 224 32 144 224 32 144 224 32 144 224 32 144 224 32 144 224 32 144 224 32 144 224 32 144 224 32 144 224 32 144 224 32 144 224 32 144 224 32 144 224 32 144 224 32 144 224 32 144 88 40 176 88 40 176 88 40 176 88 40 176 88 40 176 88 40 176 88 40 176 88 40 176 88 40 176 88 40 176 88 40 176 88 40 176 88 40 176 88 40 176 88 40 176 88 40 176 88 40 176 88 40 176 88 40 176 88 40 176 88 40 176 88 40 176 88 40 176 88 40 176 88 40 176 88 40 176 88 40 176 88 40 176 88 40 176 88 40 176 88 40 176 88 40 176
80 16 144 80 16 144 80 16 144 80 16 144 80 16 144 80 16 144 80 16 144 80 16 144 80 16 144 80 16 144 80 16 144 80 16 144 80 16 144 80 16 144 80 16 144 80 16 144 80 16 144 80 16 144 80 16 144 80 16 144 80 16 144 80 16 144 80 16 144 80 16 144 80 16 144 80 16 144 80 16 144 80 16 144 80 16 144 80 16 144 80 16 144 80 16 144 88 16 144 88 16 144 88 16 144 88 16 144 88 16 144 88 16 144 88 16 144 88 16 144 88 16 144 88 16 144 88 16 144 88 16 144 88 16 144 88 16 144 88 16 144 88 16 144 88 16 144 88 16 144 88 16 144 88 16 144 88 16 144 88 16 144 88 16 144 88 16 144 88 16 144 88 16 144 88 16 144 88 16 144 88 16 144 88 16 144 88 16 144 88 16 144 224 32 144 224 32 144 224 32 144 224 32 144 224 32 144 224 32 144 224 32 144 224 32 144 224 32 144 224 32 144 224 32 144 224 32 144 224 32 144 224 32 144 224 32 144 224 32 144 224 32 144 224 32 144 224 32 144 224 32 144 224 32 144 224 32 144 224 32 144 224 32 144 224 32 144 224 32 144 224 32 144 224 32 144 224 32 144 224 32 144 224 32 144 224 32 144 88 40 176 88 40 176 88 40 176 88 40 176 88 40 176 88 40 176 88 40 176 88 40 176 88 40 176 88 40 176 88 40 176 88 40 176 88 40 176 88 40 176 88 40 176 88 40 176 88 40 176 88 40 176 88 40 176 88 40 176 88 40 176 88 40 176 88 40 176 88 40 176 88 40 176 88 40 176 88 40 176 88 40 176 88 40 176 88 40 176 88 40 176 88 40 176
80 16 144 80 16 144 80 16 144 80 16 144 80 16 144 80 16 144 80 16 144 80 16 144 80 16 144 80 16 144 80 16 144 80 16 144 80 16 144 80 16 144 80 16 144 80 16 144 80 16 144 80 16 144 80 16 144 80 16 144 80 16 144 80 16 144 80 16 144 80 16 144 80 16 144 80 16 144 80 16 144 80 16 144 80 16 144 80 16 144 80 16 144 80 16 144 88 16 144 88 16 144 88 16 144 88 16 144 88 16 144 88 16 144 88 16 144 88 16 144 88 16 144 88 16 144 88 16 144 88 16 144 88 16 144 88 16 144 88 16 144 88 16 144 88 16 144 88 16 144 88 16 144 88 16 144 88 16 144 88 16 144 88 16 144 88 16 144 88 16 144 88 16 144 88 16 144 88 16 144 88 16 144 88 16 144 88 16 144 88 16 144 224 32 144 224 32 144 224 32 144 224 32 144 224 32 144 224 32 144 224 32 144 224 32 144 224 32 144 224 32 144 224 32 144 224 32 144 224 32 144 224 32 144 224 32 144 224 32 144 224 32 144 224 32 144 224 32 144 224 32 144 224 32 144 224 32 144 224 32 144 224 32 144 224 32 144 224 32 144 224 32 144 224 32 144 224 32 144 224 32 144 224 32 144 224 32 144 88 40 176 88 40 176 88 40 176 88 40 176 88 40 176 88 40 176 88 40 176 88 40 176 88 40 176 88 40 176 88 40 176 88 40 176 88 40 176 88 40 176 88 40 176 88 40 176 88 40 176 88 40 176 88 40 176 88 40 176 88 40 176 88 40 176 88 40 176 88 40 176 88 40 176 88 40 176 88 40 176 88 40 176 88 40 176 88 40 176 88 40 176 88 40 176
80 16 144 80 16 144 80 16 144 80 16 144 80 16 144 80 16 144 80 16 144 80 16 144 80 16 144 80 16 144 80 16 144 80 16 144 80 16 144 80 16 144 80 16 144 80 16 144 80 16 144 80 16 144 80 16 144 80 16 144 80 16 144 80 16 144 80 16 144 80 16 144 80 16 144 80 16 144 80 16 144 80 16 144 80 16 144 80 16 144 80 16 144 80 16 144 88 16 144 88 16 144 88 16 144 88 16 144 88 16 144 88 16 144 88 16 144 88 16 144 88 16 144 88 16 144 88 16 144 88 16 144 88 16 144 88 16 144 88 16 144 88 16 144 88 16 144 88 16 144 88 16 144 88 16 144 88 16 144 88 16 144 88 16 144 88 16 144 88 16 144 88 16 144 88 16 144 88 16 144 88 16 144 88 16 144 88 16 144 88 16 144 224 32 144 224 32 144 224 32 144 224 32 144 224 32 144 224 32 144 224 32 144 224 32 144 224 32 144 224 32 144 224 32 144 224 32 144 224 32 144 224 32 144 224 32 144 224 32 144 224 32 144 224 32 144 224 32 144 224 32 144 224 32 144 224 32 144 224 32 144 224 32 144 224 32 144 224 32 144 224 32 144 224 32 144 224 32 144 224 32 144 224 32 144 224 32 144 88 40 176 88 40 176 88 40 176 88 40 176 88 40 176 88 40 176 88 40 176 88 40 176 88 40 176 88 40 176 88 40 176 88 40 176 88 40 176 88 40 176 88 40 176 88 40 176 88 40 176 88 40 176 88 40 176 88 40 176 88 40 176 88 40 176 88 40 176 88 40 176 88 40 176 88 40 176 88 40 176 88 40 176 88 40 176 88 40 176 88 40 176 88 40 176
80 16 144 80 16 144 80 16 144 80 16 144 80 16 144 80 16 144 80 16 144 80 16 144 80 16 144 80 16 144 80 16 144 80 16 144 80 16 144 80 16 144 80 16 144 80 16 144 80 16 144 80 16 144 80 16 144 80 16 144 80 16 144 80 16 144 80 16 144 80 16 144 80 16 144 80 16 144 80 16 144 80 16 144 80 16 144 80 16 144 80 16 144 80 16 144 88 16 144 88 16 144 88 16 144 88 16 144 88 16 144 88 16 144 88 16 144 88 16 144 88 16 144 88 16 144 88 16 144 88 16 144 88 16 144 88 16 144 88 16 144 88 16 144 88 16 144 88 16 144 88 16 144 88 16 144 88 16 144 88 16 144 88 16 144 88 16 144 88 16 144 88 16 144 88 16 144 88 16 144 88 16 144 88 16 144 88 16 144 88 16 144 224 32 144 224 32 144 224 32 144 224 32 144 224 32 144 224 32 144 224 32 144 224 32 144 224 32 144 224 32 144 224 32 144 224 32 144 224 32 144 224 32 144 224 32 144 224 32 144 224 32 144 224 32 144 224 32 144 224 32 144 224 32 144 224 32 144 224 32 144 224 32 144 224 32 144 224 32 144 224 32 144 224 32 144 224 32 144 224 32 144 224 32 144 224 32 144 88 40 176 88 40 176 88 40 176 88 40 176 88 40 176 88 40 176 88 40 176 88 40 176 88 40 176 88 40 176 88 40 176 88 40 176 88 40 176 88 40 176 88 40 176 88 40 176 88 40 176 88 40 176 88 40 176 88 40 176 88 40 176 88 40 176 88 40 176 88 40 176 88 40 176 88 40 176 88 40 176 88 40 176 88 40 176 88 40 176 88 40 176 88 40 176
80 16 144 80 16 144 80 16 144 80 16 144 80 16 144 80 16 144 80 16 144 80 16 144 80 16 144 80 16 144 80 16 144 80 16 144 80 16 144 80 16 144 80 16 144 80 16 144 80 16 144 80 16 144 80 16 144 80 16 144 80 16 144 80 16 144 80 16 144 80 16 144 80 16 144 80 16 144 80 16 144 80 16 144 80 16 144 80 16 144 80 16 144 80 16 144 88 16 144 88 16 144 88 16 144 88 16 144 88 16 144 88 16 144 88 16 144 88 16 144 88 16 144 88 16 144 88 16 144 88 16 144 88 16 144 88 16 144 88 16 144 88 16 144 88 16 144 88 16 144 88 16 144 88 16 144 88 16 144 88 16 144 88 16 144 88 16 144 88 16 144 88 16 144 88 16 144 88 16 144 88 16 144 88 16 144 88 16 144 88 16 144 224 32 144 224 32 144 224 32 144 224 32 144 224 32 144 224 32 144 224 32 144 224 32 144 224 32 144 224 32 144 224 32 144 224 32 144 224 32 144 224 32 144 224 32 144 224 32 144 224 32 144 224 32 144 224 32 144 224 32 144 224 32 144 224 32 144 224 32 144 224 32 144 224 32 144 224 32 144 224 32 144 224 32 144 224 32 144 224 32 144 224 32 144 224 32 144 88 40 176 88 40 176 88 40 176 88 40 176 88 40 176 88 40 176 88 40 176 88 40 176 88 40 176 88 40 176 88 40 176 88 40 176 88 40 176 88 40 176 88 40 176 88 40 176 88 40 176 88 40 176 88 40 176 88 40 176 88 40 176 88 40 176 88 40 176 88 40 176 88 40 176 88 40 176 88 40 176 88 40 176 88 40 176 88 40 176 88 40 176 88 40 176
80 16 144 80 16 144 80 16 144 80 16 144 80 16 144 80 16 144 80 16 144 80 16 144 80 16 144 80 16 144 80 16 144 80 16 144 80 16 144 80 16 144 80 16 144 80 16 144 80 16 144 80 16 144 80 16 144 80 16 144 80 16 144 80 16 144 80 16 144 80 16 144 80 16 144 80 16 144 80 16 144 80 16 144 80 16 144 80 16 144 80 16 144 80 16 144 88 16 144 88 16 144 88 16 144 88 16 144 88 16 144 88 16 144 88 16 144 88 16 144 88 16 144 88 16 144 88 16 144 88 16 144 88 16 144 88 16 144 88 16 144 88 16 144 88 16 144 88 16 144 88 16 144 88 16 144 88 16 144 88 16 144 88 16 144 88 16 144 88 16 144 88 16 144 88 16 144 88 16 144 88 16 144 88 16 144 88 16 144 88 16 144 224 32 144 224 32 144 224 32 144 224 32 144 224 32 144 224 32 144 224 32 144 224 32 144 224 32 144 224 32 144 224 32 144 224 32 144 224 32 144 224 32 144 224 32 144 224 32 144 224 32 144 224 32 144 224 32 144 224 32 144 224 32 144 224 32 144 224 32 144 224 32 144 224 32 144 224 32 144 224 32 144 224 32 144 224 32 144 224 32 144 224 32 144 224 32 144 88 40 176 88 40 176 88 40 176 88 40 176 88 40 176 88 40 176 88 40 176 88 40 176 88 40 176 88 40 176 88 40 176 88 40 176 88 40 176 88 40 176 88 40 176 88 40 176 88 40 176 88 40 176 88 40 176 88 40 176 88 40 176 88 40 176 88 40 176 88 40 176 88 40 176 88 40 176 88 40 176 88 40 176 88 40 176 88 40 176 88 40 176 88 40 176
80 16 144 80 16 144 80 16 144 80 16 144 80 16 144 80 16 144 80 16 144 80 16 144 80 16 144 80 16 144 80 16 144 80 16 144 80 16 144 80 16 144 80 16 144 80 16 144 80 16 144 80 16 144 80 16 144 80 16 144 80 16 144 80 16 144 80 16 144 80 16 144 80 16 144 80 16 144 80 16 144 80 16 144 80 16 144 80 16 144 80 16 144 80 16 144 88 16 144 88 16 144 88 16 144 88 16 144 88 16 144 88 16 144 88 16 144 88 16 144 88 16 144 88 16 144 88 16 144 88 16 144 88 16 144 88 16 144 88 16 144 88 16 144 88 16 144 88 16 144 88 16 144 88 16 144 88 16 144 88 16 144 88 16 144 88 16 144 88 16 144 88 16 144 88 16 144 88 16 144 88 16 144 88 16 144 88 16 144 88 16 144 224 32 144 224 32 144 224 32 144 224 32 144 224 32 144 224 32 144 224 32 144 224 32 144 224 32 144 224 32 144 224 32 144 224 32 144 224 32 144 224 32 144 224 32 144 224 32 144 224 32 144 224 32 144 224 32 144 224 32 144 224 32 144 224 32 144 224 32 144 224 32 144 224 32 144 224 32 144 224 32 144 224 32 144 224 32 144 224 32 144 224 32 144 224 32 144 88 40 176 88 40 176 88 40 176 88 40 176 88 40 176 88 40 176 88 40 176 88 40 176 88 40 176 88 40 176 88 40 176 88 40 176 88 40 176 88 40 176 88 40 176 88 40 176 88 40 176 88 40 176 88 40 176 88 40 176 88 40 176 88 40 176 88 40 176 88 40 176 88 40 176 88 40 176 88 40 176 88 40 176 88 40 176 88 40 176 88 40 176 88 40 176
80 16 144 80 16 144 80 16 144 80 16 144 80 16 144 80 16 144 80 16 144 80 16 144 80 16 144 80 16 144 80 16 144 80 16 144 80 16 144 80 16 144 80 16 144 80 16 144 80 16 144 80 16 144 80 16 144 80 16 144 80 16 144 80 16 144 80 16 144 80 16 144 80 16 144 80 16 144 80 16 144 80 16 144 80 16 144 80 16 144 80 16 144 80 16 144 88 16 144 88 16 144 88 16 144 88 16 144 88 16 144 88 16 144 88 16 144 88 16 144 88 16 144 88 16 144 88 16 144 88 16 144 88 16 144 88 16 144 88 16 144 88 16 144 88 16 144 88 16 144 88 16 144 88 16 144 88 16 144 88 16 144 88 16 144 88 16 144 88 16 144 88 16 144 88 16 144 88 16 144 88 16 144 88 16 144 88 16 144 88 16 144 224 32 144 224 32 144 224 32 144 224 32 144 224 32 144 224 32 144 224 32 144 224 32 144 224 32 144 224 32 144 224 32 144 224 32 144 224 32 144 224 32 144 224 32 144 224 32 144 224 32 144 224 32 144 224 32 144 224 32 144 224 32 144 224 32 144 224 32 144 224 32 144 224 32 144 224 32 144 224 32 144 224 32 144 224 32 144 224 32 144 224 32 144 224 32 144 88 40 176 88 40 176 88 40 176 88 40 176 88 40 176 88 40 176 88 40 176 88 40 176 88 40 176 88 40 176 88 40 176 88 40 176 88 40 176 88 40 176 88 40 176 88 40 176 88 40 176 88 40 176 88 40 176 88 40 176 88 40 176 88 40 176 88 40 176 88 40 176 88 40 176 88 40 176 88 40 176 88 40 176 88 40 176 88 40 176 88 40 176 88 40 176
80 16 144 80 16 144 80 16 144 80 16 144 80 16 144 80 16 144 80 16 144 80 16 144 80 16 144 80 16 144 80 16 144 80 16 144 80 16 144 80 16 144 80 16 144 80 16 144 80 16 144 80 16 144 80 16 144 80 16 144 80 16 144 80 16 144 80 16 144 80 16 144 80 16 144 80 16 144 80 16 144 80 16 144 80 16 144 80 16 144 80 16 144 80 16 144 88 16 144 88 16 144 88 16 144 88 16 144 88 16 144 88 16 144 88 16 144 88 16 144 88 16 144 88 16 144 88 16 144 88 16 144 88 16 144 88 16 144 88 16 144 88 16 144 88 16 144 88 16 144 88 16 144 88 16 144 88 16 144 88 16 144 88 16 144 88 16 144 88 16 144 88 16 144 88 16 144 88 16 144 88 16 144 88 16 144 88 16 144 88 16 144 224 32 144 224 32 144 224 32 144 224 32 144 224 32 144 224 32 144 224 32 144 224 32 144 224 32 144 224 32 144 224 32 144 224 32 144 224 32 144 224 32 144 224 32 144 224 32 144 224 32 144 224 32 144 224 32 144 224 32 144 224 32 144 224 32 144 224 32 144 224 32 144 224 32 144 224 32 144 224 32 144 224 32 144 224 32 144 224 32 144 224 32 144 224 32 144 88 40 176 88 40 176 88 40 176 88 40 176 88 40 176 88 40 176 88 40 176 88 40 176 88 40 176 88 40 176 88 40 176 88 40 176 88 40 176 88 40 176 88 40 176 88 40 176 88 40 176 88 40 176 88 40 176 88 40 176 88 40 176 88 40 176 88 40 176 88 40 176 88 40 176 88 40 176 88 40 176 88 40 176 88 40 176 88 40 176 88 40 176 88 40 176
80 16 144 80 16 144 80 16 144 80 16 144 80 16 144 80 16 144 80 16 144 80 16 144 80 16 144 80 16 144 80 16 144 80 16 144 80 16 144 80 16 144 80 16 144 80 16 144 80 16 144 80 16 144 80 16 144 80 16 144 80 16 144 80 16 144 80 16 144 80 16 144 80 16 144 80 16 144 80 16 144 80 16 144 80 16 144 80 16 144 80 16 144 80 16 144 88 16 144 88 16 144 88 16 144 88 16 144 88 16 144 88 16 144 88 16 144 88 16 144 88 16 144 88 16 144 88 16 144 88 16 144 88 16 144 88 16 144 88 16 144 88 16 144 88 16 144 88 16 144 88 16 144 88 16 144 88 16 144 88 16 144 88 16 144 88 16 144 88 16 144 88 16 144 88 16 144 88 16 144 88 16 144 88 16 144 88 16 144 88 16 144 224 32 144 224 32 144 224 32 144 224 32 144 224 32 144 224 32 144 224 32 144 224 32 144 224 32 144 224 32 144 224 32 144 224 32 144 224 32 144 224 32 144 224 32 144 224 32 144 224 32 144 224 32 144 224 32 144 224 32 144 224 32 144 224 32 144 224 32 144 224 32 144 224 32 144 224 32 144 224 32 144 224 32 144 224 32 144 224 32 144 224 32 144 224 32 144 88 40 176 88 40 176 88 40 176 88 40 176 88 40 176 88 40 176 88 40 176 88 40 176 88 40 176 88 40 176 88 40 176 88 40 176 88 40 176 88 40 176 88 40 176 88 40 176 88 40 176 88 40 176 88 40 176 88 40 176 88 40 176 88 40 176 88 40 176 88 40 176 88 40 176 88 40 176 88 40 176 88 40 176 88 40 176 88 40 176 88 40 176 88 40 176
80 16 144 80 16 144 80 16 144 80 16 144 80 16 144 80 16 144 80 16 144 80 16 144 80 16 144 80 16 144 80 16 144 80 16 144 80 16 144 80 16 144 80 16 144 80 16 144 80 16 144 80 16 144 80 16 144 80 16 144 80 16 144 80 16 144 80 16 144 80 16 144 80 16 144 80 16 144 80 16 144 80 16 144 80 16 144 80 16 144 80 16 144 80 16 144 88 16 144 88 16 144 88 16 144 88 16 144 88 16 144 88 16 144 88 16 144 88 16 144 88 16 144 88 16 144 88 16 144 88 16 144 88 16 144 88 16 144 88 16 144 88 16 144 88 16 144 88 16 144 88 16 144 88 16 144 88 16 144 88 16 144 88 16 144 88 16 144 88 16 144 88 16 144 88 16 144 88 16 144 88 16 144 88 16 144 88 16 144 88 16 144 224 32 144 224 32 144 224 32 144 224 32 144 224 32 144 224 32 144 224 32 144 224 32 144 224 32 144 224 32 144 224 32 144 224 32 144 224 32 144 224 32 144 224 32 144 224 32 144 224 32 144 224 32 144 224 32 144 224 32 144 224 32 144 224 32 144 224 32 144 224 32 144 224 32 144 224 32 144 224 32 144 224 32 144 224 32 144 224 32 144 224 32 144 224 32 144 88 40 176 88 40 176 88 40 176 88 40 176 88 40 176 88 40 176 88 40 176 88 40 176 88 40 176 88 40 176 88 40 176 88 40 176 88 40 176 88 40 176 88 40 176 88 40 176 88 40 176 88 40 176 88 40 176 88 40 176 88 40 176 88 40 176 88 40 176 88 40 176 88 40 176 88 40 176 88 40 176 88 40 176 88 40 176 88 40 176 88 40 176 88 40 176
80 16 144 80 16 144 80 16 144 80 16 144 80 16 144 80 16 144 80 16 144 80 16 144 80 16 144 80 16 144 80 16 144 80 16 144 80 16 144 80 16 144 80 16 144 80 16 144 80 16 144 80 16 144 80 16 144 80 16 144 80 16 144 80 16 144 80 16 144 80 16 144 80 16 144 80 16 144 80 16 144 80 16 144 80 16 144 80 16 144 80 16 144 80 16 144 88 16 144 88 16 144 88 16 144 88 16 144 88 16 144 88 16 144 88 16 144 88 16 144 88 16 144 88 16 144 88 16 144 88 16 144 88 16 144 88 16 144 88 16 144 88 16 144 88 16 144 88 16 144 88 16 144 88 16 144 88 16 144 88 16 144 88 16 144 88 16 144 88 16 144 88 16 144 88 16 144 88 16 144 88 16 144 88 16 144 88 16 144 88 16 144 224 32 144 224 32 144 224 32 144 224 32 144 224 32 144 224 32 144 224 32 144 224 32 144 224 32 144 224 32 144 224 32 144 224 32 144 224 32 144 224 32 144 224 32 144 224 32 144 224 32 144 224 32 144 224 32 144 224 32 144 224 32 144 224 32 144 224 32 144 224 32 144 224 32 144 224 32 144 224 32 144 224 32 144 224 32 144 224 32 144 224 32 144 224 32 144 88 40 176 88 40 176 88 40 176 88 40 176 88 40 176 88 40 176 88 40 176 88 40 176 88 40 176 88 40 176 88 40 176 88 40 176 88 40 176 88 40 176 88 40 176 88 40 176 88 40 176 88 40 176 88 40 176 88 40 176 88 40 176 88 40 176 88 40 176 88 40 176 88 40 176 88 40 176 88 40 176 88 40 176 88 40 176 88 40 176 88 40 176 88 40 176
80 16 144 80 16 144 80 16 144 80 16 144 80 16 144 80 16 144 80 16 144 80 16 144 80 16 144 80 16 144 80 16 144 80 16 144 80 16 144 80 16 144 80 16 144 80 16 144 80 16 144 80 16 144 80 16 144 80 16 144 80 16 144 80 16 144 80 16 144 80 16 144 80 16 144 80 16 144 80 16 144 80 16 144 80 16 144 80 16 144 80 16 144 80 16 144 88 16 144 88 16 144 88 16 144 88 16 144 88 16 144 88 16 144 88 16 144 88 16 144 88 16 144 88 16 144 88 16 144 88 16 144 88 16 144 88 16 144 88 16 144 88 16 144 88 16 144 88 16 144 88 16 144 88 16 144 88 16 144 88 16 144 88 16 144 88 16 144 88 16 144 88 16 144 88 16 144 88 16 144 88 16 144 88 16 144 88 16 144 88 16 144 224 32 144 224 32 144 224 32 144 224 32 144 224 32 144 224 32 144 224 32 144 224 32 144 224 32 144 224 32 144 224 32 144 224 32 144 224 32 144 224 32 144 224 32 144 224 32 144 224 32 144 224 32 144 224 32 144 224 32 144 224 32 144 224 32 144 224 32 144 224 32 144 224 32 144 224 32 144 224 32 144 224 32 144 224 32 144 224 32 144 224 32 144 224 32 144 88 40 176 88 40 176 88 40 176 88 40 176 88 40 176 88 40 176 88 40 176 88 40 176 88 40 176 88 40 176 88 40 176 88 40 176 88 40 176 88 40 176 88 40 176 88 40 176 88 40 176 88 40 176 88 40 176 88 40 176 88 40 176 88 40 176 88 40 176 88 40 176 88 40 176 88 40 176 88 40 176 88 40 176 88 40 176 88 40 176 88 40 176 88 40 176
80 16 144 80 16 144 80 16 144 80 16 144 80 16 144 80 16 144 80 16 144 80 16 144 80 16 144 80 16 144 80 16 144 80 16 144 80 16 144 80 16 144 80 16 144 80 16 144 80 16 144 80 16 144 80 16 144 80 16 144 80 16 144 80 16 144 80 16 144 80 16 144 80 16 144 80 16 144 80 16 144 80 16 144 80 16 144 80 16 144 80 16 144 80 16 144 88 16 144 88 16 144 88 16 144 88 16 144 88 16 144 88 16 144 88 16 144 88 16 144 88 16 144 88 16 144 88 16 144 88 16 144 88 16 144 88 16 144 88 16 144 88 16 144 88 16 144 88 16 144 88 16 144 88 16 144 88 16 144 88 16 144 88 16 144 88 16 144 88 16 144 88 16 144 88 16 144 88 16 144 88 16 144 88 16 144 88 16 144 88 16 144 224 32 144 224 32 144 224 32 144 224 32 144 224 32 144 224 32 144 224 32 144 224 32 144 224 32 144 224 32 144 224 32 144 224 32 144 224 32 144 224 32 144 224 32 144 224 32 144 224 32 144 224 32 144 224 32 144 224 32 144 224 32 144 224 32 144 224 32 144 224 32 144 224 32 144 224 32 144 224 32 144 224 32 144 224 32 144 224 32 144 224 32 144 224 32 144 88 40 176 88 40 176 88 40 176 88 40 176 88 40 176 88 40 176 88 40 176 88 40 176 88 40 176 88 40 176 88 40 176 88 40 176 88 40 176 88 40 176 88 40 176 88 40 176 88 40 176 88 40 176 88 40 176 88 40 176 88 40 176 88 40 176 88 40 176 88 40 176 88 40 176 88 40 176 88 40 176 88 40 176 88 40 176 88 40 176 88 40 176 88 40 176
80 16 144 80 16 144 80 16 144 80 16 144 80 16 144 80 16 144 80 16 144 80 16 144 80 16 144 80 16 144 80 16 144 80 16 144 80 16 144 80 16 144 80 16 144 80 16 144 80 16 144 80 16 144 80 16 144 80 16 144 80 16 144 80 16 144 80 16 144 80 16 144 80 16 144 80 16 144 80 16 144 80 16 144 80 16 144 80 16 144 80 16 144 80 16 144 88 16 144 88 16 144 88 16 144 88 16 144 88 16 144 88 16 144 88 16 144 88 16 144 88 16 144 88 16 144 88 16 144 88 16 144 88 16 144 88 16 144 88 16 144 88 16 144 88 16 144 88 16 144 88 16 144 88 16 144 88 16 144 88 16 144 88 16 144 88 16 144 88 16 144 88 16 144 88 16 144 88 16 144 88 16 144 88 16 144 88 16 144 88 16 144 224 32 144 224 32 144 224 32 144 224 32 144 224 32 144 224 32 144 224 32 144 224 32 144 224 32 144 224 32 144 224 32 144 224 32 144 224 32 144 224 32 144 224 32 144 224 32 144 224 32 144 224 32 144 224 32 144 224 32 144 224 32 144 224 32 144 224 32 144 224 32 144 224 32 144 224 32 144 224 32 144 224 32 144 224 32 144 224 32 144 224 32 144 224 32 144 88 40 176 88 40 176 88 40 176 88 40 176 88 40 176 88 40 176 88 40 176 88 40 176 88 40 176 88 40 176 88 40 176 88 40 176 88 40 176 88 40 176 88 40 176 88 40 176 88 40 176 88 40 176 88 40 176 88 40 176 88 40 176 88 40 176 88 40 176 88 40 176 88 40 176 88 40 176 88 40 176 88 40 176 88 40 176 88 40 176 88 40 176 88 40 176
80 16 144 80 16 144 80 16 144 80 16 144 80 16 144 80 16 144 80 16 144 80 16 144 80 16 144 80 16 144 80 16 144 80 16 144 80 16 144 80 16 144 80 16 144 80 16 144 80 16 144 80 16 144 80 16 144 80 16 144 80 16 144 80 16 144 80 16 144 80 16 144 80 16 144 80 16 144 80 16 144 80 16 144 80 16 144 80 16 144 80 16 144 80 16 144 88 16 144 88 16 144 88 16 144 88 16 144 88 16 144 88 16 144 88 16 144 88 16 144 88 16 144 88 16 144 88 16 144 88 16 144 88 16 144 88 16 144 88 16 144 88 16 144 88 16 144 88 16 144 88 16 144 88 16 144 88 16 144 88 16 144 88 16 144 88 16 144 88 16 144 88 16 144 88 16 144 88 16 144 88 16 144 88 16 144 88 16 144 88 16 144 224 32 144 224 32 144 224 32 144 224 32 144 224 32 144 224 32 144 224 32 144 224 32 144 224 32 144 224 32 144 224 32 144 224 32 144 224 32 144 224 32 144 224 32 144 224 32 144 224 32 144 224 32 144 224 32 144 224 32 144 224 32 144 224 32 144 224 32 144 224 32 144 224 32 144 224 32 144 224 32 144 224 32 144 224 32 144 224 32 144 224 32 144 224 32 144 88 40 176 88 40 176 88 40 176 88 40 176 88 40 176 88 40 176 88 40 176 88 40 176 88 40 176 88 40 176 88 40 176 88 40 176 88 40 176 88 40 176 88 40 176 88 40 176 88 40 176 88 40 176 88 40 176 88 40 176 88 40 176 88 40 176 88 40 176 88 40 176 88 40 176 88 40 176 88 40 176 88 40 176 88 40 176 88 40 176 88 40 176 88 40 176
80 16 144 80 16 144 80 16 144 80 16 144 80 16 144 80 16 144 80 16 144 80 16 144 80 16 144 80 16 144 80 16 144 80 16 144 80 16 144 80 16 144 80 16 144 80 16 144 80 16 144 80 16 144 80 16 144 80 16 144 80 16 144 80 16 144 80 16 144 80 16 144 80 16 144 80 16 144 80 16 144 80 16 144 80 16 144 80 16 144 80 16 144 80 16 144 88 16 144 88 16 144 88 16 144 88 16 144 88 16 144 88 16 144 88 16 144 88 16 144 88 16 144 88 16 144 88 16 144 88 16 144 88 16 144 88 16 144 88 16 144 88 16 144 88 16 144 88 16 144 88 16 144 88 16 144 88 16 144 88 16 144 88 16 144 88 16 144 88 16 144 88 16 144 88 16 144 88 16 144 88 16 144 88 16 144 88 16 144 88 16 144 224 32 144 224 32 144 224 32 144 224 32 144 224 32 144 224 32 144 224 32 144 224 32 144 224 32 144 224 32 144 224 32 144 224 32 144 224 32 144 224 32 144 224 32 144 224 32 144 224 32 144 224 32 144 224 32 144 224 32 144 224 32 144 224 32 144 224 32 144 224 32 144 224 32 144 224 32 144 224 32 144 224 32 144 224 32 144 224 32 144 224 32 144 224 32 144 88 40 176 88 40 176 88 40 176 88 40 176 88 40 176 88 40 176 88 40 176 88 40 176 88 40 176 88 40 176 88 40 176 88 40 176 88 40 176 88 40 176 88 40 176 88 40 176 88 40 176 88 40 176 88 40 176 88 40 176 88 40 176 88 40 176 88 40 176 88 40 176 88 40 176 88 40 176 88 40 176 88 40 176 88 40 176 88 40 176 88 40 176 88 40 176
80 16 144 80 16 144 80 16 144 80 16 144 80 16 144 80 16 144 80 16 144 80 16 144 80 16 144 80 16 144 80 16 144 80 16 144 80 16 144 80 16 144 80 16 144 80 16 144 80 16 144 80 16 144 80 16 144 80 16 144 80 16 144 80 16 144 80 16 144 80 16 144 80 16 144 80 16 144 80 16 144 80 16 144 80 16 144 80 16 144 80 16 144 80 16 144 88 16 144 88 16 144 88 16 144 88 16 144 88 16 144 88 16 144 88 16 144 88 16 144 88 16 144 88 16 144 88 16 144 88 16 144 88 16 144 88 16 144 88 16 144 88 16 144 88 16 144 88 16 144 88 16 144 88 16 144 88 16 144 88 16 144 88 16 144 88 16 144 88 16 144 88 16 144 88 16 144 88 16 144 88 16 144 88 16 144 88 16 144 88 16 144 224 32 144 224 32 144 224 32 144 224 32 144 224 32 144 224 32 144 224 32 144 224 32 144 224 32 144 224 32 144 224 32 144 224 32 144 224 32 144 224 32 144 224 32 144 224 32 144 224 32 144 224 32 144 224 32 144 224 32 144 224 32 144 224 32 144 224 32 144 224 32 144 224 32 144 224 32 144 224 32 144 224 32 144 224 32 144 224 32 144 224 32 144 224 32 144 88 40 176 88 40 176 88 40 176 88 40 176 88 40 176 88 40 176 88 40 176 88 40 176 88 40 176 88 40 176 88 40 176 88 40 176 88 40 176 88 40 176 88 40 176 88 40 176 88 40 176 88 40 176 88 40 176 88 40 176 88 40 176 88 40 176 88 40 176 88 40 176 88 40 176 88 40 176 88 40 176 88 40 176 88 40 176 88 40 176 88 40 176 88 40 176
80 16 144 80 16 144 80 16 144 80 16 144 80 16 144 80 16 144 80 16 144 80 16 144 80 16 144 80 16 144 80 16 144 80 16 144 80 16 144 80 16 144 80 16 144 80 16 144 80 16 144 80 16 144 80 16 144 80 16 144 80 16 144 80 16 144 80 16 144 80 16 144 80 16 144 80 16 144 80 16 144 80 16 144 80 16 144 80 16 144 80 16 144 80 16 144 88 16 144 88 16 144 88 16 144 88 16 144 88 16 144 88 16 144 88 16 144 88 16 144 88 16 144 88 16 144 88 16 144 88 16 144 88 16 144 88 16 144 88 16 144 88 16 144 88 16 144 88 16 144 88 16 144 88 16 144 88 16 144 88 16 144 88 16 144 88 16 144 88 16 144 88 16 144 88 16 144 88 16 144 88 16 144 88 16 144 88 16 144 88 16 144 224 32 144 224 32 144 224 32 144 224 32 144 224 32 144 224 32 144 224 32 144 224 32 144 224 32 144 224 32 144 224 32 144 224 32 144 224 32 144 224 32 144 224 32 144 224 32 144 224 32 144 224 32 144 224 32 144 224 32 144 224 32 144 224 32 144 224 32 144 224 32 144 224 32 144 224 32 144 224 32 144 224 32 144 224 32 144 224 32 144 224 32 144 224 32 144 88 40 176 88 40 176 88 40 176 88 40 176 88 40 176 88 40 176 88 40 176 88 40 176 88 40 176 88 40 176 88 40 176 88 40 176 88 40 176 88 40 176 88 40 176 88 40 176 88 40 176 88 40 176 88 40 176 88 40 176 88 40 176 88 40 176 88 40 176 88 40 176 88 40 176 88 40 176 88 40 176 88 40 176 88 40 176 88 40 176 88 40 176 88 40 176
80 16 144 80 16 144 80 16 144 80 16 144 80 16 144 80 16 144 80 16 144 80 16 144 80 16 144 80 16 144 80 16 144 80 16 144 80 16 144 80 16 144 80 16 144 80 16 144 80 16 144 80 16 144 80 16 144 80 16 144 80 16 144 80 16 144 80 16 144 80 16 144 80 16 144 80 16 144 80 16 144 80 16 144 80 16 144 80 16 144 80 16 144 80 16 144 88 16 144 88 16 144 88 16 144 88 16 144 88 16 144 88 16 144 88 16 144 88 16 144 88 16 144 88 16 144 88 16 144 88 16 144 88 16 144 88 16 144 88 16 144 88 16 144 88 16 144 88 16 144 88 16 144 88 16 144 88 16 144 88 16 144 88 16 144 88 16 144 88 16 144 88 16 144 88 16 144 88 16 144 88 16 144 88 16 144 88 16 144 88 16 144 224 32 144 224 32 144 224 32 144 224 32 144 224 32 144 224 32 144 224 32 144 224 32 144 224 32 144 224 32 144 224 32 144 224 32 144 224 32 144 224 32 144 224 32 144 224 32 144 224 32 144 224 32 144 224 32 144 224 32 144 224 32 144 224 32 144 224 32 144 224 32 144 224 32 144 224 32 144 224 32 144 224 32 144 224 32 144 224 32 144 224 32 144 224 32 144 88 40 176 88 40 176 88 40 176 88 40 176 88 40 176 88 40 176 88 40 176 88 40 176 88 40 176 88 40 176 88 40 176 88 40 176 88 40 176 88 40 176 88 40 176 88 40 176 88 40 176 88 40 176 88 40 176 88 40 176 88 40 176 88 40 176 88 40 176 88 40 176 88 40 176 88 40 176 88 40 176 88 40 176 88 40 176 88 40 176 88 40 176 88 40 176
80 16 144 80 16 144 80 16 144 80 16 144 80 16 144 80 16 144 80 16 144 80 16 144 80 16 144 80 16 144 80 16 144 80 16 144 80 16 144 80 16 144 80 16 144 80 16 144 80 16 144 80 16 144 80 16 144 80 16 144 80 16 144 80 16 144 80 16 144 80 16 144 80 16 144 80 16 144 80 16 144 80 16 144 80 16 144 80 16 144 80 16 144 80 16 144 88 16 144 88 16 144 88 16 144 88 16 144 88 16 144 88 16 144 88 16 144 88 16 144 88 16 144 88 16 144 88 16 144 88 16 144 88 16 144 88 16 144 88 16 144 88 16 144 88 16 144 88 16 144 88 16 144 88 16 144 88 16 144 88 16 144 88 16 144 88 16 144 88 16 144 88 16 144 88 16 144 88 16 144 88 16 144 88 16 144 88 16 144 88 16 144 224 32 144 224 32 144 224 32 144 224 32 144 224 32 144 224 32 144 224 32 144 224 32 144 224 32 144 224 32 144 224 32 144 224 32 144 224 32 144 224 32 144 224 32 144 224 32 144 224 32 144 224 32 144 224 32 144 224 32 144 224 32 144 224 32 144 224 32 144 224 32 144 224 32 144 224 32 144 224 32 144 224 32 144 224 32 144 224 32 144 224 32 144 224 32 144 88 40 176 88 40 176 88 40 176 88 40 176 88 40 176 88 40 176 88 40 176 88 40 176 88 40 176 88 40 176 88 40 176 88 40 176 88 40 176 88 40 176 88 40 176 88 40 176 88 40 176 88 40 176 88 40 176 88 40 176 88 40 176 88 40 176 88 40 176 88 40 176 88 40 176 88 40 176 88 40 176 88 40 176 88 40 176 88 40 176 88 40 176 88 40 176
88 40 176 88 40 176 88 40 176 88 40 176 88 40 176 88 40 176 88 40 176 88 40 176 88 40 176 88 40 176 88 40 176 88 40 176 88 40 176 88 40 176 88 40 176 88 40 176 88 40 176 88 40 176 88 40 176 88 40 176 88 40 176 88 40 176 88 40 176 88 40 176 88 40 176 88 40 176 88 40 176 88 40 176 88 40 176 88 40 176 88 40 176 88 40 176 224 32 144 224 32 144 224 32 144 224 32 144 224 32 144 224 32 144 224 32 144 224 32 144 224 32 144 224 32 144 224 32 144 224 32 144 224 32 144 224 32 144 224 32 144 224 32 144 224 32 144 224 32 144 224 32 144 224 32 144 224 32 144 224 32 144 224 32 144 224 32 144 224 32 144 224 32 144 224 32 144 224 32 144 224 32 144 224 32 144 224 32 144 224 32 144 88 16 144 88 16 144 88 16 144 88 16 144 88 16 144 88 16 144 88 16 144 88 16 144 88 16 144 88 16 144 88 16 144 88 16 144 88 16 144 88 16 144 88 16 144 88 16 144 88 16 144 88 16 144 88 16 144 88 16 144 88 16 144 88 16 144 88 16 144 88 16 144 88 16 144 88 16 144 88 16 144 88 16 144 88 16 144 88 16 144 88 16 144 88 16 144 80 16 144 80 16 144 80 16 144 80 16 144 80 16 144 80 16 144 80 16 144 80 16 144 80 16 144 80 16 144 80 16 144 80 16 144 80 16 144 80 16 144 80 16 144 80 16 144 80 16 144 80 16 144 80 16 144 80 16 144 80 16 144 80 16 144 80 16 144 80 16 144 80 16 144 80 16 144 80 16 144 80 16 144 80 16 144 80 16 144 80 16 144 80 16 144
88 40 176 88 40 176 88 40 176 88 40 176 88 40 176 88 40 176 88 40 176 88 40 176 88 40 176 88 40 176 88 40 176 88 40 176 88 40 176 88 40 176 88 40 176 88 40 176 88 40 176 88 40 176 88 40 176 88 40 176 88 40 176 88 40 176 88 40 176 88 40 176 88 40 176 88 40 176 88 40 176 88 40 176 88 40 176 88 40 176 88 40 176 88 40 176 224 32 144 224 32 144 224 32 144 224 32 144 224 32 144 224 32 144 224 32 144 224 32 144 224 32 144 224 32 144 224 32 144 224 32 144 224 32 144 224 32 144 224 32 144 224 32 144 224 32 144 224 32 144 224 32 144 224 32 144 224 32 144 224 32 144 224 32 144 224 32 144 224 32 144 224 32 144 224 32 144 224 32 144 224 32 144 224 32 144 224 32 144 224 32 144 88 16 144 88 16 144 88 16 144 88 16 144 88 16 144 88 16 144 88 16 144 88 16 144 88 16 144 88 16 144 88 16 144 88 16 144 88 16 144 88 16 144 88 16 144 88 16 144 88 16 144 88 16 144 88 16 144 88 16 144 88 16 144 88 16 144 88 16 144 88 16 144 88 16 144 88 16 144 88 16 144 88 16 144 88 16 144 88 16 144 88 16 144 88 16 144 80 16 144 80 16 144 80 16 144 80 16 144 80 16 144 80 16 144 80 16 144 80 16 144 80 16 144 80 16 144 80 16 144 80 16 144 80 16 144 80 16 144 80 16 144 80 16 144 80 16 144 80 16 144 80 16 144 80 16 144 80 16 144 80 16 144 80 16 144 80 16 144 80 16 144 80 16 144 80 16 144 80 16 144 80 16 144 80 16 144 80 16 144 80 16 144
88 40 176 88 40 176 88 40 176 88 40 176 88 40 176 88 40 176 88 40 176 88 40 176 88 40 176 88 40 176 88 40 176 88 40 176 88 40 176 88 40 176 88 40 176 88 40 176 88 40 176 88 40 176 88 40 176 88 40 176 88 40 176 88 40 176 88 40 176 88 40 176 88 40 176 88 40 176 88 40 176 88 40 176 88 40 176 88 40 176 88 40 176 88 40 176 224 32 144 224 32 144 224 32 144 224 32 144 224 32 144 224 32 144 224 32 144 224 32 144 224 32 144 224 32 144 224 32 144 224 32 144 224 32 144 224 32 144 224 32 144 224 32 144 224 32 144 224 32 144 224 32 144 224 32 144 224 32 144 224 32 144 224 32 144 224 32 144 224 32 144 224 32 144 224 32 144 224 32 144 224 32 144 224 32 144 224 32 144 224 32 144 88 16 144 88 16 144 88 16 144 88 16 144 88 16 144 88 16 144 88 16 144 88 16 144 88 16 144 88 16 144 88 16 144 88 16 144 88 16 144 88 16 144 88 16 144 88 16 144 88 16 144 88 16 144 88 16 144 88 16 144 88 16 144 88 16 144 88 16 144 88 16 144 88 16 144 88 16 144 88 16 144 88 16 144 88 16 144 88 16 144 88 16 144 88 16 144 80 16 144 80 16 144 80 16 144 80 16 144 80 16 144 80 16 144 80 16 144 80 16 144 80 16 144 80 16 144 80 16 144 80 16 144 80 16 144 80 16 144 80 16 144 80 16 144 80 16 144 80 16 144 80 16 144 80 16 144 80 16 144 80 16 144 80 16 144 80 16 144 80 16 144 80 16 144 80 16 144 80 16 144 80 16 144 80 16 144 80 16 144 80 16 144
88 40 176 88 40 176 88 40 176 88 40 176 88 40 176 88 40 176 88 40 176 88 40 176 88 40 176 88 40 176 88 40 176 88 40 176 88 40 176 88 40 176 88 40 176 88 40 176 88 40 176 88 40 176 88 40 176 88 40 176 88 40 176 88 40 176 88 40 176 88 40 176 88 40 176 88 40 176 88 40 176 88 40 176 88 40 176 88 40 176 88 40 176 88 40 176 224 32 144 224 32 144 224 32 144 224 32 144 224 32 144 224 32 144 224 32 144 224 32 144 224 32 144 224 32 144 224 32 144 224 32 144 224 32 144 224 32 144 224 32 144 224 32 144 224 32 144 224 32 144 224 32 144 224 32 144 224 32 144 224 32 144 224 32 144 224 32 144 224 32 144 224 32 144 224 32 144 224 32 144 224 32 144 224 32 144 224 32 144 224 32 144 88 16 144 88 16 144 88 16 144 88 16 144 88 16 144 88 16 144 88 16 144 88 16 144 88 16 144 88 16 144 88 16 144 88 16 144 88 16 144 88 16 144 88 16 144 88 16 144 88 16 144 88 16 144 88 16 144 88 16 144 88 16 144 88 16 144 88 16 144 88 16 144 88 16 144 88 16 144 88 16 144 88 16 144 88 16 144 88 16 144 88 16 144 88 16 144 80 16 144 80 16 144 80 16 144 80 16 144 80 16 144 80 16 144 80 16 144 80 16 144 80 16 144 80 16 144 80 16 144 80 16 144 80 16 144 80 16 144 80 16 144 80 16 144 80 16 144 80 16 144 80 16 144 80 16 144 80 16 144 80 16 144 80 16 144 80 16 144 80 16 144 80 16 144 80 16 144 80 16 144 80 16 144 80 16 144 80 16 144 80 16 144
88 40 176 88 40 176 88 40 176 88 40 176 88 40 176 88 40 176 88 40 176 88 40 176 88 40 176 88 40 176 88 40 176 88 40 176 88 40 176 88 40 176 88 40 176 88 40 176 88 40 176 88 40 176 88 40 176 88 40 176 88 40 176 88 40 176 88 40 176 88 40 176 88 40 176 88 40 176 88 40 176 88 40 176 88 40 176 88 40 176 88 40 176 88 40 176 224 32 144 224 32 144 224 32 144 224 32 144 224 32 144 224 32 144 224 32 144 224 32 144 224 32 144 224 32 144 224 32 144 224 32 144 224 32 144 224 32 144 224 32 144 224 32 144 224 32 144 224 32 144 224 32 144 224 32 144 224 32 144 224 32 144 224 32 144 224 32 144 224 32 144 224 32 144 224 32 144 224 32 144 224 32 144 224 32 144 224 32 144 224 32 144 88 16 144 88 16 144 88 16 144 88 16 144 88 16 144 88 16 144 88 16 144 88 16 144 88 16 144 88 16 144 88 16 144 88 16 144 88 16 144 88 16 144 88 16 144 88 16 144 88 16 144 88 16 144 88 16 144 88 16 144 88 16 144 88 16 144 88 16 144 88 16 144 88 16 144 88 16 144 88 16 144 88 16 144 88 16 144 88 16 144 88 16 144 88 16 144 80 16 144 80 16 144 80 16 144 80 16 144 80 16 144 80 16 144 80 16 144 80 16 144 80 16 144 80 16 144 80 16 144 80 16 144 80 16 144 80 16 144 80 16 144 80 16 144 80 16 144 80 16 144 80 16 144 80 16 144 80 16 144 80 16 144 80 16 144 80 16 144 80 16 144 80 16 144 80 16 144 80 16 144 80 16 144 80 16 144 80 16 144 80 16 144
88 40 176 88 40 176 88 40 176 88 40 176 88 40 176 88 40 176 88 40 176 88 40 176 88 40 176 88 40 176 88 40 176 88 40 176 88 40 176 88 40 176 88 40 176 88 40 176 88 40 176 88 40 176 88 40 176 88 40 176 88 40 176 88 40 176 88 40 176 88 40 176 88 40 176 88 40 176 88 40 176 88 40 176 88 40 176 88 40 176 88 40 176 88 40 176 224 32 144 224 32 144 224 32 144 224 32 144 224 32 144 224 32 144 224 32 144 224 32 144 224 32 144 224 32 144 224 32 144 224 32 144 224 32 144 224 32 144 224 32 144 224 32 144 224 32 144 224 32 144 224 32 144 224 32 144 224 32 144 224 32 144 224 32 144 224 32 144 224 32 144 224 32 144 224 32 144 224 32 144 224 32 144 224 32 144 224 32 144 224 32 144 88 16 144 88 16 144 88 16 144 88 16 144 88 16 144 88 16 144 88 16 144 88 16 144 88 16 144 88 16 144 88 16 144 88 16 144 88 16 144 88 16 144 88 16 144 88 16 144 88 16 144 88 16 144 88 16 144 88 16 144 88 16 144 88 16 144 88 16 144 88 16 144 88 16 144 88 16 144 88 16 144 88 16 144 88 16 144 88 16 144 88 16 144 88 16 144 80 16 144 80 16 144 80 16 144 80 16 144 80 16 144 80 16 144 80 16 144 80 16 144 80 16 144 80 16 144 80 16 144 80 16 144 80 16 144 80 16 144 80 16 144 80 16 144 80 16 144 80 16 144 80 16 144 80 16 144 80 16 144 80 16 144 80 16 144 80 16 144 80 16 144 80 16 144 80 16 144 80 16 144 80 16 144 80 16 144 80 16 144 80 16 144
88 40 176 88 40 176 88 40 176 88 40 176 88 40 176 88 40 176 88 40 176 88 40 176 88 40 176 88 40 176 88 40 176 88 40 176 88 40 176 88 40 176 88 40 176 88 40 176 88 40 176 88 40 176 88 40 176 88 40 176 88 40 176 88 40 176 88 40 176 88 40 176 88 40 176 88 40 176 88 40 176 88 40 176 88 40 176 88 40 176 88 40 176 88 40 176 224 32 144 224 32 144 224 32 144 224 32 144 224 32 144 224 32 144 224 32 144 224 32 144 224 32 144 224 32 144 224 32 144 224 32 144 224 32 144 224 32 144 224 32 144 224 32 144 224 32 144 224 32 144 224 32 144 224 32 144 224 32 144 224 32 144 224 32 144 224 32 144 224 32 144 224 32 144 224 32 144 224 32 144 224 32 144 224 32 144 224 32 144 224 32 144 88 16 144 88 16 144 88 16 144 88 16 144 88 16 144 88 16 144 88 16 144 88 16 144 88 16 144 88 16 144 88 16 144 88 16 144 88 16 144 88 16 144 88 16 144 88 16 144 88 16 144 88 16 144 88 16 144 88 16 144 88 16 144 88 16 144 88 16 144 88 16 144 88 16 144 88 16 144 88 16 144 88 16 144 88 16 144 88 16 144 88 16 144 88 16 144 80 16 144 80 16 144 80 16 144 80 16 144 80 16 144 80 16 144 80 16 144 80 16 144 80 16 144 80 16 144 80 16 144 80 16 144 80 16 144 80 16 144 80 16 144 80 16 144 80 16 144 80 16 144 80 16 144 80 16 144 80 16 144 80 16 144 80 16 144 80 16 144 80 16 144 80 16 144 80 16 144 80 16 144 80 16 144 80 16 144 80 16 144 80 16 144
88 40 176 88 40 176 88 40 176 88 40 176 88 40 176 88 40 176 88 40 176 88 40 176 88 40 176 88 40 176 88 40 176 88 40 176 88 40 176 88 40 176 88 40 176 88 40 176 88 40 176 88 40 176 88 40 176 88 40 176 88 40 176 88 40 176 88 40 176 88 40 176 88 40 176 88 40 176 88 40 176 88 40 176 88 40 176 88 40 176 88 40 176 88 40 176 224 32 144 224 32 144 224 32 144 224 32 144 224 32 144 224 32 144 224 32 144 224 32 144 224 32 144 224 32 144 224 32 144 224 32 144 224 32 144 224 32 144 224 32 144 224 32 144 224 32 144 224 32 144 224 32 144 224 32 144 224 32 144 224 32 144 224 32 144 224 32 144 224 32 144 224 32 144 224 32 144 224 32 144 224 32 144 224 32 144 224 32 144 224 32 144 88 16 144 88 16 144 88 16 144 88 16 144 88 16 144 88 16 144 88 16 144 88 16 144 88 16 144 88 16 144 88 16 144 88 16 144 88 16 144 88 16 144 88 16 144 88 16 144 88 16 144 88 16 144 88 16 144 88 16 144 88 16 144 88 16 144 88 16 144 88 16 144 88 16 144 88 16 144 88 16 144 88 16 144 88 16 144 88 16 144 88 16 144 88 16 144 80 16 144 80 16 144 80 16 144 80 16 144 80 16 144 80 16 144 80 16 144 80 16 144 80 16 144 80 16 144 80 16 144 80 16 144 80 16 144 80 16 144 80 16 144 80 16 144 80 16 144 80 16 144 80 16 144 80 16 144 80 16 144 80 16 144 80 16 144 80 16 144 80 16 144 80 16 144 80 16 144 80 16 144 80 16 144 80 16 144 80 16 144 80 16 144
88 40 176 88 40 176 88 40 176 88 40 176 88 40 176 88 40 176 88 40 176 88 40 176 88 40 176 88 40 176 88 40 176 88 40 176 88 40 176 88 40 176 88 40 176 88 40 176 88 40 176 88 40 176 88 40 176 88 40 176 88 40 176 88 40 176 88 40 176 88 40 176 88 40 176 88 40 176 88 40 176 88 40 176 88 40 176 88 40 176 88 40 176 88 40 176 224 32 144 224 32 144 224 32 144 224 32 144 224 32 144 224 32 144 224 32 144 224 32 144 224 32 144 224 32 144 224 32 144 224 32 144 224 32 144 224 32 144 224 32 144 224 32 144 224 32 144 224 32 144 224 32 144 224 32 144 224 32 144 224 32 144 224 32 144 224 32 144 224 32 144 224 32 144 224 32 144 224 32 144 224 32 144 224 32 144 224 32 144 224 32 144 88 16 144 88 16 144 88 16 144 88 16 144 88 16 144 88 16 144 88 16 144 88 16 144 88 16 144 88 16 144 88 16 144 88 16 144 88 16 144 88 16 144 88 16 144 88 16 144 88 16 144 88 16 144 88 16 144 88 16 144 88 16 144 88 16 144 88 16 144 88 16 144 88 16 144 88 16 144 88 16 144 88 16 144 88 16 144 88 16 144 88 16 144 88 16 144 80 16 144 80 16 144 80 16 144 80 16 144 80 16 144 80 16 144 80 16 144 80 16 144 80 16 144 80 16 144 80 16 144 80 16 144 80 16 144 80 16 144 80 16 144 80 16 144 80 16 144 80 16 144 80 16 144 80 16 144 80 16 144 80 16 144 80 16 144 80 16 144 80 16 144 80 16 144 80 16 144 80 16 144 80 16 144 80 16 144 80 16 144 80 16 144
88 40 176 88 40 176 88 40 176 88 40 176 88 40 176 88 40 176 88 40 176 88 40 176 88 40 176 88 40 176 88 40 176 88 40 176 88 40 176 88 40 176 88 40 176 88 40 176 88 40 176 88 40 176 88 40 176 88 40 176 88 40 176 88 40 176 88 40 176 88 40 176 88 40 176 88 40 176 88 40 176 88 40 176 88 40 176 88 40 176 88 40 176 88 40 176 224 32 144 224 32 144 224 32 144 224 32 144 224 32 144 224 32 144 224 32 144 224 32 144 224 32 144 224 32 144 224 32 144 224 32 144 224 32 144 224 32 144 224 32 144 224 32 144 224 32 144 224 32 144 224 32 144 224 32 144 224 32 144 224 32 144 224 32 144 224 32 144 224 32 144 224 32 144 224 32 144 224 32 144 224 32 144 224 32 144 224 32 144 224 32 144 88 16 144 88 16 144 88 16 144 88 16 144 88 16 144 88 16 144 88 16 144 88 16 144 88 16 144 88 16 144 88 16 144 88 16 144 88 16 144 88 16 144 88 16 144 88 16 144 88 16 144 88 16 144 88 16 144 88 16 144 88 16 144 88 16 144 88 16 144 88 16 144 88 16 144 88 16 144 88 16 144 88 16 144 88 16 144 88 16 144 88 16 144 88 16 144 80 16 144 80 16 144 80 16 144 80 16 144 80 16 144 80 16 144 80 16 144 80 16 144 80 16 144 80 16 144 80 16 144 80 16 144 80 16 144 80 16 144 80 16 144 80 16 144 80 16 144 80 16 144 80 16 144 80 16 144 80 16 144 80 16 144 80 16 144 80 16 144 80 16 144 80 16 144 80 16 144 80 16 144 80 16 144 80 16 144 80 16 144 80 16 144
88 40 176 88 40 176 88 40 176 88 40 176 88 40 176 88 40 176 88 40 176 88 40 176 88 40 176 88 40 176 88 40 176 88 40 176 88 40 176 88 40 176 88 40 176 88 40 176 88 40 176 88 40 176 88 40 176 88 40 176 88 40 176 88 40 176 88 40 176 88 40 176 88 40 176 88 40 176 88 40 176 88 40 176 88 40 176 88 40 176 88 40 176 88 40 176 224 32 144 224 32 144 224 32 144 224 32 144 224 32 144 224 32 144 224 32 144 224 32 144 224 32 144 224 32 144 224 32 144 224 32 144 224 32 144 224 32 144 224 32 144 224 32 144 224 32 144 224 32 144 224 32 144 224 32 144 224 32 144 224 32 144 224 32 144 224 32 144 224 32 144 224 32 144 224 32 144 224 32 144 224 32 144 224 32 144 224 32 144 224 32 144 88 16 144 88 16 144 88 16 144 88 16 144 88 16 144 88 16 144 88 16 144 88 16 144 88 16 144 88 16 144 88 16 144 88 16 144 88 16 144 88 16 144 88 16 144 88 16 144 88 16 144 88 16 144 88 16 144 88 16 144 88 16 144 88 16 144 88 16 144 88 16 144 88 16 144 88 16 144 88 16 144 88 16 144 88 16 144 88 16 144 88 16 144 88 16 144 80 16 144 80 16 144 80 16 144 80 16 144 80 16 144 80 16 144 80 16 144 80 16 144 80 16 144 80 16 144 80 16 144 80 16 144 80 16 144 80 16 144 80 16 144 80 16 144 80 16 144 80 16 144 80 16 144 80 16 144 80 16 144 80 16 144 80 16 144 80 16 144 80 16 144 80 16 144 80 16 144 80 16 144 80 16 144 80 16 144 80 16 144 80 16 144
88 40 176 88 40 176 88 40 176 88 40 176 88 40 176 88 40 176 88 40 176 88 40 176 88 40 176 88 40 176 88 40 176 88 40 176 88 40 176 88 40 176 88 40 176 88 40 176 88 40 176 88 40 176 88 40 176 88 40 176 88 40 176 88 40 176 88 40 176 88 40 176 88 40 176 88 40 176 88 40 176 88 40 176 88 40 176 88 40 176 88 40 176 88 40 176 224 32 144 224 32 144 224 32 144 224 32 144 224 32 144 224 32 144 224 32 144 224 32 144 224 32 144 224 32 144 224 32 144 224 32 144 224 32 144 224 32 144 224 32 144 224 32 144 224 32 144 224 32 144 224 32 144 224 32 144 224 32 144 224 32 144 224 32 144 224 32 144 224 32 144 224 32 144 224 32 144 224 32 144 224 32 144 224 32 144 224 32 144 224 32 144 88 16 144 88 16 144 88 16 144 88 16 144 88 16 144 88 16 144 88 16 144 88 16 144 88 16 144 88 16 144 88 16 144 88 16 144 88 16 144 88 16 144 88 16 144 88 16 144 88 16 144 88 16 144 88 16 144 88 16 144 88 16 144 88 16 144 88 16 144 88 16 144 88 16 144 88 16 144 88 16 144 88 16 144 88 16 144 88 16 144 88 16 144 88 16 144 80 16 144 80 16 144 80 16 144 80 16 144 80 16 144 80 16 144 80 16 144 80 16 144 80 16 144 80 16 144 80 16 144 80 16 144 80 16 144 80 16 144 80 16 144 80 16 144 80 16 144 80 16 144 80 16 144 80 16 144 80 16 144 80 16 144 80 16 144 80 16 144 80 16 144 80 16 144 80 16 144 80 16 144 80 16 144 80 16 144 80 16 144 80 16 144
88 40 176 88 40 176 88 40 176 88 40 176 88 40 176 88 40 176 88 40 176 88 40 176 88 40 176 88 40 176 88 40 176 88 40 176 88 40 176 88 40 176 88 40 176 88 40 176 88 40 176 88 40 176 88 40 176 88 40 176 88 40 176 88 40 176 88 40 176 88 40 176 88 40 176 88 40 176 88 40 176 88 40 176 88 40 176 88 40 176 88 40 176 88 40 176 224 32 144 224 32 144 224 32 144 224 32 144 224 32 144 224 32 144 224 32 144 224 32 144 224 32 144 224 32 144 224 32 144 224 32 144 224 32 144 224 32 144 224 32 144 224 32 144 224 32 144 224 32 144 224 32 144 224 32 144 224 32 144 224 32 144 224 32 144 224 32 144 224 32 144 224 32 144 224 32 144 224 32 144 224 32 144 224 32 144 224 32 144 224 32 144 88 16 144 88 16 144 88 16 144 88 16 144 88 16 144 88 16 144 88 16 144 88 16 144 88 16 144 88 16 144 88 16 144 88 16 144 88 16 144 88 16 144 88 16 144 88 16 144 88 16 144 88 16 144 88 16 144 88 16 144 88 16 144 88 16 144 88 16 144 88 16 144 88 16 144 88 16 144 88 16 144 88 16 144 88 16 144 88 16 144 88 16 144 88 16 144 80 16 144 80 16 144 80 16 144 80 16 144 80 16 144 80 16 144 80 16 144 80 16 144 80 16 144 80 16 144 80 16 144 80 16 144 80 16 144 80 16 144 80 16 144 80 16 144 80 16 144 80 16 144 80 16 144 80 16 144 80 16 144 80 16 144 80 16 144 80 16 144 80 16 144 80 16 144 80 16 144 80 16 144 80 16 144 80 16 144 80 16 144 80 16 144
88 40 176 88 40 176 88 40 176 88 40 176 88 40 176 88 40 176 88 40 176 88 40 176 88 40 176 88 40 176 88 40 176 88 40 176 88 40 176 88 40 176 88 40 176 88 40 176 88 40 176 88 40 176 88 40 176 88 40 176 88 40 176 88 40 176 88 40 176 88 40 176 88 40 176 88 40 176 88 40 176 88 40 176 88 40 176 88 40 176 88 40 176 88 40 176 224 32 144 224 32 144 224 32 144 224 32 144 224 32 144 224 32 144 224 32 144 224 32 144 224 32 144 224 32 144 224 32 144 224 32 144 224 32 144 224 32 144 224 32 144 224 32 144 224 32 144 224 32 144 224 32 144 224 32 144 224 32 144 224 32 144 224 32 144 224 32 144 224 32 144 224 32 144 224 32 144 224 32 144 224 32 144 224 32 144 224 32 144 224 32 144 88 16 144 88 16 144 88 16 144 88 16 144 88 16 144 88 16 144 88 16 144 88 16 144 88 16 144 88 16 144 88 16 144 88 16 144 88 16 144 88 16 144 88 16 144 88 16 144 88 16 144 88 16 144 88 16 144 88 16 144 88 16 144 88 16 144 88 16 144 88 16 144 88 16 144 88 16 144 88 16 144 88 16 144 88 16 144 88 16 144 88 16 144 88 16 144 80 16 144 80 16 144 80 16 144 80 16 144 80 16 144 80 16 144 80 16 144 80 16 144 80 16 144 80 16 144 80 16 144 80 16 144 80 16 144 80 16 144 80 16 144 80 16 144 80 16 144 80 16 144 80 16 144 80 16 144 80 16 144 80 16 144 80 16 144 80 16 144 80 16 144 80 16 144 80 16 144 80 16 144 80 16 144 80 16 144 80 16 144 80 16 144
88 40 176 88 40 176 88 40 176 88 40 176 88 40 176 88 40 176 88 40 176 88 40 176 88 40 176 88 40 176 88 40 176 88 40 176 88 40 176 88 40 176 88 40 176 88 40 176 88 40 176 88 40 176 88 40 176 88 40 176 88 40 176 88 40 176 88 40 176 88 40 176 88 40 176 88 40 176 88 40 176 88 40 176 88 40 176 88 40 176 88 40 176 88 40 176 224 32 144 224 32 144 224 32 144 224 32 144 224 32 144 224 32 144 224 32 144 224 32 144 224 32 144 224 32 144 224 32 144 224 32 144 224 32 144 224 32 144 224 32 144 224 32 144 224 32 144 224 32 144 224 32 144 224 32 144 224 32 144 224 32 144 224 32 144 224 32 144 224 32 144 224 32 144 224 32 144 224 32 144 224 32 144 224 32 144 224 32 144 224 32 144 88 16 144 88 16 144 88 16 144 88 16 144 88 16 144 88 16 144 88 16 144 88 16 144 88 16 144 88 16 144 88 16 144 88 16 144 88 16 144 88 16 144 88 16 144 88 16 144 88 16 144 88 16 144 88 16 144 88 16 144 88 16 144 88 16 144 88 16 144 88 16 144 88 16 144 88 16 144 88 16 144 88 16 144 88 16 144 88 16 144 88 16 144 88 16 144 80 16 144 80 16 144 80 16 144 80 16 144 80 16 144 80 16 144 80 16 144 80 16 144 80 16 144 80 16 144 80 16 144 80 16 144 80 16 144 80 16 144 80 16 144 80 16 144 80 16 144 80 16 144 80 16 144 80 16 144 80 16 144 80 16 144 80 16 144 80 16 144 80 16 144 80 16 144 80 16 144 80 16 144 80 16 144 80 16 144 80 16 144 80 16 144
88 40 176 88 40 176 88 40 176 88 40 176 88 40 176 88 40 176 88 40 176 88 40 176 88 40 176 88 40 176 88 40 176 88 40 176 88 40 176 88 40 176 88 40 176 88 40 176 88 40 176 88 40 176 88 40 176 88 40 176 88 40 176 88 40 176 88 40 176 88 40 176 88 40 176 88 40 176 88 40 176 88 40 176 88 40 176 88 40 176 88 40 176 88 40 176 224 32 144 224 32 144 224 32 144 224 32 144 224 32 144 224 32 144 224 32 144 224 32 144 224 32 144 224 32 144 224 32 144 224 32 144 224 32 144 224 32 144 224 32 144 224 32 144 224 32 144 224 32 144 224 32 144 224 32 144 224 32 144 224 32 144 224 32 144 224 32 144 224 32 144 224 32 144 224 32 144 224 32 144 224 32 144 224 32 144 224 32 144 224 32 144 88 16 144 88 16 144 88 16 144 88 16 144 88 16 144 88 16 144 88 16 144 88 16 144 88 16 144 88 16 144 88 16 144 88 16 144 88 16 144 88 16 144 88 16 144 88 16 144 88 16 144 88 16 144 88 16 144 88 16 144 88 16 144 88 16 144 88 16 144 88 16 144 88 16 144 88 16 144 88 16 144 88 16 144 88 16 144 88 16 144 88 16 144 88 16 144 80 16 144 80 16 144 80 16 144 80 16 144 80 16 144 80 16 144 80 16 144 80 16 144 80 16 144 80 16 144 80 16 144 80 16 144 80 16 144 80 16 144 80 16 144 80 16 144 80 16 144 80 16 144 80 16 144 80 16 144 80 16 144 80 16 144 80 16 144 80 16 144 80 16 144 80 16 144 80 16 144 80 16 144 80 16 144 80 16 144 80 16 144 80 16 144
88 40 176 88 40 176 88 40 176 88 40 176 88 40 176 88 40 176 88 40 176 88 40 176 88 40 176 88 40 176 88 40 176 88 40 176 88 40 176 88 40 176 88 40 176 88 40 176 88 40 176 88 40 176 88 40 176 88 40 176 88 40 176 88 40 176 88 40 176 88 40 176 88 40 176 88 40 176 88 40 176 88 40 176 88 40 176 88 40 176 88 40 176 88 40 176 224 32 144 224 32 144 224 32 144 224 32 144 224 32 144 224 32 144 224 32 144 224 32 144 224 32 144 224 32 144 224 32 144 224 32 144 224 32 144 224 32 144 224 32 144 224 32 144 224 32 144 224 32 144 224 32 144 224 32 144 224 32 144 224 32 144 224 32 144 224 32 144 224 32 144 224 32 144 224 32 144 224 32 144 224 32 144 224 32 144 224 32 144 224 32 144 88 16 144 88 16 144 88 16 144 88 16 144 88 16 144 88 16 144 88 16 144 88 16 144 88 16 144 88 16 144 88 16 144 88 16 144 88 16 144 88 16 144 88 16 144 88 16 144 88 16 144 88 16 144 88 16 144 88 16 144 88 16 144 88 16 144 88 16 144 88 16 144 88 16 144 88 16 144 88 16 144 88 16 144 88 16 144 88 16 144 88 16 144 88 16 144 80 16 144 80 16 144 80 16 144 80 16 144 80 16 144 80 16 144 80 16 144 80 16 144 80 16 144 80 16 144 80 16 144 80 16 144 80 16 144 80 16 144 80 16 144 80 16 144 80 16 144 80 16 144 80 16 144 80 16 144 80 16 144 80 16 144 80 16 144 80 16 144 80 16 144 80 16 144 80 16 144 80 16 144 80 16 144 80 16 144 80 16 144 80 16 144
88 40 176 88 40 176 88 40 176 88 40 176 88 40 176 88 40 176 88 40 176 88 40 176 88 40 176 88 40 176 88 40 176 88 40 176 88 40 176 88 40 176 88 40 176 88 40 176 88 40 176 88 40 176 88 40 176 88 40 176 88 40 176 88 40 176 88 40 176 88 40 176 88 40 176 88 40 176 88 40 176 88 40 176 88 40 176 88 40 176 88 40 176 88 40 176 224 32 144 224 32 144 224 32 144 224 32 144 224 32 144 224 32 144 224 32 144 224 32 144 224 32 144 224 32 144 224 32 144 224 32 144 224 32 144 224 32 144 224 32 144 224 32 144 224 32 144 224 32 144 224 32 144 224 32 144 224 32 144 224 32 144 224 32 144 224 32 144 224 32 144 224 32 144 224 32 144 224 32 144 224 32 144 224 32 144 224 32 144 224 32 144 88 16 144 88 16 144 88 16 144 88 16 144 88 16 144 88 16 144 88 16 144 88 16 144 88 16 144 88 16 144 88 16 144 88 16 144 88 16 144 88 16 144 88 16 144 88 16 144 88 16 144 88 16 144 88 16 144 88 16 144 88 16 144 88 16 144 88 16 144 88 16 144 88 16 144 88 16 144 88 16 144 88 16 144 88 16 144 88 16 144 88 16 144 88 16 144 80 16 144 80 16 144 80 16 144 80 16 144 80 16 144 80 16 144 80 16 144 80 16 144 80 16 144 80 16 144 80 16 144 80 16 144 80 16 144 80 16 144 80 16 144 80 16 144 80 16 144 80 16 144 80 16 144 80 16 144 80 16 144 80 16 144 80 16 144 80 16 144 80 16 144 80 16 144 80 16 144 80 16 144 80 16 144 80 16 144 80 16 144 80 16 144
88 40 176 88 40 176 88 40 176 88 40 176 88 40 176 88 40 176 88 40 176 88 40 176 88 40 176 88 40 176 88 40 176 88 40 176 88 40 176 88 40 176 88 40 176 88 40 176 88 40 176 88 40 176 88 40 176 88 40 176 88 40 176 88 40 176 88 40 176 88 40 176 88 40 176 88 40 176 88 40 176 88 40 176 88 40 176 88 40 176 88 40 176 88 40 176 224 32 144 224 32 144 224 32 144 224 32 144 224 32 144 224 32 144 224 32 144 224 32 144 224 32 144 224 32 144 224 32 144 224 32 144 224 32 144 224 32 144 224 32 144 224 32 144 224 32 144 224 32 144 224 32 144 224 32 144 224 32 144 224 32 144 224 32 144 224 32 144 224 32 144 224 32 144 224 32 144 224 32 144 224 32 144 224 32 144 224 32 144 224 32 144 88 16 144 88 16 144 88 16 144 88 16 144 88 16 144 88 16 144 88 16 144 88 16 144 88 16 144 88 16 144 88 16 144 88 16 144 88 16 144 88 16 144 88 16 144 88 16 144 88 16 144 88 16 144 88 16 144 88 16 144 88 16 144 88 16 144 88 16 144 88 16 144 88 16 144 88 16 144 88 16 144 88 16 144 88 16 144 88 16 144 88 16 144 88 16 144 80 16 144 80 16 144 80 16 144 80 16 144 80 16 144 80 16 144 80 16 144 80 16 144 80 16 144 80 16 144 80 16 144 80 16 144 80 16 144 80 16 144 80 16 144 80 16 144 80 16 144 80 16 144 80 16 144 80 16 144 80 16 144 80 16 144 80 16 144 80 16 144 80 16 144 80 16 144 80 16 144 80 16 144 80 16 144 80 16 144 80 16 144 80 16 144
88 40 176 88 40 176 88 40 176 88 40 176 88 40 176 88 40 176 88 40 176 88 40 176 88 40 176 88 40 176 88 40 176 88 40 176 88 40 176 88 40 176 88 40 176 88 40 176 88 40 176 88 40 176 88 40 176 88 40 176 88 40 176 88 40 176 88 40 176 88 40 176 88 40 176 88 40 176 88 40 176 88 40 176 88 40 176 88 40 176 88 40 176 88 40 176 224 32 144 224 32 144 224 32 144 224 32 144 224 32 144 224 32 144 224 32 144 224 32 144 224 32 144 224 32 144 224 32 144 224 32 144 224 32 144 224 32 144 224 32 144 224 32 144 224 32 144 224 32 144 224 32 144 224 32 144 224 32 144 224 32 144 224 32 144 224 32 144 224 32 144 224 32 144 224 32 144 224 32 144 224 32 144 224 32 144 224 32 144 224 32 144 88 16 144 88 16 144 88 16 144 88 16 144 88 16 144 88 16 144 88 16 144 88 16 144 88 16 144 88 16 144 88 16 144 88 16 144 88 16 144 88 16 144 88 16 144 88 16 144 88 16 144 88 16 144 88 16 144 88 16 144 88 16 144 88 16 144 88 16 144 88 16 144 88 16 144 88 16 144 88 16 144 88 16 144 88 16 144 88 16 144 88 16 144 88 16 144 80 16 144 80 16 144 80 16 144 80 16 144 80 16 144 80 16 144 80 16 144 80 16 144 80 16 144 80 16 144 80 16 144 80 16 144 80 16 144 80 16 144 80 16 144 80 16 144 80 16 144 80 16 144 80 16 144 80 16 144 80 16 144 80 16 144 80 16 144 80 16 144 80 16 144 80 16 144 80 16 144 80 16 144 80 16 144 80 16 144 80 16 144 80 16 144
88 40 176 88 40 176 88 40 176 88 40 176 88 40 176 88 40 176 88 40 176 88 40 176 88 40 176 88 40 176 88 40 176 88 40 176 88 40 176 88 40 176 88 40 176 88 40 176 88 40 176 88 40 176 88 40 176 88 40 176 88 40 176 88 40 176 88 40 176 88 40 176 88 40 176 88 40 176 88 40 176 88 40 176 88 40 176 88 40 176 88 40 176 88 40 176 224 32 144 224 32 144 224 32 144 224 32 144 224 32 144 224 32 144 224 32 144 224 32 144 224 32 144 224 32 144 224 32 144 224 32 144 224 32 144 224 32 144 224 32 144 224 32 144 224 32 144 224 32 144 224 32 144 224 32 144 224 32 144 224 32 144 224 32 144 224 32 144 224 32 144 224 32 144 224 32 144 224 32 144 224 32 144 224 32 144 224 32 144 224 32 144 88 16 144 88 16 144 88 16 144 88 16 144 88 16 144 88 16 144 88 16 144 88 16 144 88 16 144 88 16 144 88 16 144 88 16 144 88 16 144 88 16 144 88 16 144 88 16 144 88 16 144 88 16 144 88 16 144 88 16 144 88 16 144 88 16 144 88 16 144 88 16 144 88 16 144 88 16 144 88 16 144 88 16 144 88 16 144 88 16 144 88 16 144 88 16 144 80 16 144 80 16 144 80 16 144 80 16 144 80 16 144 80 16 144 80 16 144 80 16 144 80 16 144 80 16 144 80 16 144 80 16 144 80 16 144 80 16 144 80 16 144 80 16 144 80 16 144 80 16 144 80 16 144 80 16 144 80 16 144 80 16 144 80 16 144 80 16 144 80 16 144 80 16 144 80 16 144 80 16 144 80 16 144 80 16 144 80 16 144 80 16 144
88 40 176 88 40 176 88 40 176 88 40 176 88 40 176 88 40 176 88 40 176 88 40 176 88 40 176 88 40 176 88 40 176 88 40 176 88 40 176 88 40 176 88 40 176 88 40 176 88 40 176 88 40 176 88 40 176 88 40 176 88 40 176 88 40 176 88 40 176 88 40 176 88 40 176 88 40 176 88 40 176 88 40 176 88 40 176 88 40 176 88 40 176 88 40 176 224 32 144 224 32 144 224 32 144 224 32 144 224 32 144 224 32 144 224 32 144 224 32 144 224 32 144 224 32 144 224 32 144 224 32 144 224 32 144 224 32 144 224 32 144 224 32 144 224 32 144 224 32 144 224 32 144 224 32 144 224 32 144 224 32 144 224 32 144 224 32 144 224 32 144 224 32 144 224 32 144 224 32 144 224 32 144 224 32 144 224 32 144 224 32 144 88 16 144 88 16 144 88 16 144 88 16 144 88 16 144 88 16 144 88 16 144 88 16 144 88 16 144 88 16 144 88 16 144 88 16 144 88 16 144 88 16 144 88 16 144 88 16 144 88 16 144 88 16 144 88 16 144 88 16 144 88 16 144 88 16 144 88 16 144 88 16 144 88 16 144 88 16 144 88 16 144 88 16 144 88 16 144 88 16 144 88 16 144 88 16 144 80 16 144 80 16 144 80 16 144 80 16 144 80 16 144 80 16 144 80 16 144 80 16 144 80 16 144 80 16 144 80 16 144 80 16 144 80 16 144 80 16 144 80 16 144 80 16 144 80 16 144 80 16 144 80 16 144 80 16 144 80 16 144 80 16 144 80 16 144 80 16 144 80 16 144 80 16 144 80 16 144 80 16 144 80 16 144 80 16 144 80 16 144 80 16 144
88 40 176 88 40 176 88 40 176 88 40 176 88 40 176 88 40 176 88 40 176 88 40 176 88 40 176 88 40 176 88 40 176 88 40 176 88 40 176 88 40 176 88 40 176 88 40 176 88 40 176 88 40 176 88 40 176 88 40 176 88 40 176 88 40 176 88 40 176 88 40 176 88 40 176 88 40 176 88 40 176 88 40 176 88 40 176 88 40 176 88 40 176 88 40 176 224 32 144 224 32 144 224 32 144 224 32 144 224 32 144 224 32 144 224 32 144 224 32 144 224 32 144 224 32 144 224 32 144 224 32 144 224 32 144 224 32 144 224 32 144 224 32 144 224 32 144 224 32 144 224 32 144 224 32 144 224 32 144 224 32 144 224 32 144 224 32 144 224 32 144 224 32 144 224 32 144 224 32 144 224 32 144 224 32 144 224 32 144 224 32 144 88 16 144 88 16 144 88 16 144 88 16 144 88 16 144 88 16 144 88 16 144 88 16 144 88 16 144 88 16 144 88 16 144 88 16 144 88 16 144 88 16 144 88 16 144 88 16 144 88 16 144 88 16 144 88 16 144 88 16 144 88 16 144 88 16 144 88 16 144 88 16 144 88 16 144 88 16 144 88 16 144 88 16 144 88 16 144 88 16 144 88 16 144 88 16 144 80 16 144 80 16 144 80 16 144 80 16 144 80 16 144 80 16 144 80 16 144 80 16 144 80 16 144 80 16 144 80 16 144 80 16 144 80 16 144 80 16 144 80 16 144 80 16 144 80 16 144 80 16 144 80 16 144 80 16 144 80 16 144 80 16 144 80 16 144 80 16 144 80 16 144 80 16 144 80 16 144 80 16 144 80 16 144 80 16 144 80 16 144 80 16 144
88 40 176 88 40 176 88 40 176 88 40 176 88 40 176 88 40 176 88 40 176 88 40 176 88 40 176 88 40 176 88 40 176 88 40 176 88 40 176 88 40 176 88 40 176 88 40 176 88 40 176 88 40 176 88 40 176 88 40 176 88 40 176 88 40 176 88 40 176 88 40 176 88 40 176 88 40 176 88 40 176 88 40 176 88 40 176 88 40 176 88 40 176 88 40 176 224 32 144 224 32 144 224 32 144 224 32 144 224 32 144 224 32 144 224 32 144 224 32 144 224 32 144 224 32 144 224 32 144 224 32 144 224 32 144 224 32 144 224 32 144 224 32 144 224 32 144 224 32 144 224 32 144 224 32 144 224 32 144 224 32 144 224 32 144 224 32 144 224 32 144 224 32 144 224 32 144 224 32 144 224 32 144 224 32 144 224 32 144 224 32 144 88 16 144 88 16 144 88 16 144 88 16 144 88 16 144 88 16 144 88 16 144 88 16 144 88 16 144 88 16 144 88 16 144 88 16 144 88 16 144 88 16 144 88 16 144 88 16 144 88 16 144 88 16 144 88 16 144 88 16 144 88 16 144 88 16 144 88 16 144 88 16 144 88 16 144 88 16 144 88 16 144 88 16 144 88 16 144 88 16 144 88 16 144 88 16 144 80 16 144 80 16 144 80 16 144 80 16 144 80 16 144 80 16 144 80 16 144 80 16 144 80 16 144 80 16 144 80 16 144 80 16 144 80 16 144 80 16 144 80 16 144 80 16 144 80 16 144 80 16 144 80 16 144 80 16 144 80 16 144 80 16 144 80 16 144 80 16 144 80 16 144 80 16 144 80 16 144 80 16 144 80 16 144 80 16 144 80 16 144 80 16 144
88 40 176 88 40 176 88 40 176 88 40 176 88 40 176 88 40 176 88 40 176 88 40 176 88 40 176 88 40 176 88 40 176 88 40 176 88 40 176 88 40 176 88 40 176 88 40 176 88 40 176 88 40 176 88 40 176 88 40 176 88 40 176 88 40 176 88 40 176 88 40 176 88 40 176 88 40 176 88 40 176 88 40 176 88 40 176 88 40 176 88 40 176 88 40 176 224 32 144 224 32 144 224 32 144 224 32 144 224 32 144 224 32 144 224 32 144 224 32 144 224 32 144 224 32 144 224 32 144 224 32 144 224 32 144 224 32 144 224 32 144 224 32 144 224 32 144 224 32 144 224 32 144 224 32 144 224 32 144 224 32 144 224 32 144 224 32 144 224 32 144 224 32 144 224 32 144 224 32 144 224 32 144 224 32 144 224 32 144 224 32 144 88 16 144 88 16 144 88 16 144 88 16 144 88 16 144 88 16 144 88 16 144 88 16 144 88 16 144 88 16 144 88 16 144 88 16 144 88 16 144 88 16 144 88 16 144 88 16 144 88 16 144 88 16 144 88 16 144 88 16 144 88 16 144 88 16 144 88 16 144 88 16 144 88 16 144 88 16 144 88 16 144 88 16 144 88 16 144 88 16 144 88 16 144 88 16 144 80 16 144 80 16 144 80 16 144 80 16 144 80 16 144 80 16 144 80 16 144 80 16 144 80 16 144 80 16 144 80 16 144 80 16 144 80 16 144 80 16 144 80 16 144 80 16 144 80 16 144 80 16 144 80 16 144 80 16 144 80 16 144 80 16 144 80 16 144 80 16 144 80 16 144 80 16 144 80 16 144 80 16 144 80 16 144 80 16 144 80 16 144 80 16 144
88 40 176 88 40 176 88 40 176 88 40 176 88 40 176 88 40 176 88 40 176 88 40 176 88 40 176 88 40 176 88 40 176 88 40 176 88 40 176 88 40 176 88 40 176 88 40 176 88 40 176 88 40 176 88 40 176 88 40 176 88 40 176 88 40 176 88 40 176 88 40 176 88 40 176 88 40 176 88 40 176 88 40 176 88 40 176 88 40 176 88 40 176 88 40 176 224 32 144 224 32 144 224 32 144 224 32 144 224 32 144 224 32 144 224 32 144 224 32 144 224 32 144 224 32 144 224 32 144 224 32 144 224 32 144 224 32 144 224 32 144 224 32 144 224 32 144 224 32 144 224 32 144 224 32 144 224 32 144 224 32 144 224 32 144 224 32 144 224 32 144 224 32 144 224 32 144 224 32 144 224 32 144 224 32 144 224 32 144 224 32 144 88 16 144 88 16 144 88 16 144 88 16 144 88 16 144 88 16 144 88 16 144 88 16 144 88 16 144 88 16 144 88 16 144 88 16 144 88 16 144 88 16 144 88 16 144 88 16 144 88 16 144 88 16 144 88 16 144 88 16 144 88 16 144 88 16 144 88 16 144 88 16 144 88 16 144 88 16 144 88 16 144 88 16 144 88 16 144 88 16 144 88 16 144 88 16 144 80 16 144 80 16 144 80 16 144 80 16 144 80 16 144 80 16 144 80 16 144 80 16 144 80 16 144 80 16 144 80 16 144 80 16 144 80 16 144 80 16 144 80 16 144 80 16 144 80 16 144 80 16 144 80 16 144 80 16 144 80 16 144 80 16 144 80 16 144 80 16 144 80 16 144 80 16 144 80 16 144 80 16 144 80 16 144 80 16 144 80 16 144 80 16 144
88 40 176 88 40 176 88 40 176 88 40 176 88 40 176 88 40 176 88 40 176 88 40 176 88 40 176 88 40 176 88 40 176 88 40 176 88 40 176 88 40 176 88 40 176 88 40 176 88 40 176 88 40 176 88 40 176 88 40 176 88 40 176 88 40 176 88 40 176 88 40 176 88 40 176 88 40 176 88 40 176 88 40 176 88 40 176 88 40 176 88 40 176 88 40 176 224 32 144 224 32 144 224 32 144 224 32 144 224 32 144 224 32 144 224 32 144 224 32 144 224 32 144 224 32 144 224 32 144 224 32 144 224 32 144 224 32 144 224 32 144 224 32 144 224 32 144 224 32 144 224 32 144 224 32 144 224 32 144 224 32 144 224 32 144 224 32 144 224 32 144 224 32 144 224 32 144 224 32 144 224 32 144 224 32 144 224 32 144 224 32 144 88 16 144 88 16 144 88 16 144 88 16 144 88 16 144 88 16 144 88 16 144 88 16 144 88 16 144 88 16 144 88 16 144 88 16 144 88 16 144 88 16 144 88 16 144 88 16 144 88 16 144 88 16 144 88 16 144 88 16 144 88 16 144 88 16 144 88 16 144 88 16 144 88 16 144 88 16 144 88 16 144 88 16 144 88 16 144 88 16 144 88 16 144 88 16 144 80 16 144 80 16 144 80 16 144 80 16 144 80 16 144 80 16 144 80 16 144 80 16 144 80 16 144 80 16 144 80 16 144 80 16 144 80 16 144 80 16 144 80 16 144 80 16 144 80 16 144 80 16 144 80 16 144 80 16 144 80 16 144 80 16 144 80 16 144 80 16 144 80 16 144 80 16 144 80 16 144 80 16 144 80 16 144 80 16 144 80 16 144 80 16 144
88 40 176 88 40 176 88 40 176 88 40 176 88 40 176 88 40 176 88 40 176 88 40 176 88 40 176 88 40 176 88 40 176 88 40 176 88 40 176 88 40 176 88 40 176 88 40 176 88 40 176 88 40 176 88 40 176 88 40 176 88 40 176 88 40 176 88 40 176 88 40 176 88 40 176 88 40 176 88 40 176 88 40 176 88 40 176 88 40 176 88 40 176 88 40 176 224 32 144 224 32 144 224 32 144 224 32 144 224 32 144 224 32 144 224 32 144 224 32 144 224 32 144 224 32 144 224 32 144 224 32 144 224 32 144 224 32 144 224 32 144 224 32 144 224 32 144 224 32 144 224 32 144 224 32 144 224 32 144 224 32 144 224 32 144 224 32 144 224 32 144 224 32 144 224 32 144 224 32 144 224 32 144 224 32 144 224 32 144 224 32 144 88 16 144 88 16 144 88 16 144 88 16 144 88 16 144 88 16 144 88 16 144 88 16 144 88 16 144 88 16 144 88 16 144 88 16 144 88 16 144 88 16 144 88 16 144 88 16 144 88 16 144 88 16 144 88 16 144 88 16 144 88 16 144 88 16 144 88 16 144 88 16 144 88 16 144 88 16 144 88 16 144 88 16 144 88 16 144 88 16 144 88 16 144 88 16 144 80 16 144 80 16 144 80 16 144 80 16 144 80 16 144 80 16 144 80 16 144 80 16 144 80 16 144 80 16 144 80 16 144 80 16 144 80 16 144 80 16 144 80 16 144 80 16 144 80 16 144 80 16 144 80 16 144 80 16 144 80 16 144 80 16 144 80 16 144 80 16 144 80 16 144 80 16 144 80 16 144 80 16 144 80 16 144 80 16 144 80 16 144 80 16 144
88 40 176 88 40 176 88 40 176 88 40 176 88 40 176 88 40 176 88 40 176 88 40 176 88 40 176 88 40 176 88 40 176 88 40 176 88 40 176 88 40 176 88 40 176 88 40 176 88 40 176 88 40 176 88 40 176 88 40 176 88 40 176 88 40 176 88 40 176 88 40 176 88 40 176 88 40 176 88 40 176 88 40 176 88 40 176 88 40 176 88 40 176 88 40 176 224 32 144 224 32 144 224 32 144 224 32 144 224 32 144 224 32 144 224 32 144 224 32 144 224 32 144 224 32 144 224 32 144 224 32 144 224 32 144 224 32 144 224 32 144 224 32 144 224 32 144 224 32 144 224 32 144 224 32 144 224 32 144 224 32 144 224 32 144 224 32 144 224 32 144 224 32 144 224 32 144 224 32 144 224 32 144 224 32 144 224 32 144 224 32 144 88 16 144 88 16 144 88 16 144 88 16 144 88 16 144 88 16 144 88 16 144 88 16 144 88 16 144 88 16 144 88 16 144 88 16 144 88 16 144 88 16 144 88 16 144 88 16 144 88 16 144 88 16 144 88 16 144 88 16 144 88 16 144 88 16 144 88 16 144 88 16 144 88 16 144 88 16 144 88 16 144 88 16 144 88 16 144 88 16 144 88 16 144 88 16 144 80 16 144 80 16 144 80 16 144 80 16 144 80 16 144 80 16 144 80 16 144 80 16 144 80 16 144 80 16 144 80 16 144 80 16 144 80 16 144 80 16 144 80 16 144 80 16 144 80 16 144 80 16 144 80 16 144 80 16 144 80 16 144 80 16 144 80 16 144 80 16 144 80 16 144 80 16 144 80 16 144 80 16 144 80 16 144 80 16 144 80 16 144 80 16 144
88 40 176 88 40 176 88 40 176 88 40 176 88 40 176 88 40 176 88 40 176 88 40 176 88 40 176 88 40 176 88 40 176 88 40 176 88 40 176 88 40 176 88 40 176 88 40 176 88 40 176 88 40 176 88 40 176 88 40 176 88 40 176 88 40 176 88 40 176 88 40 176 88 40 176 88 40 176 88 40 176 88 40 176 88 40 176 88 40 176 88 40 176 88 40 176 224 32 144 224 32 144 224 32 144 224 32 144 224 32 144 224 32 144 224 32 144 224 32 144 224 32 144 224 32 144 224 32 144 224 32 144 224 32 144 224 32 144 224 32 144 224 32 144 224 32 144 224 32 144 224 32 144 224 32 144 224 32 144 224 32 144 224 32 144 224 32 144 224 32 144 224 32 144 224 32 144 224 32 144 224 32 144 224 32 144 224 32 144 224 32 144 88 16 144 88 16 144 88 16 144 88 16 144 88 16 144 88 16 144 88 16 144 88 16 144 88 16 144 88 16 144 88 16 144 88 16 144 88 16 144 88 16 144 88 16 144 88 16 144 88 16 144 88 16 144 88 16 144 88 16 144 88 16 144 88 16 144 88 16 144 88 16 144 88 16 144 88 16 144 88 16 144 88 16 144 88 16 144 88 16 144 88 16 144 88 16 144 80 16 144 80 16 144 80 16 144 80 16 144 80 16 144 80 16 144 80 16 144 80 16 144 80 16 144 80 16 144 80 16 144 80 16 144 80 16 144 80 16 144 80 16 144 80 16 144 80 16 144 80 16 144 80 16 144 80 16 144 80 16 144 80 16 144 80 16 144 80 16 144 80 16 144 80 16 144 80 16 144 80 16 144 80 16 144 80 16 144 80 16 144 80 16 144
88 40 176 88 40 176 88 40 176 88 40 176 88 40 176 88 40 176 88 40 176 88 40 176 88 40 176 88 40 176 88 40 176 88 40 176 88 40 176 88 40 176 88 40 176 88 40 176 88 40 176 88 40 176 88 40 176 88 40 176 88 40 176 88 40 176 88 40 176 88 40 176 88 40 176 88 40 176 88 40 176 88 40 176 88 40 176 88 40 176 88 40 176 88 40 176 224 32 144 224 32 144 224 32 144 224 32 144 224 32 144 224 32 144 224 32 144 224 32 144 224 32 144 224 32 144 224 32 144 224 32 144 224 32 144 224 32 144 224 32 144 224 32 144 224 32 144 224 32 144 224 32 144 224 32 144 224 32 144 224 32 144 224 32 144 224 32 144 224 32 144 224 32 144 224 32 144 224 32 144 224 32 144 224 32 144 224 32 144 224 32 144 88 16 144 88 16 144 88 16 144 88 16 144 88 16 144 88 16 144 88 16 144 88 16 144 88 16 144 88 16 144 88 16 144 88 16 144 88 16 144 88 16 144 88 16 144 88 16 144 88 16 144 88 16 144 88 16 144 88 16 144 88 16 144 88 16 144 88 16 144 88 16 144 88 16 144 88 16 144 88 16 144 88 16 144 88 16 144 88 16 144 88 16 144 88 16 144 80 16 144 80 16 144 80 16 144 80 16 144 80 16 144 80 16 144 80 16 144 80 16 144 80 16 144 80 16 144 80 16 144 80 16 144 80 16 144 80 16 144 80 16 144 80 16 144 80 16 144 80 16 144 80 16 144 80 16 144 80 16 144 80 16 144 80 16 144 80 16 144 80 16 144 80 16 144 80 16 144 80 16 144 80 16 144 80 16 144 80 16 144 80 16 144
88 40 176 88 40 176 88 40 176 88 40 176 88 40 176 88 40 176 88 40 176 88 40 176 88 40 176 88 40 176 88 40 176 88 40 176 88 40 176 88 40 176 88 40 176 88 40 176 88 40 176 88 40 176 88 40 176 88 40 176 88 40 176 88 40 176 88 40 176 88 40 176 88 40 176 88 40 176 88 40 176 88 40 176 88 40 176 88 40 176 88 40 176 88 40 176 224 32 144 224 32 144 224 32 144 224 32 144 224 32 144 224 32 144 224 32 144 224 32 144 224 32 144 224 32 144 224 32 144 224 32 144 224 32 144 224 32 144 224 32 144 224 32 144 224 32 144 224 32 144 224 32 144 224 32 144 224 32 144 224 32 144 224 32 144 224 32 144 224 32 144 224 32 144 224 32 144 224 32 144 224 32 144 224 32 144 224 32 144 224 32 144 88 16 144 88 16 144 88 16 144 88 16 144 88 16 144 88 16 144 88 16 144 88 16 144 88 16 144 88 16 144 88 16 144 88 16 144 88 16 144 88 16 144 88 16 144 88 16 144 88 16 144 88 16 144 88 16 144 88 16 144 88 16 144 88 16 144 88 16 144 88 16 144 88 16 144 88 16 144 88 16 144 88 16 144 88 16 144 88 16 144 88 16 144 88 16 144 80 16 144 80 16 144 80 16 144 80 16 144 80 16 144 80 16 144 80 16 144 80 16 144 80 16 144 80 16 144 80 16 144 80 16 144 80 16 144 80 16 144 80 16 144 80 16 144 80 16 144 80 16 144 80 16 144 80 16 144 80 16 144 80 16 144 80 16 144 80 16 144 80 16 144 80 16 144 80 16 144 80 16 144 80 16 144 80 16 144 80 16 144 80 16 144
72 16 144 72 16 144 72 16 144 72 16 144 72 16 144 72 16 144 72 16 144 72 16 144 72 16 144 72 16 144 72 16 144 72 16 144 72 16 144 72 16 144 72 16 144 72 16 144 72 16 144 72 16 144 72 16 144 72 16 144 72 16 144 72 16 144 72 16 144 72 16 144 72 16 144 72 16 144 72 16 144 72 16 144 72 16 144 72 16 144 72 16 144 72 16 144 72 16 16 72 16 16 72 16 16 72 16 16 72 16 16 72 16 16 72 16 16 72 16 16 72 16 16 72 16 16 72 16 16 72 16 16 72 16 16 72 16 16 72 16 16 72 16 16 72 16 16 72 16 16 72 16 16 72 16 16 72 16 16 72 16 16 72 16 16 72 16 16 72 16 16 72 16 16 72 16 16 72 16 16 72 16 16 72 16 16 72 16 16 72 16 16 80 16 16 80 16 16 80 16 16 80 16 16 80 16 16 80 16 16 80 16 16 80 16 16 80 16 16 80 16 16 80 16 16 80 16 16 80 16 16 80 16 16 80 16 16 80 16 16 80 16 16 80 16 16 80 16 16 80 16 16 80 16 16 80 16 16 80 16 16 80 16 16 80 16 16 80 16 16 80 16 16 80 16 16 80 16 16 80 16 16 80 16 16 80 16 16 88 16 16 88 16 16 88 16 16 88 16 16 88 16 16 88 16 16 88 16 16 88 16 16 88 16 16 88 16 16 88 16 16 88 16 16 88 16 16 88 16 16 88 16 16 88 16 16 88 16 16 88 16 16 88 16 16 88 16 16 88 16 16 88 16 16 88 16 16 88 16 16 88 16 16 88 16 16 88 16 16 88 16 16 88 16 16 88 16 16 88 16 16 88 16 16
72 16 144 72 16 144 72 16 144 72 16 144 72 16 144 72 16 144 72 16 144 72 16 144 72 16 144 72 16 144 72 16 144 72 16 144 72 16 144 72 16 144 72 16 144 72 16 144 72 16 144 72 16 144 72 16 144 72 16 144 72 16 144 72 16 144 72 16 144 72 16 144 72 16 144 72 16 144 72 16 144 72 16 144 72 16 144 72 16 144 72 16 144 72 16 144 72 16 16 72 16 16 72 16 16 72 16 16 72 16 16 72 16 16 72 16 16 72 16 16 72 16 16 72 16 16 72 16 16 72 16 16 72 16 16 72 16 16 72 16 16 72 16 16 72 16 16 72 16 16 72 16 16 72 16 16 72 16 16 72 16 16 72 16 16 72 16 16 72 16 16 72 16 16 72 16 16 72 16 16 72 16 16 72 16 16 72 16 16 72 16 16 80 16 16 80 16 16 80 16 16 80 16 16 80 16 16 80 16 16 80 16 16 80 16 16 80 16 16 80 16 16 80 16 16 80 16 16 80 16 16 80 16 16 80 16 16 80 16 16 80 16 16 80 16 16 80 16 16 80 16 16 80 16 16 80 16 16 80 16 16 80 16 16 80 16 16 80 16 16 80 16 16 80 16 16 80 16 16 80 16 16 80 16 16 80 16 16 88 16 16 88 16 16 88 16 16 88 16 16 88 16 16 88 16 16 88 16 16 88 16 16 88 16 16 88 16 16 88 16 16 88 16 16 88 16 16 88 16 16 88 16 16 88 16 16 88 16 16 88 16 16 88 16 16 88 16 16 88 16 16 88 16 16 88 16 16 88 16 16 88 16 16 88 16 16 88 16 16 88 16 16 88 16 16 88 16 16 88 16 16 88 16 16
72 16 144 72 16 144 72 16 144 72 16 144 72 16 144 72 16 144 72 16 144 72 16 144 72 16 144 72 16 144 72 16 144 72 16 144 72 16 144 72 16 144 72 16 144 72 16 144 72 16 144 72 16 144 72 16 144 72 16 144 72 16 144 72 16 144 72 16 144 72 16 144 72 16 144 72 16 144 72 16 144 72 16 144 72 16 144 72 16 144 72 16 144 72 16 144 72 16 16 72 16 16 72 16 16 72 16 16 72 16 16 72 16 16 72 16 16 72 16 16 72 16 16 72 16 16 72 16 16 72 16 16 72 16 16 72 16 16 72 16 16 72 16 16 72 16 16 72 16 16 72 16 16 72 16 16 72 16 16 72 16 16 72 16 16 72 16 16 72 16 16 72 16 16 72 16 16 72 16 16 72 16 16 72 16 16 72 16 16 72 16 16 80 16 16 80 16 16 80 16 16 80 16 16 80 16 16 80 16 16 80 16 16 80 16 16 80 16 16 80 16 16 80 16 16 80 16 16 80 16 16 80 16 16 80 16 16 80 16 16 80 16 16 80 16 16 80 16 16 80 16 16 80 16 16 80 16 16 80 16 16 80 16 16 80 16 16 80 16 16 80 16 16 80 16 16 80 16 16 80 16 16 80 16 16 80 16 16 88 16 16 88 16 16 88 16 16 88 16 16 88 16 16 88 16 16 88 16 16 88 16 16 88 16 16 88 16 16 88 16 16 88 16 16 88 16 16 88 16 16 88 16 16 88 16 16 88 16 16 88 16 16 88 16 16 88 16 16 88 16 16 88 16 16 88 16 16 88 16 16 88 16 16 88 16 16 88 16 16 88 16 16 88 16 16 88 16 16 88 16 16 88 16 16
72 16 144 72 16 144 72 16 144 72 16 144 72 16 144 72 16 144 72 16 144 72 16 144 72 16 144 72 16 144 72 16 144 72 16 144 72 16 144 72 16 144 72 16 144 72 16 144 72 16 144 72 16 144 72 16 144 72 16 144 72 16 144 72 16 144 72 16 144 72 16 144 72 16 144 72 16 144 72 16 144 72 16 144 72 16 144 72 16 144 72 16 144 72 16 144 72 16 16 72 16 16 72 16 16 72 16 16 72 16 16 72 16 16 72 16 16 72 16 16 72 16 16 72 16 16 72 16 16 72 16 16 72 16 16 72 16 16 72 16 16 72 16 16 72 16 16 72 16 16 72 16 16 72 16 16 72 16 16 72 16 16 72 16 16 72 16 16 72 16 16 72 16 16 72 16 16 72 16 16 72 16 16 72 16 16 72 16 16 72 16 16 80 16 16 80 16 16 80 16 16 80 16 16 80 16 16 80 16 16 80 16 16 80 16 16 80 16 16 80 16 16 80 16 16 80 16 16 80 16 16 80 16 16 80 16 16 80 16 16 80 16 16 80 16 16 80 16 16 80 16 16 80 16 16 80 16 16 80 16 16 80 16 16 80 16 16 80 16 16 80 16 16 80 16 16 80 16 16 80 16 16 80 16 16 80 16 16 88 16 16 88 16 16 88 16 16 88 16 16 88 16 16 88 16 16 88 16 16 88 16 16 88 16 16 88 16 16 88 16 16 88 16 16 88 16 16 88 16 16 88 16 16 88 16 16 88 16 16 88 16 16 88 16 16 88 16 16 88 16 16 88 16 16 88 16 16 88 16 16 88 16 16 88 16 16 88 16 16 88 16 16 88 16 16 88 16 16 88 16 16 88 16 16
72 16 144 72 16 144 72 16 144 72 16 144 72 16 144 72 16 144 72 16 144 72 16 144 72 16 144 72 16 144 72 16 144 72 16 144 72 16 144 72 16 144 72 16 144 72 16 144 72 16 144 72 16 144 72 16 144 72 16 144 72 16 144 72 16 144 72 16 144 72 16 144 72 16 144 72 16 144 72 16 144 72 16 144 72 16 144 72 16 144 72 16 144 72 16 144 72 16 16 72 16 16 72 16 16 72 16 16 72 16 16 72 16 16 72 16 16 72 16 16 72 16 16 72 16 16 72 16 16 72 16 16 72 16 16 72 16 16 72 16 16 72 16 16 72 16 16 72 16 16 72 16 16 72 16 16 72 16 16 72 16 16 72 16 16 72 16 16 72 16 16 72 16 16 72 16 16 72 16 16 72 16 16 72 16 16 72 16 16 72 16 16 80 16 16 80 16 16 80 16 16 80 16 16 80 16 16 80 16 16 80 16 16 80 16 16 80 16 16 80 16 16 80 16 16 80 16 16 80 16 16 80 16 16 80 16 16 80 16 16 80 16 16 80 16 16 80 16 16 80 16 16 80 16 16 80 16 16 80 16 16 80 16 16 80 16 16 80 16 16 80 16 16 80 16 16 80 16 16 80 16 16 80 16 16 80 16 16 88 16 16 88 16 16 88 16 16 88 16 16 88 16 16 88 16 16 88 16 16 88 16 16 88 16 16 88 16 16 88 16 16 88 16 16 88 16 16 88 16 16 88 16 16 88 16 16 88 16 16 88 16 16 88 16 16 88 16 16 88 16 16 88 16 16 88 16 16 88 16 16 88 16 16 88 16 16 88 16 16 88 16 16 88 16 16 88 16 16 88 16 16 88 16 16
72 16 144 72 16 144 72 16 144 72 16 144 72 16 144 72 16 144 72 16 144 72 16 144 72 16 144 72 16 144 72 16 144 72 16 144 72 16 144 72 16 144 72 16 144 72 16 144 72 16 144 72 16 144 72 16 144 72 16 144 72 16 144 72 16 144 72 16 144 72 16 144 72 16 144 72 16 144 72 16 144 72 16 144 72 16 144 72 16 144 72 16 144 72 16 144 72 16 16 72 16 16 72 16 16 72 16 16 72 16 16 72 16 16 72 16 16 72 16 16 72 16 16 72 16 16 72 16 16 72 16 16 72 16 16 72 16 16 72 16 16 72 16 16 72 16 16 72 16 16 72 16 16 72 16 16 72 16 16 72 16 16 72 16 16 72 16 16 72 16 16 72 16 16 72 16 16 72 16 16 72 16 16 72 16 16 72 16 16 72 16 16 80 16 16 80 16 16 80 16 16 80 16 16 80 16 16 80 16 16 80 16 16 80 16 16 80 16 16 80 16 16 80 16 16 80 16 16 80 16 16 80 16 16 80 16 16 80 16 16 80 16 16 80 16 16 80 16 16 80 16 16 80 16 16 80 16 16 80 16 16 80 16 16 80 16 16 80 16 16 80 16 16 80 16 16 80 16 16 80 16 16 80 16 16 80 16 16 88 16 16 88 16 16 88 16 16 88 16 16 88 16 16 88 16 16 88 16 16 88 16 16 88 16 16 88 16 16 88 16 16 88 16 16 88 16 16 88 16 16 88 16 16 88 16 16 88 16 16 88 16 16 88 16 16 88 16 16 88 16 16 88 16 16 88 16 16 88 16 16 88 16 16 88 16 16 88 16 16 88 16 16 88 16 16 88 16 16 88 16 16 88 16 16
72 16 144 72 16 144 72 16 144 72 16 144 72 16 144 72 16 144 72 16 144 72 16 144 72 16 144 72 16 144 72 16 144 72 16 144 72 16 144 72 16 144 72 16 144 72 16 144 72 16 144 72 16 144 72 16 144 72 16 144 72 16 144 72 16 144 72 16 144 72 16 144 72 16 144 72 16 144 72 16 144 72 16 144 72 16 144 72 16 144 72 16 144 72 16 144 72 16 16 72 16 16 72 16 16 72 16 16 72 16 16 72 16 16 72 16 16 72 16 16 72 16 16 72 16 16 72 16 16 72 16 16 72 16 16 72 16 16 72 16 16 72 16 16 72 16 16 72 16 16 72 16 16 72 16 16 72 16 16 72 16 16 72 16 16 72 16 16 72 16 16 72 16 16 72 16 16 72 16 16 72 16 16 72 16 16 72 16 16 72 16 16 80 16 16 80 16 16 80 16 16 80 16 16 80 16 16 80 16 16 80 16 16 80 16 16 80 16 16 80 16 16 80 16 16 80 16 16 80 16 16 80 16 16 80 16 16 80 16 16 80 16 16 80 16 16 80 16 16 80 16 16 80 16 16 80 16 16 80 16 16 80 16 16 80 16 16 80 16 16 80 16 16 80 16 16 80 16 16 80 16 16 80 16 16 80 16 16 88 16 16 88 16 16 88 16 16 88 16 16 88 16 16 88 16 16 88 16 16 88 16 16 88 16 16 88 16 16 88 16 16 88 16 16 88 16 16 88 16 16 88 16 16 88 16 16 88 16 16 88 16 16 88 16 16 88 16 16 88 16 16 88 16 16 88 16 16 88 16 16 88 16 16 88 16 16 88 16 16 88 16 16 88 16 16 88 16 16 88 16 16 88 16 16
72 16 144 72 16 144 72 16 144 72 16 144 72 16 144 72 16 144 72 16 144 72 16 144 72 16 144 72 16 144 72 16 144 72 16 144 72 16 144 72 16 144 72 16 144 72 16 144 72 16 144 72 16 144 72 16 144 72 16 144 72 16 144 72 16 144 72 16 144 72 16 144 72 16 144 72 16 144 72 16 144 72 16 144 72 16 144 72 16 144 72 16 144 72 16 144 72 16 16 72 16 16 72 16 16 72 16 16 72 16 16 72 16 16 72 16 16 72 16 16 72 16 16 72 16 16 72 16 16 72 16 16 72 16 16 72 16 16 72 16 16 72 16 16 72 16 16 72 16 16 72 16 16 72 16 16 72 16 16 72 16 16 72 16 16 72 16 16 72 16 16 72 16 16 72 16 16 72 16 16 72 16 16 72 16 16 72 16 16 72 16 16 80 16 16 80 16 16 80 16 16 80 16 16 80 16 16 80 16 16 80 16 16 80 16 16 80 16 16 80 16 16 80 16 16 80 16 16 80 16 16 80 16 16 80 16 16 80 16 16 80 16 16 80 16 16 80 16 16 80 16 16 80 16 16 80 16 16 80 16 16 80 16 16 80 16 16 80 16 16 80 16 16 80 16 16 80 16 16 80 16 16 80 16 16 80 16 16 88 16 16 88 16 16 88 16 16 88 16 16 88 16 16 88 16 16 88 16 16 88 16 16 88 16 16 88 16 16 88 16 16 88 16 16 88 16 16 88 16 16 88 16 16 88 16 16 88 16 16 88 16 16 88 16 16 88 16 16 88 16 16 88 16 16 88 16 16 88 16 16 88 16 16 88 16 16 88 16 16 88 16 16 88 16 16 88 16 16 88 16 16 88 16 16
72 16 144 72 16 144 72 16 144 72 16 144 72 16 144 72 16 144 72 16 144 72 16 144 72 16 144 72 16 144 72 16 144 72 16 144 72 16 144 72 16 144 72 16 144 72 16 144 72 16 144 72 16 144 72 16 144 72 16 144 72 16 144 72 16 144 72 16 144 72 16 144 72 16 144 72 16 144 72 16 144 72 16 144 72 16 144 72 16 144 72 16 144 72 16 144 72 16 16 72 16 16 72 16 16 72 16 16 72 16 16 72 16 16 72 16 16 72 16 16 72 16 16 72 16 16 72 16 16 72 16 16 72 16 16 72 16 16 72 16 16 72 16 16 72 16 16 72 16 16 72 16 16 72 16 16 72 16 16 72 16 16 72 16 16 72 16 16 72 16 16 72 16 16 72 16 16 72 16 16 72 16 16 72 16 16 72 16 16 72 16 16 80 16 16 80 16 16 80 16 16 80 16 16 80 16 16 80 16 16 80 16 16 80 16 16 80 16 16 80 16 16 80 16 16 80 16 16 80 16 16 80 16 16 80 16 16 80 16 16 80 16 16 80 16 16 80 16 16 80 16 16 80 16 16 80 16 16 80 16 16 80 16 16 80 16 16 80 16 16 80 16 16 80 16 16 80 16 16 80 16 16 80 16 16 80 16 16 88 16 16 88 16 16 88 16 16 88 16 16 88 16 16 88 16 16 88 16 16 88 16 16 88 16 16 88 16 16 88 16 16 88 16 16 88 16 16 88 16 16 88 16 16 88 16 16 88 16 16 88 16 16 88 16 16 88 16 16 88 16 16 88 16 16 88 16 16 88 16 16 88 16 16 88 16 16 88 16 16 88 16 16 88 16 16 88 16 16 88 16 16 88 16 16
72 16 144 72 16 144 72 16 144 72 16 144 72 16 144 72 16 144 72 16 144 72 16 144 72 16 144 72 16 144 72 16 144 72 16 144 72 16 144 72 16 144 72 16 144 72 16 144 72 16 144 72 16 144 72 16 144 72 16 144 72 16 144 72 16 144 72 16 144 72 16 144 72 16 144 72 16 144 72 16 144 72 16 144 72 16 144 72 16 144 72 16 144 72 16 144 72 16 16 72 16 16 72 16 16 72 16 16 72 16 16 72 16 16 72 16 16 72 16 16 72 16 16 72 16 16 72 16 16 72 16 16 72 16 16 72 16 16 72 16 16 72 16 16 72 16 16 72 16 16 72 16 16 72 16 16 72 16 16 72 16 16 72 16 16 72 16 16 72 16 16 72 16 16 72 16 16 72 16 16 72 16 16 72 16 16 72 16 16 72 16 16 80 16 16 80 16 16 80 16 16 80 16 16 80 16 16 80 16 16 80 16 16 80 16 16 80 16 16 80 16 16 80 16 16 80 16 16 80 16 16 80 16 16 80 16 16 80 16 16 80 16 16 80 16 16 80 16 16 80 16 16 80 16 16 80 16 16 80 16 16 80 16 16 80 16 16 80 16 16 80 16 16 80 16 16 80 16 16 80 16 16 80 16 16 80 16 16 88 16 16 88 16 16 88 16 16 88 16 16 88 16 16 88 16 16 88 16 16 88 16 16 88 16 16 88 16 16 88 16 16 88 16 16 88 16 16 88 16 16 88 16 16 88 16 16 88 16 16 88 16 16 88 16 16 88 16 16 88 16 16 88 16 16 88 16 16 88 16 16 88 16 16 88 16 16 88 16 16 88 16 16 88 16 16 88 16 16 88 16 16 88 16 16
72 16 144 72 16 144 72 16 144 72 16 144 72 16 144 72 16 144 72 16 144 72 16 144 72 16 144 72 16 144 72 16 144 72 16 144 72 16 144 72 16 144 72 16 144 72 16 144 72 16 144 72 16 144 72 16 144 72 16 144 72 16 144 72 16 144 72 16 144 72 16 144 72 16 144 72 16 144 72 16 144 72 16 144 72 16 144 72 16 144 72 16 144 72 16 144 72 16 16 72 16 16 72 16 16 72 16 16 72 16 16 72 16 16 72 16 16 72 16 16 72 16 16 72 16 16 72 16 16 72 16 16 72 16 16 72 16 16 72 16 16 72 16 16 72 16 16 72 16 16 72 16 16 72 16 16 72 16 16 72 16 16 72 16 16 72 16 16 72 16 16 72 16 16 72 16 16 72 16 16 72 16 16 72 16 16 72 16 16 72 16 16 80 16 16 80 16 16 80 16 16 80 16 16 80 16 16 80 16 16 80 16 16 80 16 16 80 16 16 80 16 16 80 16 16 80 16 16 80 16 16 80 16 16 80 16 16 80 16 16 80 16 16 80 16 16 80 16 16 80 16 16 80 16 16 80 16 16 80 16 16 80 16 16 80 16 16 80 16 16 80 16 16 80 16 16 80 16 16 80 16 16 80 16 16 80 16 16 88 16 16 88 16 16 88 16 16 88 16 16 88 16 16 88 16 16 88 16 16 88 16 16 88 16 16 88 16 16 88 16 16 88 16 16 88 16 16 88 16 16 88 16 16 88 16 16 88 16 16 88 16 16 88 16 16 88 16 16 88 16 16 88 16 16 88 16 16 88 16 16 88 16 16 88 16 16 88 16 16 88 16 16 88 16 16 88 16 16 88 16 16 88 16 16
72 16 144 72 16 144 72 16 144 72 16 144 72 16 144 72 16 144 72 16 144 72 16 144 72 16 144 72 16 144 72 16 144 72 16 144 72 16 144 72 16 144 72 16 144 72 16 144 72 16 144 72 16 144 72 16 144 72 16 144 72 16 144 72 16 144 72 16 144 72 16 144 72 16 144 72 16 144 72 16 144 72 16 144 72 16 144 72 16 144 72 16 144 72 16 144 72 16 16 72 16 16 72 16 16 72 16 16 72 16 16 72 16 16 72 16 16 72 16 16 72 16 16 72 16 16 72 16 16 72 16 16 72 16 16 72 16 16 72 16 16 72 16 16 72 16 16 72 16 16 72 16 16 72 16 16 72 16 16 72 16 16 72 16 16 72 16 16 72 16 16 72 16 16 72 16 16 72 16 16 72 16 16 72 16 16 72 16 16 72 16 16 80 16 16 80 16 16 80 16 16 80 16 16 80 16 16 80 16 16 80 16 16 80 16 16 80 16 16 80 16 16 80 16 16 80 16 16 80 16 16 80 16 16 80 16 16 80 16 16 80 16 16 80 16 16 80 16 16 80 16 16 80 16 16 80 16 16 80 16 16 80 16 16 80 16 16 80 16 16 80 16 16 80 16 16 80 16 16 80 16 16 80 16 16 80 16 16 88 16 16 88 16 16 88 16 16 88 16 16 88 16 16 88 16 16 88 16 16 88 16 16 88 16 16 88 16 16 88 16 16 88 16 16 88 16 16 88 16 16 88 16 16 88 16 16 88 16 16 88 16 16 88 16 16 88 16 16 88 16 16 88 16 16 88 16 16 88 16 16 88 16 16 88 16 16 88 16 16 88 16 16 88 16 16 88 16 16 88 16 16 88 16 16
72 16 144 72 16 144 72 16 144 72 16 144 72 16 144 72 16 144 72 16 144 72 16 144 72 16 144 72 16 144 72 16 144 72 16 144 72 16 144 72 16 144 72 16 144 72 16 144 72 16 144 72 16 144 72 16 144 72 16 144 72 16 144 72 16 144 72 16 144 72 16 144 72 16 144 72 16 144 72 16 144 72 16 144 72 16 144 72 16 144 72 16 144 72 16 144 72 16 16 72 16 16 72 16 16 72 16 16 72 16 16 72 16 16 72 16 16 72 16 16 72 16 16 72 16 16 72 16 16 72 16 16 72 16 16 72 16 16 72 16 16 72 16 16 72 16 16 72 16 16 72 16 16 72 16 16 72 16 16 72 16 16 72 16 16 72 16 16 72 16 16 72 16 16 72 16 16 72 16 16 72 16 16 72 16 16 72 16 16 72 16 16 80 16 16 80 16 16 80 16 16 80 16 16 80 16 16 80 16 16 80 16 16 80 16 16 80 16 16 80 16 16 80 16 16 80 16 16 80 16 16 80 16 16 80 16 16 80 16 16 80 16 16 80 16 16 80 16 16 80 16 16 80 16 16 80 16 16 80 16 16 80 16 16 80 16 16 80 16 16 80 16 16 80 16 16 80 16 16 80 16 16 80 16 16 80 16 16 88 16 16 88 16 16 88 16 16 88 16 16 88 16 16 88 16 16 88 16 16 88 16 16 88 16 16 88 16 16 88 16 16 88 16 16 88 16 16 88 16 16 88 16 16 88 16 16 88 16 16 88 16 16 88 16 16 88 16 16 88 16 16 88 16 16 88 16 16 88 16 16 88 16 16 88 16 16 88 16 16 88 16 16 88 16 16 88 16 16 88 16 16 88 16 16
72 16 144 72 16 144 72 16 144 72 16 144 72 16 144 72 16 144 72 16 144 72 16 144 72 16 144 72 16 144 72 16 144 72 16 144 72 16 144 72 16 144 72 16 144 72 16 144 72 16 144 72 16 144 72 16 144 72 16 144 72 16 144 72 16 144 72 16 144 72 16 144 72 16 144 72 16 144 72 16 144 72 16 144 72 16 144 72 16 144 72 16 144 72 16 144 72 16 16 72 16 16 72 16 16 72 16 16 72 16 16 72 16 16 72 16 16 72 16 16 72 16 16 72 16 16 72 16 16 72 16 16 72 16 16 72 16 16 72 16 16 72 16 16 72 16 16 72 16 16 72 16 16 72 16 16 72 16 16 72 16 16 72 16 16 72 16 16 72 16 16 72 16 16 72 16 16 72 16 16 72 16 16 72 16 16 72 16 16 72 16 16 80 16 16 80 16 16 80 16 16 80 16 16 80 16 16 80 16 16 80 16 16 80 16 16 80 16 16 80 16 16 80 16 16 80 16 16 80 16 16 80 16 16 80 16 16 80 16 16 80 16 16 80 16 16 80 16 16 80 16 16 80 16 16 80 16 16 80 16 16 80 16 16 80 16 16 80 16 16 80 16 16 80 16 16 80 16 16 80 16 16 80 16 16 80 16 16 88 16 16 88 16 16 88 16 16 88 16 16 88 16 16 88 16 16 88 16 16 88 16 16 88 16 16 88 16 16 88 16 16 88 16 16 88 16 16 88 16 16 88 16 16 88 16 16 88 16 16 88 16 16 88 16 16 88 16 16 88 16 16 88 16 16 88 16 16 88 16 16 88 16 16 88 16 16 88 16 16 88 16 16 88 16 16 88 16 16 88 16 16 88 16 16
72 16 144 72 16 144 72 16 144 72 16 144 72 16 144 72 16 144 72 16 144 72 16 144 72 16 144 72 16 144 72 16 144 72 16 144 72 16 144 72 16 144 72 16 144 72 16 144 72 16 144 72 16 144 72 16 144 72 16 144 72 16 144 72 16 144 72 16 144 72 16 144 72 16 144 72 16 144 72 16 144 72 16 144 72 16 144 72 16 144 72 16 144 72 16 144 72 16 16 72 16 16 72 16 16 72 16 16 72 16 16 72 16 16 72 16 16 72 16 16 72 16 16 72 16 16 72 16 16 72 16 16 72 16 16 72 16 16 72 16 16 72 16 16 72 16 16 72 16 16 72 16 16 72 16 16 72 16 16 72 16 16 72 16 16 72 16 16 72 16 16 72 16 16 72 16 16 72 16 16 72 16 16 72 16 16 72 16 16 72 16 16 80 16 16 80 16 16 80 16 16 80 16 16 80 16 16 80 16 16 80 16 16 80 16 16 80 16 16 80 16 16 80 16 16 80 16 16 80 16 16 80 16 16 80 16 16 80 16 16 80 16 16 80 16 16 80 16 16 80 16 16 80 16 16 80 16 16 80 16 16 80 16 16 80 16 16 80 16 16 80 16 16 80 16 16 80 16 16 80 16 16 80 16 16 80 16 16 88 16 16 88 16 16 88 16 16 88 16 16 88 16 16 88 16 16 88 16 16 88 16 16 88 16 16 88 16 16 88 16 16 88 16 16 88 16 16 88 16 16 88 16 16 88 16 16 88 16 16 88 16 16 88 16 16 88 16 16 88 16 16 88 16 16 88 16 16 88 16 16 88 16 16 88 16 16 88 16 16 88 16 16 88 16 16 88 16 16 88 16 16 88 16 16
72 16 144 72 16 144 72 16 144 72 16 144 72 16 144 72 16 144 72 16 144 72 16 144 72 16 144 72 16 144 72 16 144 72 16 144 72 16 144 72 16 144 72 16 144 72 16 144 72 16 144 72 16 144 72 16 144 72 16 144 72 16 144 72 16 144 72 16 144 72 16 144 72 16 144 72 16 144 72 16 144 72 16 144 72 16 144 72 16 144 72 16 144 72 16 144 72 16 16 72 16 16 72 16 16 72 16 16 72 16 16 72 16 16 72 16 16 72 16 16 72 16 16 72 16 16 72 16 16 72 16 16 72 16 16 72 16 16 72 16 16 72 16 16 72 16 16 72 16 16 72 16 16 72 16 16 72 16 16 72 16 16 72 16 16 72 16 16 72 16 16 72 16 16 72 16 16 72 16 16 72 16 16 72 16 16 72 16 16 72 16 16 80 16 16 80 16 16 80 16 16 80 16 16 80 16 16 80 16 16 80 16 16 80 16 16 80 16 16 80 16 16 80 16 16 80 16 16 80 16 16 80 16 16 80 16 16 80 16 16 80 16 16 80 16 16 80 16 16 80 16 16 80 16 16 80 16 16 80 16 16 80 16 16 80 16 16 80 16 16 80 16 16 80 16 16 80 16 16 80 16 16 80 16 16 80 16 16 88 16 16 88 16 16 88 16 16 88 16 16 88 16 16 88 16 16 88 16 16 88 16 16 88 16 16 88 16 16 88 16 16 88 16 16 88 16 16 88 16 16 88 16 16 88 16 16 88 16 16 88 16 16 88 16 16 88 16 16 88 16 16 88 16 16 88 16 16 88 16 16 88 16 16 88 16 16 88 16 16 88 16 16 88 16 16 88 16 16 88 16 16 88 16 16
72 16 144 72 16 144 72 16 144 72 16 144 72 16 144 72 16 144 72 16 144 72 16 144 72 16 144 72 16 144 72 16 144 72 16 144 72 16 144 72 16 144 72 16 144 72 16 144 72 16 144 72 16 144 72 16 144 72 16 144 72 16 144 72 16 144 72 16 144 72 16 144 72 16 144 72 16 144 72 16 144 72 16 144 72 16 144 72 16 144 72 16 144 72 16 144 72 16 16 72 16 16 72 16 16 72 16 16 72 16 16 72 16 16 72 16 16 72 16 16 72 16 16 72 16 16 72 16 16 72 16 16 72 16 16 72 16 16 72 16 16 72 16 16 72 16 16 72 16 16 72 16 16 72 16 16 72 16 16 72 16 16 72 16 16 72 16 16 72 16 16 72 16 16 72 16 16 72 16 16 72 16 16 72 16 16 72 16 16 72 16 16 80 16 16 80 16 16 80 16 16 80 16 16 80 16 16 80 16 16 80 16 16 80 16 16 80 16 16 80 16 16 80 16 16 80 16 16 80 16 16 80 16 16 80 16 16 80 16 16 80 16 16 80 16 16 80 16 16 80 16 16 80 16 16 80 16 16 80 16 16 80 16 16 80 16 16 80 16 16 80 16 16 80 16 16 80 16 16 80 16 16 80 16 16 80 16 16 88 16 16 88 16 16 88 16 16 88 16 16 88 16 16 88 16 16 88 16 16 88 16 16 88 16 16 88 16 16 88 16 16 88 16 16 88 16 16 88 16 16 88 16 16 88 16 16 88 16 16 88 16 16 88 16 16 88 16 16 88 16 16 88 16 16 88 16 16 88 16 16 88 16 16 88 16 16 88 16 16 88 16 16 88 16 16 88 16 16 88 16 16 88 16 16
72 16 144 72 16 144 72 16 144 72 16 144 72 16 144 72 16 144 72 16 144 72 16 144 72 16 144 72 16 144 72 16 144 72 16 144 72 16 144 72 16 144 72 16 144 72 16 144 72 16 144 72 16 144 72 16 144 72 16 144 72 16 144 72 16 144 72 16 144 72 16 144 72 16 144 72 16 144 72 16 144 72 16 144 72 16 144 72 16 144 72 16 144 72 16 144 72 16 16 72 16 16 72 16 16 72 16 16 72 16 16 72 16 16 72 16 16 72 16 16 72 16 16 72 16 16 72 16 16 72 16 16 72 16 16 72 16 16 72 16 16 72 16 16 72 16 16 72 16 16 72 16 16 72 16 16 72 16 16 72 16 16 72 16 16 72 16 16 72 16 16 72 16 16 72 16 16 72 16 16 72 16 16 72 16 16 72 16 16 72 16 16 80 16 16 80 16 16 80 16 16 80 16 16 80 16 16 80 16 16 80 16 16 80 16 16 80 16 16 80 16 16 80 16 16 80 16 16 80 16 16 80 16 16 80 16 16 80 16 16 80 16 16 80 16 16 80 16 16 80 16 16 80 16 16 80 16 16 80 16 16 80 16 16 80 16 16 80 16 16 80 16 16 80 16 16 80 16 16 80 16 16 80 16 16 80 16 16 88 16 16 88 16 16 88 16 16 88 16 16 88 16 16 88 16 16 88 16 16 88 16 16 88 16 16 88 16 16 88 16 16 88 16 16 88 16 16 88 16 16 88 16 16 88 16 16 88 16 16 88 16 16 88 16 16 88 16 16 88 16 16 88 16 16 88 16 16 88 16 16 88 16 16 88 16 16 88 16 16 88 16 16 88 16 16 88 16 16 88 16 16 88 16 16
72 16 144 72 16 144 72 16 144 72 16 144 72 16 144 72 16 144 72 16 144 72 16 144 72 16 144 72 16 144 72 16 144 72 16 144 72 16 144 72 16 144 72 16 144 72 16 144 72 16 144 72 16 144 72 16 144 72 16 144 72 16 144 72 16 144 72 16 144 72 16 144 72 16 144 72 16 144 72 16 144 72 16 144 72 16 144 72 16 144 72 16 144 72 16 144 72 16 16 72 16 16 72 16 16 72 16 16 72 16 16 72 16 16 72 16 16 72 16 16 72 16 16 72 16 16 72 16 16 72 16 16 72 16 16 72 16 16 72 16 16 72 16 16 72 16 16 72 16 16 72 16 16 72 16 16 72 16 16 72 16 16 72 16 16 72 16 16 72 16 16 72 16 16 72 16 16 72 16 16 72 16 16 72 16 16 72 16 16 72 16 16 80 16 16 80 16 16 80 16 16 80 16 16 80 16 16 80 16 16 80 16 16 80 16 16 80 16 16 80 16 16 80 16 16 80 16 16 80 16 16 80 16 16 80 16 16 80 16 16 80 16 16 80 16 16 80 16 16 80 16 16 80 16 16 80 16 16 80 16 16 80 16 16 80 16 16 80 16 16 80 16 16 80 16 16 80 16 16 80 16 16 80 16 16 80 16 16 88 16 16 88 16 16 88 16 16 88 16 16 88 16 16 88 16 16 88 16 16 88 16 16 88 16 16 88 16 16 88 16 16 88 16 16 88 16 16 88 16 16 88 16 16 88 16 16 88 16 16 88 16 16 88 16 16 88 16 16 88 16 16 88 16 16 88 16 16 88 16 16 88 16 16 88 16 16 88 16 16 88 16 16 88 16 16 88 16 16 88 16 16 88 16 16
72 16 144 72 16 144 72 16 144 72 16 144 72 16 144 72 16 144 72 16 144 72 16 144 72 16 144 72 16 144 72 16 144 72 16 144 72 16 144 72 16 144 72 16 144 72 16 144 72 16 144 72 16 144 72 16 144 72 16 144 72 16 144 72 16 144 72 16 144 72 16 144 72 16 144 72 16 144 72 16 144 72 16 144 72 16 144 72 16 144 72 16 144 72 16 144 72 16 16 72 16 16 72 16 16 72 16 16 72 16 16 72 16 16 72 16 16 72 16 16 72 16 16 72 16 16 72 16 16 72 16 16 72 16 16 72 16 16 72 16 16 72 16 16 72 16 16 72 16 16 72 16 16 72 16 16 72 16 16 72 16 16 72 16 16 72 16 16 72 16 16 72 16 16 72 16 16 72 16 16 72 16 16 72 16 16 72 16 16 72 16 16 80 16 16 80 16 16 80 16 16 80 16 16 80 16 16 80 16 16 80 16 16 80 16 16 80 16 16 80 16 16 80 16 16 80 16 16 80 16 16 80 16 16 80 16 16 80 16 16 80 16 16 80 16 16 80 16 16 80 16 16 80 16 16 80 16 16 80 16 16 80 16 16 80 16 16 80 16 16 80 16 16 80 16 16 80 16 16 80 16 16 80 16 16 80 16 16 88 16 16 88 16 16 88 16 16 88 16 16 88 16 16 88 16 16 88 16 16 88 16 16 88 16 16 88 16 16 88 16 16 88 16 16 88 16 16 88 16 16 88 16 16 88 16 16 88 16 16 88 16 16 88 16 16 88 16 16 88 16 16 88 16 16 88 16 16 88 16 16 88 16 16 88 16 16 88 16 16 88 16 16 88 16 16 88 16 16 88 16 16 88 16 16
72 16 144 72 16 144 72 16 144 72 16 144 72 16 144 72 16 144 72 16 144 72 16 144 72 16 144 72 16 144 72 16 144 72 16 144 72 16 144 72 16 144 72 16 144 72 16 144 72 16 144 72 16 144 72 16 144 72 16 144 72 16 144 72 16 144 72 16 144 72 16 144 72 16 144 72 16 144 72 16 144 72 16 144 72 16 144 72 16 144 72 16 144 72 16 144 72 16 16 72 16 16 72 16 16 72 16 16 72 16 16 72 16 16 72 16 16 72 16 16 72 16 16 72 16 16 72 16 16 72 16 16 72 16 16 72 16 16 72 16 16 72 16 16 72 16 16 72 16 16 72 16 16 72 16 16 72 16 16 72 16 16 72 16 16 72 16 16 72 16 16 72 16 16 72 16 16 72 16 16 72 16 16 72 16 16 72 16 16 72 16 16 80 16 16 80 16 16 80 16 16 80 16 16 80 16 16 80 16 16 80 16 16 80 16 16 80 16 16 80 16 16 80 16 16 80 16 16 80 16 16 80 16 16 80 16 16 80 16 16 80 16 16 80 16 16 80 16 16 80 16 16 80 16 16 80 16 16 80 16 16 80 16 16 80 16 16 80 16 16 80 16 16 80 16 16 80 16 16 80 16 16 80 16 16 80 16 16 88 16 16 88 16 16 88 16 16 88 16 16 88 16 16 88 16 16 88 16 16 88 16 16 88 16 16 88 16 16 88 16 16 88 16 16 88 16 16 88 16 16 88 16 16 88 16 16 88 16 16 88 16 16 88 16 16 88 16 16 88 16 16 88 16 16 88 16 16 88 16 16 88 16 16 88 16 16 88 16 16 88 16 16 88 16 16 88 16 16 88 16 16 88 16 16
72 16 144 72 16 144 72 16 144 72 16 144 72 16 144 72 16 144 72 16 144 72 16 144 72 16 144 72 16 144 72 16 144 72 16 144 72 16 144 72 16 144 72 16 144 72 16 144 72 16 144 72 16 144 72 16 144 72 16 144 72 16 144 72 16 144 72 16 144 72 16 144 72 16 144 72 16 144 72 16 144 72 16 144 72 16 144 72 16 144 72 16 144 72 16 144 72 16 16 72 16 16 72 16 16 72 16 16 72 16 16 72 16 16 72 16 16 72 16 16 72 16 16 72 16 16 72 16 16 72 16 16 72 16 16 72 16 16 72 16 16 72 16 16 72 16 16 72 16 16 72 16 16 72 16 16 72 16 16 72 16 16 72 16 16 72 16 16 72 16 16 72 16 16 72 16 16 72 16 16 72 16 16 72 16 16 72 16 16 72 16 16 80 16 16 80 16 16 80 16 16 80 16 16 80 16 16 80 16 16 80 16 16 80 16 16 80 16 16 80 16 16 80 16 16 80 16 16 80 16 16 80 16 16 80 16 16 80 16 16 80 16 16 80 16 16 80 16 16 80 16 16 80 16 16 80 16 16 80 16 16 80 16 16 80 16 16 80 16 16 80 16 16 80 16 16 80 16 16 80 16 16 80 16 16 80 16 16 88 16 16 88 16 16 88 16 16 88 16 16 88 16 16 88 16 16 88 16 16 88 16 16 88 16 16 88 16 16 88 16 16 88 16 16 88 16 16 88 16 16 88 16 16 88 16 16 88 16 16 88 16 16 88 16 16 88 16 16 88 16 16 88 16 16 88 16 16 88 16 16 88 16 16 88 16 16 88 16 16 88 16 16 88 16 16 88 16 16 88 16 16 88 16 16
72 16 144 72 16 144 72 16 144 72 16 144 72 16 144 72 16 144 72 16 144 72 16 144 72 16 144 72 16 144 72 16 144 72 16 144 72 16 144 72 16 144 72 16 144 72 16 144 72 16 144 72 16 144 72 16 144 72 16 144 72 16 144 72 16 144 72 16 144 72 16 144 72 16 144 72 16 144 72 16 144 72 16 144 72 16 144 72 16 144 72 16 144 72 16 144 72 16 16 72 16 16 72 16 16 72 16 16 72 16 16 72 16 16 72 16 16 72 16 16 72 16 16 72 16 16 72 16 16 72 16 16 72 16 16 72 16 16 72 16 16 72 16 16 72 16 16 72 16 16 72 16 16 72 16 16 72 16 16 72 16 16 72 16 16 72 16 16 72 16 16 72 16 16 72 16 16 72 16 16 72 16 16 72 16 16 72 16 16 72 16 16 80 16 16 80 16 16 80 16 16 80 16 16 80 16 16 80 16 16 80 16 16 80 16 16 80 16 16 80 16 16 80 16 16 80 16 16 80 16 16 80 16 16 80 16 16 80 16 16 80 16 16 80 16 16 80 16 16 80 16 16 80 16 16 80 16 16 80 16 16 80 16 16 80 16 16 80 16 16 80 16 16 80 16 16 80 16 16 80 16 16 80 16 16 80 16 16 88 16 16 88 16 16 88 16 16 88 16 16 88 16 16 88 16 16 88 16 16 88 16 16 88 16 16 88 16 16 88 16 16 88 16 16 88 16 16 88 16 16 88 16 16 88 16 16 88 16 16 88 16 16 88 16 16 88 16 16 88 16 16 88 16 16 88 16 16 88 16 16 88 16 16 88 16 16 88 16 16 88 16 16 88 16 16 88 16 16 88 16 16 88 16 16
72 16 144 72 16 144 72 16 144 72 16 144 72 16 144 72 16 144 72 16 144 72 16 144 72 16 144 72 16 144 72 16 144 72 16 144 72 16 144 72 16 144 72 16 144 72 16 144 72 16 144 72 16 144 72 16 144 72 16 144 72 16 144 72 16 144 72 16 144 72 16 144 72 16 144 72 16 144 72 16 144 72 16 144 72 16 144 72 16 144 72 16 144 72 16 144 72 16 16 72 16 16 72 16 16 72 16 16 72 16 16 72 16 16 72 16 16 72 16 16 72 16 16 72 16 16 72 16 16 72 16 16 72 16 16 72 16 16 72 16 16 72 16 16 72 16 16 72 16 16 72 16 16 72 16 16 72 16 16 72 16 16 72 16 16 72 16 16 72 16 16 72 16 16 72 16 16 72 16 16 72 16 16 72 16 16 72 16 16 72 16 16 80 16 16 80 16 16 80 16 16 80 16 16 80 16 16 80 16 16 80 16 16 80 16 16 80 16 16 80 16 16 80 16 16 80 16 16 80 16 16 80 16 16 80 16 16 80 16 16 80 16 16 80 16 16 80 16 16 80 16 16 80 16 16 80 16 16 80 16 16 80 16 16 80 16 16 80 16 16 80 16 16 80 16 16 80 16 16 80 16 16 80 16 16 80 16 16 88 16 16 88 16 16 88 16 16 88 16 16 88 16 16 88 16 16 88 16 16 88 16 16 88 16 16 88 16 16 88 16 16 88 16 16 88 16 16 88 16 16 88 16 16 88 16 16 88 16 16 88 16 16 88 16 16 88 16 16 88 16 16 88 16 16 88 16 16 88 16 16 88 16 16 88 16 16 88 16 16 88 16 16 88 16 16 88 16 16 88 16 16 88 16 16
72 16 144 72 16 144 72 16 144 72 16 144 72 16 144 72 16 144 72 16 144 72 16 144 72 16 144 72 16 144 72 16 144 72 16 144 72 16 144 72 16 144 72 16 144 72 16 144 72 16 144 72 16 144 72 16 144 72 16 144 72 16 144 72 16 144 72 16 144 72 16 144 72 16 144 72 16 144 72 16 144 72 16 144 72 16 144 72 16 144 72 16 144 72 16 144 72 16 16 72 16 16 72 16 16 72 16 16 72 16 16 72 16 16 72 16 16 72 16 16 72 16 16 72 16 16 72 16 16 72 16 16 72 16 16 72 16 16 72 16 16 72 16 16 72 16 16 72 16 16 72 16 16 72 16 16 72 16 16 72 16 16 72 16 16 72 16 16 72 16 16 72 16 16 72 16 16 72 16 16 72 16 16 72 16 16 72 16 16 72 16 16 80 16 16 80 16 16 80 16 16 80 16 16 80 16 16 80 16 16 80 16 16 80 16 16 80 16 16 80 16 16 80 16 16 80 16 16 80 16 16 80 16 16 80 16 16 80 16 16 80 16 16 80 16 16 80 16 16 80 16 16 80 16 16 80 16 16 80 16 16 80 16 16 80 16 16 80 16 16 80 16 16 80 16 16 80 16 16 80 16 16 80 16 16 80 16 16 88 16 16 88 16 16 88 16 16 88 16 16 88 16 16 88 16 16 88 16 16 88 16 16 88 16 16 88 16 16 88 16 16 88 16 16 88 16 16 88 16 16 88 16 16 88 16 16 88 16 16 88 16 16 88 16 16 88 16 16 88 16 16 88 16 16 88 16 16 88 16 16 88 16 16 88 16 16 88 16 16 88 16 16 88 16 16 88 16 16 88 16 16 88 16 16
72 16 144 72 16 144 72 16 144 72 16 144 72 16 144 72 16 144 72 16 144 72 16 144 72 16 144 72 16 144 72 16 144 72 16 144 72 16 144 72 16 144 72 16 144 72 16 144 72 16 144 72 16 144 72 16 144 72 16 144 72 16 144 72 16 144 72 16 144 72 16 144 72 16 144 72 16 144 72 16 144 72 16 144 72 16 144 72 16 144 72 16 144 72 16 144 72 16 16 72 16 16 72 16 16 72 16 16 72 16 16 72 16 16 72 16 16 72 16 16 72 16 16 72 16 16 72 16 16 72 16 16 72 16 16 72 16 16 72 16 16 72 16 16 72 16 16 72 16 16 72 16 16 72 16 16 72 16 16 72 16 16 72 16 16 72 16 16 72 16 16 72 16 16 72 16 16 72 16 16 72 16 16 72 16 16 72 16 16 72 16 16 80 16 16 80 16 16 80 16 16 80 16 16 80 16 16 80 16 16 80 16 16 80 16 16 80 16 16 80 16 16 80 16 16 80 16 16 80 16 16 80 16 16 80 16 16 80 16 16 80 16 16 80 16 16 80 16 16 80 16 16 80 16 16 80 16 16 80 16 16 80 16 16 80 16 16 80 16 16 80 16 16 80 16 16 80 16 16 80 16 16 80 16 16 80 16 16 88 16 16 88 16 16 88 16 16 88 16 16 88 16 16 88 16 16 88 16 16 88 16 16 88 16 16 88 16 16 88 16 16 88 16 16 88 16 16 88 16 16 88 16 16 88 16 16 88 16 16 88 16 16 88 16 16 88 16 16 88 16 16 88 16 16 88 16 16 88 16 16 88 16 16 88 16 16 88 16 16 88 16 16 88 16 16 88 16 16 88 16 16 88 16 16
72 16 144 72 16 144 72 16 144 72 16 144 72 16 144 72 16 144 72 16 144 72 16 144 72 16 144 72 16 144 72 16 144 72 16 144 72 16 144 72 16 144 72 16 144 72 16 144 72 16 144 72 16 144 72 16 144 72 16 144 72 16 144 72 16 144 72 16 144 72 16 144 72 16 144 72 16 144 72 16 144 72 16 144 72 16 144 72 16 144 72 16 144 72 16 144 72 16 16 72 16 16 72 16 16 72 16 16 72 16 16 72 16 16 72 16 16 72 16 16 72 16 16 72 16 16 72 16 16 72 16 16 72 16 16 72 16 16 72 16 16 72 16 16 72 16 16 72 16 16 72 16 16 72 16 16 72 16 16 72 16 16 72 16 16 72 16 16 72 16 16 72 16 16 72 16 16 72 16 16 72 16 16 72 16 16 72 16 16 72 16 16 80 16 16 80 16 16 80 16 16 80 16 16 80 16 16 80 16 16 80 16 16 80 16 16 80 16 16 80 16 16 80 16 16 80 16 16 80 16 16 80 16 16 80 16 16 80 16 16 80 16 16 80 16 16 80 16 16 80 16 16 80 16 16 80 16 16 80 16 16 80 16 16 80 16 16 80 16 16 80 16 16 80 16 16 80 16 16 80 16 16 80 16 16 80 16 16 88 16 16 88 16 16 88 16 16 88 16 16 88 16 16 88 16 16 88 16 16 88 16 16 88 16 16 88 16 16 88 16 16 88 16 16 88 16 16 88 16 16 88 16 16 88 16 16 88 16 16 88 16 16 88 16 16 88 16 16 88 16 16 88 16 16 88 16 16 88 16 16 88 16 16 88 16 16 88 16 16 88 16 16 88 16 16 88 16 16 88 16 16 88 16 16
72 16 144 72 16 144 72 16 144 72 16 144 72 16 144 72 16 144 72 16 144 72 16 144 72 16 144 72 16 144 72 16 144 72 16 144 72 16 144 72 16 144 72 16 144 72 16 144 72 16 144 72 16 144 72 16 144 72 16 144 72 16 144 72 16 144 72 16 144 72 16 144 72 16 144 72 16 144 72 16 144 72 16 144 72 16 144 72 16 144 72 16 144 72 16 144 72 16 16 72 16 16 72 16 16 72 16 16 72 16 16 72 16 16 72 16 16 72 16 16 72 16 16 72 16 16 72 16 16 72 16 16 72 16 16 72 16 16 72 16 16 72 16 16 72 16 16 72 16 16 72 16 16 72 16 16 72 16 16 72 16 16 72 16 16 72 16 16 72 16 16 72 16 16 72 16 16 72 16 16 72 16 16 72 16 16 72 16 16 72 16 16 80 16 16 80 16 16 80 16 16 80 16 16 80 16 16 80 16 16 80 16 16 80 16 16 80 16 16 80 16 16 80 16 16 80 16 16 80 16 16 80 16 16 80 16 16 80 16 16 80 16 16 80 16 16 80 16 16 80 16 16 80 16 16 80 16 16 80 16 16 80 16 16 80 16 16 80 16 16 80 16 16 80 16 16 80 16 16 80 16 16 80 16 16 80 16 16 88 16 16 88 16 16 88 16 16 88 16 16 88 16 16 88 16 16 88 16 16 88 16 16 88 16 16 88 16 16 88 16 16 88 16 16 88 16 16 88 16 16 88 16 16 88 16 16 88 16 16 88 16 16 88 16 16 88 16 16 88 16 16 88 16 16 88 16 16 88 16 16 88 16 16 88 16 16 88 16 16 88 16 16 88 16 16 88 16 16 88 16 16 88 16 16
72 16 144 72 16 144 72 16 144 72 16 144 72 16 144 72 16 144 72 16 144 72 16 144 72 16 144 72 16 144 72 16 144 72 16 144 72 16 144 72 16 144 72 16 144 72 16 144 72 16 144 72 16 144 72 16 144 72 16 144 72 16 144 72 16 144 72 16 144 72 16 144 72 16 144 72 16 144 72 16 144 72 16 144 72 16 144 72 16 144 72 16 144 72 16 144 72 16 16 72 16 16 72 16 16 72 16 16 72 16 16 72 16 16 72 16 16 72 16 16 72 16 16 72 16 16 72 16 16 72 16 16 72 16 16 72 16 16 72 16 16 72 16 16 72 16 16 72 16 16 72 16 16 72 16 16 72 16 16 72 16 16 72 16 16 72 16 16 72 16 16 72 16 16 72 16 16 72 16 16 72 16 16 72 16 16 72 16 16 72 16 16 80 16 16 80 16 16 80 16 16 80 16 16 80 16 16 80 16 16 80 16 16 80 16 16 80 16 16 80 16 16 80 16 16 80 16 16 80 16 16 80 16 16 80 16 16 80 16 16 80 16 16 80 16 16 80 16 16 80 16 16 80 16 16 80 16 16 80 16 16 80 16 16 80 16 16 80 16 16 80 16 16 80 16 16 80 16 16 80 16 16 80 16 16 80 16 16 88 16 16 88 16 16 88 16 16 88 16 16 88 16 16 88 16 16 88 16 16 88 16 16 88 16 16 88 16 16 88 16 16 88 16 16 88 16 16 88 16 16 88 16 16 88 16 16 88 16 16 88 16 16 88 16 16 88 16 16 88 16 16 88 16 16 88 16 16 88 16 16 88 16 16 88 16 16 88 16 16 88 16 16 88 16 16 88 16 16 88 16 16 88 16 16
72 16 144 72 16 144 72 16 144 72 16 144 72 16 144 72 16 144 72 16 144 72 16 144 72 16 144 72 16 144 72 16 144 72 16 144 72 16 144 72 16 144 72 16 144 72 16 144 72 16 144 72 16 144 72 16 144 72 16 144 72 16 144 72 16 144 72 16 144 72 16 144 72 16 144 72 16 144 72 16 144 72 16 144 72 16 144 72 16 144 72 16 144 72 16 144 72 16 16 72 16 16 72 16 16 72 16 16 72 16 16 72 16 16 72 16 16 72 16 16 72 16 16 72 16 16 72 16 16 72 16 16 72 16 16 72 16 16 72 16 16 72 16 16 72 16 16 72 16 16 72 16 16 72 16 16 72 16 16 72 16 16 72 16 16 72 16 16 72 16 16 72 16 16 72 16 16 72 16 16 72 16 16 72 16 16 72 16 16 72 16 16 80 16 16 80 16 16 80 16 16 80 16 16 80 16 16 80 16 16 80 16 16 80 16 16 80 16 16 80 16 16 80 16 16 80 16 16 80 16 16 80 16 16 80 16 16 80 16 16 80 16 16 80 16 16 80 16 16 80 16 16 80 16 16 80 16 16 80 16 16 80 16 16 80 16 16 80 16 16 80 16 16 80 16 16 80 16 16 80 16 16 80 16 16 80 16 16 88 16 16 88 16 16 88 16 16 88 16 16 88 16 16 88 16 16 88 16 16 88 16 16 88 16 16 88 16 16 88 16 16 88 16 16 88 16 16 88 16 16 88 16 16 88 16 16 88 16 16 88 16 16 88 16 16 88 16 16 88 16 16 88 16 16 88 16 16 88 16 16 88 16 16 88 16 16 88 16 16 88 16 16 88 16 16 88 16 16 88 16 16 88 16 16
72 16 144 72 16 144 72 16 144 72 16 144 72 16 144 72 16 144 72 16 144 72 16 144 72 16 144 72 16 144 72 16 144 72 16 144 72 16 144 72 16 144 72 16 144 72 16 144 72 16 144 72 16 144 72 16 144 72 16 144 72 16 144 72 16 144 72 16 144 72 16 144 72 16 144 72 16 144 72 16 144 72 16 144 72 16 144 72 16 144 72 16 144 72 16 144 72 16 16 72 16 16 72 16 16 72 16 16 72 16 16 72 16 16 72 16 16 72 16 16 72 16 16 72 16 16 72 16 16 72 16 16 72 16 16 72 16 16 72 16 16 72 16 16 72 16 16 72 16 16 72 16 16 72 16 16 72 16 16 72 16 16 72 16 16 72 16 16 72 16 16 72 16 16 72 16 16 72 16 16 72 16 16 72 16 16 72 16 16 72 16 16 80 16 16 80 16 16 80 16 16 80 16 16 80 16 16 80 16 16 80 16 16 80 16 16 80 16 16 80 16 16 80 16 16 80 16 16 80 16 16 80 16 16 80 16 16 80 16 16 80 16 16 80 16 16 80 16 16 80 16 16 80 16 16 80 16 16 80 16 16 80 16 16 80 16 16 80 16 16 80 16 16 80 16 16 80 16 16 80 16 16 80 16 16 80 16 16 88 16 16 88 16 16 88 16 16 88 16 16 88 16 16 88 16 16 88 16 16 88 16 16 88 16 16 88 16 16 88 16 16 88 16 16 88 16 16 88 16 16 88 16 16 88 16 16 88 16 16 88 16 16 88 16 16 88 16 16 88 16 16 88 16 16 88 16 16 88 16 16 88 16 16 88 16 16 88 16 16 88 16 16 88 16 16 88 16 16 88 16 16 88 16 16
72 16 144 72 16 144 72 16 144 72 16 144 72 16 144 72 16 144 72 16 144 72 16 144 72 16 144 72 16 144 72 16 144 72 16 144 72 16 144 72 16 144 72 16 144 72 16 144 72 16 144 72 16 144 72 16 144 72 16 144 72 16 144 72 16 144 72 16 144 72 16 144 72 16 144 72 16 144 72 16 144 72 16 144 72 16 144 72 16 144 72 16 144 72 16 144 72 16 16 72 16 16 72 16 16 72 16 16 72 16 16 72 16 16 72 16 16 72 16 16 72 16 16 72 16 16 72 16 16 72 16 16 72 16 16 72 16 16 72 16 16 72 16 16 72 16 16 72 16 16 72 16 16 72 16 16 72 16 16 72 16 16 72 16 16 72 16 16 72 16 16 72 16 16 72 16 16 72 16 16 72 16 16 72 16 16 72 16 16 72 16 16 80 16 16 80 16 16 80 16 16 80 16 16 80 16 16 80 16 16 80 16 16 80 16 16 80 16 16 80 16 16 80 16 16 80 16 16 80 16 16 80 16 16 80 16 16 80 16 16 80 16 16 80 16 16 80 16 16 80 16 16 80 16 16 80 16 16 80 16 16 80 16 16 80 16 16 80 16 16 80 16 16 80 16 16 80 16 16 80 16 16 80 16 16 80 16 16 88 16 16 88 16 16 88 16 16 88 16 16 88 16 16 88 16 16 88 16 16 88 16 16 88 16 16 88 16 16 88 16 16 88 16 16 88 16 16 88 16 16 88 16 16 88 16 16 88 16 16 88 16 16 88 16 16 88 16 16 88 16 16 88 16 16 88 16 16 88 16 16 88 16 16 88 16 16 88 16 16 88 16 16 88 16 16 88 16 16 88 16 16 88 16 16
224 32 16 224 32 16 224 32 16 224 32 16 224 32 16 224 32 16 224 32 16 224 32 16 224 32 16 224 32 16 224 32 16 224 32 16 224 32 16 224 32 16 224 32 16 224 32 16 224 32 16 224 32 16 224 32 16 224 32 16 224 32 16 224 32 16 224 32 16 224 32 16 224 32 16 224 32 16 224 32 16 224 32 16 224 32 16 224 32 16 224 32 16 224 32 16 88 40 32 88 40 32 88 40 32 88 40 32 88 40 32 88 40 32 88 40 32 88 40 32 88 40 32 88 40 32 88 40 32 88 40 32 88 40 32 88 40 32 88 40 32 88 40 32 88 40 32 88 40 32 88 40 32 88 40 32 88 40 32 88 40 32 88 40 32 88 40 32 88 40 32 88 40 32 88 40 32 88 40 32 88 40 32 88 40 32 88 40 32 88 40 32 88 40 32 88 40 32 88 40 32 88 40 32 88 40 32 88 40 32 88 40 32 88 40 32 88 40 32 88 40 32 88 40 32 88 40 32 88 40 32 88 40 32 88 40 32 88 40 32 88 40 32 88 40 32 88 40 32 88 40 32 88 40 32 88 40 32 88 40 32 88 40 32 88 40 32 88 40 32 88 40 32 88 40 32 88 40 32 88 40 32 88 40 32 88 40 32 224 32 16 224 32 16 224 32 16 224 32 16 224 32 16 224 32 16 224 32 16 224 32 16 224 32 16 224 32 16 224 32 16 224 32 16 224 32 16 224 32 16 224 32 16 224 32 16 224 32 16 224 32 16 224 32 16 224 32 16 224 32 16 224 32 16 224 32 16 224 32 16 224 32 16 224 32 16 224 32 16 224 32 16 224 32 16 224 32 16 224 32 16 224 32 16
224 32 16 224 32 16 224 32 16 224 32 16 224 32 16 224 32 16 224 32 16 224 32 16 224 32 16 224 32 16 224 32 16 224 32 16 224 32 16 224 32 16 224 32 16 224 32 16 224 32 16 224 32 16 224 32 16 224 32 16 224 32 16 224 32 16 224 32 16 224 32 16 224 32 16 224 32 16 224 32 16 224 32 16 224 32 16 224 32 16 224 32 16 224 32 16 88 40 32 88 40 32 88 40 32 88 40 32 88 40 32 88 40 32 88 40 32 88 40 32 88 40 32 88 40 32 88 40 32 88 40 32 88 40 32 88 40 32 88 40 32 88 40 32 88 40 32 88 40 32 88 40 32 88 40 32 88 40 32 88 40 32 88 40 32 88 40 32 88 40 32 88 40 32 88 40 32 88 40 32 88 40 32 88 40 32 88 40 32 88 40 32 88 40 32 88 40 32 88 40 32 88 40 32 88 40 32 88 40 32 88 40 32 88 40 32 88 40 32 88 40 32 88 40 32 88 40 32 88 40 32 88 40 32 88 40 32 88 40 32 88 40 32 88 40 32 88 40 32 88 40 32 88 40 32 88 40 32 88 40 32 88 40 32 88 40 32 88 40 32 88 40 32 88 40 32 88 40 32 88 40 32 88 40 32 88 40 32 224 32 16 224 32 16 224 32 16 224 32 16 224 32 16 224 32 16 224 32 16 224 32 16 224 32 16 224 32 16 224 32 16 224 32 16 224 32 16 224 32 16 224 32 16 224 32 16 224 32 16 224 32 16 224 32 16 224 32 16 224 32 16 224 32 16 224 32 16 224 32 16 224 32 16 224 32 16 224 32 16 224 32 16 224 32 16 224 32 16 224 32 16 224 32 16
224 32 16 224 32 16 224 32 16 224 32 16 224 32 16 224 32 16 224 32 16 224 32 16 224 32 16 224 32 16 224 32 16 224 32 16 224 32 16 224 32 16 224 32 16 224 32 16 224 32 16 224 32 16 224 32 16 224 32 16 224 32 16 224 32 16 224 32 16 224 32 16 224 32 16 224 32 16 224 32 16 224 32 16 224 32 16 224 32 16 224 32 16 224 32 16 88 40 32 88 40 32 88 40 32 88 40 32 88 40 32 88 40 32 88 40 32 88 40 32 88 40 32 88 40 32 88 40 32 88 40 32 88 40 32 88 40 32 88 40 32 88 40 32 88 40 32 88 40 32 88 40 32 88 40 32 88 40 32 88 40 32 88 40 32 88 40 32 88 40 32 88 40 32 88 40 32 88 40 32 88 40 32 88 40 32 88 40 32 88 40 32 88 40 32 88 40 32 88 40 32 88 40 32 88 40 32 88 40 32 88 40 32 88 40 32 88 40 32 88 40 32 88 40 32 88 40 32 88 40 32 88 40 32 88 40 32 88 40 32 88 40 32 88 40 32 88 40 32 88 40 32 88 40 32 88 40 32 88 40 32 88 40 32 88 40 32 88 40 32 88 40 32 88 40 32 88 40 32 88 40 32 88 40 32 88 40 32 224 32 16 224 32 16 224 32 16 224 32 16 224 32 16 224 32 16 224 32 16 224 32 16 224 32 16 224 32 16 224 32 16 224 32 16 224 32 16 224 32 16 224 32 16 224 32 16 224 32 16 224 32 16 224 32 16 224 32 16 224 32 16 224 32 16 224 32 16 224 32 16 224 32 16 224 32 16 224 32 16 224 32 16 224 32 16 224 32 16 224 32 16 224 32 16
224 32 16 224 32 16 224 32 16 224 32 16 224 32 16 224 32 16 224 32 16 224 32 16 224 32 16 224 32 16 224 32 16 224 32 16 224 32 16 224 32 16 224 32 16 224 32 16 224 32 16 224 32 16 224 32 16 224 32 16 224 32 16 224 32 16 224 32 16 224 32 16 224 32 16 224 32 16 224 32 16 224 32 16 224 32 16 224 32 16 224 32 16 224 32 16 88 40 32 88 40 32 88 40 32 88 40 32 88 40 32 88 40 32 88 40 32 88 40 32 88 40 32 88 40 32 88 40 32 88 40 32 88 40 32 88 40 32 88 40 32 88 40 32 88 40 32 88 40 32 88 40 32 88 40 32 88 40 32 88 40 32 88 40 32 88 40 32 88 40 32 88 40 32 88 40 32 88 40 32 88 40 32 88 40 32 88 40 32 88 40 32 88 40 32 88 40 32 88 40 32 88 40 32 88 40 32 88 40 32 88 40 32 88 40 32 88 40 32 88 40 32 88 40 32 88 40 32 88 40 32 88 40 32 88 40 32 88 40 32 88 40 32 88 40 32 88 40 32 88 40 32 88 40 32 88 40 32 88 40 32 88 40 32 88 40 32 88 40 32 88 40 32 88 40 32 88 40 32 88 40 32 88 40 32 88 40 32 224 32 16 224 32 16 224 32 16 224 32 16 224 32 16 224 32 16 224 32 16 224 32 16 224 32 16 224 32 16 224 32 16 224 32 16 224 32 16 224 32 16 224 32 16 224 32 16 224 32 16 224 32 16 224 32 16 224 32 16 224 32 16 224 32 16 224 32 16 224 32 16 224 32 16 224 32 16 224 32 16 224 32 16 224 32 16 224 32 16 224 32 16 224 32 16
224 32 16 224 32 16 224 32 16 224 32 16 224 32 16 224 32 16 224 32 16 224 32 16 224 32 16 224 32 16 224 32 16 224 32 16 224 32 16 224 32 16 224 32 16 224 32 16 224 32 16 224 32 16 224 32 16 224 32 16 224 32 16 224 32 16 224 32 16 224 32 16 224 32 16 224 32 16 224 32 16 224 32 16 224 32 16 224 32 16 224 32 16 224 32 16 88 40 32 88 40 32 88 40 32 88 40 32 88 40 32 88 40 32 88 40 32 88 40 32 88 40 32 88 40 32 88 40 32 88 40 32 88 40 32 88 40 32 88 40 32 88 40 32 88 40 32 88 40 32 88 40 32 88 40 32 88 40 32 88 40 32 88 40 32 88 40 32 88 40 32 88 40 32 88 40 32 88 40 32 88 40 32 88 40 32 88 40 32 88 40 32 88 40 32 88 40 32 88 40 32 88 40 32 88 40 32 88 40 32 88 40 32 88 40 32 88 40 32 88 40 32 88 40 32 88 40 32 88 40 32 88 40 32 88 40 32 88 40 32 88 40 32 88 40 32 88 40 32 88 40 32 88 40 32 88 40 32 88 40 32 88 40 32 88 40 32 88 40 32 88 40 32 88 40 32 88 40 32 88 40 32 88 40 32 88 40 32 224 32 16 224 32 16 224 32 16 224 32 16 224 32 16 224 32 16 224 32 16 224 32 16 224 32 16 224 32 16 224 32 16 224 32 16 224 32 16 224 32 16 224 32 16 224 32 16 224 32 16 224 32 16 224 32 16 224 32 16 224 32 16 224 32 16 224 32 16 224 32 16 224 32 16 224 32 16 224 32 16 224 32 16 224 32 16 224 32 16 224 32 16 224 32 16
224 32 16 224 32 16 224 32 16 224 32 16 224 32 16 224 32 16 224 32 16 224 32 16 224 32 16 224 32 16 224 32 16 224 32 16 224 32 16 224 32 16 224 32 16 224 32 16 224 32 16 224 32 16 224 32 16 224 32 16 224 32 16 224 32 16 224 32 16 224 32 16 224 32 16 224 32 16 224 32 16 224 32 16 224 32 16 224 32 16 224 32 16 224 32 16 88 40 32 88 40 32 88 40 32 88 40 32 88 40 32 88 40 32 88 40 32 88 40 32 88 40 32 88 40 32 88 40 32 88 40 32 88 40 32 88 40 32 88 40 32 88 40 32 88 40 32 88 40 32 88 40 32 88 40 32 88 40 32 88 40 32 88 40 32 88 40 32 88 40 32 88 40 32 88 40 32 88 40 32 88 40 32 88 40 32 88 40 32 88 40 32 88 40 32 88 40 32 88 40 32 88 40 32 88 40 32 88 40 32 88 40 32 88 40 32 88 40 32 88 40 32 88 40 32 88 40 32 88 40 32 88 40 32 88 40 32 88 40 32 88 40 32 88 40 32 88 40 32 88 40 32 88 40 32 88 40 32 88 40 32 88 40 32 88 40 32 88 40 32 88 40 32 88 40 32 88 40 32 88 40 32 88 40 32 88 40 32 224 32 16 224 32 16 224 32 16 224 32 16 224 32 16 224 32 16 224 32 16 224 32 16 224 32 16 224 32 16 224 32 16 224 32 16 224 32 16 224 32 16 224 32 16 224 32 16 224 32 16 224 32 16 224 32 16 224 32 16 224 32 16 224 32 16 224 32 16 224 32 16 224 32 16 224 32 16 224 32 16 224 32 16 224 32 16 224 32 16 224 32 16 224 32 16
224 32 16 224 32 16 224 32 16 224 32 16 224 32 16 224 32 16 224 32 16 224 32 16 224 32 16 224 32 16 224 32 16 224 32 16 224 32 16 224 32 16 224 32 16 224 32 16 224 32 16 224 32 16 224 32 16 224 32 16 224 32 16 224 32 16 224 32 16 224 32 16 224 32 16 224 32 16 224 32 16 224 32 16 224 32 16 224 32 16 224 32 16 224 32 16 88 40 32 88 40 32 88 40 32 88 40 32 88 40 32 88 40 32 88 40 32 88 40 32 88 40 32 88 40 32 88 40 32 88 40 32 88 40 32 88 40 32 88 40 32 88 40 32 88 40 32 88 40 32 88 40 32 88 40 32 88 40 32 88 40 32 88 40 32 88 40 32 88 40 32 88 40 32 88 40 32 88 40 32 88 40 32 88 40 32 88 40 32 88 40 32 88 40 32 88 40 32 88 40 32 88 40 32 88 40 32 88 40 32 88 40 32 88 40 32 88 40 32 88 40 32 88 40 32 88 40 32 88 40 32 88 40 32 88 40 32 88 40 32 88 40 32 88 40 32 88 40 32 88 40 32 88 40 32 88 40 32 88 40 32 88 40 32 88 40 32 88 40 32 88 40 32 88 40 32 88 40 32 88 40 32 88 40 32 88 40 32 224 32 16 224 32 16 224 32 16 224 32 16 224 32 16 224 32 16 224 32 16 224 32 16 224 32 16 224 32 16 224 32 16 224 32 16 224 32 16 224 32 16 224 32 16 224 32 16 224 32 16 224 32 16 224 32 16 224 32 16 224 32 16 224 32 16 224 32 16 224 32 16 224 32 16 224 32 16 224 32 16 224 32 16 224 32 16 224 32 16 224 32 16 224 32 16
224 32 16 224 32 16 224 32 16 224 32 16 224 32 16 224 32 16 224 32 16 224 32 16 224 32 16 224 32 16 224 32 16 224 32 16 224 32 16 224 32 16 224 32 16 224 32 16 224 32 16 224 32 16 224 32 16 224 32 16 224 32 16 224 32 16 224 32 16 224 32 16 224 32 16 224 32 16 224 32 16 224 32 16 224 32 16 224 32 16 224 32 16 224 32 16 88 40 32 88 40 32 88 40 32 88 40 32 88 40 32 88 40 32 88 40 32 88 40 32 88 40 32 88 40 32 88 40 32 88 40 32 88 40 32 88 40 32 88 40 32 88 40 32 88 40 32 88 40 32 88 40 32 88 40 32 88 40 32 88 40 32 88 40 32 88 40 32 88 40 32 88 40 32 88 40 32 88 40 32 88 40 32 88 40 32 88 40 32 88 40 32 88 40 32 88 40 32 88 40 32 88 40 32 88 40 32 88 40 32 88 40 32 88 40 32 88 40 32 88 40 32 88 40 32 88 40 32 88 40 32 88 40 32 88 40 32 88 40 32 88 40 32 88 40 32 88 40 32 88 40 32 88 40 32 88 40 32 88 40 32 88 40 32 88 40 32 88 40 32 88 40 32 88 40 32 88 40 32 88 40 32 88 40 32 88 40 32 224 32 16 224 32 16 224 32 16 224 32 16 224 32 16 224 32 16 224 32 16 224 32 16 224 32 16 224 32 16 224 32 16 224 32 16 224 32 16 224 32 16 224 32 16 224 32 16 224 32 16 224 32 16 224 32 16 224 32 16 224 32 16 224 32 16 224 32 16 224 32 16 224 32 16 224 32 16 224 32 16 224 32 16 224 32 16 224 32 16 224 32 16 224 32 16
224 32 16 224 32 16 224 32 16 224 32 16 224 32 16 224 32 16 224 32 16 224 32 16 224 32 16 224 32 16 224 32 16 224 32 16 224 32 16 224 32 16 224 32 16 224 32 16 224 32 16 224 32 16 224 32 16 224 32 16 224 32 16 224 32 16 224 32 16 224 32 16 224 32 16 224 32 16 224 32 16 224 32 16 224 32 16 224 32 16 224 32 16 224 32 16 88 40 32 88 40 32 88 40 32 88 40 32 88 40 32 88 40 32 88 40 32 88 40 32 88 40 32 88 40 32 88 40 32 88 40 32 88 40 32 88 40 32 88 40 32 88 40 32 88 40 32 88 40 32 88 40 32 88 40 32 88 40 32 88 40 32 88 40 32 88 40 32 88 40 32 88 40 32 88 40 32 88 40 32 88 40 32 88 40 32 88 40 32 88 40 32 88 40 32 88 40 32 88 40 32 88 40 32 88 40 32 88 40 32 88 40 32 88 40 32 88 40 32 88 40 32 88 40 32 88 40 32 88 40 32 88 40 32 88 40 32 88 40 32 88 40 32 88 40 32 88 40 32 88 40 32 88 40 32 88 40 32 88 40 32 88 40 32 88 40 32 88 40 32 88 40 32 88 40 32 88 40 32 88 40 32 88 40 32 88 40 32 224 32 16 224 32 16 224 32 16 224 32 16 224 32 16 224 32 16 224 32 16 224 32 16 224 32 16 224 32 16 224 32 16 224 32 16 224 32 16 224 32 16 224 32 16 224 32 16 224 32 16 224 32 16 224 32 16 224 32 16 224 32 16 224 32 16 224 32 16 224 32 16 224 32 16 224 32 16 224 32 16 224 32 16 224 32 16 224 32 16 224 32 16 224 32 16
224 32 16 224 32 16 224 32 16 224 32 16 224 32 16 224 32 16 224 32 16 224 32 16 224 32 16 224 32 16 224 32 16 224 32 16 224 32 16 224 32 16 224 32 16 224 32 16 224 32 16 224 32 16 224 32 16 224 32 16 224 32 16 224 32 16 224 32 16 224 32 16 224 32 16 224 32 16 224 32 16 224 32 16 224 32 16 224 32 16 224 32 16 224 32 16 88 40 32 88 40 32 88 40 32 88 40 32 88 40 32 88 40 32 88 40 32 88 40 32 88 40 32 88 40 32 88 40 32 88 40 32 88 40 32 88 40 32 88 40 32 88 40 32 88 40 32 88 40 32 88 40 32 88 40 32 88 40 32 88 40 32 88 40 32 88 40 32 88 40 32 88 40 32 88 40 32 88 40 32 88 40 32 88 40 32 88 40 32 88 40 32 88 40 32 88 40 32 88 40 32 88 40 32 88 40 32 88 40 32 88 40 32 88 40 32 88 40 32 88 40 32 88 40 32 88 40 32 88 40 32 88 40 32 88 40 32 88 40 32 88 40 32 88 40 32 88 40 32 88 40 32 88 40 32 88 40 32 88 40 32 88 40 32 88 40 32 88 40 32 88 40 32 88 40 32 88 40 32 88 40 32 88 40 32 88 40 32 224 32 16 224 32 16 224 32 16 224 32 16 224 32 16 224 32 16 224 32 16 224 32 16 224 32 16 224 32 16 224 32 16 224 32 16 224 32 16 224 32 16 224 32 16 224 32 16 224 32 16 224 32 16 224 32 16 224 32 16 224 32 16 224 32 16 224 32 16 224 32 16 224 32 16 224 32 16 224 32 16 224 32 16 224 32 16 224 32 16 224 32 16 224 32 16
224 32 16 224 32 16 224 32 16 224 32 16 224 32 16 224 32 16 224 32 16 224 32 16 224 32 16 224 32 16 224 32 16 224 32 16 224 32 16 224 32 16 224 32 16 224 32 16 224 32 16 224 32 16 224 32 16 224 32 16 224 32 16 224 32 16 224 32 16 224 32 16 224 32 16 224 32 16 224 32 16 224 32 16 224 32 16 224 32 16 224 32 16 224 32 16 88 40 32 88 40 32 88 40 32 88 40 32 88 40 32 88 40 32 88 40 32 88 40 32 88 40 32 88 40 32 88 40 32 88 40 32 88 40 32 88 40 32 88 40 32 88 40 32 88 40 32 88 40 32 88 40 32 88 40 32 88 40 32 88 40 32 88 40 32 88 40 32 88 40 32 88 40 32 88 40 32 88 40 32 88 40 32 88 40 32 88 40 32 88 40 32 88 40 32 88 40 32 88 40 32 88 40 32 88 40 32 88 40 32 88 40 32 88 40 32 88 40 32 88 40 32 88 40 32 88 40 32 88 40 32 88 40 32 88 40 32 88 40 32 88 40 32 88 40 32 88 40 32 88 40 32 88 40 32 88 40 32 88 40 32 88 40 32 88 40 32 88 40 32 88 40 32 88 40 32 88 40 32 88 40 32 88 40 32 88 40 32 224 32 16 224 32 16 224 32 16 224 32 16 224 32 16 224 32 16 224 32 16 224 32 16 224 32 16 224 32 16 224 32 16 224 32 16 224 32 16 224 32 16 224 32 16 224 32 16 224 32 16 224 32 16 224 32 16 224 32 16 224 32 16 224 32 16 224 32 16 224 32 16 224 32 16 224 32 16 224 32 16 224 32 16 224 32 16 224 32 16 224 32 16 224 32 16
224 32 16 224 32 16 224 32 16 224 32 16 224 32 16 224 32 16 224 32 16 224 32 16 224 32 16 224 32 16 224 32 16 224 32 16 224 32 16 224 32 16 224 32 16 224 32 16 224 32 16 224 32 16 224 32 16 224 32 16 224 32 16 224 32 16 224 32 16 224 32 16 224 32 16 224 32 16 224 32 16 224 32 16 224 32 16 224 32 16 224 32 16 224 32 16 88 40 32 88 40 32 88 40 32 88 40 32 88 40 32 88 40 32 88 40 32 88 40 32 88 40 32 88 40 32 88 40 32 88 40 32 88 40 32 88 40 32 88 40 32 88 40 32 88 40 32 88 40 32 88 40 32 88 40 32 88 40 32 88 40 32 88 40 32 88 40 32 88 40 32 88 40 32 88 40 32 88 40 32 88 40 32 88 40 32 88 40 32 88 40 32 88 40 32 88 40 32 88 40 32 88 40 32 88 40 32 88 40 32 88 40 32 88 40 32 88 40 32 88 40 32 88 40 32 88 40 32 88 40 32 88 40 32 88 40 32 88 40 32 88 40 32 88 40 32 88 40 32 88 40 32 88 40 32 88 40 32 88 40 32 88 40 32 88 40 32 88 40 32 88 40 32 88 40 32 88 40 32 88 40 32 88 40 32 88 40 32 224 32 16 224 32 16 224 32 16 224 32 16 224 32 16 224 32 16 224 32 16 224 32 16 224 32 16 224 32 16 224 32 16 224 32 16 224 32 16 224 32 16 224 32 16 224 32 16 224 32 16 224 32 16 224 32 16 224 32 16 224 32 16 224 32 16 224 32 16 224 32 16 224 32 16 224 32 16 224 32 16 224 32 16 224 32 16 224 32 16 224 32 16 224 32 16
224 32 16 224 32 16 224 32 16 224 32 16 224 32 16 224 32 16 224 32 16 224 32 16 224 32 16 224 32 16 224 32 16 224 32 16 224 32 16 224 32 16 224 32 16 224 32 16 224 32 16 224 32 16 224 32 16 224 32 16 224 32 16 224 32 16 224 32 16 224 32 16 224 32 16 224 32 16 224 32 16 224 32 16 224 32 16 224 32 16 224 32 16 224 32 16 88 40 32 88 40 32 88 40 32 88 40 32 88 40 32 88 40 32 88 40 32 88 40 32 88 40 32 88 40 32 88 40 32 88 40 32 88 40 32 88 40 32 88 40 32 88 40 32 88 40 32 88 40 32 88 40 32 88 40 32 88 40 32 88 40 32 88 40 32 88 40 32 88 40 32 88 40 32 88 40 32 88 40 32 88 40 32 88 40 32 88 40 32 88 40 32 88 40 32 88 40 32 88 40 32 88 40 32 88 40 32 88 40 32 88 40 32 88 40 32 88 40 32 88 40 32 88 40 32 88 40 32 88 40 32 88 40 32 88 40 32 88 40 32 88 40 32 88 40 32 88 40 32 88 40 32 88 40 32 88 40 32 88 40 32 88 40 32 88 40 32 88 40 32 88 40 32 88 40 32 88 40 32 88 40 32 88 40 32 88 40 32 224 32 16 224 32 16 224 32 16 224 32 16 224 32 16 224 32 16 224 32 16 224 32 16 224 32 16 224 32 16 224 32 16 224 32 16 224 32 16 224 32 16 224 32 16 224 32 16 224 32 16 224 32 16 224 32 16 224 32 16 224 32 16 224 32 16 224 32 16 224 32 16 224 32 16 224 32 16 224 32 16 224 32 16 224 32 16 224 32 16 224 32 16 224 32 16
224 32 16 224 32 16 224 32 16 224 32 16 224 32 16 224 32 16 224 32 16 224 32 16 224 32 16 224 32 16 224 32 16 224 32 16 224 32 16 224 32 16 224 32 16 224 32 16 224 32 16 224 32 16 224 32 16 224 32 16 224 32 16 224 32 16 224 32 16 224 32 16 224 32 16 224 32 16 224 32 16 224 32 16 224 32 16 224 32 16 224 32 16 224 32 16 88 40 32 88 40 32 88 40 32 88 40 32 88 40 32 88 40 32 88 40 32 88 40 32 88 40 32 88 40 32 88 40 32 88 40 32 88 40 32 88 40 32 88 40 32 88 40 32 88 40 32 88 40 32 88 40 32 88 40 32 88 40 32 88 40 32 88 40 32 88 40 32 88 40 32 88 40 32 88 40 32 88 40 32 88 40 32 88 40 32 88 40 32 88 40 32 88 40 32 88 40 32 88 40 32 88 40 32 88 40 32 88 40 32 88 40 32 88 40 32 88 40 32 88 40 32 88 40 32 88 40 32 88 40 32 88 40 32 88 40 32 88 40 32 88 40 32 88 40 32 88 40 32 88 40 32 88 40 32 88 40 32 88 40 32 88 40 32 88 40 32 88 40 32 88 40 32 88 40 32 88 40 32 88 40 32 88 40 32 88 40 32 224 32 16 224 32 16 224 32 16 224 32 16 224 32 16 224 32 16 224 32 16 224 32 16 224 32 16 224 32 16 224 32 16 224 32 16 224 32 16 224 32 16 224 32 16 224 32 16 224 32 16 224 32 16 224 32 16 224 32 16 224 32 16 224 32 16 224 32 16 224 32 16 224 32 16 224 32 16 224 32 16 224 32 16 224 32 16 224 32 16 224 32 16 224 32 16
224 32 16 224 32 16 224 32 16 224 32 16 224 32 16 224 32 16 224 32 16 224 32 16 224 32 16 224 32 16 224 32 16 224 32 16 224 32 16 224 32 16 224 32 16 224 32 16 224 32 16 224 32 16 224 32 16 224 32 16 224 32 16 224 32 16 224 32 16 224 32 16 224 32 16 224 32 16 224 32 16 224 32 16 224 32 16 224 32 16 224 32 16 224 32 16 88 40 32 88 40 32 88 40 32 88 40 32 88 40 32 88 40 32 88 40 32 88 40 32 88 40 32 88 40 32 88 40 32 88 40 32 88 40 32 88 40 32 88 40 32 88 40 32 88 40 32 88 40 32 88 40 32 88 40 32 88 40 32 88 40 32 88 40 32 88 40 32 88 40 32 88 40 32 88 40 32 88 40 32 88 40 32 88 40 32 88 40 32 88 40 32 88 40 32 88 40 32 88 40 32 88 40 32 88 40 32 88 40 32 88 40 32 88 40 32 88 40 32 88 40 32 88 40 32 88 40 32 88 40 32 88 40 32 88 40 32 88 40 32 88 40 32 88 40 32 88 40 32 88 40 32 88 40 32 88 40 32 88 40 32 88 40 32 88 40 32 88 40 32 88 40 32 88 40 32 88 40 32 88 40 32 88 40 32 88 40 32 224 32 16 224 32 16 224 32 16 224 32 16 224 32 16 224 32 16 224 32 16 224 32 16 224 32 16 224 32 16 224 32 16 224 32 16 224 32 16 224 32 16 224 32 16 224 32 16 224 32 16 224 32 16 224 32 16 224 32 16 224 32 16 224 32 16 224 32 16 224 32 16 224 32 16 224 32 16 224 32 16 224 32 16 224 32 16 224 32 16 224 32 16 224 32 16
224 32 16 224 32 16 224 32 16 224 32 16 224 32 16 224 32 16 224 32 16 224 32 16 224 32 16 224 32 16 224 32 16 224 32 16 224 32 16 224 32 16 224 32 16 224 32 16 224 32 16 224 32 16 224 32 16 224 32 16 224 32 16 224 32 16 224 32 16 224 32 16 224 32 16 224 32 16 224 32 16 224 32 16 224 32 16 224 32 16 224 32 16 224 32 16 88 40 32 88 40 32 88 40 32 88 40 32 88 40 32 88 40 32 88 40 32 88 40 32 88 40 32 88 40 32 88 40 32 88 40 32 88 40 32 88 40 32 88 40 32 88 40 32 88 40 32 88 40 32 88 40 32 88 40 32 88 40 32 88 40 32 88 40 32 88 40 32 88 40 32 88 40 32 88 40 32 88 40 32 88 40 32 88 40 32 88 40 32 88 40 32 88 40 32 88 40 32 88 40 32 88 40 32 88 40 32 88 40 32 88 40 32 88 40 32 88 40 32 88 40 32 88 40 32 88 40 32 88 40 32 88 40 32 88 40 32 88 40 32 88 40 32 88 40 32 88 40 32 88 40 32 88 40 32 88 40 32 88 40 32 88 40 32 88 40 32 88 40 32 88 40 32 88 40 32 88 40 32 88 40 32 88 40 32 88 40 32 224 32 16 224 32 16 224 32 16 224 32 16 224 32 16 224 32 16 224 32 16 224 32 16 224 32 16 224 32 16 224 32 16 224 32 16 224 32 16 224 32 16 224 32 16 224 32 16 224 32 16 224 32 16 224 32 16 224 32 16 224 32 16 224 32 16 224 32 16 224 32 16 224 32 16 224 32 16 224 32 16 224 32 16 224 32 16 224 32 16 224 32 16 224 32 16
224 32 16 224 32 16 224 32 16 224 32 16 224 32 16 224 32 16 224 32 16 224 32 16 224 32 16 224 32 16 224 32 16 224 32 16 224 32 16 224 32 16 224 32 16 224 32 16 224 32 16 224 32 16 224 32 16 224 32 16 224 32 16 224 32 16 224 32 16 224 32 16 224 32 16 224 32 16 224 32 16 224 32 16 224 32 16 224 32 16 224 32 16 224 32 16 88 40 32 88 40 32 88 40 32 88 40 32 88 40 32 88 40 32 88 40 32 88 40 32 88 40 32 88 40 32 88 40 32 88 40 32 88 40 32 88 40 32 88 40 32 88 40 32 88 40 32 88 40 32 88 40 32 88 40 32 88 40 32 88 40 32 88 40 32 88 40 32 88 40 32 88 40 32 88 40 32 88 40 32 88 40 32 88 40 32 88 40 32 88 40 32 88 40 32 88 40 32 88 40 32 88 40 32 88 40 32 88 40 32 88 40 32 88 40 32 88 40 32 88 40 32 88 40 32 88 40 32 88 40 32 88 40 32 88 40 32 88 40 32 88 40 32 88 40 32 88 40 32 88 40 32 88 40 32 88 40 32 88 40 32 88 40 32 88 40 32 88 40 32 88 40 32 88 40 32 88 40 32 88 40 32 88 40 32 88 40 32 224 32 16 224 32 16 224 32 16 224 32 16 224 32 16 224 32 16 224 32 16 224 32 16 224 32 16 224 32 16 224 32 16 224 32 16 224 32 16 224 32 16 224 32 16 224 32 16 224 32 16 224 32 16 224 32 16 224 32 16 224 32 16 224 32 16 224 32 16 224 32 16 224 32 16 224 32 16 224 32 16 224 32 16 224 32 16 224 32 16 224 32 16 224 32 16
224 32 16 224 32 16 224 32 16 224 32 16 224 32 16 224 32 16 224 32 16 224 32 16 224 32 16 224 32 16 224 32 16 224 32 16 224 32 16 224 32 16 224 32 16 224 32 16 224 32 16 224 32 16 224 32 16 224 32 16 224 32 16 224 32 16 224 32 16 224 32 16 224 32 16 224 32 16 224 32 16 224 32 16 224 32 16 224 32 16 224 32 16 224 32 16 88 40 32 88 40 32 88 40 32 88 40 32 88 40 32 88 40 32 88 40 32 88 40 32 88 40 32 88 40 32 88 40 32 88 40 32 88 40 32 88 40 32 88 40 32 88 40 32 88 40 32 88 40 32 88 40 32 88 40 32 88 40 32 88 40 32 88 40 32 88 40 32 88 40 32 88 40 32 88 40 32 88 40 32 88 40 32 88 40 32 88 40 32 88 40 32 88 40 32 88 40 32 88 40 32 88 40 32 88 40 32 88 40 32 88 40 32 88 40 32 88 40 32 88 40 32 88 40 32 88 40 32 88 40 32 88 40 32 88 40 32 88 40 32 88 40 32 88 40 32 88 40 32 88 40 32 88 40 32 88 40 32 88 40 32 88 40 32 88 40 32 88 40 32 88 40 32 88 40 32 88 40 32 88 40 32 88 40 32 88 40 32 224 32 16 224 32 16 224 32 16 224 32 16 224 32 16 224 32 16 224 32 16 224 32 16 224 32 16 224 32 16 224 32 16 224 32 16 224 32 16 224 32 16 224 32 16 224 32 16 224 32 16 224 32 16 224 32 16 224 32 16 224 32 16 224 32 16 224 32 16 224 32 16 224 32 16 224 32 16 224 32 16 224 32 16 224 32 16 224 32 16 224 32 16 224 32 16
224 32 16 224 32 16 224 32 16 224 32 16 224 32 16 224 32 16 224 32 16 224 32 16 224 32 16 224 32 16 224 32 16 224 32 16 224 32 16 224 32 16 224 32 16 224 32 16 224 32 16 224 32 16 224 32 16 224 32 16 224 32 16 224 32 16 224 32 16 224 32 16 224 32 16 224 32 16 224 32 16 224 32 16 224 32 16 224 32 16 224 32 16 224 32 16 88 40 32 88 40 32 88 40 32 88 40 32 88 40 32 88 40 32 88 40 32 88 40 32 88 40 32 88 40 32 88 40 32 88 40 32 88 40 32 88 40 32 88 40 32 88 40 32 88 40 32 88 40 32 88 40 32 88 40 32 88 40 32 88 40 32 88 40 32 88 40 32 88 40 32 88 40 32 88 40 32 88 40 32 88 40 32 88 40 32 88 40 32 88 40 32 88 40 32 88 40 32 88 40 32 88 40 32 88 40 32 88 40 32 88 40 32 88 40 32 88 40 32 88 40 32 88 40 32 88 40 32 88 40 32 88 40 32 88 40 32 88 40 32 88 40 32 88 40 32 88 40 32 88 40 32 88 40 32 88 40 32 88 40 32 88 40 32 88 40 32 88 40 32 88 40 32 88 40 32 88 40 32 88 40 32 88 40 32 88 40 32 224 32 16 224 32 16 224 32 16 224 32 16 224 32 16 224 32 16 224 32 16 224 32 16 224 32 16 224 32 16 224 32 16 224 32 16 224 32 16 224 32 16 224 32 16 224 32 16 224 32 16 224 32 16 224 32 16 224 32 16 224 32 16 224 32 16 224 32 16 224 32 16 224 32 16 224 32 16 224 32 16 224 32 16 224 32 16 224 32 16 224 32 16 224 32 16
224 32 16 224 32 16 224 32 16 224 32 16 224 32 16 224 32 16 224 32 16 224 32 16 224 32 16 224 32 16 224 32 16 224 32 16 224 32 16 224 32 16 224 32 16 224 32 16 224 32 16 224 32 16 224 32 16 224 32 16 224 32 16 224 32 16 224 32 16 224 32 16 224 32 16 224 32 16 224 32 16 224 32 16 224 32 16 224 32 16 224 32 16 224 32 16 88 40 32 88 40 32 88 40 32 88 40 32 88 40 32 88 40 32 88 40 32 88 40 32 88 40 32 88 40 32 88 40 32 88 40 32 88 40 32 88 40 32 88 40 32 88 40 32 88 40 32 88 40 32 88 40 32 88 40 32 88 40 32 88 40 32 88 40 32 88 40 32 88 40 32 88 40 32 88 40 32 88 40 32 88 40 32 88 40 32 88 40 32 88 40 32 88 40 32 88 40 32 88 40 32 88 40 32 88 40 32 88 40 32 88 40 32 88 40 32 88 40 32 88 40 32 88 40 32 88 40 32 88 40 32 88 40 32 88 40 32 88 40 32 88 40 32 88 40 32 88 40 32 88 40 32 88 40 32 88 40 32 88 40 32 88 40 32 88 40 32 88 40 32 88 40 32 88 40 32 88 40 32 88 40 32 88 40 32 88 40 32 224 32 16 224 32 16 224 32 16 224 32 16 224 32 16 224 32 16 224 32 16 224 32 16 224 32 16 224 32 16 224 32 16 224 32 16 224 32 16 224 32 16 224 32 16 224 32 16 224 32 16 224 32 16 224 32 16 224 32 16 224 32 16 224 32 16 224 32 16 224 32 16 224 32 16 224 32 16 224 32 16 224 32 16 224 32 16 224 32 16 224 32 16 224 32 16
224 32 16 224 32 16 224 32 16 224 32 16 224 32 16 224 32 16 224 32 16 224 32 16 224 32 16 224 32 16 224 32 16 224 32 16 224 32 16 224 32 16 224 32 16 224 32 16 224 32 16 224 32 16 224 32 16 224 32 16 224 32 16 224 32 16 224 32 16 224 32 16 224 32 16 224 32 16 224 32 16 224 32 16 224 32 16 224 32 16 224 32 16 224 32 16 88 40 32 88 40 32 88 40 32 88 40 32 88 40 32 88 40 32 88 40 32 88 40 32 88 40 32 88 40 32 88 40 32 88 40 32 88 40 32 88 40 32 88 40 32 88 40 32 88 40 32 88 40 32 88 40 32 88 40 32 88 40 32 88 40 32 88 40 32 88 40 32 88 40 32 88 40 32 88 40 32 88 40 32 88 40 32 88 40 32 88 40 32 88 40 32 88 40 32 88 40 32 88 40 32 88 40 32 88 40 32 88 40 32 88 40 32 88 40 32 88 40 32 88 40 32 88 40 32 88 40 32 88 40 32 88 40 32 88 40 32 88 40 32 88 40 32 88 40 32 88 40 32 88 40 32 88 40 32 88 40 32 88 40 32 88 40 32 88 40 32 88 40 32 88 40 32 88 40 32 88 40 32 88 40 32 88 40 32 88 40 32 224 32 16 224 32 16 224 32 16 224 32 16 224 32 16 224 32 16 224 32 16 224 32 16 224 32 16 224 32 16 224 32 16 224 32 16 224 32 16 224 32 16 224 32 16 224 32 16 224 32 16 224 32 16 224 32 16 224 32 16 224 32 16 224 32 16 224 32 16 224 32 16 224 32 16 224 32 16 224 32 16 224 32 16 224 32 16 224 32 16 224 32 16 224 32 16
224 32 16 224 32 16 224 32 16 224 32 16 224 32 16 224 32 16 224 32 16 224 32 16 224 32 16 224 32 16 224 32 16 224 32 16 224 32 16 224 32 16 224 32 16 224 32 16 224 32 16 224 32 16 224 32 16 224 32 16 224 32 16 224 32 16 224 32 16 224 32 16 224 32 16 224 32 16 224 32 16 224 32 16 224 32 16 224 32 16 224 32 16 224 32 16 88 40 32 88 40 32 88 40 32 88 40 32 88 40 32 88 40 32 88 40 32 88 40 32 88 40 32 88 40 32 88 40 32 88 40 32 88 40 32 88 40 32 88 40 32 88 40 32 88 40 32 88 40 32 88 40 32 88 40 32 88 40 32 88 40 32 88 40 32 88 40 32 88 40 32 88 40 32 88 40 32 88 40 32 88 40 32 88 40 32 88 40 32 88 40 32 88 40 32 88 40 32 88 40 32 88 40 32 88 40 32 88 40 32 88 40 32 88 40 32 88 40 32 88 40 32 88 40 32 88 40 32 88 40 32 88 40 32 88 40 32 88 40 32 88 40 32 88 40 32 88 40 32 88 40 32 88 40 32 88 40 32 88 40 32 88 40 32 88 40 32 88 40 32 88 40 32 88 40 32 88 40 32 88 40 32 88 40 32 88 40 32 224 32 16 224 32 16 224 32 16 224 32 16 224 32 16 224 32 16 224 32 16 224 32 16 224 32 16 224 32 16 224 32 16 224 32 16 224 32 16 224 32 16 224 32 16 224 32 16 224 32 16 224 32 16 224 32 16 224 32 16 224 32 16 224 32 16 224 32 16 224 32 16 224 32 16 224 32 16 224 32 16 224 32 16 224 32 16 224 32 16 224 32 16 224 32 16
224 32 16 224 32 16 224 32 16 224 32 16 224 32 16 224 32 16 224 32 16 224 32 16 224 32 16 224 32 16 224 32 16 224 32 16 224 32 16 224 32 16 224 32 16 224 32 16 224 32 16 224 32 16 224 32 16 224 32 16 224 32 16 224 32 16 224 32 16 224 32 16 224 32 16 224 32 16 224 32 16 224 32 16 224 32 16 224 32 16 224 32 16 224 32 16 88 40 32 88 40 32 88 40 32 88 40 32 88 40 32 88 40 32 88 40 32 88 40 32 88 40 32 88 40 32 88 40 32 88 40 32 88 40 32 88 40 32 88 40 32 88 40 32 88 40 32 88 40 32 88 40 32 88 40 32 88 40 32 88 40 32 88 40 32 88 40 32 88 40 32 88 40 32 88 40 32 88 40 32 88 40 32 88 40 32 88 40 32 88 40 32 88 40 32 88 40 32 88 40 32 88 40 32 88 40 32 88 40 32 88 40 32 88 40 32 88 40 32 88 40 32 88 40 32 88 40 32 88 40 32 88 40 32 88 40 32 88 40 32 88 40 32 88 40 32 88 40 32 88 40 32 88 40 32 88 40 32 88 40 32 88 40 32 88 40 32 88 40 32 88 40 32 88 40 32 88 40 32 88 40 32 88 40 32 88 40 32 224 32 16 224 32 16 224 32 16 224 32 16 224 32 16 224 32 16 224 32 16 224 32 16 224 32 16 224 32 16 224 32 16 224 32 16 224 32 16 224 32 16 224 32 16 224 32 16 224 32 16 224 32 16 224 32 16 224 32 16 224 32 16 224 32 16 224 32 16 224 32 16 224 32 16 224 32 16 224 32 16 224 32 16 224 32 16 224 32 16 224 32 16 224 32 16
224 32 16 224 32 16 224 32 16 224 32 16 224 32 16 224 32 16 224 32 16 224 32 16 224 32 16 224 32 16 224 32 16 224 32 16 224 32 16 224 32 16 224 32 16 224 32 16 224 32 16 224 32 16 224 32 16 224 32 16 224 32 16 224 32 16 224 32 16 224 32 16 224 32 16 224 32 16 224 32 16 224 32 16 224 32 16 224 32 16 224 32 16 224 32 16 88 40 32 88 40 32 88 40 32 88 40 32 88 40 32 88 40 32 88 40 32 88 40 32 88 40 32 88 40 32 88 40 32 88 40 32 88 40 32 88 40 32 88 40 32 88 40 32 88 40 32 88 40 32 88 40 32 88 40 32 88 40 32 88 40 32 88 40 32 88 40 32 88 40 32 88 40 32 88 40 32 88 40 32 88 40 32 88 40 32 88 40 32 88 40 32 88 40 32 88 40 32 88 40 32 88 40 32 88 40 32 88 40 32 88 40 32 88 40 32 88 40 32 88 40 32 88 40 32 88 40 32 88 40 32 88 40 32 88 40 32 88 40 32 88 40 32 88 40 32 88 40 32 88 40 32 88 40 32 88 40 32 88 40 32 88 40 32 88 40 32 88 40 32 88 40 32 88 40 32 88 40 32 88 40 32 88 40 32 88 40 32 224 32 16 224 32 16 224 32 16 224 32 16 224 32 16 224 32 16 224 32 16 224 32 16 224 32 16 224 32 16 224 32 16 224 32 16 224 32 16 224 32 16 224 32 16 224 32 16 224 32 16 224 32 16 224 32 16 224 32 16 224 32 16 224 32 16 224 32 16 224 32 16 224 32 16 224 32 16 224 32 16 224 32 16 224 32 16 224 32 16 224 32 16 224 32 16
224 32 16 224 32 16 224 32 16 224 32 16 224 32 16 224 32 16 224 32 16 224 32 16 224 32 16 224 32 16 224 32 16 224 32 16 224 32 16 224 32 16 224 32 16 224 32 16 224 32 16 224 32 16 224 32 16 224 32 16 224 32 16 224 32 16 224 32 16 224 32 16 224 32 16 224 32 16 224 32 16 224 32 16 224 32 16 224 32 16 224 32 16 224 32 16 88 40 32 88 40 32 88 40 32 88 40 32 88 40 32 88 40 32 88 40 32 88 40 32 88 40 32 88 40 32 88 40 32 88 40 32 88 40 32 88 40 32 88 40 32 88 40 32 88 40 32 88 40 32 88 40 32 88 40 32 88 40 32 88 40 32 88 40 32 88 40 32 88 40 32 88 40 32 88 40 32 88 40 32 88 40 32 88 40 32 88 40 32 88 40 32 88 40 32 88 40 32 88 40 32 88 40 32 88 40 32 88 40 32 88 40 32 88 40 32 88 40 32 88 40 32 88 40 32 88 40 32 88 40 32 88 40 32 88 40 32 88 40 32 88 40 32 88 40 32 88 40 32 88 40 32 88 40 32 88 40 32 88 40 32 88 40 32 88 40 32 88 40 32 88 40 32 88 40 32 88 40 32 88 40 32 88 40 32 88 40 32 224 32 16 224 32 16 224 32 16 224 32 16 224 32 16 224 32 16 224 32 16 224 32 16 224 32 16 224 32 16 224 32 16 224 32 16 224 32 16 224 32 16 224 32 16 224 32 16 224 32 16 224 32 16 224 32 16 224 32 16 224 32 16 224 32 16 224 32 16 224 32 16 224 32 16 224 32 16 224 32 16 224 32 16 224 32 16 224 32 16 224 32 16 224 32 16
224 32 16 224 32 16 224 32 16 224 32 16 224 32 16 224 32 16 224 32 16 224 32 16 224 32 16 224 32 16 224 32 16 224 32 16 224 32 16 224 32 16 224 32 16 224 32 16 224 32 16 224 32 16 224 32 16 224 32 16 224 32 16 224 32 16 224 32 16 224 32 16 224 32 16 224 32 16 224 32 16 224 32 16 224 32 16 224 32 16 224 32 16 224 32 16 88 40 32 88 40 32 88 40 32 88 40 32 88 40 32 88 40 32 88 40 32 88 40 32 88 40 32 88 40 32 88 40 32 88 40 32 88 40 32 88 40 32 88 40 32 88 40 32 88 40 32 88 40 32 88 40 32 88 40 32 88 40 32 88 40 32 88 40 32 88 40 32 88 40 32 88 40 32 88 40 32 88 40 32 88 40 32 88 40 32 88 40 32 88 40 32 88 40 32 88 40 32 88 40 32 88 40 32 88 40 32 88 40 32 88 40 32 88 40 32 88 40 32 88 40 32 88 40 32 88 40 32 88 40 32 88 40 32 88 40 32 88 40 32 88 40 32 88 40 32 88 40 32 88 40 32 88 40 32 88 40 32 88 40 32 88 40 32 88 40 32 88 40 32 88 40 32 88 40 32 88 40 32 88 40 32 88 40 32 88 40 32 224 32 16 224 32 16 224 32 16 224 32 16 224 32 16 224 32 16 224 32 16 224 32 16 224 32 16 224 32 16 224 32 16 224 32 16 224 32 16 224 32 16 224 32 16 224 32 16 224 32 16 224 32 16 224 32 16 224 32 16 224 32 16 224 32 16 224 32 16 224 32 16 224 32 16 224 32 16 224 32 16 224 32 16 224 32 16 224 32 16 224 32 16 224 32 16
224 32 16 224 32 16 224 32 16 224 32 16 224 32 16 224 32 16 224 32 16 224 32 16 224 32 16 224 32 16 224 32 16 224 32 16 224 32 16 224 32 16 224 32 16 224 32 16 224 32 16 224 32 16 224 32 16 224 32 16 224 32 16 224 32 16 224 32 16 224 32 16 224 32 16 224 32 16 224 32 16 224 32 16 224 32 16 224 32 16 224 32 16 224 32 16 88 40 32 88 40 32 88 40 32 88 40 32 88 40 32 88 40 32 88 40 32 88 40 32 88 40 32 88 40 32 88 40 32 88 40 32 88 40 32 88 40 32 88 40 32 88 40 32 88 40 32 88 40 32 88 40 32 88 40 32 88 40 32 88 40 32 88 40 32 88 40 32 88 40 32 88 40 32 88 40 32 88 40 32 88 40 32 88 40 32 88 40 32 88 40 32 88 40 32 88 40 32 88 40 32 88 40 32 88 40 32 88 40 32 88 40 32 88 40 32 88 40 32 88 40 32 88 40 32 88 40 32 88 40 32 88 40 32 88 40 32 88 40 32 88 40 32 88 40 32 88 40 32 88 40 32 88 40 32 88 40 32 88 40 32 88 40 32 88 40 32 88 40 32 88 40 32 88 40 32 88 40 32 88 40 32 88 40 32 88 40 32 224 32 16 224 32 16 224 32 16 224 32 16 224 32 16 224 32 16 224 32 16 224 32 16 224 32 16 224 32 16 224 32 16 224 32 16 224 32 16 224 32 16 224 32 16 224 32 16 224 32 16 224 32 16 224 32 16 224 32 16 224 32 16 224 32 16 224 32 16 224 32 16 224 32 16 224 32 16 224 32 16 224 32 16 224 32 16 224 32 16 224 32 16 224 32 16
224 32 16 224 32 16 224 32 16 224 32 16 224 32 16 224 32 16 224 32 16 224 32 16 224 32 16 224 32 16 224 32 16 224 32 16 224 32 16 224 32 16 224 32 16 224 32 16 224 32 16 224 32 16 224 32 16 224 32 16 224 32 16 224 32 16 224 32 16 224 32 16 224 32 16 224 32 16 224 32 16 224 32 16 224 32 16 224 32 16 224 32 16 224 32 16 88 40 32 88 40 32 88 40 32 88 40 32 88 40 32 88 40 32 88 40 32 88 40 32 88 40 32 88 40 32 88 40 32 88 40 32 88 40 32 88 40 32 88 40 32 88 40 32 88 40 32 88 40 32 88 40 32 88 40 32 88 40 32 88 40 32 88 40 32 88 40 32 88 40 32 88 40 32 88 40 32 88 40 32 88 40 32 88 40 32 88 40 32 88 40 32 88 40 32 88 40 32 88 40 32 88 40 32 88 40 32 88 40 32 88 40 32 88 40 32 88 40 32 88 40 32 88 40 32 88 40 32 88 40 32 88 40 32 88 40 32 88 40 32 88 40 32 88 40 32 88 40 32 88 40 32 88 40 32 88 40 32 88 40 32 88 40 32 88 40 32 88 40 32 88 40 32 88 40 32 88 40 32 88 40 32 88 40 32 88 40 32 224 32 16 224 32 16 224 32 16 224 32 16 224 32 16 224 32 16 224 32 16 224 32 16 224 32 16 224 32 16 224 32 16 224 32 16 224 32 16 224 32 16 224 32 16 224 32 16 224 32 16 224 32 16 224 32 16 224 32 16 224 32 16 224 32 16 224 32 16 224 32 16 224 32 16 224 32 16 224 32 16 224 32 16 224 32 16 224 32 16 224 32 16 224 32 16
224 32 16 224 32 16 224 32 16 224 32 16 224 32 16 224 32 16 224 32 16 224 32 16 224 32 16 224 32 16 224 32 16 224 32 16 224 32 16 224 32 16 224 32 16 224 32 16 224 32 16 224 32 16 224 32 16 224 32 16 224 32 16 224 32 16 224 32 16 224 32 16 224 32 16 224 32 16 224 32 16 224 32 16 224 32 16 224 32 16 224 32 16 224 32 16 88 40 32 88 40 32 88 40 32 88 40 32 88 40 32 88 40 32 88 40 32 88 40 32 88 40 32 88 40 32 88 40 32 88 40 32 88 40 32 88 40 32 88 40 32 88 40 32 88 40 32 88 40 32 88 40 32 88 40 32 88 40 32 88 40 32 88 40 32 88 40 32 88 40 32 88 40 32 88 40 32 88 40 32 88 40 32 88 40 32 88 40 32 88 40 32 88 40 32 88 40 32 88 40 32 88 40 32 88 40 32 88 40 32 88 40 32 88 40 32 88 40 32 88 40 32 88 40 32 88 40 32 88 40 32 88 40 32 88 40 32 88 40 32 88 40 32 88 40 32 88 40 32 88 40 32 88 40 32 88 40 32 88 40 32 88 40 32 88 40 32 88 40 32 88 40 32 88 40 32 88 40 32 88 40 32 88 40 32 88 40 32 224 32 16 224 32 16 224 32 16 224 32 16 224 32 16 224 32 16 224 32 16 224 32 16 224 32 16 224 32 16 224 32 16 224 32 16 224 32 16 224 32 16 224 32 16 224 32 16 224 32 16 224 32 16 224 32 16 224 32 16 224 32 16 224 32 16 224 32 16 224 32 16 224 32 16 224 32 16 224 32 16 224 32 16 224 32 16 224 32 16 224 32 16 224 32 16
224 32 16 224 32 16 224 32 16 224 32 16 224 32 16 224 32 16 224 32 16 224 32 16 224 32 16 224 32 16 224 32 16 224 32 16 224 32 16 224 32 16 224 32 16 224 32 16 224 32 16 224 32 16 224 32 16 224 32 16 224 32 16 224 32 16 224 32 16 224 32 16 224 32 16 224 32 16 224 32 16 224 32 16 224 32 16 224 32 16 224 32 16 224 32 16 88 40 32 88 40 32 88 40 32 88 40 32 88 40 32 88 40 32 88 40 32 88 40 32 88 40 32 88 40 32 88 40 32 88 40 32 88 40 32 88 40 32 88 40 32 88 40 32 88 40 32 88 40 32 88 40 32 88 40 32 88 40 32 88 40 32 88 40 32 88 40 32 88 40 32 88 40 32 88 40 32 88 40 32 88 40 32 88 40 32 88 40 32 88 40 32 88 40 32 88 40 32 88 40 32 88 40 32 88 40 32 88 40 32 88 40 32 88 40 32 88 40 32 88 40 32 88 40 32 88 40 32 88 40 32 88 40 32 88 40 32 88 40 32 88 40 32 88 40 32 88 40 32 88 40 32 88 40 32 88 40 32 88 40 32 88 40 32 88 40 32 88 40 32 88 40 32 88 40 32 88 40 32 88 40 32 88 40 32 88 40 32 224 32 16 224 32 16 224 32 16 224 32 16 224 32 16 224 32 16 224 32 16 224 32 16 224 32 16 224 32 16 224 32 16 224 32 16 224 32 16 224 32 16 224 32 16 224 32 16 224 32 16 224 32 16 224 32 16 224 32 16 224 32 16 224 32 16 224 32 16 224 32 16 224 32 16 224 32 16 224 32 16 224 32 16 224 32 16 224 32 16 224 32 16 224 32 16
224 32 16 224 32 16 224 32 16 224 32 16 224 32 16 224 32 16 224 32 16 224 32 16 224 32 16 224 32 16 224 32 16 224 32 16 224 32 16 224 32 16 224 32 16 224 32 16 224 32 16 224 32 16 224 32 16 224 32 16 224 32 16 224 32 16 224 32 16 224 32 16 224 32 16 224 32 16 224 32 16 224 32 16 224 32 16 224 32 16 224 32 16 224 32 16 88 40 32 88 40 32 88 40 32 88 40 32 88 40 32 88 40 32 88 40 32 88 40 32 88 40 32 88 40 32 88 40 32 88 40 32 88 40 32 88 40 32 88 40 32 88 40 32 88 40 32 88 40 32 88 40 32 88 40 32 88 40 32 88 40 32 88 40 32 88 40 32 88 40 32 88 40 32 88 40 32 88 40 32 88 40 32 88 40 32 88 40 32 88 40 32 88 40 32 88 40 32 88 40 32 88 40 32 88 40 32 88 40 32 88 40 32 88 40 32 88 40 32 88 40 32 88 40 32 88 40 32 88 40 32 88 40 32 88 40 32 88 40 32 88 40 32 88 40 32 88 40 32 88 40 32 88 40 32 88 40 32 88 40 32 88 40 32 88 40 32 88 40 32 88 40 32 88 40 32 88 40 32 88 40 32 88 40 32 88 40 32 224 32 16 224 32 16 224 32 16 224 32 16 224 32 16 224 32 16 224 32 16 224 32 16 224 32 16 224 32 16 224 32 16 224 32 16 224 32 16 224 32 16 224 32 16 224 32 16 224 32 16 224 32 16 224 32 16 224 32 16 224 32 16 224 32 16 224 32 16 224 32 16 224 32 16 224 32 16 224 32 16 224 32 16 224 32 16 224 32 16 224 32 16 224 32 16
224 32 16 224 32 16 224 32 16 224 32 16 224 32 16 224 32 16 224 32 16 224 32 16 224 32 16 224 32 16 224 32 16 224 32 16 224 32 16 224 32 16 224 32 16 224 32 16 224 32 16 224 32 16 224 32 16 224 32 16 224 32 16 224 32 16 224 32 16 224 32 16 224 32 16 224 32 16 224 32 16 224 32 16 224 32 16 224 32 16 224 32 16 224 32 16 88 40 32 88 40 32 88 40 32 88 40 32 88 40 32 88 40 32 88 40 32 88 40 32 88 40 32 88 40 32 88 40 32 88 40 32 88 40 32 88 40 32 88 40 32 88 40 32 88 40 32 88 40 32 88 40 32 88 40 32 88 40 32 88 40 32 88 40 32 88 40 32 88 40 32 88 40 32 88 40 32 88 40 32 88 40 32 88 40 32 88 40 32 88 40 32 88 40 32 88 40 32 88 40 32 88 40 32 88 40 32 88 40 32 88 40 32 88 40 32 88 40 32 88 40 32 88 40 32 88 40 32 88 40 32 88 40 32 88 40 32 88 40 32 88 40 32 88 40 32 88 40 32 88 40 32 88 40 32 88 40 32 88 40 32 88 40 32 88 40 32 88 40 32 88 40 32 88 40 32 88 40 32 88 40 32 88 40 32 88 40 32 224 32 16 224 32 16 224 32 16 224 32 16 224 32 16 224 32 16 224 32 16 224 32 16 224 32 16 224 32 16 224 32 16 224 32 16 224 32 16 224 32 16 224 32 16 224 32 16 224 32 16 224 32 16 224 32 16 224 32 16 224 32 16 224 32 16 224 32 16 224 32 16 224 32 16 224 32 16 224 32 16 224 32 16 224 32 16 224 32 16 224 32 16 224 32 16