P3
128 128
255
88 24 184 88 24 184 88 24 184 88 24 184 88 24 184 88 24 184 88 24 184 88 24 184 88 24 184 88 24 184 88 24 184 88 24 184 88 24 184 88 24 184 88 24 184 88 24 184 88 24 184 88 24 184 88 24 184 88 24 184 88 24 184 88 24 184 88 24 184 88 24 184 88 24 184 88 24 184 88 24 184 88 24 184 88 24 184 88 24 184 88 24 184 88 24 184 40 16 184 40 16 184 40 16 184 40 16 184 40 16 184 40 16 184 40 16 184 40 16 184 40 16 184 40 16 184 40 16 184 40 16 184 40 16 184 40 16 184 40 16 184 40 16 184 40 16 184 40 16 184 40 16 184 40 16 184 40 16 184 40 16 184 40 16 184 40 16 184 40 16 184 40 16 184 40 16 184 40 16 184 40 16 184 40 16 184 40 16 184 40 16 184 80 24 56 80 24 56 80 24 56 80 24 56 80 24 56 80 24 56 80 24 56 80 24 56 80 24 56 80 24 56 80 24 56 80 24 56 80 24 56 80 24 56 80 24 56 80 24 56 80 24 56 80 24 56 80 24 56 80 24 56 80 24 56 80 24 56 80 24 56 80 24 56 80 24 56 80 24 56 80 24 56 80 24 56 80 24 56 80 24 56 80 24 56 80 24 56 88 24 184 88 24 184 88 24 184 88 24 184 88 24 184 88 24 184 88 24 184 88 24 184 88 24 184 88 24 184 88 24 184 88 24 184 88 24 184 88 24 184 88 24 184 88 24 184 88 24 184 88 24 184 88 24 184 88 24 184 88 24 184 88 24 184 88 24 184 88 24 184 88 24 184 88 24 184 88 24 184 88 24 184 88 24 184 88 24 184 88 24 184 88 24 184
88 24 184 88 24 184 88 24 184 88 24 184 88 24 184 88 24 184 88 24 184 88 24 184 88 24 184 88 24 184 88 24 184 88 24 184 88 24 184 88 24 184 88 24 184 88 24 184 88 24 184 88 24 184 88 24 184 88 24 184 88 24 184 88 24 184 88 24 184 88 24 184 88 24 184 88 24 184 88 24 184 88 24 184 88 24 184 88 24 184 88 24 184 88 24 184 40 16 184 40 16 184 40 16 184 40 16 184 40 16 184 40 16 184 40 16 184 40 16 184 40 16 184 40 16 184 40 16 184 40 16 184 40 16 184 40 16 184 40 16 184 40 16 184 40 16 184 40 16 184 40 16 184 40 16 184 40 16 184 40 16 184 40 16 184 40 16 184 40 16 184 40 16 184 40 16 184 40 16 184 40 16 184 40 16 184 40 16 184 40 16 184 80 24 56 80 24 56 80 24 56 80 24 56 80 24 56 80 24 56 80 24 56 80 24 56 80 24 56 80 24 56 80 24 56 80 24 56 80 24 56 80 24 56 80 24 56 80 24 56 80 24 56 80 24 56 80 24 56 80 24 56 80 24 56 80 24 56 80 24 56 80 24 56 80 24 56 80 24 56 80 24 56 80 24 56 80 24 56 80 24 56 80 24 56 80 24 56 88 24 184 88 24 184 88 24 184 88 24 184 88 24 184 88 24 184 88 24 184 88 24 184 88 24 184 88 24 184 88 24 184 88 24 184 88 24 184 88 24 184 88 24 184 88 24 184 88 24 184 88 24 184 88 24 184 88 24 184 88 24 184 88 24 184 88 24 184 88 24 184 88 24 184 88 24 184 88 24 184 88 24 184 88 24 184 88 24 184 88 24 184 88 24 184
88 24 184 88 24 184 88 24 184 88 24 184 88 24 184 88 24 184 88 24 184 88 24 184 88 24 184 88 24 184 88 24 184 88 24 184 88 24 184 88 24 184 88 24 184 88 24 184 88 24 184 88 24 184 88 24 184 88 24 184 88 24 184 88 24 184 88 24 184 88 24 184 88 24 184 88 24 184 88 24 184 88 24 184 88 24 184 88 24 184 88 24 184 88 24 184 40 16 184 40 16 184 40 16 184 40 16 184 40 16 184 40 16 184 40 16 184 40 16 184 40 16 184 40 16 184 40 16 184 40 16 184 40 16 184 40 16 184 40 16 184 40 16 184 40 16 184 40 16 184 40 16 184 40 16 184 40 16 184 40 16 184 40 16 184 40 16 184 40 16 184 40 16 184 40 16 184 40 16 184 40 16 184 40 16 184 40 16 184 40 16 184 80 24 56 80 24 56 80 24 56 80 24 56 80 24 56 80 24 56 80 24 56 80 24 56 80 24 56 80 24 56 80 24 56 80 24 56 80 24 56 80 24 56 80 24 56 80 24 56 80 24 56 80 24 56 80 24 56 80 24 56 80 24 56 80 24 56 80 24 56 80 24 56 80 24 56 80 24 56 80 24 56 80 24 56 80 24 56 80 24 56 80 24 56 80 24 56 88 24 184 88 24 184 88 24 184 88 24 184 88 24 184 88 24 184 88 24 184 88 24 184 88 24 184 88 24 184 88 24 184 88 24 184 88 24 184 88 24 184 88 24 184 88 24 184 88 24 184 88 24 184 88 24 184 88 24 184 88 24 184 88 24 184 88 24 184 88 24 184 88 24 184 88 24 184 88 24 184 88 24 184 88 24 184 88 24 184 88 24 184 88 24 184
88 24 184 88 24 184 88 24 184 88 24 184 88 24 184 88 24 184 88 24 184 88 24 184 88 24 184 88 24 184 88 24 184 88 24 184 88 24 184 88 24 184 88 24 184 88 24 184 88 24 184 88 24 184 88 24 184 88 24 184 88 24 184 88 24 184 88 24 184 88 24 184 88 24 184 88 24 184 88 24 184 88 24 184 88 24 184 88 24 184 88 24 184 88 24 184 40 16 184 40 16 184 40 16 184 40 16 184 40 16 184 40 16 184 40 16 184 40 16 184 40 16 184 40 16 184 40 16 184 40 16 184 40 16 184 40 16 184 40 16 184 40 16 184 40 16 184 40 16 184 40 16 184 40 16 184 40 16 184 40 16 184 40 16 184 40 16 184 40 16 184 40 16 184 40 16 184 40 16 184 40 16 184 40 16 184 40 16 184 40 16 184 80 24 56 80 24 56 80 24 56 80 24 56 80 24 56 80 24 56 80 24 56 80 24 56 80 24 56 80 24 56 80 24 56 80 24 56 80 24 56 80 24 56 80 24 56 80 24 56 80 24 56 80 24 56 80 24 56 80 24 56 80 24 56 80 24 56 80 24 56 80 24 56 80 24 56 80 24 56 80 24 56 80 24 56 80 24 56 80 24 56 80 24 56 80 24 56 88 24 184 88 24 184 88 24 184 88 24 184 88 24 184 88 24 184 88 24 184 88 24 184 88 24 184 88 24 184 88 24 184 88 24 184 88 24 184 88 24 184 88 24 184 88 24 184 88 24 184 88 24 184 88 24 184 88 24 184 88 24 184 88 24 184 88 24 184 88 24 184 88 24 184 88 24 184 88 24 184 88 24 184 88 24 184 88 24 184 88 24 184 88 24 184
88 24 184 88 24 184 88 24 184 88 24 184 88 24 184 88 24 184 88 24 184 88 24 184 88 24 184 88 24 184 88 24 184 88 24 184 88 24 184 88 24 184 88 24 184 88 24 184 88 24 184 88 24 184 88 24 184 88 24 184 88 24 184 88 24 184 88 24 184 88 24 184 88 24 184 88 24 184 88 24 184 88 24 184 88 24 184 88 24 184 88 24 184 88 24 184 40 16 184 40 16 184 40 16 184 40 16 184 40 16 184 40 16 184 40 16 184 40 16 184 40 16 184 40 16 184 40 16 184 40 16 184 40 16 184 40 16 184 40 16 184 40 16 184 40 16 184 40 16 184 40 16 184 40 16 184 40 16 184 40 16 184 40 16 184 40 16 184 40 16 184 40 16 184 40 16 184 40 16 184 40 16 184 40 16 184 40 16 184 40 16 184 80 24 56 80 24 56 80 24 56 80 24 56 80 24 56 80 24 56 80 24 56 80 24 56 80 24 56 80 24 56 80 24 56 80 24 56 80 24 56 80 24 56 80 24 56 80 24 56 80 24 56 80 24 56 80 24 56 80 24 56 80 24 56 80 24 56 80 24 56 80 24 56 80 24 56 80 24 56 80 24 56 80 24 56 80 24 56 80 24 56 80 24 56 80 24 56 88 24 184 88 24 184 88 24 184 88 24 184 88 24 184 88 24 184 88 24 184 88 24 184 88 24 184 88 24 184 88 24 184 88 24 184 88 24 184 88 24 184 88 24 184 88 24 184 88 24 184 88 24 184 88 24 184 88 24 184 88 24 184 88 24 184 88 24 184 88 24 184 88 24 184 88 24 184 88 24 184 88 24 184 88 24 184 88 24 184 88 24 184 88 24 184
88 24 184 88 24 184 88 24 184 88 24 184 88 24 184 88 24 184 88 24 184 88 24 184 88 24 184 88 24 184 88 24 184 88 24 184 88 24 184 88 24 184 88 24 184 88 24 184 88 24 184 88 24 184 88 24 184 88 24 184 88 24 184 88 24 184 88 24 184 88 24 184 88 24 184 88 24 184 88 24 184 88 24 184 88 24 184 88 24 184 88 24 184 88 24 184 40 16 184 40 16 184 40 16 184 40 16 184 40 16 184 40 16 184 40 16 184 40 16 184 40 16 184 40 16 184 40 16 184 40 16 184 40 16 184 40 16 184 40 16 184 40 16 184 40 16 184 40 16 184 40 16 184 40 16 184 40 16 184 40 16 184 40 16 184 40 16 184 40 16 184 40 16 184 40 16 184 40 16 184 40 16 184 40 16 184 40 16 184 40 16 184 80 24 56 80 24 56 80 24 56 80 24 56 80 24 56 80 24 56 80 24 56 80 24 56 80 24 56 80 24 56 80 24 56 80 24 56 80 24 56 80 24 56 80 24 56 80 24 56 80 24 56 80 24 56 80 24 56 80 24 56 80 24 56 80 24 56 80 24 56 80 24 56 80 24 56 80 24 56 80 24 56 80 24 56 80 24 56 80 24 56 80 24 56 80 24 56 88 24 184 88 24 184 88 24 184 88 24 184 88 24 184 88 24 184 88 24 184 88 24 184 88 24 184 88 24 184 88 24 184 88 24 184 88 24 184 88 24 184 88 24 184 88 24 184 88 24 184 88 24 184 88 24 184 88 24 184 88 24 184 88 24 184 88 24 184 88 24 184 88 24 184 88 24 184 88 24 184 88 24 184 88 24 184 88 24 184 88 24 184 88 24 184
88 24 184 88 24 184 88 24 184 88 24 184 88 24 184 88 24 184 88 24 184 88 24 184 88 24 184 88 24 184 88 24 184 88 24 184 88 24 184 88 24 184 88 24 184 88 24 184 88 24 184 88 24 184 88 24 184 88 24 184 88 24 184 88 24 184 88 24 184 88 24 184 88 24 184 88 24 184 88 24 184 88 24 184 88 24 184 88 24 184 88 24 184 88 24 184 40 16 184 40 16 184 40 16 184 40 16 184 40 16 184 40 16 184 40 16 184 40 16 184 40 16 184 40 16 184 40 16 184 40 16 184 40 16 184 40 16 184 40 16 184 40 16 184 40 16 184 40 16 184 40 16 184 40 16 184 40 16 184 40 16 184 40 16 184 40 16 184 40 16 184 40 16 184 40 16 184 40 16 184 40 16 184 40 16 184 40 16 184 40 16 184 80 24 56 80 24 56 80 24 56 80 24 56 80 24 56 80 24 56 80 24 56 80 24 56 80 24 56 80 24 56 80 24 56 80 24 56 80 24 56 80 24 56 80 24 56 80 24 56 80 24 56 80 24 56 80 24 56 80 24 56 80 24 56 80 24 56 80 24 56 80 24 56 80 24 56 80 24 56 80 24 56 80 24 56 80 24 56 80 24 56 80 24 56 80 24 56 88 24 184 88 24 184 88 24 184 88 24 184 88 24 184 88 24 184 88 24 184 88 24 184 88 24 184 88 24 184 88 24 184 88 24 184 88 24 184 88 24 184 88 24 184 88 24 184 88 24 184 88 24 184 88 24 184 88 24 184 88 24 184 88 24 184 88 24 184 88 24 184 88 24 184 88 24 184 88 24 184 88 24 184 88 24 184 88 24 184 88 24 184 88 24 184
88 24 184 88 24 184 88 24 184 88 24 184 88 24 184 88 24 184 88 24 184 88 24 184 88 24 184 88 24 184 88 24 184 88 24 184 88 24 184 88 24 184 88 24 184 88 24 184 88 24 184 88 24 184 88 24 184 88 24 184 88 24 184 88 24 184 88 24 184 88 24 184 88 24 184 88 24 184 88 24 184 88 24 184 88 24 184 88 24 184 88 24 184 88 24 184 40 16 184 40 16 184 40 16 184 40 16 184 40 16 184 40 16 184 40 16 184 40 16 184 40 16 184 40 16 184 40 16 184 40 16 184 40 16 184 40 16 184 40 16 184 40 16 184 40 16 184 40 16 184 40 16 184 40 16 184 40 16 184 40 16 184 40 16 184 40 16 184 40 16 184 40 16 184 40 16 184 40 16 184 40 16 184 40 16 184 40 16 184 40 16 184 80 24 56 80 24 56 80 24 56 80 24 56 80 24 56 80 24 56 80 24 56 80 24 56 80 24 56 80 24 56 80 24 56 80 24 56 80 24 56 80 24 56 80 24 56 80 24 56 80 24 56 80 24 56 80 24 56 80 24 56 80 24 56 80 24 56 80 24 56 80 24 56 80 24 56 80 24 56 80 24 56 80 24 56 80 24 56 80 24 56 80 24 56 80 24 56 88 24 184 88 24 184 88 24 184 88 24 184 88 24 184 88 24 184 88 24 184 88 24 184 88 24 184 88 24 184 88 24 184 88 24 184 88 24 184 88 24 184 88 24 184 88 24 184 88 24 184 88 24 184 88 24 184 88 24 184 88 24 184 88 24 184 88 24 184 88 24 184 88 24 184 88 24 184 88 24 184 88 24 184 88 24 184 88 24 184 88 24 184 88 24 184
88 24 184 88 24 184 88 24 184 88 24 184 88 24 184 88 24 184 88 24 184 88 24 184 88 24 184 88 24 184 88 24 184 88 24 184 88 24 184 88 24 184 88 24 184 88 24 184 88 24 184 88 24 184 88 24 184 88 24 184 88 24 184 88 24 184 88 24 184 88 24 184 88 24 184 88 24 184 88 24 184 88 24 184 88 24 184 88 24 184 88 24 184 88 24 184 40 16 184 40 16 184 40 16 184 40 16 184 40 16 184 40 16 184 40 16 184 40 16 184 40 16 184 40 16 184 40 16 184 40 16 184 40 16 184 40 16 184 40 16 184 40 16 184 40 16 184 40 16 184 40 16 184 40 16 184 40 16 184 40 16 184 40 16 184 40 16 184 40 16 184 40 16 184 40 16 184 40 16 184 40 16 184 40 16 184 40 16 184 40 16 184 80 24 56 80 24 56 80 24 56 80 24 56 80 24 56 80 24 56 80 24 56 80 24 56 80 24 56 80 24 56 80 24 56 80 24 56 80 24 56 80 24 56 80 24 56 80 24 56 80 24 56 80 24 56 80 24 56 80 24 56 80 24 56 80 24 56 80 24 56 80 24 56 80 24 56 80 24 56 80 24 56 80 24 56 80 24 56 80 24 56 80 24 56 80 24 56 88 24 184 88 24 184 88 24 184 88 24 184 88 24 184 88 24 184 88 24 184 88 24 184 88 24 184 88 24 184 88 24 184 88 24 184 88 24 184 88 24 184 88 24 184 88 24 184 88 24 184 88 24 184 88 24 184 88 24 184 88 24 184 88 24 184 88 24 184 88 24 184 88 24 184 88 24 184 88 24 184 88 24 184 88 24 184 88 24 184 88 24 184 88 24 184
88 24 184 88 24 184 88 24 184 88 24 184 88 24 184 88 24 184 88 24 184 88 24 184 88 24 184 88 24 184 88 24 184 88 24 184 88 24 184 88 24 184 88 24 184 88 24 184 88 24 184 88 24 184 88 24 184 88 24 184 88 24 184 88 24 184 88 24 184 88 24 184 88 24 184 88 24 184 88 24 184 88 24 184 88 24 184 88 24 184 88 24 184 88 24 184 40 16 184 40 16 184 40 16 184 40 16 184 40 16 184 40 16 184 40 16 184 40 16 184 40 16 184 40 16 184 40 16 184 40 16 184 40 16 184 40 16 184 40 16 184 40 16 184 40 16 184 40 16 184 40 16 184 40 16 184 40 16 184 40 16 184 40 16 184 40 16 184 40 16 184 40 16 184 40 16 184 40 16 184 40 16 184 40 16 184 40 16 184 40 16 184 80 24 56 80 24 56 80 24 56 80 24 56 80 24 56 80 24 56 80 24 56 80 24 56 80 24 56 80 24 56 80 24 56 80 24 56 80 24 56 80 24 56 80 24 56 80 24 56 80 24 56 80 24 56 80 24 56 80 24 56 80 24 56 80 24 56 80 24 56 80 24 56 80 24 56 80 24 56 80 24 56 80 24 56 80 24 56 80 24 56 80 24 56 80 24 56 88 24 184 88 24 184 88 24 184 88 24 184 88 24 184 88 24 184 88 24 184 88 24 184 88 24 184 88 24 184 88 24 184 88 24 184 88 24 184 88 24 184 88 24 184 88 24 184 88 24 184 88 24 184 88 24 184 88 24 184 88 24 184 88 24 184 88 24 184 88 24 184 88 24 184 88 24 184 88 24 184 88 24 184 88 24 184 88 24 184 88 24 184 88 24 184
88 24 184 88 24 184 88 24 184 88 24 184 88 24 184 88 24 184 88 24 184 88 24 184 88 24 184 88 24 184 88 24 184 88 24 184 88 24 184 88 24 184 88 24 184 88 24 184 88 24 184 88 24 184 88 24 184 88 24 184 88 24 184 88 24 184 88 24 184 88 24 184 88 24 184 88 24 184 88 24 184 88 24 184 88 24 184 88 24 184 88 24 184 88 24 184 40 16 184 40 16 184 40 16 184 40 16 184 40 16 184 40 16 184 40 16 184 40 16 184 40 16 184 40 16 184 40 16 184 40 16 184 40 16 184 40 16 184 40 16 184 40 16 184 40 16 184 40 16 184 40 16 184 40 16 184 40 16 184 40 16 184 40 16 184 40 16 184 40 16 184 40 16 184 40 16 184 40 16 184 40 16 184 40 16 184 40 16 184 40 16 184 80 24 56 80 24 56 80 24 56 80 24 56 80 24 56 80 24 56 80 24 56 80 24 56 80 24 56 80 24 56 80 24 56 80 24 56 80 24 56 80 24 56 80 24 56 80 24 56 80 24 56 80 24 56 80 24 56 80 24 56 80 24 56 80 24 56 80 24 56 80 24 56 80 24 56 80 24 56 80 24 56 80 24 56 80 24 56 80 24 56 80 24 56 80 24 56 88 24 184 88 24 184 88 24 184 88 24 184 88 24 184 88 24 184 88 24 184 88 24 184 88 24 184 88 24 184 88 24 184 88 24 184 88 24 184 88 24 184 88 24 184 88 24 184 88 24 184 88 24 184 88 24 184 88 24 184 88 24 184 88 24 184 88 24 184 88 24 184 88 24 184 88 24 184 88 24 184 88 24 184 88 24 184 88 24 184 88 24 184 88 24 184
88 24 184 88 24 184 88 24 184 88 24 184 88 24 184 88 24 184 88 24 184 88 24 184 88 24 184 88 24 184 88 24 184 88 24 184 88 24 184 88 24 184 88 24 184 88 24 184 88 24 184 88 24 184 88 24 184 88 24 184 88 24 184 88 24 184 88 24 184 88 24 184 88 24 184 88 24 184 88 24 184 88 24 184 88 24 184 88 24 184 88 24 184 88 24 184 40 16 184 40 16 184 40 16 184 40 16 184 40 16 184 40 16 184 40 16 184 40 16 184 40 16 184 40 16 184 40 16 184 40 16 184 40 16 184 40 16 184 40 16 184 40 16 184 40 16 184 40 16 184 40 16 184 40 16 184 40 16 184 40 16 184 40 16 184 40 16 184 40 16 184 40 16 184 40 16 184 40 16 184 40 16 184 40 16 184 40 16 184 40 16 184 80 24 56 80 24 56 80 24 56 80 24 56 80 24 56 80 24 56 80 24 56 80 24 56 80 24 56 80 24 56 80 24 56 80 24 56 80 24 56 80 24 56 80 24 56 80 24 56 80 24 56 80 24 56 80 24 56 80 24 56 80 24 56 80 24 56 80 24 56 80 24 56 80 24 56 80 24 56 80 24 56 80 24 56 80 24 56 80 24 56 80 24 56 80 24 56 88 24 184 88 24 184 88 24 184 88 24 184 88 24 184 88 24 184 88 24 184 88 24 184 88 24 184 88 24 184 88 24 184 88 24 184 88 24 184 88 24 184 88 24 184 88 24 184 88 24 184 88 24 184 88 24 184 88 24 184 88 24 184 88 24 184 88 24 184 88 24 184 88 24 184 88 24 184 88 24 184 88 24 184 88 24 184 88 24 184 88 24 184 88 24 184
88 24 184 88 24 184 88 24 184 88 24 184 88 24 184 88 24 184 88 24 184 88 24 184 88 24 184 88 24 184 88 24 184 88 24 184 88 24 184 88 24 184 88 24 184 88 24 184 88 24 184 88 24 184 88 24 184 88 24 184 88 24 184 88 24 184 88 24 184 88 24 184 88 24 184 88 24 184 88 24 184 88 24 184 88 24 184 88 24 184 88 24 184 88 24 184 40 16 184 40 16 184 40 16 184 40 16 184 40 16 184 40 16 184 40 16 184 40 16 184 40 16 184 40 16 184 40 16 184 40 16 184 40 16 184 40 16 184 40 16 184 40 16 184 40 16 184 40 16 184 40 16 184 40 16 184 40 16 184 40 16 184 40 16 184 40 16 184 40 16 184 40 16 184 40 16 184 40 16 184 40 16 184 40 16 184 40 16 184 40 16 184 80 24 56 80 24 56 80 24 56 80 24 56 80 24 56 80 24 56 80 24 56 80 24 56 80 24 56 80 24 56 80 24 56 80 24 56 80 24 56 80 24 56 80 24 56 80 24 56 80 24 56 80 24 56 80 24 56 80 24 56 80 24 56 80 24 56 80 24 56 80 24 56 80 24 56 80 24 56 80 24 56 80 24 56 80 24 56 80 24 56 80 24 56 80 24 56 88 24 184 88 24 184 88 24 184 88 24 184 88 24 184 88 24 184 88 24 184 88 24 184 88 24 184 88 24 184 88 24 184 88 24 184 88 24 184 88 24 184 88 24 184 88 24 184 88 24 184 88 24 184 88 24 184 88 24 184 88 24 184 88 24 184 88 24 184 88 24 184 88 24 184 88 24 184 88 24 184 88 24 184 88 24 184 88 24 184 88 24 184 88 24 184
88 24 184 88 24 184 88 24 184 88 24 184 88 24 184 88 24 184 88 24 184 88 24 184 88 24 184 88 24 184 88 24 184 88 24 184 88 24 184 88 24 184 88 24 184 88 24 184 88 24 184 88 24 184 88 24 184 88 24 184 88 24 184 88 24 184 88 24 184 88 24 184 88 24 184 88 24 184 88 24 184 88 24 184 88 24 184 88 24 184 88 24 184 88 24 184 40 16 184 40 16 184 40 16 184 40 16 184 40 16 184 40 16 184 40 16 184 40 16 184 40 16 184 40 16 184 40 16 184 40 16 184 40 16 184 40 16 184 40 16 184 40 16 184 40 16 184 40 16 184 40 16 184 40 16 184 40 16 184 40 16 184 40 16 184 40 16 184 40 16 184 40 16 184 40 16 184 40 16 184 40 16 184 40 16 184 40 16 184 40 16 184 80 24 56 80 24 56 80 24 56 80 24 56 80 24 56 80 24 56 80 24 56 80 24 56 80 24 56 80 24 56 80 24 56 80 24 56 80 24 56 80 24 56 80 24 56 80 24 56 80 24 56 80 24 56 80 24 56 80 24 56 80 24 56 80 24 56 80 24 56 80 24 56 80 24 56 80 24 56 80 24 56 80 24 56 80 24 56 80 24 56 80 24 56 80 24 56 88 24 184 88 24 184 88 24 184 88 24 184 88 24 184 88 24 184 88 24 184 88 24 184 88 24 184 88 24 184 88 24 184 88 24 184 88 24 184 88 24 184 88 24 184 88 24 184 88 24 184 88 24 184 88 24 184 88 24 184 88 24 184 88 24 184 88 24 184 88 24 184 88 24 184 88 24 184 88 24 184 88 24 184 88 24 184 88 24 184 88 24 184 88 24 184
88 24 184 88 24 184 88 24 184 88 24 184 88 24 184 88 24 184 88 24 184 88 24 184 88 24 184 88 24 184 88 24 184 88 24 184 88 24 184 88 24 184 88 24 184 88 24 184 88 24 184 88 24 184 88 24 184 88 24 184 88 24 184 88 24 184 88 24 184 88 24 184 88 24 184 88 24 184 88 24 184 88 24 184 88 24 184 88 24 184 88 24 184 88 24 184 40 16 184 40 16 184 40 16 184 40 16 184 40 16 184 40 16 184 40 16 184 40 16 184 40 16 184 40 16 184 40 16 184 40 16 184 40 16 184 40 16 184 40 16 184 40 16 184 40 16 184 40 16 184 40 16 184 40 16 184 40 16 184 40 16 184 40 16 184 40 16 184 40 16 184 40 16 184 40 16 184 40 16 184 40 16 184 40 16 184 40 16 184 40 16 184 80 24 56 80 24 56 80 24 56 80 24 56 80 24 56 80 24 56 80 24 56 80 24 56 80 24 56 80 24 56 80 24 56 80 24 56 80 24 56 80 24 56 80 24 56 80 24 56 80 24 56 80 24 56 80 24 56 80 24 56 80 24 56 80 24 56 80 24 56 80 24 56 80 24 56 80 24 56 80 24 56 80 24 56 80 24 56 80 24 56 80 24 56 80 24 56 88 24 184 88 24 184 88 24 184 88 24 184 88 24 184 88 24 184 88 24 184 88 24 184 88 24 184 88 24 184 88 24 184 88 24 184 88 24 184 88 24 184 88 24 184 88 24 184 88 24 184 88 24 184 88 24 184 88 24 184 88 24 184 88 24 184 88 24 184 88 24 184 88 24 184 88 24 184 88 24 184 88 24 184 88 24 184 88 24 184 88 24 184 88 24 184
88 24 184 88 24 184 88 24 184 88 24 184 88 24 184 88 24 184 88 24 184 88 24 184 88 24 184 88 24 184 88 24 184 88 24 184 88 24 184 88 24 184 88 24 184 88 24 184 88 24 184 88 24 184 88 24 184 88 24 184 88 24 184 88 24 184 88 24 184 88 24 184 88 24 184 88 24 184 88 24 184 88 24 184 88 24 184 88 24 184 88 24 184 88 24 184 40 16 184 40 16 184 40 16 184 40 16 184 40 16 184 40 16 184 40 16 184 40 16 184 40 16 184 40 16 184 40 16 184 40 16 184 40 16 184 40 16 184 40 16 184 40 16 184 40 16 184 40 16 184 40 16 184 40 16 184 40 16 184 40 16 184 40 16 184 40 16 184 40 16 184 40 16 184 40 16 184 40 16 184 40 16 184 40 16 184 40 16 184 40 16 184 80 24 56 80 24 56 80 24 56 80 24 56 80 24 56 80 24 56 80 24 56 80 24 56 80 24 56 80 24 56 80 24 56 80 24 56 80 24 56 80 24 56 80 24 56 80 24 56 80 24 56 80 24 56 80 24 56 80 24 56 80 24 56 80 24 56 80 24 56 80 24 56 80 24 56 80 24 56 80 24 56 80 24 56 80 24 56 80 24 56 80 24 56 80 24 56 88 24 184 88 24 184 88 24 184 88 24 184 88 24 184 88 24 184 88 24 184 88 24 184 88 24 184 88 24 184 88 24 184 88 24 184 88 24 184 88 24 184 88 24 184 88 24 184 88 24 184 88 24 184 88 24 184 88 24 184 88 24 184 88 24 184 88 24 184 88 24 184 88 24 184 88 24 184 88 24 184 88 24 184 88 24 184 88 24 184 88 24 184 88 24 184
88 24 184 88 24 184 88 24 184 88 24 184 88 24 184 88 24 184 88 24 184 88 24 184 88 24 184 88 24 184 88 24 184 88 24 184 88 24 184 88 24 184 88 24 184 88 24 184 88 24 184 88 24 184 88 24 184 88 24 184 88 24 184 88 24 184 88 24 184 88 24 184 88 24 184 88 24 184 88 24 184 88 24 184 88 24 184 88 24 184 88 24 184 88 24 184 40 16 184 40 16 184 40 16 184 40 16 184 40 16 184 40 16 184 40 16 184 40 16 184 40 16 184 40 16 184 40 16 184 40 16 184 40 16 184 40 16 184 40 16 184 40 16 184 40 16 184 40 16 184 40 16 184 40 16 184 40 16 184 40 16 184 40 16 184 40 16 184 40 16 184 40 16 184 40 16 184 40 16 184 40 16 184 40 16 184 40 16 184 40 16 184 80 24 56 80 24 56 80 24 56 80 24 56 80 24 56 80 24 56 80 24 56 80 24 56 80 24 56 80 24 56 80 24 56 80 24 56 80 24 56 80 24 56 80 24 56 80 24 56 80 24 56 80 24 56 80 24 56 80 24 56 80 24 56 80 24 56 80 24 56 80 24 56 80 24 56 80 24 56 80 24 56 80 24 56 80 24 56 80 24 56 80 24 56 80 24 56 88 24 184 88 24 184 88 24 184 88 24 184 88 24 184 88 24 184 88 24 184 88 24 184 88 24 184 88 24 184 88 24 184 88 24 184 88 24 184 88 24 184 88 24 184 88 24 184 88 24 184 88 24 184 88 24 184 88 24 184 88 24 184 88 24 184 88 24 184 88 24 184 88 24 184 88 24 184 88 24 184 88 24 184 88 24 184 88 24 184 88 24 184 88 24 184
88 24 184 88 24 184 88 24 184 88 24 184 88 24 184 88 24 184 88 24 184 88 24 184 88 24 184 88 24 184 88 24 184 88 24 184 88 24 184 88 24 184 88 24 184 88 24 184 88 24 184 88 24 184 88 24 184 88 24 184 88 24 184 88 24 184 88 24 184 88 24 184 88 24 184 88 24 184 88 24 184 88 24 184 88 24 184 88 24 184 88 24 184 88 24 184 40 16 184 40 16 184 40 16 184 40 16 184 40 16 184 40 16 184 40 16 184 40 16 184 40 16 184 40 16 184 40 16 184 40 16 184 40 16 184 40 16 184 40 16 184 40 16 184 40 16 184 40 16 184 40 16 184 40 16 184 40 16 184 40 16 184 40 16 184 40 16 184 40 16 184 40 16 184 40 16 184 40 16 184 40 16 184 40 16 184 40 16 184 40 16 184 80 24 56 80 24 56 80 24 56 80 24 56 80 24 56 80 24 56 80 24 56 80 24 56 80 24 56 80 24 56 80 24 56 80 24 56 80 24 56 80 24 56 80 24 56 80 24 56 80 24 56 80 24 56 80 24 56 80 24 56 80 24 56 80 24 56 80 24 56 80 24 56 80 24 56 80 24 56 80 24 56 80 24 56 80 24 56 80 24 56 80 24 56 80 24 56 88 24 184 88 24 184 88 24 184 88 24 184 88 24 184 88 24 184 88 24 184 88 24 184 88 24 184 88 24 184 88 24 184 88 24 184 88 24 184 88 24 184 88 24 184 88 24 184 88 24 184 88 24 184 88 24 184 88 24 184 88 24 184 88 24 184 88 24 184 88 24 184 88 24 184 88 24 184 88 24 184 88 24 184 88 24 184 88 24 184 88 24 184 88 24 184
88 24 184 88 24 184 88 24 184 88 24 184 88 24 184 88 24 184 88 24 184 88 24 184 88 24 184 88 24 184 88 24 184 88 24 184 88 24 184 88 24 184 88 24 184 88 24 184 88 24 184 88 24 184 88 24 184 88 24 184 88 24 184 88 24 184 88 24 184 88 24 184 88 24 184 88 24 184 88 24 184 88 24 184 88 24 184 88 24 184 88 24 184 88 24 184 40 16 184 40 16 184 40 16 184 40 16 184 40 16 184 40 16 184 40 16 184 40 16 184 40 16 184 40 16 184 40 16 184 40 16 184 40 16 184 40 16 184 40 16 184 40 16 184 40 16 184 40 16 184 40 16 184 40 16 184 40 16 184 40 16 184 40 16 184 40 16 184 40 16 184 40 16 184 40 16 184 40 16 184 40 16 184 40 16 184 40 16 184 40 16 184 80 24 56 80 24 56 80 24 56 80 24 56 80 24 56 80 24 56 80 24 56 80 24 56 80 24 56 80 24 56 80 24 56 80 24 56 80 24 56 80 24 56 80 24 56 80 24 56 80 24 56 80 24 56 80 24 56 80 24 56 80 24 56 80 24 56 80 24 56 80 24 56 80 24 56 80 24 56 80 24 56 80 24 56 80 24 56 80 24 56 80 24 56 80 24 56 88 24 184 88 24 184 88 24 184 88 24 184 88 24 184 88 24 184 88 24 184 88 24 184 88 24 184 88 24 184 88 24 184 88 24 184 88 24 184 88 24 184 88 24 184 88 24 184 88 24 184 88 24 184 88 24 184 88 24 184 88 24 184 88 24 184 88 24 184 88 24 184 88 24 184 88 24 184 88 24 184 88 24 184 88 24 184 88 24 184 88 24 184 88 24 184
88 24 184 88 24 184 88 24 184 88 24 184 88 24 184 88 24 184 88 24 184 88 24 184 88 24 184 88 24 184 88 24 184 88 24 184 88 24 184 88 24 184 88 24 184 88 24 184 88 24 184 88 24 184 88 24 184 88 24 184 88 24 184 88 24 184 88 24 184 88 24 184 88 24 184 88 24 184 88 24 184 88 24 184 88 24 184 88 24 184 88 24 184 88 24 184 40 16 184 40 16 184 40 16 184 40 16 184 40 16 184 40 16 184 40 16 184 40 16 184 40 16 184 40 16 184 40 16 184 40 16 184 40 16 184 40 16 184 40 16 184 40 16 184 40 16 184 40 16 184 40 16 184 40 16 184 40 16 184 40 16 184 40 16 184 40 16 184 40 16 184 40 16 184 40 16 184 40 16 184 40 16 184 40 16 184 40 16 184 40 16 184 80 24 56 80 24 56 80 24 56 80 24 56 80 24 56 80 24 56 80 24 56 80 24 56 80 24 56 80 24 56 80 24 56 80 24 56 80 24 56 80 24 56 80 24 56 80 24 56 80 24 56 80 24 56 80 24 56 80 24 56 80 24 56 80 24 56 80 24 56 80 24 56 80 24 56 80 24 56 80 24 56 80 24 56 80 24 56 80 24 56 80 24 56 80 24 56 88 24 184 88 24 184 88 24 184 88 24 184 88 24 184 88 24 184 88 24 184 88 24 184 88 24 184 88 24 184 88 24 184 88 24 184 88 24 184 88 24 184 88 24 184 88 24 184 88 24 184 88 24 184 88 24 184 88 24 184 88 24 184 88 24 184 88 24 184 88 24 184 88 24 184 88 24 184 88 24 184 88 24 184 88 24 184 88 24 184 88 24 184 88 24 184
88 24 184 88 24 184 88 24 184 88 24 184 88 24 184 88 24 184 88 24 184 88 24 184 88 24 184 88 24 184 88 24 184 88 24 184 88 24 184 88 24 184 88 24 184 88 24 184 88 24 184 88 24 184 88 24 184 88 24 184 88 24 184 88 24 184 88 24 184 88 24 184 88 24 184 88 24 184 88 24 184 88 24 184 88 24 184 88 24 184 88 24 184 88 24 184 40 16 184 40 16 184 40 16 184 40 16 184 40 16 184 40 16 184 40 16 184 40 16 184 40 16 184 40 16 184 40 16 184 40 16 184 40 16 184 40 16 184 40 16 184 40 16 184 40 16 184 40 16 184 40 16 184 40 16 184 40 16 184 40 16 184 40 16 184 40 16 184 40 16 184 40 16 184 40 16 184 40 16 184 40 16 184 40 16 184 40 16 184 40 16 184 80 24 56 80 24 56 80 24 56 80 24 56 80 24 56 80 24 56 80 24 56 80 24 56 80 24 56 80 24 56 80 24 56 80 24 56 80 24 56 80 24 56 80 24 56 80 24 56 80 24 56 80 24 56 80 24 56 80 24 56 80 24 56 80 24 56 80 24 56 80 24 56 80 24 56 80 24 56 80 24 56 80 24 56 80 24 56 80 24 56 80 24 56 80 24 56 88 24 184 88 24 184 88 24 184 88 24 184 88 24 184 88 24 184 88 24 184 88 24 184 88 24 184 88 24 184 88 24 184 88 24 184 88 24 184 88 24 184 88 24 184 88 24 184 88 24 184 88 24 184 88 24 184 88 24 184 88 24 184 88 24 184 88 24 184 88 24 184 88 24 184 88 24 184 88 24 184 88 24 184 88 24 184 88 24 184 88 24 184 88 24 184
88 24 184 88 24 184 88 24 184 88 24 184 88 24 184 88 24 184 88 24 184 88 24 184 88 24 184 88 24 184 88 24 184 88 24 184 88 24 184 88 24 184 88 24 184 88 24 184 88 24 184 88 24 184 88 24 184 88 24 184 88 24 184 88 24 184 88 24 184 88 24 184 88 24 184 88 24 184 88 24 184 88 24 184 88 24 184 88 24 184 88 24 184 88 24 184 40 16 184 40 16 184 40 16 184 40 16 184 40 16 184 40 16 184 40 16 184 40 16 184 40 16 184 40 16 184 40 16 184 40 16 184 40 16 184 40 16 184 40 16 184 40 16 184 40 16 184 40 16 184 40 16 184 40 16 184 40 16 184 40 16 184 40 16 184 40 16 184 40 16 184 40 16 184 40 16 184 40 16 184 40 16 184 40 16 184 40 16 184 40 16 184 80 24 56 80 24 56 80 24 56 80 24 56 80 24 56 80 24 56 80 24 56 80 24 56 80 24 56 80 24 56 80 24 56 80 24 56 80 24 56 80 24 56 80 24 56 80 24 56 80 24 56 80 24 56 80 24 56 80 24 56 80 24 56 80 24 56 80 24 56 80 24 56 80 24 56 80 24 56 80 24 56 80 24 56 80 24 56 80 24 56 80 24 56 80 24 56 88 24 184 88 24 184 88 24 184 88 24 184 88 24 184 88 24 184 88 24 184 88 24 184 88 24 184 88 24 184 88 24 184 88 24 184 88 24 184 88 24 184 88 24 184 88 24 184 88 24 184 88 24 184 88 24 184 88 24 184 88 24 184 88 24 184 88 24 184 88 24 184 88 24 184 88 24 184 88 24 184 88 24 184 88 24 184 88 24 184 88 24 184 88 24 184
88 24 184 88 24 184 88 24 184 88 24 184 88 24 184 88 24 184 88 24 184 88 24 184 88 24 184 88 24 184 88 24 184 88 24 184 88 24 184 88 24 184 88 24 184 88 24 184 88 24 184 88 24 184 88 24 184 88 24 184 88 24 184 88 24 184 88 24 184 88 24 184 88 24 184 88 24 184 88 24 184 88 24 184 88 24 184 88 24 184 88 24 184 88 24 184 40 16 184 40 16 184 40 16 184 40 16 184 40 16 184 40 16 184 40 16 184 40 16 184 40 16 184 40 16 184 40 16 184 40 16 184 40 16 184 40 16 184 40 16 184 40 16 184 40 16 184 40 16 184 40 16 184 40 16 184 40 16 184 40 16 184 40 16 184 40 16 184 40 16 184 40 16 184 40 16 184 40 16 184 40 16 184 40 16 184 40 16 184 40 16 184 80 24 56 80 24 56 80 24 56 80 24 56 80 24 56 80 24 56 80 24 56 80 24 56 80 24 56 80 24 56 80 24 56 80 24 56 80 24 56 80 24 56 80 24 56 80 24 56 80 24 56 80 24 56 80 24 56 80 24 56 80 24 56 80 24 56 80 24 56 80 24 56 80 24 56 80 24 56 80 24 56 80 24 56 80 24 56 80 24 56 80 24 56 80 24 56 88 24 184 88 24 184 88 24 184 88 24 184 88 24 184 88 24 184 88 24 184 88 24 184 88 24 184 88 24 184 88 24 184 88 24 184 88 24 184 88 24 184 88 24 184 88 24 184 88 24 184 88 24 184 88 24 184 88 24 184 88 24 184 88 24 184 88 24 184 88 24 184 88 24 184 88 24 184 88 24 184 88 24 184 88 24 184 88 24 184 88 24 184 88 24 184
88 24 184 88 24 184 88 24 184 88 24 184 88 24 184 88 24 184 88 24 184 88 24 184 88 24 184 88 24 184 88 24 184 88 24 184 88 24 184 88 24 184 88 24 184 88 24 184 88 24 184 88 24 184 88 24 184 88 24 184 88 24 184 88 24 184 88 24 184 88 24 184 88 24 184 88 24 184 88 24 184 88 24 184 88 24 184 88 24 184 88 24 184 88 24 184 40 16 184 40 16 184 40 16 184 40 16 184 40 16 184 40 16 184 40 16 184 40 16 184 40 16 184 40 16 184 40 16 184 40 16 184 40 16 184 40 16 184 40 16 184 40 16 184 40 16 184 40 16 184 40 16 184 40 16 184 40 16 184 40 16 184 40 16 184 40 16 184 40 16 184 40 16 184 40 16 184 40 16 184 40 16 184 40 16 184 40 16 184 40 16 184 80 24 56 80 24 56 80 24 56 80 24 56 80 24 56 80 24 56 80 24 56 80 24 56 80 24 56 80 24 56 80 24 56 80 24 56 80 24 56 80 24 56 80 24 56 80 24 56 80 24 56 80 24 56 80 24 56 80 24 56 80 24 56 80 24 56 80 24 56 80 24 56 80 24 56 80 24 56 80 24 56 80 24 56 80 24 56 80 24 56 80 24 56 80 24 56 88 24 184 88 24 184 88 24 184 88 24 184 88 24 184 88 24 184 88 24 184 88 24 184 88 24 184 88 24 184 88 24 184 88 24 184 88 24 184 88 24 184 88 24 184 88 24 184 88 24 184 88 24 184 88 24 184 88 24 184 88 24 184 88 24 184 88 24 184 88 24 184 88 24 184 88 24 184 88 24 184 88 24 184 88 24 184 88 24 184 88 24 184 88 24 184
88 24 184 88 24 184 88 24 184 88 24 184 88 24 184 88 24 184 88 24 184 88 24 184 88 24 184 88 24 184 88 24 184 88 24 184 88 24 184 88 24 184 88 24 184 88 24 184 88 24 184 88 24 184 88 24 184 88 24 184 88 24 184 88 24 184 88 24 184 88 24 184 88 24 184 88 24 184 88 24 184 88 24 184 88 24 184 88 24 184 88 24 184 88 24 184 40 16 184 40 16 184 40 16 184 40 16 184 40 16 184 40 16 184 40 16 184 40 16 184 40 16 184 40 16 184 40 16 184 40 16 184 40 16 184 40 16 184 40 16 184 40 16 184 40 16 184 40 16 184 40 16 184 40 16 184 40 16 184 40 16 184 40 16 184 40 16 184 40 16 184 40 16 184 40 16 184 40 16 184 40 16 184 40 16 184 40 16 184 40 16 184 80 24 56 80 24 56 80 24 56 80 24 56 80 24 56 80 24 56 80 24 56 80 24 56 80 24 56 80 24 56 80 24 56 80 24 56 80 24 56 80 24 56 80 24 56 80 24 56 80 24 56 80 24 56 80 24 56 80 24 56 80 24 56 80 24 56 80 24 56 80 24 56 80 24 56 80 24 56 80 24 56 80 24 56 80 24 56 80 24 56 80 24 56 80 24 56 88 24 184 88 24 184 88 24 184 88 24 184 88 24 184 88 24 184 88 24 184 88 24 184 88 24 184 88 24 184 88 24 184 88 24 184 88 24 184 88 24 184 88 24 184 88 24 184 88 24 184 88 24 184 88 24 184 88 24 184 88 24 184 88 24 184 88 24 184 88 24 184 88 24 184 88 24 184 88 24 184 88 24 184 88 24 184 88 24 184 88 24 184 88 24 184
88 24 184 88 24 184 88 24 184 88 24 184 88 24 184 88 24 184 88 24 184 88 24 184 88 24 184 88 24 184 88 24 184 88 24 184 88 24 184 88 24 184 88 24 184 88 24 184 88 24 184 88 24 184 88 24 184 88 24 184 88 24 184 88 24 184 88 24 184 88 24 184 88 24 184 88 24 184 88 24 184 88 24 184 88 24 184 88 24 184 88 24 184 88 24 184 40 16 184 40 16 184 40 16 184 40 16 184 40 16 184 40 16 184 40 16 184 40 16 184 40 16 184 40 16 184 40 16 184 40 16 184 40 16 184 40 16 184 40 16 184 40 16 184 40 16 184 40 16 184 40 16 184 40 16 184 40 16 184 40 16 184 40 16 184 40 16 184 40 16 184 40 16 184 40 16 184 40 16 184 40 16 184 40 16 184 40 16 184 40 16 184 80 24 56 80 24 56 80 24 56 80 24 56 80 24 56 80 24 56 80 24 56 80 24 56 80 24 56 80 24 56 80 24 56 80 24 56 80 24 56 80 24 56 80 24 56 80 24 56 80 24 56 80 24 56 80 24 56 80 24 56 80 24 56 80 24 56 80 24 56 80 24 56 80 24 56 80 24 56 80 24 56 80 24 56 80 24 56 80 24 56 80 24 56 80 24 56 88 24 184 88 24 184 88 24 184 88 24 184 88 24 184 88 24 184 88 24 184 88 24 184 88 24 184 88 24 184 88 24 184 88 24 184 88 24 184 88 24 184 88 24 184 88 24 184 88 24 184 88 24 184 88 24 184 88 24 184 88 24 184 88 24 184 88 24 184 88 24 184 88 24 184 88 24 184 88 24 184 88 24 184 88 24 184 88 24 184 88 24 184 88 24 184
88 24 184 88 24 184 88 24 184 88 24 184 88 24 184 88 24 184 88 24 184 88 24 184 88 24 184 88 24 184 88 24 184 88 24 184 88 24 184 88 24 184 88 24 184 88 24 184 88 24 184 88 24 184 88 24 184 88 24 184 88 24 184 88 24 184 88 24 184 88 24 184 88 24 184 88 24 184 88 24 184 88 24 184 88 24 184 88 24 184 88 24 184 88 24 184 40 16 184 40 16 184 40 16 184 40 16 184 40 16 184 40 16 184 40 16 184 40 16 184 40 16 184 40 16 184 40 16 184 40 16 184 40 16 184 40 16 184 40 16 184 40 16 184 40 16 184 40 16 184 40 16 184 40 16 184 40 16 184 40 16 184 40 16 184 40 16 184 40 16 184 40 16 184 40 16 184 40 16 184 40 16 184 40 16 184 40 16 184 40 16 184 80 24 56 80 24 56 80 24 56 80 24 56 80 24 56 80 24 56 80 24 56 80 24 56 80 24 56 80 24 56 80 24 56 80 24 56 80 24 56 80 24 56 80 24 56 80 24 56 80 24 56 80 24 56 80 24 56 80 24 56 80 24 56 80 24 56 80 24 56 80 24 56 80 24 56 80 24 56 80 24 56 80 24 56 80 24 56 80 24 56 80 24 56 80 24 56 88 24 184 88 24 184 88 24 184 88 24 184 88 24 184 88 24 184 88 24 184 88 24 184 88 24 184 88 24 184 88 24 184 88 24 184 88 24 184 88 24 184 88 24 184 88 24 184 88 24 184 88 24 184 88 24 184 88 24 184 88 24 184 88 24 184 88 24 184 88 24 184 88 24 184 88 24 184 88 24 184 88 24 184 88 24 184 88 24 184 88 24 184 88 24 184
88 24 184 88 24 184 88 24 184 88 24 184 88 24 184 88 24 184 88 24 184 88 24 184 88 24 184 88 24 184 88 24 184 88 24 184 88 24 184 88 24 184 88 24 184 88 24 184 88 24 184 88 24 184 88 24 184 88 24 184 88 24 184 88 24 184 88 24 184 88 24 184 88 24 184 88 24 184 88 24 184 88 24 184 88 24 184 88 24 184 88 24 184 88 24 184 40 16 184 40 16 184 40 16 184 40 16 184 40 16 184 40 16 184 40 16 184 40 16 184 40 16 184 40 16 184 40 16 184 40 16 184 40 16 184 40 16 184 40 16 184 40 16 184 40 16 184 40 16 184 40 16 184 40 16 184 40 16 184 40 16 184 40 16 184 40 16 184 40 16 184 40 16 184 40 16 184 40 16 184 40 16 184 40 16 184 40 16 184 40 16 184 80 24 56 80 24 56 80 24 56 80 24 56 80 24 56 80 24 56 80 24 56 80 24 56 80 24 56 80 24 56 80 24 56 80 24 56 80 24 56 80 24 56 80 24 56 80 24 56 80 24 56 80 24 56 80 24 56 80 24 56 80 24 56 80 24 56 80 24 56 80 24 56 80 24 56 80 24 56 80 24 56 80 24 56 80 24 56 80 24 56 80 24 56 80 24 56 88 24 184 88 24 184 88 24 184 88 24 184 88 24 184 88 24 184 88 24 184 88 24 184 88 24 184 88 24 184 88 24 184 88 24 184 88 24 184 88 24 184 88 24 184 88 24 184 88 24 184 88 24 184 88 24 184 88 24 184 88 24 184 88 24 184 88 24 184 88 24 184 88 24 184 88 24 184 88 24 184 88 24 184 88 24 184 88 24 184 88 24 184 88 24 184
88 24 184 88 24 184 88 24 184 88 24 184 88 24 184 88 24 184 88 24 184 88 24 184 88 24 184 88 24 184 88 24 184 88 24 184 88 24 184 88 24 184 88 24 184 88 24 184 88 24 184 88 24 184 88 24 184 88 24 184 88 24 184 88 24 184 88 24 184 88 24 184 88 24 184 88 24 184 88 24 184 88 24 184 88 24 184 88 24 184 88 24 184 88 24 184 40 16 184 40 16 184 40 16 184 40 16 184 40 16 184 40 16 184 40 16 184 40 16 184 40 16 184 40 16 184 40 16 184 40 16 184 40 16 184 40 16 184 40 16 184 40 16 184 40 16 184 40 16 184 40 16 184 40 16 184 40 16 184 40 16 184 40 16 184 40 16 184 40 16 184 40 16 184 40 16 184 40 16 184 40 16 184 40 16 184 40 16 184 40 16 184 80 24 56 80 24 56 80 24 56 80 24 56 80 24 56 80 24 56 80 24 56 80 24 56 80 24 56 80 24 56 80 24 56 80 24 56 80 24 56 80 24 56 80 24 56 80 24 56 80 24 56 80 24 56 80 24 56 80 24 56 80 24 56 80 24 56 80 24 56 80 24 56 80 24 56 80 24 56 80 24 56 80 24 56 80 24 56 80 24 56 80 24 56 80 24 56 88 24 184 88 24 184 88 24 184 88 24 184 88 24 184 88 24 184 88 24 184 88 24 184 88 24 184 88 24 184 88 24 184 88 24 184 88 24 184 88 24 184 88 24 184 88 24 184 88 24 184 88 24 184 88 24 184 88 24 184 88 24 184 88 24 184 88 24 184 88 24 184 88 24 184 88 24 184 88 24 184 88 24 184 88 24 184 88 24 184 88 24 184 88 24 184
88 24 184 88 24 184 88 24 184 88 24 184 88 24 184 88 24 184 88 24 184 88 24 184 88 24 184 88 24 184 88 24 184 88 24 184 88 24 184 88 24 184 88 24 184 88 24 184 88 24 184 88 24 184 88 24 184 88 24 184 88 24 184 88 24 184 88 24 184 88 24 184 88 24 184 88 24 184 88 24 184 88 24 184 88 24 184 88 24 184 88 24 184 88 24 184 40 16 184 40 16 184 40 16 184 40 16 184 40 16 184 40 16 184 40 16 184 40 16 184 40 16 184 40 16 184 40 16 184 40 16 184 40 16 184 40 16 184 40 16 184 40 16 184 40 16 184 40 16 184 40 16 184 40 16 184 40 16 184 40 16 184 40 16 184 40 16 184 40 16 184 40 16 184 40 16 184 40 16 184 40 16 184 40 16 184 40 16 184 40 16 184 80 24 56 80 24 56 80 24 56 80 24 56 80 24 56 80 24 56 80 24 56 80 24 56 80 24 56 80 24 56 80 24 56 80 24 56 80 24 56 80 24 56 80 24 56 80 24 56 80 24 56 80 24 56 80 24 56 80 24 56 80 24 56 80 24 56 80 24 56 80 24 56 80 24 56 80 24 56 80 24 56 80 24 56 80 24 56 80 24 56 80 24 56 80 24 56 88 24 184 88 24 184 88 24 184 88 24 184 88 24 184 88 24 184 88 24 184 88 24 184 88 24 184 88 24 184 88 24 184 88 24 184 88 24 184 88 24 184 88 24 184 88 24 184 88 24 184 88 24 184 88 24 184 88 24 184 88 24 184 88 24 184 88 24 184 88 24 184 88 24 184 88 24 184 88 24 184 88 24 184 88 24 184 88 24 184 88 24 184 88 24 184
88 24 184 88 24 184 88 24 184 88 24 184 88 24 184 88 24 184 88 24 184 88 24 184 88 24 184 88 24 184 88 24 184 88 24 184 88 24 184 88 24 184 88 24 184 88 24 184 88 24 184 88 24 184 88 24 184 88 24 184 88 24 184 88 24 184 88 24 184 88 24 184 88 24 184 88 24 184 88 24 184 88 24 184 88 24 184 88 24 184 88 24 184 88 24 184 40 16 184 40 16 184 40 16 184 40 16 184 40 16 184 40 16 184 40 16 184 40 16 184 40 16 184 40 16 184 40 16 184 40 16 184 40 16 184 40 16 184 40 16 184 40 16 184 40 16 184 40 16 184 40 16 184 40 16 184 40 16 184 40 16 184 40 16 184 40 16 184 40 16 184 40 16 184 40 16 184 40 16 184 40 16 184 40 16 184 40 16 184 40 16 184 80 24 56 80 24 56 80 24 56 80 24 56 80 24 56 80 24 56 80 24 56 80 24 56 80 24 56 80 24 56 80 24 56 80 24 56 80 24 56 80 24 56 80 24 56 80 24 56 80 24 56 80 24 56 80 24 56 80 24 56 80 24 56 80 24 56 80 24 56 80 24 56 80 24 56 80 24 56 80 24 56 80 24 56 80 24 56 80 24 56 80 24 56 80 24 56 88 24 184 88 24 184 88 24 184 88 24 184 88 24 184 88 24 184 88 24 184 88 24 184 88 24 184 88 24 184 88 24 184 88 24 184 88 24 184 88 24 184 88 24 184 88 24 184 88 24 184 88 24 184 88 24 184 88 24 184 88 24 184 88 24 184 88 24 184 88 24 184 88 24 184 88 24 184 88 24 184 88 24 184 88 24 184 88 24 184 88 24 184 88 24 184
88 24 184 88 24 184 88 24 184 88 24 184 88 24 184 88 24 184 88 24 184 88 24 184 88 24 184 88 24 184 88 24 184 88 24 184 88 24 184 88 24 184 88 24 184 88 24 184 88 24 184 88 24 184 88 24 184 88 24 184 88 24 184 88 24 184 88 24 184 88 24 184 88 24 184 88 24 184 88 24 184 88 24 184 88 24 184 88 24 184 88 24 184 88 24 184 40 16 184 40 16 184 40 16 184 40 16 184 40 16 184 40 16 184 40 16 184 40 16 184 40 16 184 40 16 184 40 16 184 40 16 184 40 16 184 40 16 184 40 16 184 40 16 184 40 16 184 40 16 184 40 16 184 40 16 184 40 16 184 40 16 184 40 16 184 40 16 184 40 16 184 40 16 184 40 16 184 40 16 184 40 16 184 40 16 184 40 16 184 40 16 184 80 24 56 80 24 56 80 24 56 80 24 56 80 24 56 80 24 56 80 24 56 80 24 56 80 24 56 80 24 56 80 24 56 80 24 56 80 24 56 80 24 56 80 24 56 80 24 56 80 24 56 80 24 56 80 24 56 80 24 56 80 24 56 80 24 56 80 24 56 80 24 56 80 24 56 80 24 56 80 24 56 80 24 56 80 24 56 80 24 56 80 24 56 80 24 56 88 24 184 88 24 184 88 24 184 88 24 184 88 24 184 88 24 184 88 24 184 88 24 184 88 24 184 88 24 184 88 24 184 88 24 184 88 24 184 88 24 184 88 24 184 88 24 184 88 24 184 88 24 184 88 24 184 88 24 184 88 24 184 88 24 184 88 24 184 88 24 184 88 24 184 88 24 184 88 24 184 88 24 184 88 24 184 88 24 184 88 24 184 88 24 184
216 24 184 216 24 184 216 24 184 216 24 184 216 24 184 216 24 184 216 24 184 216 24 184 216 24 184 216 24 184 216 24 184 216 24 184 216 24 184 216 24 184 216 24 184 216 24 184 216 24 184 216 24 184 216 24 184 216 24 184 216 24 184 216 24 184 216 24 184 216 24 184 216 24 184 216 24 184 216 24 184 216 24 184 216 24 184 216 24 184 216 24 184 216 24 184 224 24 56 224 24 56 224 24 56 224 24 56 224 24 56 224 24 56 224 24 56 224 24 56 224 24 56 224 24 56 224 24 56 224 24 56 224 24 56 224 24 56 224 24 56 224 24 56 224 24 56 224 24 56 224 24 56 224 24 56 224 24 56 224 24 56 224 24 56 224 24 56 224 24 56 224 24 56 224 24 56 224 24 56 224 24 56 224 24 56 224 24 56 224 24 56 208 24 56 208 24 56 208 24 56 208 24 56 208 24 56 208 24 56 208 24 56 208 24 56 208 24 56 208 24 56 208 24 56 208 24 56 208 24 56 208 24 56 208 24 56 208 24 56 208 24 56 208 24 56 208 24 56 208 24 56 208 24 56 208 24 56 208 24 56 208 24 56 208 24 56 208 24 56 208 24 56 208 24 56 208 24 56 208 24 56 208 24 56 208 24 56 96 24 56 96 24 56 96 24 56 96 24 56 96 24 56 96 24 56 96 24 56 96 24 56 96 24 56 96 24 56 96 24 56 96 24 56 96 24 56 96 24 56 96 24 56 96 24 56 96 24 56 96 24 56 96 24 56 96 24 56 96 24 56 96 24 56 96 24 56 96 24 56 96 24 56 96 24 56 96 24 56 96 24 56 96 24 56 96 24 56 96 24 56 96 24 56
216 24 184 216 24 184 216 24 184 216 24 184 216 24 184 216 24 184 216 24 184 216 24 184 216 24 184 216 24 184 216 24 184 216 24 184 216 24 184 216 24 184 216 24 184 216 24 184 216 24 184 216 24 184 216 24 184 216 24 184 216 24 184 216 24 184 216 24 184 216 24 184 216 24 184 216 24 184 216 24 184 216 24 184 216 24 184 216 24 184 216 24 184 216 24 184 224 24 56 224 24 56 224 24 56 224 24 56 224 24 56 224 24 56 224 24 56 224 24 56 224 24 56 224 24 56 224 24 56 224 24 56 224 24 56 224 24 56 224 24 56 224 24 56 224 24 56 224 24 56 224 24 56 224 24 56 224 24 56 224 24 56 224 24 56 224 24 56 224 24 56 224 24 56 224 24 56 224 24 56 224 24 56 224 24 56 224 24 56 224 24 56 208 24 56 208 24 56 208 24 56 208 24 56 208 24 56 208 24 56 208 24 56 208 24 56 208 24 56 208 24 56 208 24 56 208 24 56 208 24 56 208 24 56 208 24 56 208 24 56 208 24 56 208 24 56 208 24 56 208 24 56 208 24 56 208 24 56 208 24 56 208 24 56 208 24 56 208 24 56 208 24 56 208 24 56 208 24 56 208 24 56 208 24 56 208 24 56 96 24 56 96 24 56 96 24 56 96 24 56 96 24 56 96 24 56 96 24 56 96 24 56 96 24 56 96 24 56 96 24 56 96 24 56 96 24 56 96 24 56 96 24 56 96 24 56 96 24 56 96 24 56 96 24 56 96 24 56 96 24 56 96 24 56 96 24 56 96 24 56 96 24 56 96 24 56 96 24 56 96 24 56 96 24 56 96 24 56 96 24 56 96 24 56
216 24 184 216 24 184 216 24 184 216 24 184 216 24 184 216 24 184 216 24 184 216 24 184 216 24 184 216 24 184 216 24 184 216 24 184 216 24 184 216 24 184 216 24 184 216 24 184 216 24 184 216 24 184 216 24 184 216 24 184 216 24 184 216 24 184 216 24 184 216 24 184 216 24 184 216 24 184 216 24 184 216 24 184 216 24 184 216 24 184 216 24 184 216 24 184 224 24 56 224 24 56 224 24 56 224 24 56 224 24 56 224 24 56 224 24 56 224 24 56 224 24 56 224 24 56 224 24 56 224 24 56 224 24 56 224 24 56 224 24 56 224 24 56 224 24 56 224 24 56 224 24 56 224 24 56 224 24 56 224 24 56 224 24 56 224 24 56 224 24 56 224 24 56 224 24 56 224 24 56 224 24 56 224 24 56 224 24 56 224 24 56 208 24 56 208 24 56 208 24 56 208 24 56 208 24 56 208 24 56 208 24 56 208 24 56 208 24 56 208 24 56 208 24 56 208 24 56 208 24 56 208 24 56 208 24 56 208 24 56 208 24 56 208 24 56 208 24 56 208 24 56 208 24 56 208 24 56 208 24 56 208 24 56 208 24 56 208 24 56 208 24 56 208 24 56 208 24 56 208 24 56 208 24 56 208 24 56 96 24 56 96 24 56 96 24 56 96 24 56 96 24 56 96 24 56 96 24 56 96 24 56 96 24 56 96 24 56 96 24 56 96 24 56 96 24 56 96 24 56 96 24 56 96 24 56 96 24 56 96 24 56 96 24 56 96 24 56 96 24 56 96 24 56 96 24 56 96 24 56 96 24 56 96 24 56 96 24 56 96 24 56 96 24 56 96 24 56 96 24 56 96 24 56
216 24 184 216 24 184 216 24 184 216 24 184 216 24 184 216 24 184 216 24 184 216 24 184 216 24 184 216 24 184 216 24 184 216 24 184 216 24 184 216 24 184 216 24 184 216 24 184 216 24 184 216 24 184 216 24 184 216 24 184 216 24 184 216 24 184 216 24 184 216 24 184 216 24 184 216 24 184 216 24 184 216 24 184 216 24 184 216 24 184 216 24 184 216 24 184 224 24 56 224 24 56 224 24 56 224 24 56 224 24 56 224 24 56 224 24 56 224 24 56 224 24 56 224 24 56 224 24 56 224 24 56 224 24 56 224 24 56 224 24 56 224 24 56 224 24 56 224 24 56 224 24 56 224 24 56 224 24 56 224 24 56 224 24 56 224 24 56 224 24 56 224 24 56 224 24 56 224 24 56 224 24 56 224 24 56 224 24 56 224 24 56 208 24 56 208 24 56 208 24 56 208 24 56 208 24 56 208 24 56 208 24 56 208 24 56 208 24 56 208 24 56 208 24 56 208 24 56 208 24 56 208 24 56 208 24 56 208 24 56 208 24 56 208 24 56 208 24 56 208 24 56 208 24 56 208 24 56 208 24 56 208 24 56 208 24 56 208 24 56 208 24 56 208 24 56 208 24 56 208 24 56 208 24 56 208 24 56 96 24 56 96 24 56 96 24 56 96 24 56 96 24 56 96 24 56 96 24 56 96 24 56 96 24 56 96 24 56 96 24 56 96 24 56 96 24 56 96 24 56 96 24 56 96 24 56 96 24 56 96 24 56 96 24 56 96 24 56 96 24 56 96 24 56 96 24 56 96 24 56 96 24 56 96 24 56 96 24 56 96 24 56 96 24 56 96 24 56 96 24 56 96 24 56
216 24 184 216 24 184 216 24 184 216 24 184 216 24 184 216 24 184 216 24 184 216 24 184 216 24 184 216 24 184 216 24 184 216 24 184 216 24 184 216 24 184 216 24 184 216 24 184 216 24 184 216 24 184 216 24 184 216 24 184 216 24 184 216 24 184 216 24 184 216 24 184 216 24 184 216 24 184 216 24 184 216 24 184 216 24 184 216 24 184 216 24 184 216 24 184 224 24 56 224 24 56 224 24 56 224 24 56 224 24 56 224 24 56 224 24 56 224 24 56 224 24 56 224 24 56 224 24 56 224 24 56 224 24 56 224 24 56 224 24 56 224 24 56 224 24 56 224 24 56 224 24 56 224 24 56 224 24 56 224 24 56 224 24 56 224 24 56 224 24 56 224 24 56 224 24 56 224 24 56 224 24 56 224 24 56 224 24 56 224 24 56 208 24 56 208 24 56 208 24 56 208 24 56 208 24 56 208 24 56 208 24 56 208 24 56 208 24 56 208 24 56 208 24 56 208 24 56 208 24 56 208 24 56 208 24 56 208 24 56 208 24 56 208 24 56 208 24 56 208 24 56 208 24 56 208 24 56 208 24 56 208 24 56 208 24 56 208 24 56 208 24 56 208 24 56 208 24 56 208 24 56 208 24 56 208 24 56 96 24 56 96 24 56 96 24 56 96 24 56 96 24 56 96 24 56 96 24 56 96 24 56 96 24 56 96 24 56 96 24 56 96 24 56 96 24 56 96 24 56 96 24 56 96 24 56 96 24 56 96 24 56 96 24 56 96 24 56 96 24 56 96 24 56 96 24 56 96 24 56 96 24 56 96 24 56 96 24 56 96 24 56 96 24 56 96 24 56 96 24 56 96 24 56
216 24 184 216 24 184 216 24 184 216 24 184 216 24 184 216 24 184 216 24 184 216 24 184 216 24 184 216 24 184 216 24 184 216 24 184 216 24 184 216 24 184 216 24 184 216 24 184 216 24 184 216 24 184 216 24 184 216 24 184 216 24 184 216 24 184 216 24 184 216 24 184 216 24 184 216 24 184 216 24 184 216 24 184 216 24 184 216 24 184 216 24 184 216 24 184 224 24 56 224 24 56 224 24 56 224 24 56 224 24 56 224 24 56 224 24 56 224 24 56 224 24 56 224 24 56 224 24 56 224 24 56 224 24 56 224 24 56 224 24 56 224 24 56 224 24 56 224 24 56 224 24 56 224 24 56 224 24 56 224 24 56 224 24 56 224 24 56 224 24 56 224 24 56 224 24 56 224 24 56 224 24 56 224 24 56 224 24 56 224 24 56 208 24 56 208 24 56 208 24 56 208 24 56 208 24 56 208 24 56 208 24 56 208 24 56 208 24 56 208 24 56 208 24 56 208 24 56 208 24 56 208 24 56 208 24 56 208 24 56 208 24 56 208 24 56 208 24 56 208 24 56 208 24 56 208 24 56 208 24 56 208 24 56 208 24 56 208 24 56 208 24 56 208 24 56 208 24 56 208 24 56 208 24 56 208 24 56 96 24 56 96 24 56 96 24 56 96 24 56 96 24 56 96 24 56 96 24 56 96 24 56 96 24 56 96 24 56 96 24 56 96 24 56 96 24 56 96 24 56 96 24 56 96 24 56 96 24 56 96 24 56 96 24 56 96 24 56 96 24 56 96 24 56 96 24 56 96 24 56 96 24 56 96 24 56 96 24 56 96 24 56 96 24 56 96 24 56 96 24 56 96 24 56
216 24 184 216 24 184 216 24 184 216 24 184 216 24 184 216 24 184 216 24 184 216 24 184 216 24 184 216 24 184 216 24 184 216 24 184 216 24 184 216 24 184 216 24 184 216 24 184 216 24 184 216 24 184 216 24 184 216 24 184 216 24 184 216 24 184 216 24 184 216 24 184 216 24 184 216 24 184 216 24 184 216 24 184 216 24 184 216 24 184 216 24 184 216 24 184 224 24 56 224 24 56 224 24 56 224 24 56 224 24 56 224 24 56 224 24 56 224 24 56 224 24 56 224 24 56 224 24 56 224 24 56 224 24 56 224 24 56 224 24 56 224 24 56 224 24 56 224 24 56 224 24 56 224 24 56 224 24 56 224 24 56 224 24 56 224 24 56 224 24 56 224 24 56 224 24 56 224 24 56 224 24 56 224 24 56 224 24 56 224 24 56 208 24 56 208 24 56 208 24 56 208 24 56 208 24 56 208 24 56 208 24 56 208 24 56 208 24 56 208 24 56 208 24 56 208 24 56 208 24 56 208 24 56 208 24 56 208 24 56 208 24 56 208 24 56 208 24 56 208 24 56 208 24 56 208 24 56 208 24 56 208 24 56 208 24 56 208 24 56 208 24 56 208 24 56 208 24 56 208 24 56 208 24 56 208 24 56 96 24 56 96 24 56 96 24 56 96 24 56 96 24 56 96 24 56 96 24 56 96 24 56 96 24 56 96 24 56 96 24 56 96 24 56 96 24 56 96 24 56 96 24 56 96 24 56 96 24 56 96 24 56 96 24 56 96 24 56 96 24 56 96 24 56 96 24 56 96 24 56 96 24 56 96 24 56 96 24 56 96 24 56 96 24 56 96 24 56 96 24 56 96 24 56
216 24 184 216 24 184 216 24 184 216 24 184 216 24 184 216 24 184 216 24 184 216 24 184 216 24 184 216 24 184 216 24 184 216 24 184 216 24 184 216 24 184 216 24 184 216 24 184 216 24 184 216 24 184 216 24 184 216 24 184 216 24 184 216 24 184 216 24 184 216 24 184 216 24 184 216 24 184 216 24 184 216 24 184 216 24 184 216 24 184 216 24 184 216 24 184 224 24 56 224 24 56 224 24 56 224 24 56 224 24 56 224 24 56 224 24 56 224 24 56 224 24 56 224 24 56 224 24 56 224 24 56 224 24 56 224 24 56 224 24 56 224 24 56 224 24 56 224 24 56 224 24 56 224 24 56 224 24 56 224 24 56 224 24 56 224 24 56 224 24 56 224 24 56 224 24 56 224 24 56 224 24 56 224 24 56 224 24 56 224 24 56 208 24 56 208 24 56 208 24 56 208 24 56 208 24 56 208 24 56 208 24 56 208 24 56 208 24 56 208 24 56 208 24 56 208 24 56 208 24 56 208 24 56 208 24 56 208 24 56 208 24 56 208 24 56 208 24 56 208 24 56 208 24 56 208 24 56 208 24 56 208 24 56 208 24 56 208 24 56 208 24 56 208 24 56 208 24 56 208 24 56 208 24 56 208 24 56 96 24 56 96 24 56 96 24 56 96 24 56 96 24 56 96 24 56 96 24 56 96 24 56 96 24 56 96 24 56 96 24 56 96 24 56 96 24 56 96 24 56 96 24 56 96 24 56 96 24 56 96 24 56 96 24 56 96 24 56 96 24 56 96 24 56 96 24 56 96 24 56 96 24 56 96 24 56 96 24 56 96 24 56 96 24 56 96 24 56 96 24 56 96 24 56
216 24 184 216 24 184 216 24 184 216 24 184 216 24 184 216 24 184 216 24 184 216 24 184 216 24 184 216 24 184 216 24 184 216 24 184 216 24 184 216 24 184 216 24 184 216 24 184 216 24 184 216 24 184 216 24 184 216 24 184 216 24 184 216 24 184 216 24 184 216 24 184 216 24 184 216 24 184 216 24 184 216 24 184 216 24 184 216 24 184 216 24 184 216 24 184 224 24 56 224 24 56 224 24 56 224 24 56 224 24 56 224 24 56 224 24 56 224 24 56 224 24 56 224 24 56 224 24 56 224 24 56 224 24 56 224 24 56 224 24 56 224 24 56 224 24 56 224 24 56 224 24 56 224 24 56 224 24 56 224 24 56 224 24 56 224 24 56 224 24 56 224 24 56 224 24 56 224 24 56 224 24 56 224 24 56 224 24 56 224 24 56 208 24 56 208 24 56 208 24 56 208 24 56 208 24 56 208 24 56 208 24 56 208 24 56 208 24 56 208 24 56 208 24 56 208 24 56 208 24 56 208 24 56 208 24 56 208 24 56 208 24 56 208 24 56 208 24 56 208 24 56 208 24 56 208 24 56 208 24 56 208 24 56 208 24 56 208 24 56 208 24 56 208 24 56 208 24 56 208 24 56 208 24 56 208 24 56 96 24 56 96 24 56 96 24 56 96 24 56 96 24 56 96 24 56 96 24 56 96 24 56 96 24 56 96 24 56 96 24 56 96 24 56 96 24 56 96 24 56 96 24 56 96 24 56 96 24 56 96 24 56 96 24 56 96 24 56 96 24 56 96 24 56 96 24 56 96 24 56 96 24 56 96 24 56 96 24 56 96 24 56 96 24 56 96 24 56 96 24 56 96 24 56
216 24 184 216 24 184 216 24 184 216 24 184 216 24 184 216 24 184 216 24 184 216 24 184 216 24 184 216 24 184 216 24 184 216 24 184 216 24 184 216 24 184 216 24 184 216 24 184 216 24 184 216 24 184 216 24 184 216 24 184 216 24 184 216 24 184 216 24 184 216 24 184 216 24 184 216 24 184 216 24 184 216 24 184 216 24 184 216 24 184 216 24 184 216 24 184 224 24 56 224 24 56 224 24 56 224 24 56 224 24 56 224 24 56 224 24 56 224 24 56 224 24 56 224 24 56 224 24 56 224 24 56 224 24 56 224 24 56 224 24 56 224 24 56 224 24 56 224 24 56 224 24 56 224 24 56 224 24 56 224 24 56 224 24 56 224 24 56 224 24 56 224 24 56 224 24 56 224 24 56 224 24 56 224 24 56 224 24 56 224 24 56 208 24 56 208 24 56 208 24 56 208 24 56 208 24 56 208 24 56 208 24 56 208 24 56 208 24 56 208 24 56 208 24 56 208 24 56 208 24 56 208 24 56 208 24 56 208 24 56 208 24 56 208 24 56 208 24 56 208 24 56 208 24 56 208 24 56 208 24 56 208 24 56 208 24 56 208 24 56 208 24 56 208 24 56 208 24 56 208 24 56 208 24 56 208 24 56 96 24 56 96 24 56 96 24 56 96 24 56 96 24 56 96 24 56 96 24 56 96 24 56 96 24 56 96 24 56 96 24 56 96 24 56 96 24 56 96 24 56 96 24 56 96 24 56 96 24 56 96 24 56 96 24 56 96 24 56 96 24 56 96 24 56 96 24 56 96 24 56 96 24 56 96 24 56 96 24 56 96 24 56 96 24 56 96 24 56 96 24 56 96 24 56
216 24 184 216 24 184 216 24 184 216 24 184 216 24 184 216 24 184 216 24 184 216 24 184 216 24 184 216 24 184 216 24 184 216 24 184 216 24 184 216 24 184 216 24 184 216 24 184 216 24 184 216 24 184 216 24 184 216 24 184 216 24 184 216 24 184 216 24 184 216 24 184 216 24 184 216 24 184 216 24 184 216 24 184 216 24 184 216 24 184 216 24 184 216 24 184 224 24 56 224 24 56 224 24 56 224 24 56 224 24 56 224 24 56 224 24 56 224 24 56 224 24 56 224 24 56 224 24 56 224 24 56 224 24 56 224 24 56 224 24 56 224 24 56 224 24 56 224 24 56 224 24 56 224 24 56 224 24 56 224 24 56 224 24 56 224 24 56 224 24 56 224 24 56 224 24 56 224 24 56 224 24 56 224 24 56 224 24 56 224 24 56 208 24 56 208 24 56 208 24 56 208 24 56 208 24 56 208 24 56 208 24 56 208 24 56 208 24 56 208 24 56 208 24 56 208 24 56 208 24 56 208 24 56 208 24 56 208 24 56 208 24 56 208 24 56 208 24 56 208 24 56 208 24 56 208 24 56 208 24 56 208 24 56 208 24 56 208 24 56 208 24 56 208 24 56 208 24 56 208 24 56 208 24 56 208 24 56 96 24 56 96 24 56 96 24 56 96 24 56 96 24 56 96 24 56 96 24 56 96 24 56 96 24 56 96 24 56 96 24 56 96 24 56 96 24 56 96 24 56 96 24 56 96 24 56 96 24 56 96 24 56 96 24 56 96 24 56 96 24 56 96 24 56 96 24 56 96 24 56 96 24 56 96 24 56 96 24 56 96 24 56 96 24 56 96 24 56 96 24 56 96 24 56
216 24 184 216 24 184 216 24 184 216 24 184 216 24 184 216 24 184 216 24 184 216 24 184 216 24 184 216 24 184 216 24 184 216 24 184 216 24 184 216 24 184 216 24 184 216 24 184 216 24 184 216 24 184 216 24 184 216 24 184 216 24 184 216 24 184 216 24 184 216 24 184 216 24 184 216 24 184 216 24 184 216 24 184 216 24 184 216 24 184 216 24 184 216 24 184 224 24 56 224 24 56 224 24 56 224 24 56 224 24 56 224 24 56 224 24 56 224 24 56 224 24 56 224 24 56 224 24 56 224 24 56 224 24 56 224 24 56 224 24 56 224 24 56 224 24 56 224 24 56 224 24 56 224 24 56 224 24 56 224 24 56 224 24 56 224 24 56 224 24 56 224 24 56 224 24 56 224 24 56 224 24 56 224 24 56 224 24 56 224 24 56 208 24 56 208 24 56 208 24 56 208 24 56 208 24 56 208 24 56 208 24 56 208 24 56 208 24 56 208 24 56 208 24 56 208 24 56 208 24 56 208 24 56 208 24 56 208 24 56 208 24 56 208 24 56 208 24 56 208 24 56 208 24 56 208 24 56 208 24 56 208 24 56 208 24 56 208 24 56 208 24 56 208 24 56 208 24 56 208 24 56 208 24 56 208 24 56 96 24 56 96 24 56 96 24 56 96 24 56 96 24 56 96 24 56 96 24 56 96 24 56 96 24 56 96 24 56 96 24 56 96 24 56 96 24 56 96 24 56 96 24 56 96 24 56 96 24 56 96 24 56 96 24 56 96 24 56 96 24 56 96 24 56 96 24 56 96 24 56 96 24 56 96 24 56 96 24 56 96 24 56 96 24 56 96 24 56 96 24 56 96 24 56
216 24 184 216 24 184 216 24 184 216 24 184 216 24 184 216 24 184 216 24 184 216 24 184 216 24 184 216 24 184 216 24 184 216 24 184 216 24 184 216 24 184 216 24 184 216 24 184 216 24 184 216 24 184 216 24 184 216 24 184 216 24 184 216 24 184 216 24 184 216 24 184 216 24 184 216 24 184 216 24 184 216 24 184 216 24 184 216 24 184 216 24 184 216 24 184 224 24 56 224 24 56 224 24 56 224 24 56 224 24 56 224 24 56 224 24 56 224 24 56 224 24 56 224 24 56 224 24 56 224 24 56 224 24 56 224 24 56 224 24 56 224 24 56 224 24 56 224 24 56 224 24 56 224 24 56 224 24 56 224 24 56 224 24 56 224 24 56 224 24 56 224 24 56 224 24 56 224 24 56 224 24 56 224 24 56 224 24 56 224 24 56 208 24 56 208 24 56 208 24 56 208 24 56 208 24 56 208 24 56 208 24 56 208 24 56 208 24 56 208 24 56 208 24 56 208 24 56 208 24 56 208 24 56 208 24 56 208 24 56 208 24 56 208 24 56 208 24 56 208 24 56 208 24 56 208 24 56 208 24 56 208 24 56 208 24 56 208 24 56 208 24 56 208 24 56 208 24 56 208 24 56 208 24 56 208 24 56 96 24 56 96 24 56 96 24 56 96 24 56 96 24 56 96 24 56 96 24 56 96 24 56 96 24 56 96 24 56 96 24 56 96 24 56 96 24 56 96 24 56 96 24 56 96 24 56 96 24 56 96 24 56 96 24 56 96 24 56 96 24 56 96 24 56 96 24 56 96 24 56 96 24 56 96 24 56 96 24 56 96 24 56 96 24 56 96 24 56 96 24 56 96 24 56
216 24 184 216 24 184 216 24 184 216 24 184 216 24 184 216 24 184 216 24 184 216 24 184 216 24 184 216 24 184 216 24 184 216 24 184 216 24 184 216 24 184 216 24 184 216 24 184 216 24 184 216 24 184 216 24 184 216 24 184 216 24 184 216 24 184 216 24 184 216 24 184 216 24 184 216 24 184 216 24 184 216 24 184 216 24 184 216 24 184 216 24 184 216 24 184 224 24 56 224 24 56 224 24 56 224 24 56 224 24 56 224 24 56 224 24 56 224 24 56 224 24 56 224 24 56 224 24 56 224 24 56 224 24 56 224 24 56 224 24 56 224 24 56 224 24 56 224 24 56 224 24 56 224 24 56 224 24 56 224 24 56 224 24 56 224 24 56 224 24 56 224 24 56 224 24 56 224 24 56 224 24 56 224 24 56 224 24 56 224 24 56 208 24 56 208 24 56 208 24 56 208 24 56 208 24 56 208 24 56 208 24 56 208 24 56 208 24 56 208 24 56 208 24 56 208 24 56 208 24 56 208 24 56 208 24 56 208 24 56 208 24 56 208 24 56 208 24 56 208 24 56 208 24 56 208 24 56 208 24 56 208 24 56 208 24 56 208 24 56 208 24 56 208 24 56 208 24 56 208 24 56 208 24 56 208 24 56 96 24 56 96 24 56 96 24 56 96 24 56 96 24 56 96 24 56 96 24 56 96 24 56 96 24 56 96 24 56 96 24 56 96 24 56 96 24 56 96 24 56 96 24 56 96 24 56 96 24 56 96 24 56 96 24 56 96 24 56 96 24 56 96 24 56 96 24 56 96 24 56 96 24 56 96 24 56 96 24 56 96 24 56 96 24 56 96 24 56 96 24 56 96 24 56
216 24 184 216 24 184 216 24 184 216 24 184 216 24 184 216 24 184 216 24 184 216 24 184 216 24 184 216 24 184 216 24 184 216 24 184 216 24 184 216 24 184 216 24 184 216 24 184 216 24 184 216 24 184 216 24 184 216 24 184 216 24 184 216 24 184 216 24 184 216 24 184 216 24 184 216 24 184 216 24 184 216 24 184 216 24 184 216 24 184 216 24 184 216 24 184 224 24 56 224 24 56 224 24 56 224 24 56 224 24 56 224 24 56 224 24 56 224 24 56 224 24 56 224 24 56 224 24 56 224 24 56 224 24 56 224 24 56 224 24 56 224 24 56 224 24 56 224 24 56 224 24 56 224 24 56 224 24 56 224 24 56 224 24 56 224 24 56 224 24 56 224 24 56 224 24 56 224 24 56 224 24 56 224 24 56 224 24 56 224 24 56 208 24 56 208 24 56 208 24 56 208 24 56 208 24 56 208 24 56 208 24 56 208 24 56 208 24 56 208 24 56 208 24 56 208 24 56 208 24 56 208 24 56 208 24 56 208 24 56 208 24 56 208 24 56 208 24 56 208 24 56 208 24 56 208 24 56 208 24 56 208 24 56 208 24 56 208 24 56 208 24 56 208 24 56 208 24 56 208 24 56 208 24 56 208 24 56 96 24 56 96 24 56 96 24 56 96 24 56 96 24 56 96 24 56 96 24 56 96 24 56 96 24 56 96 24 56 96 24 56 96 24 56 96 24 56 96 24 56 96 24 56 96 24 56 96 24 56 96 24 56 96 24 56 96 24 56 96 24 56 96 24 56 96 24 56 96 24 56 96 24 56 96 24 56 96 24 56 96 24 56 96 24 56 96 24 56 96 24 56 96 24 56
216 24 184 216 24 184 216 24 184 216 24 184 216 24 184 216 24 184 216 24 184 216 24 184 216 24 184 216 24 184 216 24 184 216 24 184 216 24 184 216 24 184 216 24 184 216 24 184 216 24 184 216 24 184 216 24 184 216 24 184 216 24 184 216 24 184 216 24 184 216 24 184 216 24 184 216 24 184 216 24 184 216 24 184 216 24 184 216 24 184 216 24 184 216 24 184 224 24 56 224 24 56 224 24 56 224 24 56 224 24 56 224 24 56 224 24 56 224 24 56 224 24 56 224 24 56 224 24 56 224 24 56 224 24 56 224 24 56 224 24 56 224 24 56 224 24 56 224 24 56 224 24 56 224 24 56 224 24 56 224 24 56 224 24 56 224 24 56 224 24 56 224 24 56 224 24 56 224 24 56 224 24 56 224 24 56 224 24 56 224 24 56 208 24 56 208 24 56 208 24 56 208 24 56 208 24 56 208 24 56 208 24 56 208 24 56 208 24 56 208 24 56 208 24 56 208 24 56 208 24 56 208 24 56 208 24 56 208 24 56 208 24 56 208 24 56 208 24 56 208 24 56 208 24 56 208 24 56 208 24 56 208 24 56 208 24 56 208 24 56 208 24 56 208 24 56 208 24 56 208 24 56 208 24 56 208 24 56 96 24 56 96 24 56 96 24 56 96 24 56 96 24 56 96 24 56 96 24 56 96 24 56 96 24 56 96 24 56 96 24 56 96 24 56 96 24 56 96 24 56 96 24 56 96 24 56 96 24 56 96 24 56 96 24 56 96 24 56 96 24 56 96 24 56 96 24 56 96 24 56 96 24 56 96 24 56 96 24 56 96 24 56 96 24 56 96 24 56 96 24 56 96 24 56
216 24 184 216 24 184 216 24 184 216 24 184 216 24 184 216 24 184 216 24 184 216 24 184 216 24 184 216 24 184 216 24 184 216 24 184 216 24 184 216 24 184 216 24 184 216 24 184 216 24 184 216 24 184 216 24 184 216 24 184 216 24 184 216 24 184 216 24 184 216 24 184 216 24 184 216 24 184 216 24 184 216 24 184 216 24 184 216 24 184 216 24 184 216 24 184 224 24 56 224 24 56 224 24 56 224 24 56 224 24 56 224 24 56 224 24 56 224 24 56 224 24 56 224 24 56 224 24 56 224 24 56 224 24 56 224 24 56 224 24 56 224 24 56 224 24 56 224 24 56 224 24 56 224 24 56 224 24 56 224 24 56 224 24 56 224 24 56 224 24 56 224 24 56 224 24 56 224 24 56 224 24 56 224 24 56 224 24 56 224 24 56 208 24 56 208 24 56 208 24 56 208 24 56 208 24 56 208 24 56 208 24 56 208 24 56 208 24 56 208 24 56 208 24 56 208 24 56 208 24 56 208 24 56 208 24 56 208 24 56 208 24 56 208 24 56 208 24 56 208 24 56 208 24 56 208 24 56 208 24 56 208 24 56 208 24 56 208 24 56 208 24 56 208 24 56 208 24 56 208 24 56 208 24 56 208 24 56 96 24 56 96 24 56 96 24 56 96 24 56 96 24 56 96 24 56 96 24 56 96 24 56 96 24 56 96 24 56 96 24 56 96 24 56 96 24 56 96 24 56 96 24 56 96 24 56 96 24 56 96 24 56 96 24 56 96 24 56 96 24 56 96 24 56 96 24 56 96 24 56 96 24 56 96 24 56 96 24 56 96 24 56 96 24 56 96 24 56 96 24 56 96 24 56
216 24 184 216 24 184 216 24 184 216 24 184 216 24 184 216 24 184 216 24 184 216 24 184 216 24 184 216 24 184 216 24 184 216 24 184 216 24 184 216 24 184 216 24 184 216 24 184 216 24 184 216 24 184 216 24 184 216 24 184 216 24 184 216 24 184 216 24 184 216 24 184 216 24 184 216 24 184 216 24 184 216 24 184 216 24 184 216 24 184 216 24 184 216 24 184 224 24 56 224 24 56 224 24 56 224 24 56 224 24 56 224 24 56 224 24 56 224 24 56 224 24 56 224 24 56 224 24 56 224 24 56 224 24 56 224 24 56 224 24 56 224 24 56 224 24 56 224 24 56 224 24 56 224 24 56 224 24 56 224 24 56 224 24 56 224 24 56 224 24 56 224 24 56 224 24 56 224 24 56 224 24 56 224 24 56 224 24 56 224 24 56 208 24 56 208 24 56 208 24 56 208 24 56 208 24 56 208 24 56 208 24 56 208 24 56 208 24 56 208 24 56 208 24 56 208 24 56 208 24 56 208 24 56 208 24 56 208 24 56 208 24 56 208 24 56 208 24 56 208 24 56 208 24 56 208 24 56 208 24 56 208 24 56 208 24 56 208 24 56 208 24 56 208 24 56 208 24 56 208 24 56 208 24 56 208 24 56 96 24 56 96 24 56 96 24 56 96 24 56 96 24 56 96 24 56 96 24 56 96 24 56 96 24 56 96 24 56 96 24 56 96 24 56 96 24 56 96 24 56 96 24 56 96 24 56 96 24 56 96 24 56 96 24 56 96 24 56 96 24 56 96 24 56 96 24 56 96 24 56 96 24 56 96 24 56 96 24 56 96 24 56 96 24 56 96 24 56 96 24 56 96 24 56
216 24 184 216 24 184 216 24 184 216 24 184 216 24 184 216 24 184 216 24 184 216 24 184 216 24 184 216 24 184 216 24 184 216 24 184 216 24 184 216 24 184 216 24 184 216 24 184 216 24 184 216 24 184 216 24 184 216 24 184 216 24 184 216 24 184 216 24 184 216 24 184 216 24 184 216 24 184 216 24 184 216 24 184 216 24 184 216 24 184 216 24 184 216 24 184 224 24 56 224 24 56 224 24 56 224 24 56 224 24 56 224 24 56 224 24 56 224 24 56 224 24 56 224 24 56 224 24 56 224 24 56 224 24 56 224 24 56 224 24 56 224 24 56 224 24 56 224 24 56 224 24 56 224 24 56 224 24 56 224 24 56 224 24 56 224 24 56 224 24 56 224 24 56 224 24 56 224 24 56 224 24 56 224 24 56 224 24 56 224 24 56 208 24 56 208 24 56 208 24 56 208 24 56 208 24 56 208 24 56 208 24 56 208 24 56 208 24 56 208 24 56 208 24 56 208 24 56 208 24 56 208 24 56 208 24 56 208 24 56 208 24 56 208 24 56 208 24 56 208 24 56 208 24 56 208 24 56 208 24 56 208 24 56 208 24 56 208 24 56 208 24 56 208 24 56 208 24 56 208 24 56 208 24 56 208 24 56 96 24 56 96 24 56 96 24 56 96 24 56 96 24 56 96 24 56 96 24 56 96 24 56 96 24 56 96 24 56 96 24 56 96 24 56 96 24 56 96 24 56 96 24 56 96 24 56 96 24 56 96 24 56 96 24 56 96 24 56 96 24 56 96 24 56 96 24 56 96 24 56 96 24 56 96 24 56 96 24 56 96 24 56 96 24 56 96 24 56 96 24 56 96 24 56
216 24 184 216 24 184 216 24 184 216 24 184 216 24 184 216 24 184 216 24 184 216 24 184 216 24 184 216 24 184 216 24 184 216 24 184 216 24 184 216 24 184 216 24 184 216 24 184 216 24 184 216 24 184 216 24 184 216 24 184 216 24 184 216 24 184 216 24 184 216 24 184 216 24 184 216 24 184 216 24 184 216 24 184 216 24 184 216 24 184 216 24 184 216 24 184 224 24 56 224 24 56 224 24 56 224 24 56 224 24 56 224 24 56 224 24 56 224 24 56 224 24 56 224 24 56 224 24 56 224 24 56 224 24 56 224 24 56 224 24 56 224 24 56 224 24 56 224 24 56 224 24 56 224 24 56 224 24 56 224 24 56 224 24 56 224 24 56 224 24 56 224 24 56 224 24 56 224 24 56 224 24 56 224 24 56 224 24 56 224 24 56 208 24 56 208 24 56 208 24 56 208 24 56 208 24 56 208 24 56 208 24 56 208 24 56 208 24 56 208 24 56 208 24 56 208 24 56 208 24 56 208 24 56 208 24 56 208 24 56 208 24 56 208 24 56 208 24 56 208 24 56 208 24 56 208 24 56 208 24 56 208 24 56 208 24 56 208 24 56 208 24 56 208 24 56 208 24 56 208 24 56 208 24 56 208 24 56 96 24 56 96 24 56 96 24 56 96 24 56 96 24 56 96 24 56 96 24 56 96 24 56 96 24 56 96 24 56 96 24 56 96 24 56 96 24 56 96 24 56 96 24 56 96 24 56 96 24 56 96 24 56 96 24 56 96 24 56 96 24 56 96 24 56 96 24 56 96 24 56 96 24 56 96 24 56 96 24 56 96 24 56 96 24 56 96 24 56 96 24 56 96 24 56
216 24 184 216 24 184 216 24 184 216 24 184 216 24 184 216 24 184 216 24 184 216 24 184 216 24 184 216 24 184 216 24 184 216 24 184 216 24 184 216 24 184 216 24 184 216 24 184 216 24 184 216 24 184 216 24 184 216 24 184 216 24 184 216 24 184 216 24 184 216 24 184 216 24 184 216 24 184 216 24 184 216 24 184 216 24 184 216 24 184 216 24 184 216 24 184 224 24 56 224 24 56 224 24 56 224 24 56 224 24 56 224 24 56 224 24 56 224 24 56 224 24 56 224 24 56 224 24 56 224 24 56 224 24 56 224 24 56 224 24 56 224 24 56 224 24 56 224 24 56 224 24 56 224 24 56 224 24 56 224 24 56 224 24 56 224 24 56 224 24 56 224 24 56 224 24 56 224 24 56 224 24 56 224 24 56 224 24 56 224 24 56 208 24 56 208 24 56 208 24 56 208 24 56 208 24 56 208 24 56 208 24 56 208 24 56 208 24 56 208 24 56 208 24 56 208 24 56 208 24 56 208 24 56 208 24 56 208 24 56 208 24 56 208 24 56 208 24 56 208 24 56 208 24 56 208 24 56 208 24 56 208 24 56 208 24 56 208 24 56 208 24 56 208 24 56 208 24 56 208 24 56 208 24 56 208 24 56 96 24 56 96 24 56 96 24 56 96 24 56 96 24 56 96 24 56 96 24 56 96 24 56 96 24 56 96 24 56 96 24 56 96 24 56 96 24 56 96 24 56 96 24 56 96 24 56 96 24 56 96 24 56 96 24 56 96 24 56 96 24 56 96 24 56 96 24 56 96 24 56 96 24 56 96 24 56 96 24 56 96 24 56 96 24 56 96 24 56 96 24 56 96 24 56
216 24 184 216 24 184 216 24 184 216 24 184 216 24 184 216 24 184 216 24 184 216 24 184 216 24 184 216 24 184 216 24 184 216 24 184 216 24 184 216 24 184 216 24 184 216 24 184 216 24 184 216 24 184 216 24 184 216 24 184 216 24 184 216 24 184 216 24 184 216 24 184 216 24 184 216 24 184 216 24 184 216 24 184 216 24 184 216 24 184 216 24 184 216 24 184 224 24 56 224 24 56 224 24 56 224 24 56 224 24 56 224 24 56 224 24 56 224 24 56 224 24 56 224 24 56 224 24 56 224 24 56 224 24 56 224 24 56 224 24 56 224 24 56 224 24 56 224 24 56 224 24 56 224 24 56 224 24 56 224 24 56 224 24 56 224 24 56 224 24 56 224 24 56 224 24 56 224 24 56 224 24 56 224 24 56 224 24 56 224 24 56 208 24 56 208 24 56 208 24 56 208 24 56 208 24 56 208 24 56 208 24 56 208 24 56 208 24 56 208 24 56 208 24 56 208 24 56 208 24 56 208 24 56 208 24 56 208 24 56 208 24 56 208 24 56 208 24 56 208 24 56 208 24 56 208 24 56 208 24 56 208 24 56 208 24 56 208 24 56 208 24 56 208 24 56 208 24 56 208 24 56 208 24 56 208 24 56 96 24 56 96 24 56 96 24 56 96 24 56 96 24 56 96 24 56 96 24 56 96 24 56 96 24 56 96 24 56 96 24 56 96 24 56 96 24 56 96 24 56 96 24 56 96 24 56 96 24 56 96 24 56 96 24 56 96 24 56 96 24 56 96 24 56 96 24 56 96 24 56 96 24 56 96 24 56 96 24 56 96 24 56 96 24 56 96 24 56 96 24 56 96 24 56
216 24 184 216 24 184 216 24 184 216 24 184 216 24 184 216 24 184 216 24 184 216 24 184 216 24 184 216 24 184 216 24 184 216 24 184 216 24 184 216 24 184 216 24 184 216 24 184 216 24 184 216 24 184 216 24 184 216 24 184 216 24 184 216 24 184 216 24 184 216 24 184 216 24 184 216 24 184 216 24 184 216 24 184 216 24 184 216 24 184 216 24 184 216 24 184 224 24 56 224 24 56 224 24 56 224 24 56 224 24 56 224 24 56 224 24 56 224 24 56 224 24 56 224 24 56 224 24 56 224 24 56 224 24 56 224 24 56 224 24 56 224 24 56 224 24 56 224 24 56 224 24 56 224 24 56 224 24 56 224 24 56 224 24 56 224 24 56 224 24 56 224 24 56 224 24 56 224 24 56 224 24 56 224 24 56 224 24 56 224 24 56 208 24 56 208 24 56 208 24 56 208 24 56 208 24 56 208 24 56 208 24 56 208 24 56 208 24 56 208 24 56 208 24 56 208 24 56 208 24 56 208 24 56 208 24 56 208 24 56 208 24 56 208 24 56 208 24 56 208 24 56 208 24 56 208 24 56 208 24 56 208 24 56 208 24 56 208 24 56 208 24 56 208 24 56 208 24 56 208 24 56 208 24 56 208 24 56 96 24 56 96 24 56 96 24 56 96 24 56 96 24 56 96 24 56 96 24 56 96 24 56 96 24 56 96 24 56 96 24 56 96 24 56 96 24 56 96 24 56 96 24 56 96 24 56 96 24 56 96 24 56 96 24 56 96 24 56 96 24 56 96 24 56 96 24 56 96 24 56 96 24 56 96 24 56 96 24 56 96 24 56 96 24 56 96 24 56 96 24 56 96 24 56
216 24 184 216 24 184 216 24 184 216 24 184 216 24 184 216 24 184 216 24 184 216 24 184 216 24 184 216 24 184 216 24 184 216 24 184 216 24 184 216 24 184 216 24 184 216 24 184 216 24 184 216 24 184 216 24 184 216 24 184 216 24 184 216 24 184 216 24 184 216 24 184 216 24 184 216 24 184 216 24 184 216 24 184 216 24 184 216 24 184 216 24 184 216 24 184 224 24 56 224 24 56 224 24 56 224 24 56 224 24 56 224 24 56 224 24 56 224 24 56 224 24 56 224 24 56 224 24 56 224 24 56 224 24 56 224 24 56 224 24 56 224 24 56 224 24 56 224 24 56 224 24 56 224 24 56 224 24 56 224 24 56 224 24 56 224 24 56 224 24 56 224 24 56 224 24 56 224 24 56 224 24 56 224 24 56 224 24 56 224 24 56 208 24 56 208 24 56 208 24 56 208 24 56 208 24 56 208 24 56 208 24 56 208 24 56 208 24 56 208 24 56 208 24 56 208 24 56 208 24 56 208 24 56 208 24 56 208 24 56 208 24 56 208 24 56 208 24 56 208 24 56 208 24 56 208 24 56 208 24 56 208 24 56 208 24 56 208 24 56 208 24 56 208 24 56 208 24 56 208 24 56 208 24 56 208 24 56 96 24 56 96 24 56 96 24 56 96 24 56 96 24 56 96 24 56 96 24 56 96 24 56 96 24 56 96 24 56 96 24 56 96 24 56 96 24 56 96 24 56 96 24 56 96 24 56 96 24 56 96 24 56 96 24 56 96 24 56 96 24 56 96 24 56 96 24 56 96 24 56 96 24 56 96 24 56 96 24 56 96 24 56 96 24 56 96 24 56 96 24 56 96 24 56
216 24 184 216 24 184 216 24 184 216 24 184 216 24 184 216 24 184 216 24 184 216 24 184 216 24 184 216 24 184 216 24 184 216 24 184 216 24 184 216 24 184 216 24 184 216 24 184 216 24 184 216 24 184 216 24 184 216 24 184 216 24 184 216 24 184 216 24 184 216 24 184 216 24 184 216 24 184 216 24 184 216 24 184 216 24 184 216 24 184 216 24 184 216 24 184 224 24 56 224 24 56 224 24 56 224 24 56 224 24 56 224 24 56 224 24 56 224 24 56 224 24 56 224 24 56 224 24 56 224 24 56 224 24 56 224 24 56 224 24 56 224 24 56 224 24 56 224 24 56 224 24 56 224 24 56 224 24 56 224 24 56 224 24 56 224 24 56 224 24 56 224 24 56 224 24 56 224 24 56 224 24 56 224 24 56 224 24 56 224 24 56 208 24 56 208 24 56 208 24 56 208 24 56 208 24 56 208 24 56 208 24 56 208 24 56 208 24 56 208 24 56 208 24 56 208 24 56 208 24 56 208 24 56 208 24 56 208 24 56 208 24 56 208 24 56 208 24 56 208 24 56 208 24 56 208 24 56 208 24 56 208 24 56 208 24 56 208 24 56 208 24 56 208 24 56 208 24 56 208 24 56 208 24 56 208 24 56 96 24 56 96 24 56 96 24 56 96 24 56 96 24 56 96 24 56 96 24 56 96 24 56 96 24 56 96 24 56 96 24 56 96 24 56 96 24 56 96 24 56 96 24 56 96 24 56 96 24 56 96 24 56 96 24 56 96 24 56 96 24 56 96 24 56 96 24 56 96 24 56 96 24 56 96 24 56 96 24 56 96 24 56 96 24 56 96 24 56 96 24 56 96 24 56
216 24 184 216 24 184 216 24 184 216 24 184 216 24 184 216 24 184 216 24 184 216 24 184 216 24 184 216 24 184 216 24 184 216 24 184 216 24 184 216 24 184 216 24 184 216 24 184 216 24 184 216 24 184 216 24 184 216 24 184 216 24 184 216 24 184 216 24 184 216 24 184 216 24 184 216 24 184 216 24 184 216 24 184 216 24 184 216 24 184 216 24 184 216 24 184 224 24 56 224 24 56 224 24 56 224 24 56 224 24 56 224 24 56 224 24 56 224 24 56 224 24 56 224 24 56 224 24 56 224 24 56 224 24 56 224 24 56 224 24 56 224 24 56 224 24 56 224 24 56 224 24 56 224 24 56 224 24 56 224 24 56 224 24 56 224 24 56 224 24 56 224 24 56 224 24 56 224 24 56 224 24 56 224 24 56 224 24 56 224 24 56 208 24 56 208 24 56 208 24 56 208 24 56 208 24 56 208 24 56 208 24 56 208 24 56 208 24 56 208 24 56 208 24 56 208 24 56 208 24 56 208 24 56 208 24 56 208 24 56 208 24 56 208 24 56 208 24 56 208 24 56 208 24 56 208 24 56 208 24 56 208 24 56 208 24 56 208 24 56 208 24 56 208 24 56 208 24 56 208 24 56 208 24 56 208 24 56 96 24 56 96 24 56 96 24 56 96 24 56 96 24 56 96 24 56 96 24 56 96 24 56 96 24 56 96 24 56 96 24 56 96 24 56 96 24 56 96 24 56 96 24 56 96 24 56 96 24 56 96 24 56 96 24 56 96 24 56 96 24 56 96 24 56 96 24 56 96 24 56 96 24 56 96 24 56 96 24 56 96 24 56 96 24 56 96 24 56 96 24 56 96 24 56
216 24 184 216 24 184 216 24 184 216 24 184 216 24 184 216 24 184 216 24 184 216 24 184 216 24 184 216 24 184 216 24 184 216 24 184 216 24 184 216 24 184 216 24 184 216 24 184 216 24 184 216 24 184 216 24 184 216 24 184 216 24 184 216 24 184 216 24 184 216 24 184 216 24 184 216 24 184 216 24 184 216 24 184 216 24 184 216 24 184 216 24 184 216 24 184 224 24 56 224 24 56 224 24 56 224 24 56 224 24 56 224 24 56 224 24 56 224 24 56 224 24 56 224 24 56 224 24 56 224 24 56 224 24 56 224 24 56 224 24 56 224 24 56 224 24 56 224 24 56 224 24 56 224 24 56 224 24 56 224 24 56 224 24 56 224 24 56 224 24 56 224 24 56 224 24 56 224 24 56 224 24 56 224 24 56 224 24 56 224 24 56 208 24 56 208 24 56 208 24 56 208 24 56 208 24 56 208 24 56 208 24 56 208 24 56 208 24 56 208 24 56 208 24 56 208 24 56 208 24 56 208 24 56 208 24 56 208 24 56 208 24 56 208 24 56 208 24 56 208 24 56 208 24 56 208 24 56 208 24 56 208 24 56 208 24 56 208 24 56 208 24 56 208 24 56 208 24 56 208 24 56 208 24 56 208 24 56 96 24 56 96 24 56 96 24 56 96 24 56 96 24 56 96 24 56 96 24 56 96 24 56 96 24 56 96 24 56 96 24 56 96 24 56 96 24 56 96 24 56 96 24 56 96 24 56 96 24 56 96 24 56 96 24 56 96 24 56 96 24 56 96 24 56 96 24 56 96 24 56 96 24 56 96 24 56 96 24 56 96 24 56 96 24 56 96 24 56 96 24 56 96 24 56
216 24 184 216 24 184 216 24 184 216 24 184 216 24 184 216 24 184 216 24 184 216 24 184 216 24 184 216 24 184 216 24 184 216 24 184 216 24 184 216 24 184 216 24 184 216 24 184 216 24 184 216 24 184 216 24 184 216 24 184 216 24 184 216 24 184 216 24 184 216 24 184 216 24 184 216 24 184 216 24 184 216 24 184 216 24 184 216 24 184 216 24 184 216 24 184 224 24 56 224 24 56 224 24 56 224 24 56 224 24 56 224 24 56 224 24 56 224 24 56 224 24 56 224 24 56 224 24 56 224 24 56 224 24 56 224 24 56 224 24 56 224 24 56 224 24 56 224 24 56 224 24 56 224 24 56 224 24 56 224 24 56 224 24 56 224 24 56 224 24 56 224 24 56 224 24 56 224 24 56 224 24 56 224 24 56 224 24 56 224 24 56 208 24 56 208 24 56 208 24 56 208 24 56 208 24 56 208 24 56 208 24 56 208 24 56 208 24 56 208 24 56 208 24 56 208 24 56 208 24 56 208 24 56 208 24 56 208 24 56 208 24 56 208 24 56 208 24 56 208 24 56 208 24 56 208 24 56 208 24 56 208 24 56 208 24 56 208 24 56 208 24 56 208 24 56 208 24 56 208 24 56 208 24 56 208 24 56 96 24 56 96 24 56 96 24 56 96 24 56 96 24 56 96 24 56 96 24 56 96 24 56 96 24 56 96 24 56 96 24 56 96 24 56 96 24 56 96 24 56 96 24 56 96 24 56 96 24 56 96 24 56 96 24 56 96 24 56 96 24 56 96 24 56 96 24 56 96 24 56 96 24 56 96 24 56 96 24 56 96 24 56 96 24 56 96 24 56 96 24 56 96 24 56
216 24 184 216 24 184 216 24 184 216 24 184 216 24 184 216 24 184 216 24 184 216 24 184 216 24 184 216 24 184 216 24 184 216 24 184 216 24 184 216 24 184 216 24 184 216 24 184 216 24 184 216 24 184 216 24 184 216 24 184 216 24 184 216 24 184 216 24 184 216 24 184 216 24 184 216 24 184 216 24 184 216 24 184 216 24 184 216 24 184 216 24 184 216 24 184 224 24 56 224 24 56 224 24 56 224 24 56 224 24 56 224 24 56 224 24 56 224 24 56 224 24 56 224 24 56 224 24 56 224 24 56 224 24 56 224 24 56 224 24 56 224 24 56 224 24 56 224 24 56 224 24 56 224 24 56 224 24 56 224 24 56 224 24 56 224 24 56 224 24 56 224 24 56 224 24 56 224 24 56 224 24 56 224 24 56 224 24 56 224 24 56 208 24 56 208 24 56 208 24 56 208 24 56 208 24 56 208 24 56 208 24 56 208 24 56 208 24 56 208 24 56 208 24 56 208 24 56 208 24 56 208 24 56 208 24 56 208 24 56 208 24 56 208 24 56 208 24 56 208 24 56 208 24 56 208 24 56 208 24 56 208 24 56 208 24 56 208 24 56 208 24 56 208 24 56 208 24 56 208 24 56 208 24 56 208 24 56 96 24 56 96 24 56 96 24 56 96 24 56 96 24 56 96 24 56 96 24 56 96 24 56 96 24 56 96 24 56 96 24 56 96 24 56 96 24 56 96 24 56 96 24 56 96 24 56 96 24 56 96 24 56 96 24 56 96 24 56 96 24 56 96 24 56 96 24 56 96 24 56 96 24 56 96 24 56 96 24 56 96 24 56 96 24 56 96 24 56 96 24 56 96 24 56
216 24 184 216 24 184 216 24 184 216 24 184 216 24 184 216 24 184 216 24 184 216 24 184 216 24 184 216 24 184 216 24 184 216 24 184 216 24 184 216 24 184 216 24 184 216 24 184 216 24 184 216 24 184 216 24 184 216 24 184 216 24 184 216 24 184 216 24 184 216 24 184 216 24 184 216 24 184 216 24 184 216 24 184 216 24 184 216 24 184 216 24 184 216 24 184 224 24 56 224 24 56 224 24 56 224 24 56 224 24 56 224 24 56 224 24 56 224 24 56 224 24 56 224 24 56 224 24 56 224 24 56 224 24 56 224 24 56 224 24 56 224 24 56 224 24 56 224 24 56 224 24 56 224 24 56 224 24 56 224 24 56 224 24 56 224 24 56 224 24 56 224 24 56 224 24 56 224 24 56 224 24 56 224 24 56 224 24 56 224 24 56 208 24 56 208 24 56 208 24 56 208 24 56 208 24 56 208 24 56 208 24 56 208 24 56 208 24 56 208 24 56 208 24 56 208 24 56 208 24 56 208 24 56 208 24 56 208 24 56 208 24 56 208 24 56 208 24 56 208 24 56 208 24 56 208 24 56 208 24 56 208 24 56 208 24 56 208 24 56 208 24 56 208 24 56 208 24 56 208 24 56 208 24 56 208 24 56 96 24 56 96 24 56 96 24 56 96 24 56 96 24 56 96 24 56 96 24 56 96 24 56 96 24 56 96 24 56 96 24 56 96 24 56 96 24 56 96 24 56 96 24 56 96 24 56 96 24 56 96 24 56 96 24 56 96 24 56 96 24 56 96 24 56 96 24 56 96 24 56 96 24 56 96 24 56 96 24 56 96 24 56 96 24 56 96 24 56 96 24 56 96 24 56
216 24 184 216 24 184 216 24 184 216 24 184 216 24 184 216 24 184 216 24 184 216 24 184 216 24 184 216 24 184 216 24 184 216 24 184 216 24 184 216 24 184 216 24 184 216 24 184 216 24 184 216 24 184 216 24 184 216 24 184 216 24 184 216 24 184 216 24 184 216 24 184 216 24 184 216 24 184 216 24 184 216 24 184 216 24 184 216 24 184 216 24 184 216 24 184 224 24 56 224 24 56 224 24 56 224 24 56 224 24 56 224 24 56 224 24 56 224 24 56 224 24 56 224 24 56 224 24 56 224 24 56 224 24 56 224 24 56 224 24 56 224 24 56 224 24 56 224 24 56 224 24 56 224 24 56 224 24 56 224 24 56 224 24 56 224 24 56 224 24 56 224 24 56 224 24 56 224 24 56 224 24 56 224 24 56 224 24 56 224 24 56 208 24 56 208 24 56 208 24 56 208 24 56 208 24 56 208 24 56 208 24 56 208 24 56 208 24 56 208 24 56 208 24 56 208 24 56 208 24 56 208 24 56 208 24 56 208 24 56 208 24 56 208 24 56 208 24 56 208 24 56 208 24 56 208 24 56 208 24 56 208 24 56 208 24 56 208 24 56 208 24 56 208 24 56 208 24 56 208 24 56 208 24 56 208 24 56 96 24 56 96 24 56 96 24 56 96 24 56 96 24 56 96 24 56 96 24 56 96 24 56 96 24 56 96 24 56 96 24 56 96 24 56 96 24 56 96 24 56 96 24 56 96 24 56 96 24 56 96 24 56 96 24 56 96 24 56 96 24 56 96 24 56 96 24 56 96 24 56 96 24 56 96 24 56 96 24 56 96 24 56 96 24 56 96 24 56 96 24 56 96 24 56
216 24 184 216 24 184 216 24 184 216 24 184 216 24 184 216 24 184 216 24 184 216 24 184 216 24 184 216 24 184 216 24 184 216 24 184 216 24 184 216 24 184 216 24 184 216 24 184 216 24 184 216 24 184 216 24 184 216 24 184 216 24 184 216 24 184 216 24 184 216 24 184 216 24 184 216 24 184 216 24 184 216 24 184 216 24 184 216 24 184 216 24 184 216 24 184 224 24 56 224 24 56 224 24 56 224 24 56 224 24 56 224 24 56 224 24 56 224 24 56 224 24 56 224 24 56 224 24 56 224 24 56 224 24 56 224 24 56 224 24 56 224 24 56 224 24 56 224 24 56 224 24 56 224 24 56 224 24 56 224 24 56 224 24 56 224 24 56 224 24 56 224 24 56 224 24 56 224 24 56 224 24 56 224 24 56 224 24 56 224 24 56 208 24 56 208 24 56 208 24 56 208 24 56 208 24 56 208 24 56 208 24 56 208 24 56 208 24 56 208 24 56 208 24 56 208 24 56 208 24 56 208 24 56 208 24 56 208 24 56 208 24 56 208 24 56 208 24 56 208 24 56 208 24 56 208 24 56 208 24 56 208 24 56 208 24 56 208 24 56 208 24 56 208 24 56 208 24 56 208 24 56 208 24 56 208 24 56 96 24 56 96 24 56 96 24 56 96 24 56 96 24 56 96 24 56 96 24 56 96 24 56 96 24 56 96 24 56 96 24 56 96 24 56 96 24 56 96 24 56 96 24 56 96 24 56 96 24 56 96 24 56 96 24 56 96 24 56 96 24 56 96 24 56 96 24 56 96 24 56 96 24 56 96 24 56 96 24 56 96 24 56 96 24 56 96 24 56 96 24 56 96 24 56
168 16 56 168 16 56 168 16 56 168 16 56 168 16 56 168 16 56 168 16 56 168 16 56 168 16 56 168 16 56 168 16 56 168 16 56 168 16 56 168 16 56 168 16 56 168 16 56 168 16 56 168 16 56 168 16 56 168 16 56 168 16 56 168 16 56 168 16 56 168 16 56 168 16 56 168 16 56 168 16 56 168 16 56 168 16 56 168 16 56 168 16 56 168 16 56 208 24 56 208 24 56 208 24 56 208 24 56 208 24 56 208 24 56 208 24 56 208 24 56 208 24 56 208 24 56 208 24 56 208 24 56 208 24 56 208 24 56 208 24 56 208 24 56 208 24 56 208 24 56 208 24 56 208 24 56 208 24 56 208 24 56 208 24 56 208 24 56 208 24 56 208 24 56 208 24 56 208 24 56 208 24 56 208 24 56 208 24 56 208 24 56 224 24 56 224 24 56 224 24 56 224 24 56 224 24 56 224 24 56 224 24 56 224 24 56 224 24 56 224 24 56 224 24 56 224 24 56 224 24 56 224 24 56 224 24 56 224 24 56 224 24 56 224 24 56 224 24 56 224 24 56 224 24 56 224 24 56 224 24 56 224 24 56 224 24 56 224 24 56 224 24 56 224 24 56 224 24 56 224 24 56 224 24 56 224 24 56 168 16 56 168 16 56 168 16 56 168 16 56 168 16 56 168 16 56 168 16 56 168 16 56 168 16 56 168 16 56 168 16 56 168 16 56 168 16 56 168 16 56 168 16 56 168 16 56 168 16 56 168 16 56 168 16 56 168 16 56 168 16 56 168 16 56 168 16 56 168 16 56 168 16 56 168 16 56 168 16 56 168 16 56 168 16 56 168 16 56 168 16 56 168 16 56
168 16 56 168 16 56 168 16 56 168 16 56 168 16 56 168 16 56 168 16 56 168 16 56 168 16 56 168 16 56 168 16 56 168 16 56 168 16 56 168 16 56 168 16 56 168 16 56 168 16 56 168 16 56 168 16 56 168 16 56 168 16 56 168 16 56 168 16 56 168 16 56 168 16 56 168 16 56 168 16 56 168 16 56 168 16 56 168 16 56 168 16 56 168 16 56 208 24 56 208 24 56 208 24 56 208 24 56 208 24 56 208 24 56 208 24 56 208 24 56 208 24 56 208 24 56 208 24 56 208 24 56 208 24 56 208 24 56 208 24 56 208 24 56 208 24 56 208 24 56 208 24 56 208 24 56 208 24 56 208 24 56 208 24 56 208 24 56 208 24 56 208 24 56 208 24 56 208 24 56 208 24 56 208 24 56 208 24 56 208 24 56 224 24 56 224 24 56 224 24 56 224 24 56 224 24 56 224 24 56 224 24 56 224 24 56 224 24 56 224 24 56 224 24 56 224 24 56 224 24 56 224 24 56 224 24 56 224 24 56 224 24 56 224 24 56 224 24 56 224 24 56 224 24 56 224 24 56 224 24 56 224 24 56 224 24 56 224 24 56 224 24 56 224 24 56 224 24 56 224 24 56 224 24 56 224 24 56 168 16 56 168 16 56 168 16 56 168 16 56 168 16 56 168 16 56 168 16 56 168 16 56 168 16 56 168 16 56 168 16 56 168 16 56 168 16 56 168 16 56 168 16 56 168 16 56 168 16 56 168 16 56 168 16 56 168 16 56 168 16 56 168 16 56 168 16 56 168 16 56 168 16 56 168 16 56 168 16 56 168 16 56 168 16 56 168 16 56 168 16 56 168 16 56
168 16 56 168 16 56 168 16 56 168 16 56 168 16 56 168 16 56 168 16 56 168 16 56 168 16 56 168 16 56 168 16 56 168 16 56 168 16 56 168 16 56 168 16 56 168 16 56 168 16 56 168 16 56 168 16 56 168 16 56 168 16 56 168 16 56 168 16 56 168 16 56 168 16 56 168 16 56 168 16 56 168 16 56 168 16 56 168 16 56 168 16 56 168 16 56 208 24 56 208 24 56 208 24 56 208 24 56 208 24 56 208 24 56 208 24 56 208 24 56 208 24 56 208 24 56 208 24 56 208 24 56 208 24 56 208 24 56 208 24 56 208 24 56 208 24 56 208 24 56 208 24 56 208 24 56 208 24 56 208 24 56 208 24 56 208 24 56 208 24 56 208 24 56 208 24 56 208 24 56 208 24 56 208 24 56 208 24 56 208 24 56 224 24 56 224 24 56 224 24 56 224 24 56 224 24 56 224 24 56 224 24 56 224 24 56 224 24 56 224 24 56 224 24 56 224 24 56 224 24 56 224 24 56 224 24 56 224 24 56 224 24 56 224 24 56 224 24 56 224 24 56 224 24 56 224 24 56 224 24 56 224 24 56 224 24 56 224 24 56 224 24 56 224 24 56 224 24 56 224 24 56 224 24 56 224 24 56 168 16 56 168 16 56 168 16 56 168 16 56 168 16 56 168 16 56 168 16 56 168 16 56 168 16 56 168 16 56 168 16 56 168 16 56 168 16 56 168 16 56 168 16 56 168 16 56 168 16 56 168 16 56 168 16 56 168 16 56 168 16 56 168 16 56 168 16 56 168 16 56 168 16 56 168 16 56 168 16 56 168 16 56 168 16 56 168 16 56 168 16 56 168 16 56
168 16 56 168 16 56 168 16 56 168 16 56 168 16 56 168 16 56 168 16 56 168 16 56 168 16 56 168 16 56 168 16 56 168 16 56 168 16 56 168 16 56 168 16 56 168 16 56 168 16 56 168 16 56 168 16 56 168 16 56 168 16 56 168 16 56 168 16 56 168 16 56 168 16 56 168 16 56 168 16 56 168 16 56 168 16 56 168 16 56 168 16 56 168 16 56 208 24 56 208 24 56 208 24 56 208 24 56 208 24 56 208 24 56 208 24 56 208 24 56 208 24 56 208 24 56 208 24 56 208 24 56 208 24 56 208 24 56 208 24 56 208 24 56 208 24 56 208 24 56 208 24 56 208 24 56 208 24 56 208 24 56 208 24 56 208 24 56 208 24 56 208 24 56 208 24 56 208 24 56 208 24 56 208 24 56 208 24 56 208 24 56 224 24 56 224 24 56 224 24 56 224 24 56 224 24 56 224 24 56 224 24 56 224 24 56 224 24 56 224 24 56 224 24 56 224 24 56 224 24 56 224 24 56 224 24 56 224 24 56 224 24 56 224 24 56 224 24 56 224 24 56 224 24 56 224 24 56 224 24 56 224 24 56 224 24 56 224 24 56 224 24 56 224 24 56 224 24 56 224 24 56 224 24 56 224 24 56 168 16 56 168 16 56 168 16 56 168 16 56 168 16 56 168 16 56 168 16 56 168 16 56 168 16 56 168 16 56 168 16 56 168 16 56 168 16 56 168 16 56 168 16 56 168 16 56 168 16 56 168 16 56 168 16 56 168 16 56 168 16 56 168 16 56 168 16 56 168 16 56 168 16 56 168 16 56 168 16 56 168 16 56 168 16 56 168 16 56 168 16 56 168 16 56
168 16 56 168 16 56 168 16 56 168 16 56 168 16 56 168 16 56 168 16 56 168 16 56 168 16 56 168 16 56 168 16 56 168 16 56 168 16 56 168 16 56 168 16 56 168 16 56 168 16 56 168 16 56 168 16 56 168 16 56 168 16 56 168 16 56 168 16 56 168 16 56 168 16 56 168 16 56 168 16 56 168 16 56 168 16 56 168 16 56 168 16 56 168 16 56 208 24 56 208 24 56 208 24 56 208 24 56 208 24 56 208 24 56 208 24 56 208 24 56 208 24 56 208 24 56 208 24 56 208 24 56 208 24 56 208 24 56 208 24 56 208 24 56 208 24 56 208 24 56 208 24 56 208 24 56 208 24 56 208 24 56 208 24 56 208 24 56 208 24 56 208 24 56 208 24 56 208 24 56 208 24 56 208 24 56 208 24 56 208 24 56 224 24 56 224 24 56 224 24 56 224 24 56 224 24 56 224 24 56 224 24 56 224 24 56 224 24 56 224 24 56 224 24 56 224 24 56 224 24 56 224 24 56 224 24 56 224 24 56 224 24 56 224 24 56 224 24 56 224 24 56 224 24 56 224 24 56 224 24 56 224 24 56 224 24 56 224 24 56 224 24 56 224 24 56 224 24 56 224 24 56 224 24 56 224 24 56 168 16 56 168 16 56 168 16 56 168 16 56 168 16 56 168 16 56 168 16 56 168 16 56 168 16 56 168 16 56 168 16 56 168 16 56 168 16 56 168 16 56 168 16 56 168 16 56 168 16 56 168 16 56 168 16 56 168 16 56 168 16 56 168 16 56 168 16 56 168 16 56 168 16 56 168 16 56 168 16 56 168 16 56 168 16 56 168 16 56 168 16 56 168 16 56
168 16 56 168 16 56 168 16 56 168 16 56 168 16 56 168 16 56 168 16 56 168 16 56 168 16 56 168 16 56 168 16 56 168 16 56 168 16 56 168 16 56 168 16 56 168 16 56 168 16 56 168 16 56 168 16 56 168 16 56 168 16 56 168 16 56 168 16 56 168 16 56 168 16 56 168 16 56 168 16 56 168 16 56 168 16 56 168 16 56 168 16 56 168 16 56 208 24 56 208 24 56 208 24 56 208 24 56 208 24 56 208 24 56 208 24 56 208 24 56 208 24 56 208 24 56 208 24 56 208 24 56 208 24 56 208 24 56 208 24 56 208 24 56 208 24 56 208 24 56 208 24 56 208 24 56 208 24 56 208 24 56 208 24 56 208 24 56 208 24 56 208 24 56 208 24 56 208 24 56 208 24 56 208 24 56 208 24 56 208 24 56 224 24 56 224 24 56 224 24 56 224 24 56 224 24 56 224 24 56 224 24 56 224 24 56 224 24 56 224 24 56 224 24 56 224 24 56 224 24 56 224 24 56 224 24 56 224 24 56 224 24 56 224 24 56 224 24 56 224 24 56 224 24 56 224 24 56 224 24 56 224 24 56 224 24 56 224 24 56 224 24 56 224 24 56 224 24 56 224 24 56 224 24 56 224 24 56 168 16 56 168 16 56 168 16 56 168 16 56 168 16 56 168 16 56 168 16 56 168 16 56 168 16 56 168 16 56 168 16 56 168 16 56 168 16 56 168 16 56 168 16 56 168 16 56 168 16 56 168 16 56 168 16 56 168 16 56 168 16 56 168 16 56 168 16 56 168 16 56 168 16 56 168 16 56 168 16 56 168 16 56 168 16 56 168 16 56 168 16 56 168 16 56
168 16 56 168 16 56 168 16 56 168 16 56 168 16 56 168 16 56 168 16 56 168 16 56 168 16 56 168 16 56 168 16 56 168 16 56 168 16 56 168 16 56 168 16 56 168 16 56 168 16 56 168 16 56 168 16 56 168 16 56 168 16 56 168 16 56 168 16 56 168 16 56 168 16 56 168 16 56 168 16 56 168 16 56 168 16 56 168 16 56 168 16 56 168 16 56 208 24 56 208 24 56 208 24 56 208 24 56 208 24 56 208 24 56 208 24 56 208 24 56 208 24 56 208 24 56 208 24 56 208 24 56 208 24 56 208 24 56 208 24 56 208 24 56 208 24 56 208 24 56 208 24 56 208 24 56 208 24 56 208 24 56 208 24 56 208 24 56 208 24 56 208 24 56 208 24 56 208 24 56 208 24 56 208 24 56 208 24 56 208 24 56 224 24 56 224 24 56 224 24 56 224 24 56 224 24 56 224 24 56 224 24 56 224 24 56 224 24 56 224 24 56 224 24 56 224 24 56 224 24 56 224 24 56 224 24 56 224 24 56 224 24 56 224 24 56 224 24 56 224 24 56 224 24 56 224 24 56 224 24 56 224 24 56 224 24 56 224 24 56 224 24 56 224 24 56 224 24 56 224 24 56 224 24 56 224 24 56 168 16 56 168 16 56 168 16 56 168 16 56 168 16 56 168 16 56 168 16 56 168 16 56 168 16 56 168 16 56 168 16 56 168 16 56 168 16 56 168 16 56 168 16 56 168 16 56 168 16 56 168 16 56 168 16 56 168 16 56 168 16 56 168 16 56 168 16 56 168 16 56 168 16 56 168 16 56 168 16 56 168 16 56 168 16 56 168 16 56 168 16 56 168 16 56
168 16 56 168 16 56 168 16 56 168 16 56 168 16 56 168 16 56 168 16 56 168 16 56 168 16 56 168 16 56 168 16 56 168 16 56 168 16 56 168 16 56 168 16 56 168 16 56 168 16 56 168 16 56 168 16 56 168 16 56 168 16 56 168 16 56 168 16 56 168 16 56 168 16 56 168 16 56 168 16 56 168 16 56 168 16 56 168 16 56 168 16 56 168 16 56 208 24 56 208 24 56 208 24 56 208 24 56 208 24 56 208 24 56 208 24 56 208 24 56 208 24 56 208 24 56 208 24 56 208 24 56 208 24 56 208 24 56 208 24 56 208 24 56 208 24 56 208 24 56 208 24 56 208 24 56 208 24 56 208 24 56 208 24 56 208 24 56 208 24 56 208 24 56 208 24 56 208 24 56 208 24 56 208 24 56 208 24 56 208 24 56 224 24 56 224 24 56 224 24 56 224 24 56 224 24 56 224 24 56 224 24 56 224 24 56 224 24 56 224 24 56 224 24 56 224 24 56 224 24 56 224 24 56 224 24 56 224 24 56 224 24 56 224 24 56 224 24 56 224 24 56 224 24 56 224 24 56 224 24 56 224 24 56 224 24 56 224 24 56 224 24 56 224 24 56 224 24 56 224 24 56 224 24 56 224 24 56 168 16 56 168 16 56 168 16 56 168 16 56 168 16 56 168 16 56 168 16 56 168 16 56 168 16 56 168 16 56 168 16 56 168 16 56 168 16 56 168 16 56 168 16 56 168 16 56 168 16 56 168 16 56 168 16 56 168 16 56 168 16 56 168 16 56 168 16 56 168 16 56 168 16 56 168 16 56 168 16 56 168 16 56 168 16 56 168 16 56 168 16 56 168 16 56
168 16 56 168 16 56 168 16 56 168 16 56 168 16 56 168 16 56 168 16 56 168 16 56 168 16 56 168 16 56 168 16 56 168 16 56 168 16 56 168 16 56 168 16 56 168 16 56 168 16 56 168 16 56 168 16 56 168 16 56 168 16 56 168 16 56 168 16 56 168 16 56 168 16 56 168 16 56 168 16 56 168 16 56 168 16 56 168 16 56 168 16 56 168 16 56 208 24 56 208 24 56 208 24 56 208 24 56 208 24 56 208 24 56 208 24 56 208 24 56 208 24 56 208 24 56 208 24 56 208 24 56 208 24 56 208 24 56 208 24 56 208 24 56 208 24 56 208 24 56 208 24 56 208 24 56 208 24 56 208 24 56 208 24 56 208 24 56 208 24 56 208 24 56 208 24 56 208 24 56 208 24 56 208 24 56 208 24 56 208 24 56 224 24 56 224 24 56 224 24 56 224 24 56 224 24 56 224 24 56 224 24 56 224 24 56 224 24 56 224 24 56 224 24 56 224 24 56 224 24 56 224 24 56 224 24 56 224 24 56 224 24 56 224 24 56 224 24 56 224 24 56 224 24 56 224 24 56 224 24 56 224 24 56 224 24 56 224 24 56 224 24 56 224 24 56 224 24 56 224 24 56 224 24 56 224 24 56 168 16 56 168 16 56 168 16 56 168 16 56 168 16 56 168 16 56 168 16 56 168 16 56 168 16 56 168 16 56 168 16 56 168 16 56 168 16 56 168 16 56 168 16 56 168 16 56 168 16 56 168 16 56 168 16 56 168 16 56 168 16 56 168 16 56 168 16 56 168 16 56 168 16 56 168 16 56 168 16 56 168 16 56 168 16 56 168 16 56 168 16 56 168 16 56
168 16 56 168 16 56 168 16 56 168 16 56 168 16 56 168 16 56 168 16 56 168 16 56 168 16 56 168 16 56 168 16 56 168 16 56 168 16 56 168 16 56 168 16 56 168 16 56 168 16 56 168 16 56 168 16 56 168 16 56 168 16 56 168 16 56 168 16 56 168 16 56 168 16 56 168 16 56 168 16 56 168 16 56 168 16 56 168 16 56 168 16 56 168 16 56 208 24 56 208 24 56 208 24 56 208 24 56 208 24 56 208 24 56 208 24 56 208 24 56 208 24 56 208 24 56 208 24 56 208 24 56 208 24 56 208 24 56 208 24 56 208 24 56 208 24 56 208 24 56 208 24 56 208 24 56 208 24 56 208 24 56 208 24 56 208 24 56 208 24 56 208 24 56 208 24 56 208 24 56 208 24 56 208 24 56 208 24 56 208 24 56 224 24 56 224 24 56 224 24 56 224 24 56 224 24 56 224 24 56 224 24 56 224 24 56 224 24 56 224 24 56 224 24 56 224 24 56 224 24 56 224 24 56 224 24 56 224 24 56 224 24 56 224 24 56 224 24 56 224 24 56 224 24 56 224 24 56 224 24 56 224 24 56 224 24 56 224 24 56 224 24 56 224 24 56 224 24 56 224 24 56 224 24 56 224 24 56 168 16 56 168 16 56 168 16 56 168 16 56 168 16 56 168 16 56 168 16 56 168 16 56 168 16 56 168 16 56 168 16 56 168 16 56 168 16 56 168 16 56 168 16 56 168 16 56 168 16 56 168 16 56 168 16 56 168 16 56 168 16 56 168 16 56 168 16 56 168 16 56 168 16 56 168 16 56 168 16 56 168 16 56 168 16 56 168 16 56 168 16 56 168 16 56
168 16 56 168 16 56 168 16 56 168 16 56 168 16 56 168 16 56 168 16 56 168 16 56 168 16 56 168 16 56 168 16 56 168 16 56 168 16 56 168 16 56 168 16 56 168 16 56 168 16 56 168 16 56 168 16 56 168 16 56 168 16 56 168 16 56 168 16 56 168 16 56 168 16 56 168 16 56 168 16 56 168 16 56 168 16 56 168 16 56 168 16 56 168 16 56 208 24 56 208 24 56 208 24 56 208 24 56 208 24 56 208 24 56 208 24 56 208 24 56 208 24 56 208 24 56 208 24 56 208 24 56 208 24 56 208 24 56 208 24 56 208 24 56 208 24 56 208 24 56 208 24 56 208 24 56 208 24 56 208 24 56 208 24 56 208 24 56 208 24 56 208 24 56 208 24 56 208 24 56 208 24 56 208 24 56 208 24 56 208 24 56 224 24 56 224 24 56 224 24 56 224 24 56 224 24 56 224 24 56 224 24 56 224 24 56 224 24 56 224 24 56 224 24 56 224 24 56 224 24 56 224 24 56 224 24 56 224 24 56 224 24 56 224 24 56 224 24 56 224 24 56 224 24 56 224 24 56 224 24 56 224 24 56 224 24 56 224 24 56 224 24 56 224 24 56 224 24 56 224 24 56 224 24 56 224 24 56 168 16 56 168 16 56 168 16 56 168 16 56 168 16 56 168 16 56 168 16 56 168 16 56 168 16 56 168 16 56 168 16 56 168 16 56 168 16 56 168 16 56 168 16 56 168 16 56 168 16 56 168 16 56 168 16 56 168 16 56 168 16 56 168 16 56 168 16 56 168 16 56 168 16 56 168 16 56 168 16 56 168 16 56 168 16 56 168 16 56 168 16 56 168 16 56
168 16 56 168 16 56 168 16 56 168 16 56 168 16 56 168 16 56 168 16 56 168 16 56 168 16 56 168 16 56 168 16 56 168 16 56 168 16 56 168 16 56 168 16 56 168 16 56 168 16 56 168 16 56 168 16 56 168 16 56 168 16 56 168 16 56 168 16 56 168 16 56 168 16 56 168 16 56 168 16 56 168 16 56 168 16 56 168 16 56 168 16 56 168 16 56 208 24 56 208 24 56 208 24 56 208 24 56 208 24 56 208 24 56 208 24 56 208 24 56 208 24 56 208 24 56 208 24 56 208 24 56 208 24 56 208 24 56 208 24 56 208 24 56 208 24 56 208 24 56 208 24 56 208 24 56 208 24 56 208 24 56 208 24 56 208 24 56 208 24 56 208 24 56 208 24 56 208 24 56 208 24 56 208 24 56 208 24 56 208 24 56 224 24 56 224 24 56 224 24 56 224 24 56 224 24 56 224 24 56 224 24 56 224 24 56 224 24 56 224 24 56 224 24 56 224 24 56 224 24 56 224 24 56 224 24 56 224 24 56 224 24 56 224 24 56 224 24 56 224 24 56 224 24 56 224 24 56 224 24 56 224 24 56 224 24 56 224 24 56 224 24 56 224 24 56 224 24 56 224 24 56 224 24 56 224 24 56 168 16 56 168 16 56 168 16 56 168 16 56 168 16 56 168 16 56 168 16 56 168 16 56 168 16 56 168 16 56 168 16 56 168 16 56 168 16 56 168 16 56 168 16 56 168 16 56 168 16 56 168 16 56 168 16 56 168 16 56 168 16 56 168 16 56 168 16 56 168 16 56 168 16 56 168 16 56 168 16 56 168 16 56 168 16 56 168 16 56 168 16 56 168 16 56
168 16 56 168 16 56 168 16 56 168 16 56 168 16 56 168 16 56 168 16 56 168 16 56 168 16 56 168 16 56 168 16 56 168 16 56 168 16 56 168 16 56 168 16 56 168 16 56 168 16 56 168 16 56 168 16 56 168 16 56 168 16 56 168 16 56 168 16 56 168 16 56 168 16 56 168 16 56 168 16 56 168 16 56 168 16 56 168 16 56 168 16 56 168 16 56 208 24 56 208 24 56 208 24 56 208 24 56 208 24 56 208 24 56 208 24 56 208 24 56 208 24 56 208 24 56 208 24 56 208 24 56 208 24 56 208 24 56 208 24 56 208 24 56 208 24 56 208 24 56 208 24 56 208 24 56 208 24 56 208 24 56 208 24 56 208 24 56 208 24 56 208 24 56 208 24 56 208 24 56 208 24 56 208 24 56 208 24 56 208 24 56 224 24 56 224 24 56 224 24 56 224 24 56 224 24 56 224 24 56 224 24 56 224 24 56 224 24 56 224 24 56 224 24 56 224 24 56 224 24 56 224 24 56 224 24 56 224 24 56 224 24 56 224 24 56 224 24 56 224 24 56 224 24 56 224 24 56 224 24 56 224 24 56 224 24 56 224 24 56 224 24 56 224 24 56 224 24 56 224 24 56 224 24 56 224 24 56 168 16 56 168 16 56 168 16 56 168 16 56 168 16 56 168 16 56 168 16 56 168 16 56 168 16 56 168 16 56 168 16 56 168 16 56 168 16 56 168 16 56 168 16 56 168 16 56 168 16 56 168 16 56 168 16 56 168 16 56 168 16 56 168 16 56 168 16 56 168 16 56 168 16 56 168 16 56 168 16 56 168 16 56 168 16 56 168 16 56 168 16 56 168 16 56
168 16 56 168 16 56 168 16 56 168 16 56 168 16 56 168 16 56 168 16 56 168 16 56 168 16 56 168 16 56 168 16 56 168 16 56 168 16 56 168 16 56 168 16 56 168 16 56 168 16 56 168 16 56 168 16 56 168 16 56 168 16 56 168 16 56 168 16 56 168 16 56 168 16 56 168 16 56 168 16 56 168 16 56 168 16 56 168 16 56 168 16 56 168 16 56 208 24 56 208 24 56 208 24 56 208 24 56 208 24 56 208 24 56 208 24 56 208 24 56 208 24 56 208 24 56 208 24 56 208 24 56 208 24 56 208 24 56 208 24 56 208 24 56 208 24 56 208 24 56 208 24 56 208 24 56 208 24 56 208 24 56 208 24 56 208 24 56 208 24 56 208 24 56 208 24 56 208 24 56 208 24 56 208 24 56 208 24 56 208 24 56 224 24 56 224 24 56 224 24 56 224 24 56 224 24 56 224 24 56 224 24 56 224 24 56 224 24 56 224 24 56 224 24 56 224 24 56 224 24 56 224 24 56 224 24 56 224 24 56 224 24 56 224 24 56 224 24 56 224 24 56 224 24 56 224 24 56 224 24 56 224 24 56 224 24 56 224 24 56 224 24 56 224 24 56 224 24 56 224 24 56 224 24 56 224 24 56 168 16 56 168 16 56 168 16 56 168 16 56 168 16 56 168 16 56 168 16 56 168 16 56 168 16 56 168 16 56 168 16 56 168 16 56 168 16 56 168 16 56 168 16 56 168 16 56 168 16 56 168 16 56 168 16 56 168 16 56 168 16 56 168 16 56 168 16 56 168 16 56 168 16 56 168 16 56 168 16 56 168 16 56 168 16 56 168 16 56 168 16 56 168 16 56
168 16 56 168 16 56 168 16 56 168 16 56 168 16 56 168 16 56 168 16 56 168 16 56 168 16 56 168 16 56 168 16 56 168 16 56 168 16 56 168 16 56 168 16 56 168 16 56 168 16 56 168 16 56 168 16 56 168 16 56 168 16 56 168 16 56 168 16 56 168 16 56 168 16 56 168 16 56 168 16 56 168 16 56 168 16 56 168 16 56 168 16 56 168 16 56 208 24 56 208 24 56 208 24 56 208 24 56 208 24 56 208 24 56 208 24 56 208 24 56 208 24 56 208 24 56 208 24 56 208 24 56 208 24 56 208 24 56 208 24 56 208 24 56 208 24 56 208 24 56 208 24 56 208 24 56 208 24 56 208 24 56 208 24 56 208 24 56 208 24 56 208 24 56 208 24 56 208 24 56 208 24 56 208 24 56 208 24 56 208 24 56 224 24 56 224 24 56 224 24 56 224 24 56 224 24 56 224 24 56 224 24 56 224 24 56 224 24 56 224 24 56 224 24 56 224 24 56 224 24 56 224 24 56 224 24 56 224 24 56 224 24 56 224 24 56 224 24 56 224 24 56 224 24 56 224 24 56 224 24 56 224 24 56 224 24 56 224 24 56 224 24 56 224 24 56 224 24 56 224 24 56 224 24 56 224 24 56 168 16 56 168 16 56 168 16 56 168 16 56 168 16 56 168 16 56 168 16 56 168 16 56 168 16 56 168 16 56 168 16 56 168 16 56 168 16 56 168 16 56 168 16 56 168 16 56 168 16 56 168 16 56 168 16 56 168 16 56 168 16 56 168 16 56 168 16 56 168 16 56 168 16 56 168 16 56 168 16 56 168 16 56 168 16 56 168 16 56 168 16 56 168 16 56
168 16 56 168 16 56 168 16 56 168 16 56 168 16 56 168 16 56 168 16 56 168 16 56 168 16 56 168 16 56 168 16 56 168 16 56 168 16 56 168 16 56 168 16 56 168 16 56 168 16 56 168 16 56 168 16 56 168 16 56 168 16 56 168 16 56 168 16 56 168 16 56 168 16 56 168 16 56 168 16 56 168 16 56 168 16 56 168 16 56 168 16 56 168 16 56 208 24 56 208 24 56 208 24 56 208 24 56 208 24 56 208 24 56 208 24 56 208 24 56 208 24 56 208 24 56 208 24 56 208 24 56 208 24 56 208 24 56 208 24 56 208 24 56 208 24 56 208 24 56 208 24 56 208 24 56 208 24 56 208 24 56 208 24 56 208 24 56 208 24 56 208 24 56 208 24 56 208 24 56 208 24 56 208 24 56 208 24 56 208 24 56 224 24 56 224 24 56 224 24 56 224 24 56 224 24 56 224 24 56 224 24 56 224 24 56 224 24 56 224 24 56 224 24 56 224 24 56 224 24 56 224 24 56 224 24 56 224 24 56 224 24 56 224 24 56 224 24 56 224 24 56 224 24 56 224 24 56 224 24 56 224 24 56 224 24 56 224 24 56 224 24 56 224 24 56 224 24 56 224 24 56 224 24 56 224 24 56 168 16 56 168 16 56 168 16 56 168 16 56 168 16 56 168 16 56 168 16 56 168 16 56 168 16 56 168 16 56 168 16 56 168 16 56 168 16 56 168 16 56 168 16 56 168 16 56 168 16 56 168 16 56 168 16 56 168 16 56 168 16 56 168 16 56 168 16 56 168 16 56 168 16 56 168 16 56 168 16 56 168 16 56 168 16 56 168 16 56 168 16 56 168 16 56
168 16 56 168 16 56 168 16 56 168 16 56 168 16 56 168 16 56 168 16 56 168 16 56 168 16 56 168 16 56 168 16 56 168 16 56 168 16 56 168 16 56 168 16 56 168 16 56 168 16 56 168 16 56 168 16 56 168 16 56 168 16 56 168 16 56 168 16 56 168 16 56 168 16 56 168 16 56 168 16 56 168 16 56 168 16 56 168 16 56 168 16 56 168 16 56 208 24 56 208 24 56 208 24 56 208 24 56 208 24 56 208 24 56 208 24 56 208 24 56 208 24 56 208 24 56 208 24 56 208 24 56 208 24 56 208 24 56 208 24 56 208 24 56 208 24 56 208 24 56 208 24 56 208 24 56 208 24 56 208 24 56 208 24 56 208 24 56 208 24 56 208 24 56 208 24 56 208 24 56 208 24 56 208 24 56 208 24 56 208 24 56 224 24 56 224 24 56 224 24 56 224 24 56 224 24 56 224 24 56 224 24 56 224 24 56 224 24 56 224 24 56 224 24 56 224 24 56 224 24 56 224 24 56 224 24 56 224 24 56 224 24 56 224 24 56 224 24 56 224 24 56 224 24 56 224 24 56 224 24 56 224 24 56 224 24 56 224 24 56 224 24 56 224 24 56 224 24 56 224 24 56 224 24 56 224 24 56 168 16 56 168 16 56 168 16 56 168 16 56 168 16 56 168 16 56 168 16 56 168 16 56 168 16 56 168 16 56 168 16 56 168 16 56 168 16 56 168 16 56 168 16 56 168 16 56 168 16 56 168 16 56 168 16 56 168 16 56 168 16 56 168 16 56 168 16 56 168 16 56 168 16 56 168 16 56 168 16 56 168 16 56 168 16 56 168 16 56 168 16 56 168 16 56
168 16 56 168 16 56 168 16 56 168 16 56 168 16 56 168 16 56 168 16 56 168 16 56 168 16 56 168 16 56 168 16 56 168 16 56 168 16 56 168 16 56 168 16 56 168 16 56 168 16 56 168 16 56 168 16 56 168 16 56 168 16 56 168 16 56 168 16 56 168 16 56 168 16 56 168 16 56 168 16 56 168 16 56 168 16 56 168 16 56 168 16 56 168 16 56 208 24 56 208 24 56 208 24 56 208 24 56 208 24 56 208 24 56 208 24 56 208 24 56 208 24 56 208 24 56 208 24 56 208 24 56 208 24 56 208 24 56 208 24 56 208 24 56 208 24 56 208 24 56 208 24 56 208 24 56 208 24 56 208 24 56 208 24 56 208 24 56 208 24 56 208 24 56 208 24 56 208 24 56 208 24 56 208 24 56 208 24 56 208 24 56 224 24 56 224 24 56 224 24 56 224 24 56 224 24 56 224 24 56 224 24 56 224 24 56 224 24 56 224 24 56 224 24 56 224 24 56 224 24 56 224 24 56 224 24 56 224 24 56 224 24 56 224 24 56 224 24 56 224 24 56 224 24 56 224 24 56 224 24 56 224 24 56 224 24 56 224 24 56 224 24 56 224 24 56 224 24 56 224 24 56 224 24 56 224 24 56 168 16 56 168 16 56 168 16 56 168 16 56 168 16 56 168 16 56 168 16 56 168 16 56 168 16 56 168 16 56 168 16 56 168 16 56 168 16 56 168 16 56 168 16 56 168 16 56 168 16 56 168 16 56 168 16 56 168 16 56 168 16 56 168 16 56 168 16 56 168 16 56 168 16 56 168 16 56 168 16 56 168 16 56 168 16 56 168 16 56 168 16 56 168 16 56
168 16 56 168 16 56 168 16 56 168 16 56 168 16 56 168 16 56 168 16 56 168 16 56 168 16 56 168 16 56 168 16 56 168 16 56 168 16 56 168 16 56 168 16 56 168 16 56 168 16 56 168 16 56 168 16 56 168 16 56 168 16 56 168 16 56 168 16 56 168 16 56 168 16 56 168 16 56 168 16 56 168 16 56 168 16 56 168 16 56 168 16 56 168 16 56 208 24 56 208 24 56 208 24 56 208 24 56 208 24 56 208 24 56 208 24 56 208 24 56 208 24 56 208 24 56 208 24 56 208 24 56 208 24 56 208 24 56 208 24 56 208 24 56 208 24 56 208 24 56 208 24 56 208 24 56 208 24 56 208 24 56 208 24 56 208 24 56 208 24 56 208 24 56 208 24 56 208 24 56 208 24 56 208 24 56 208 24 56 208 24 56 224 24 56 224 24 56 224 24 56 224 24 56 224 24 56 224 24 56 224 24 56 224 24 56 224 24 56 224 24 56 224 24 56 224 24 56 224 24 56 224 24 56 224 24 56 224 24 56 224 24 56 224 24 56 224 24 56 224 24 56 224 24 56 224 24 56 224 24 56 224 24 56 224 24 56 224 24 56 224 24 56 224 24 56 224 24 56 224 24 56 224 24 56 224 24 56 168 16 56 168 16 56 168 16 56 168 16 56 168 16 56 168 16 56 168 16 56 168 16 56 168 16 56 168 16 56 168 16 56 168 16 56 168 16 56 168 16 56 168 16 56 168 16 56 168 16 56 168 16 56 168 16 56 168 16 56 168 16 56 168 16 56 168 16 56 168 16 56 168 16 56 168 16 56 168 16 56 168 16 56 168 16 56 168 16 56 168 16 56 168 16 56
168 16 56 168 16 56 168 16 56 168 16 56 168 16 56 168 16 56 168 16 56 168 16 56 168 16 56 168 16 56 168 16 56 168 16 56 168 16 56 168 16 56 168 16 56 168 16 56 168 16 56 168 16 56 168 16 56 168 16 56 168 16 56 168 16 56 168 16 56 168 16 56 168 16 56 168 16 56 168 16 56 168 16 56 168 16 56 168 16 56 168 16 56 168 16 56 208 24 56 208 24 56 208 24 56 208 24 56 208 24 56 208 24 56 208 24 56 208 24 56 208 24 56 208 24 56 208 24 56 208 24 56 208 24 56 208 24 56 208 24 56 208 24 56 208 24 56 208 24 56 208 24 56 208 24 56 208 24 56 208 24 56 208 24 56 208 24 56 208 24 56 208 24 56 208 24 56 208 24 56 208 24 56 208 24 56 208 24 56 208 24 56 224 24 56 224 24 56 224 24 56 224 24 56 224 24 56 224 24 56 224 24 56 224 24 56 224 24 56 224 24 56 224 24 56 224 24 56 224 24 56 224 24 56 224 24 56 224 24 56 224 24 56 224 24 56 224 24 56 224 24 56 224 24 56 224 24 56 224 24 56 224 24 56 224 24 56 224 24 56 224 24 56 224 24 56 224 24 56 224 24 56 224 24 56 224 24 56 168 16 56 168 16 56 168 16 56 168 16 56 168 16 56 168 16 56 168 16 56 168 16 56 168 16 56 168 16 56 168 16 56 168 16 56 168 16 56 168 16 56 168 16 56 168 16 56 168 16 56 168 16 56 168 16 56 168 16 56 168 16 56 168 16 56 168 16 56 168 16 56 168 16 56 168 16 56 168 16 56 168 16 56 168 16 56 168 16 56 168 16 56 168 16 56
168 16 56 168 16 56 168 16 56 168 16 56 168 16 56 168 16 56 168 16 56 168 16 56 168 16 56 168 16 56 168 16 56 168 16 56 168 16 56 168 16 56 168 16 56 168 16 56 168 16 56 168 16 56 168 16 56 168 16 56 168 16 56 168 16 56 168 16 56 168 16 56 168 16 56 168 16 56 168 16 56 168 16 56 168 16 56 168 16 56 168 16 56 168 16 56 208 24 56 208 24 56 208 24 56 208 24 56 208 24 56 208 24 56 208 24 56 208 24 56 208 24 56 208 24 56 208 24 56 208 24 56 208 24 56 208 24 56 208 24 56 208 24 56 208 24 56 208 24 56 208 24 56 208 24 56 208 24 56 208 24 56 208 24 56 208 24 56 208 24 56 208 24 56 208 24 56 208 24 56 208 24 56 208 24 56 208 24 56 208 24 56 224 24 56 224 24 56 224 24 56 224 24 56 224 24 56 224 24 56 224 24 56 224 24 56 224 24 56 224 24 56 224 24 56 224 24 56 224 24 56 224 24 56 224 24 56 224 24 56 224 24 56 224 24 56 224 24 56 224 24 56 224 24 56 224 24 56 224 24 56 224 24 56 224 24 56 224 24 56 224 24 56 224 24 56 224 24 56 224 24 56 224 24 56 224 24 56 168 16 56 168 16 56 168 16 56 168 16 56 168 16 56 168 16 56 168 16 56 168 16 56 168 16 56 168 16 56 168 16 56 168 16 56 168 16 56 168 16 56 168 16 56 168 16 56 168 16 56 168 16 56 168 16 56 168 16 56 168 16 56 168 16 56 168 16 56 168 16 56 168 16 56 168 16 56 168 16 56 168 16 56 168 16 56 168 16 56 168 16 56 168 16 56
168 16 56 168 16 56 168 16 56 168 16 56 168 16 56 168 16 56 168 16 56 168 16 56 168 16 56 168 16 56 168 16 56 168 16 56 168 16 56 168 16 56 168 16 56 168 16 56 168 16 56 168 16 56 168 16 56 168 16 56 168 16 56 168 16 56 168 16 56 168 16 56 168 16 56 168 16 56 168 16 56 168 16 56 168 16 56 168 16 56 168 16 56 168 16 56 208 24 56 208 24 56 208 24 56 208 24 56 208 24 56 208 24 56 208 24 56 208 24 56 208 24 56 208 24 56 208 24 56 208 24 56 208 24 56 208 24 56 208 24 56 208 24 56 208 24 56 208 24 56 208 24 56 208 24 56 208 24 56 208 24 56 208 24 56 208 24 56 208 24 56 208 24 56 208 24 56 208 24 56 208 24 56 208 24 56 208 24 56 208 24 56 224 24 56 224 24 56 224 24 56 224 24 56 224 24 56 224 24 56 224 24 56 224 24 56 224 24 56 224 24 56 224 24 56 224 24 56 224 24 56 224 24 56 224 24 56 224 24 56 224 24 56 224 24 56 224 24 56 224 24 56 224 24 56 224 24 56 224 24 56 224 24 56 224 24 56 224 24 56 224 24 56 224 24 56 224 24 56 224 24 56 224 24 56 224 24 56 168 16 56 168 16 56 168 16 56 168 16 56 168 16 56 168 16 56 168 16 56 168 16 56 168 16 56 168 16 56 168 16 56 168 16 56 168 16 56 168 16 56 168 16 56 168 16 56 168 16 56 168 16 56 168 16 56 168 16 56 168 16 56 168 16 56 168 16 56 168 16 56 168 16 56 168 16 56 168 16 56 168 16 56 168 16 56 168 16 56 168 16 56 168 16 56
168 16 56 168 16 56 168 16 56 168 16 56 168 16 56 168 16 56 168 16 56 168 16 56 168 16 56 168 16 56 168 16 56 168 16 56 168 16 56 168 16 56 168 16 56 168 16 56 168 16 56 168 16 56 168 16 56 168 16 56 168 16 56 168 16 56 168 16 56 168 16 56 168 16 56 168 16 56 168 16 56 168 16 56 168 16 56 168 16 56 168 16 56 168 16 56 208 24 56 208 24 56 208 24 56 208 24 56 208 24 56 208 24 56 208 24 56 208 24 56 208 24 56 208 24 56 208 24 56 208 24 56 208 24 56 208 24 56 208 24 56 208 24 56 208 24 56 208 24 56 208 24 56 208 24 56 208 24 56 208 24 56 208 24 56 208 24 56 208 24 56 208 24 56 208 24 56 208 24 56 208 24 56 208 24 56 208 24 56 208 24 56 224 24 56 224 24 56 224 24 56 224 24 56 224 24 56 224 24 56 224 24 56 224 24 56 224 24 56 224 24 56 224 24 56 224 24 56 224 24 56 224 24 56 224 24 56 224 24 56 224 24 56 224 24 56 224 24 56 224 24 56 224 24 56 224 24 56 224 24 56 224 24 56 224 24 56 224 24 56 224 24 56 224 24 56 224 24 56 224 24 56 224 24 56 224 24 56 168 16 56 168 16 56 168 16 56 168 16 56 168 16 56 168 16 56 168 16 56 168 16 56 168 16 56 168 16 56 168 16 56 168 16 56 168 16 56 168 16 56 168 16 56 168 16 56 168 16 56 168 16 56 168 16 56 168 16 56 168 16 56 168 16 56 168 16 56 168 16 56 168 16 56 168 16 56 168 16 56 168 16 56 168 16 56 168 16 56 168 16 56 168 16 56
168 16 56 168 16 56 168 16 56 168 16 56 168 16 56 168 16 56 168 16 56 168 16 56 168 16 56 168 16 56 168 16 56 168 16 56 168 16 56 168 16 56 168 16 56 168 16 56 168 16 56 168 16 56 168 16 56 168 16 56 168 16 56 168 16 56 168 16 56 168 16 56 168 16 56 168 16 56 168 16 56 168 16 56 168 16 56 168 16 56 168 16 56 168 16 56 208 24 56 208 24 56 208 24 56 208 24 56 208 24 56 208 24 56 208 24 56 208 24 56 208 24 56 208 24 56 208 24 56 208 24 56 208 24 56 208 24 56 208 24 56 208 24 56 208 24 56 208 24 56 208 24 56 208 24 56 208 24 56 208 24 56 208 24 56 208 24 56 208 24 56 208 24 56 208 24 56 208 24 56 208 24 56 208 24 56 208 24 56 208 24 56 224 24 56 224 24 56 224 24 56 224 24 56 224 24 56 224 24 56 224 24 56 224 24 56 224 24 56 224 24 56 224 24 56 224 24 56 224 24 56 224 24 56 224 24 56 224 24 56 224 24 56 224 24 56 224 24 56 224 24 56 224 24 56 224 24 56 224 24 56 224 24 56 224 24 56 224 24 56 224 24 56 224 24 56 224 24 56 224 24 56 224 24 56 224 24 56 168 16 56 168 16 56 168 16 56 168 16 56 168 16 56 168 16 56 168 16 56 168 16 56 168 16 56 168 16 56 168 16 56 168 16 56 168 16 56 168 16 56 168 16 56 168 16 56 168 16 56 168 16 56 168 16 56 168 16 56 168 16 56 168 16 56 168 16 56 168 16 56 168 16 56 168 16 56 168 16 56 168 16 56 168 16 56 168 16 56 168 16 56 168 16 56
168 16 56 168 16 56 168 16 56 168 16 56 168 16 56 168 16 56 168 16 56 168 16 56 168 16 56 168 16 56 168 16 56 168 16 56 168 16 56 168 16 56 168 16 56 168 16 56 168 16 56 168 16 56 168 16 56 168 16 56 168 16 56 168 16 56 168 16 56 168 16 56 168 16 56 168 16 56 168 16 56 168 16 56 168 16 56 168 16 56 168 16 56 168 16 56 208 24 56 208 24 56 208 24 56 208 24 56 208 24 56 208 24 56 208 24 56 208 24 56 208 24 56 208 24 56 208 24 56 208 24 56 208 24 56 208 24 56 208 24 56 208 24 56 208 24 56 208 24 56 208 24 56 208 24 56 208 24 56 208 24 56 208 24 56 208 24 56 208 24 56 208 24 56 208 24 56 208 24 56 208 24 56 208 24 56 208 24 56 208 24 56 224 24 56 224 24 56 224 24 56 224 24 56 224 24 56 224 24 56 224 24 56 224 24 56 224 24 56 224 24 56 224 24 56 224 24 56 224 24 56 224 24 56 224 24 56 224 24 56 224 24 56 224 24 56 224 24 56 224 24 56 224 24 56 224 24 56 224 24 56 224 24 56 224 24 56 224 24 56 224 24 56 224 24 56 224 24 56 224 24 56 224 24 56 224 24 56 168 16 56 168 16 56 168 16 56 168 16 56 168 16 56 168 16 56 168 16 56 168 16 56 168 16 56 168 16 56 168 16 56 168 16 56 168 16 56 168 16 56 168 16 56 168 16 56 168 16 56 168 16 56 168 16 56 168 16 56 168 16 56 168 16 56 168 16 56 168 16 56 168 16 56 168 16 56 168 16 56 168 16 56 168 16 56 168 16 56 168 16 56 168 16 56
168 16 56 168 16 56 168 16 56 168 16 56 168 16 56 168 16 56 168 16 56 168 16 56 168 16 56 168 16 56 168 16 56 168 16 56 168 16 56 168 16 56 168 16 56 168 16 56 168 16 56 168 16 56 168 16 56 168 16 56 168 16 56 168 16 56 168 16 56 168 16 56 168 16 56 168 16 56 168 16 56 168 16 56 168 16 56 168 16 56 168 16 56 168 16 56 208 24 56 208 24 56 208 24 56 208 24 56 208 24 56 208 24 56 208 24 56 208 24 56 208 24 56 208 24 56 208 24 56 208 24 56 208 24 56 208 24 56 208 24 56 208 24 56 208 24 56 208 24 56 208 24 56 208 24 56 208 24 56 208 24 56 208 24 56 208 24 56 208 24 56 208 24 56 208 24 56 208 24 56 208 24 56 208 24 56 208 24 56 208 24 56 224 24 56 224 24 56 224 24 56 224 24 56 224 24 56 224 24 56 224 24 56 224 24 56 224 24 56 224 24 56 224 24 56 224 24 56 224 24 56 224 24 56 224 24 56 224 24 56 224 24 56 224 24 56 224 24 56 224 24 56 224 24 56 224 24 56 224 24 56 224 24 56 224 24 56 224 24 56 224 24 56 224 24 56 224 24 56 224 24 56 224 24 56 224 24 56 168 16 56 168 16 56 168 16 56 168 16 56 168 16 56 168 16 56 168 16 56 168 16 56 168 16 56 168 16 56 168 16 56 168 16 56 168 16 56 168 16 56 168 16 56 168 16 56 168 16 56 168 16 56 168 16 56 168 16 56 168 16 56 168 16 56 168 16 56 168 16 56 168 16 56 168 16 56 168 16 56 168 16 56 168 16 56 168 16 56 168 16 56 168 16 56
168 16 56 168 16 56 168 16 56 168 16 56 168 16 56 168 16 56 168 16 56 168 16 56 168 16 56 168 16 56 168 16 56 168 16 56 168 16 56 168 16 56 168 16 56 168 16 56 168 16 56 168 16 56 168 16 56 168 16 56 168 16 56 168 16 56 168 16 56 168 16 56 168 16 56 168 16 56 168 16 56 168 16 56 168 16 56 168 16 56 168 16 56 168 16 56 208 24 56 208 24 56 208 24 56 208 24 56 208 24 56 208 24 56 208 24 56 208 24 56 208 24 56 208 24 56 208 24 56 208 24 56 208 24 56 208 24 56 208 24 56 208 24 56 208 24 56 208 24 56 208 24 56 208 24 56 208 24 56 208 24 56 208 24 56 208 24 56 208 24 56 208 24 56 208 24 56 208 24 56 208 24 56 208 24 56 208 24 56 208 24 56 224 24 56 224 24 56 224 24 56 224 24 56 224 24 56 224 24 56 224 24 56 224 24 56 224 24 56 224 24 56 224 24 56 224 24 56 224 24 56 224 24 56 224 24 56 224 24 56 224 24 56 224 24 56 224 24 56 224 24 56 224 24 56 224 24 56 224 24 56 224 24 56 224 24 56 224 24 56 224 24 56 224 24 56 224 24 56 224 24 56 224 24 56 224 24 56 168 16 56 168 16 56 168 16 56 168 16 56 168 16 56 168 16 56 168 16 56 168 16 56 168 16 56 168 16 56 168 16 56 168 16 56 168 16 56 168 16 56 168 16 56 168 16 56 168 16 56 168 16 56 168 16 56 168 16 56 168 16 56 168 16 56 168 16 56 168 16 56 168 16 56 168 16 56 168 16 56 168 16 56 168 16 56 168 16 56 168 16 56 168 16 56
168 16 56 168 16 56 168 16 56 168 16 56 168 16 56 168 16 56 168 16 56 168 16 56 168 16 56 168 16 56 168 16 56 168 16 56 168 16 56 168 16 56 168 16 56 168 16 56 168 16 56 168 16 56 168 16 56 168 16 56 168 16 56 168 16 56 168 16 56 168 16 56 168 16 56 168 16 56 168 16 56 168 16 56 168 16 56 168 16 56 168 16 56 168 16 56 208 24 56 208 24 56 208 24 56 208 24 56 208 24 56 208 24 56 208 24 56 208 24 56 208 24 56 208 24 56 208 24 56 208 24 56 208 24 56 208 24 56 208 24 56 208 24 56 208 24 56 208 24 56 208 24 56 208 24 56 208 24 56 208 24 56 208 24 56 208 24 56 208 24 56 208 24 56 208 24 56 208 24 56 208 24 56 208 24 56 208 24 56 208 24 56 224 24 56 224 24 56 224 24 56 224 24 56 224 24 56 224 24 56 224 24 56 224 24 56 224 24 56 224 24 56 224 24 56 224 24 56 224 24 56 224 24 56 224 24 56 224 24 56 224 24 56 224 24 56 224 24 56 224 24 56 224 24 56 224 24 56 224 24 56 224 24 56 224 24 56 224 24 56 224 24 56 224 24 56 224 24 56 224 24 56 224 24 56 224 24 56 168 16 56 168 16 56 168 16 56 168 16 56 168 16 56 168 16 56 168 16 56 168 16 56 168 16 56 168 16 56 168 16 56 168 16 56 168 16 56 168 16 56 168 16 56 168 16 56 168 16 56 168 16 56 168 16 56 168 16 56 168 16 56 168 16 56 168 16 56 168 16 56 168 16 56 168 16 56 168 16 56 168 16 56 168 16 56 168 16 56 168 16 56 168 16 56
168 16 56 168 16 56 168 16 56 168 16 56 168 16 56 168 16 56 168 16 56 168 16 56 168 16 56 168 16 56 168 16 56 168 16 56 168 16 56 168 16 56 168 16 56 168 16 56 168 16 56 168 16 56 168 16 56 168 16 56 168 16 56 168 16 56 168 16 56 168 16 56 168 16 56 168 16 56 168 16 56 168 16 56 168 16 56 168 16 56 168 16 56 168 16 56 208 24 56 208 24 56 208 24 56 208 24 56 208 24 56 208 24 56 208 24 56 208 24 56 208 24 56 208 24 56 208 24 56 208 24 56 208 24 56 208 24 56 208 24 56 208 24 56 208 24 56 208 24 56 208 24 56 208 24 56 208 24 56 208 24 56 208 24 56 208 24 56 208 24 56 208 24 56 208 24 56 208 24 56 208 24 56 208 24 56 208 24 56 208 24 56 224 24 56 224 24 56 224 24 56 224 24 56 224 24 56 224 24 56 224 24 56 224 24 56 224 24 56 224 24 56 224 24 56 224 24 56 224 24 56 224 24 56 224 24 56 224 24 56 224 24 56 224 24 56 224 24 56 224 24 56 224 24 56 224 24 56 224 24 56 224 24 56 224 24 56 224 24 56 224 24 56 224 24 56 224 24 56 224 24 56 224 24 56 224 24 56 168 16 56 168 16 56 168 16 56 168 16 56 168 16 56 168 16 56 168 16 56 168 16 56 168 16 56 168 16 56 168 16 56 168 16 56 168 16 56 168 16 56 168 16 56 168 16 56 168 16 56 168 16 56 168 16 56 168 16 56 168 16 56 168 16 56 168 16 56 168 16 56 168 16 56 168 16 56 168 16 56 168 16 56 168 16 56 168 16 56 168 16 56 168 16 56
168 16 56 168 16 56 168 16 56 168 16 56 168 16 56 168 16 56 168 16 56 168 16 56 168 16 56 168 16 56 168 16 56 168 16 56 168 16 56 168 16 56 168 16 56 168 16 56 168 16 56 168 16 56 168 16 56 168 16 56 168 16 56 168 16 56 168 16 56 168 16 56 168 16 56 168 16 56 168 16 56 168 16 56 168 16 56 168 16 56 168 16 56 168 16 56 208 24 56 208 24 56 208 24 56 208 24 56 208 24 56 208 24 56 208 24 56 208 24 56 208 24 56 208 24 56 208 24 56 208 24 56 208 24 56 208 24 56 208 24 56 208 24 56 208 24 56 208 24 56 208 24 56 208 24 56 208 24 56 208 24 56 208 24 56 208 24 56 208 24 56 208 24 56 208 24 56 208 24 56 208 24 56 208 24 56 208 24 56 208 24 56 224 24 56 224 24 56 224 24 56 224 24 56 224 24 56 224 24 56 224 24 56 224 24 56 224 24 56 224 24 56 224 24 56 224 24 56 224 24 56 224 24 56 224 24 56 224 24 56 224 24 56 224 24 56 224 24 56 224 24 56 224 24 56 224 24 56 224 24 56 224 24 56 224 24 56 224 24 56 224 24 56 224 24 56 224 24 56 224 24 56 224 24 56 224 24 56 168 16 56 168 16 56 168 16 56 168 16 56 168 16 56 168 16 56 168 16 56 168 16 56 168 16 56 168 16 56 168 16 56 168 16 56 168 16 56 168 16 56 168 16 56 168 16 56 168 16 56 168 16 56 168 16 56 168 16 56 168 16 56 168 16 56 168 16 56 168 16 56 168 16 56 168 16 56 168 16 56 168 16 56 168 16 56 168 16 56 168 16 56 168 16 56
168 16 56 168 16 56 168 16 56 168 16 56 168 16 56 168 16 56 168 16 56 168 16 56 168 16 56 168 16 56 168 16 56 168 16 56 168 16 56 168 16 56 168 16 56 168 16 56 168 16 56 168 16 56 168 16 56 168 16 56 168 16 56 168 16 56 168 16 56 168 16 56 168 16 56 168 16 56 168 16 56 168 16 56 168 16 56 168 16 56 168 16 56 168 16 56 208 24 56 208 24 56 208 24 56 208 24 56 208 24 56 208 24 56 208 24 56 208 24 56 208 24 56 208 24 56 208 24 56 208 24 56 208 24 56 208 24 56 208 24 56 208 24 56 208 24 56 208 24 56 208 24 56 208 24 56 208 24 56 208 24 56 208 24 56 208 24 56 208 24 56 208 24 56 208 24 56 208 24 56 208 24 56 208 24 56 208 24 56 208 24 56 224 24 56 224 24 56 224 24 56 224 24 56 224 24 56 224 24 56 224 24 56 224 24 56 224 24 56 224 24 56 224 24 56 224 24 56 224 24 56 224 24 56 224 24 56 224 24 56 224 24 56 224 24 56 224 24 56 224 24 56 224 24 56 224 24 56 224 24 56 224 24 56 224 24 56 224 24 56 224 24 56 224 24 56 224 24 56 224 24 56 224 24 56 224 24 56 168 16 56 168 16 56 168 16 56 168 16 56 168 16 56 168 16 56 168 16 56 168 16 56 168 16 56 168 16 56 168 16 56 168 16 56 168 16 56 168 16 56 168 16 56 168 16 56 168 16 56 168 16 56 168 16 56 168 16 56 168 16 56 168 16 56 168 16 56 168 16 56 168 16 56 168 16 56 168 16 56 168 16 56 168 16 56 168 16 56 168 16 56 168 16 56
168 16 56 168 16 56 168 16 56 168 16 56 168 16 56 168 16 56 168 16 56 168 16 56 168 16 56 168 16 56 168 16 56 168 16 56 168 16 56 168 16 56 168 16 56 168 16 56 168 16 56 168 16 56 168 16 56 168 16 56 168 16 56 168 16 56 168 16 56 168 16 56 168 16 56 168 16 56 168 16 56 168 16 56 168 16 56 168 16 56 168 16 56 168 16 56 208 24 56 208 24 56 208 24 56 208 24 56 208 24 56 208 24 56 208 24 56 208 24 56 208 24 56 208 24 56 208 24 56 208 24 56 208 24 56 208 24 56 208 24 56 208 24 56 208 24 56 208 24 56 208 24 56 208 24 56 208 24 56 208 24 56 208 24 56 208 24 56 208 24 56 208 24 56 208 24 56 208 24 56 208 24 56 208 24 56 208 24 56 208 24 56 224 24 56 224 24 56 224 24 56 224 24 56 224 24 56 224 24 56 224 24 56 224 24 56 224 24 56 224 24 56 224 24 56 224 24 56 224 24 56 224 24 56 224 24 56 224 24 56 224 24 56 224 24 56 224 24 56 224 24 56 224 24 56 224 24 56 224 24 56 224 24 56 224 24 56 224 24 56 224 24 56 224 24 56 224 24 56 224 24 56 224 24 56 224 24 56 168 16 56 168 16 56 168 16 56 168 16 56 168 16 56 168 16 56 168 16 56 168 16 56 168 16 56 168 16 56 168 16 56 168 16 56 168 16 56 168 16 56 168 16 56 168 16 56 168 16 56 168 16 56 168 16 56 168 16 56 168 16 56 168 16 56 168 16 56 168 16 56 168 16 56 168 16 56 168 16 56 168 16 56 168 16 56 168 16 56 168 16 56 168 16 56
96 24 56 96 24 56 96 24 56 96 24 56 96 24 56 96 24 56 96 24 56 96 24 56 96 24 56 96 24 56 96 24 56 96 24 56 96 24 56 96 24 56 96 24 56 96 24 56 96 24 56 96 24 56 96 24 56 96 24 56 96 24 56 96 24 56 96 24 56 96 24 56 96 24 56 96 24 56 96 24 56 96 24 56 96 24 56 96 24 56 96 24 56 96 24 56 96 24 184 96 24 184 96 24 184 96 24 184 96 24 184 96 24 184 96 24 184 96 24 184 96 24 184 96 24 184 96 24 184 96 24 184 96 24 184 96 24 184 96 24 184 96 24 184 96 24 184 96 24 184 96 24 184 96 24 184 96 24 184 96 24 184 96 24 184 96 24 184 96 24 184 96 24 184 96 24 184 96 24 184 96 24 184 96 24 184 96 24 184 96 24 184 168 16 184 168 16 184 168 16 184 168 16 184 168 16 184 168 16 184 168 16 184 168 16 184 168 16 184 168 16 184 168 16 184 168 16 184 168 16 184 168 16 184 168 16 184 168 16 184 168 16 184 168 16 184 168 16 184 168 16 184 168 16 184 168 16 184 168 16 184 168 16 184 168 16 184 168 16 184 168 16 184 168 16 184 168 16 184 168 16 184 168 16 184 168 16 184 224 24 184 224 24 184 224 24 184 224 24 184 224 24 184 224 24 184 224 24 184 224 24 184 224 24 184 224 24 184 224 24 184 224 24 184 224 24 184 224 24 184 224 24 184 224 24 184 224 24 184 224 24 184 224 24 184 224 24 184 224 24 184 224 24 184 224 24 184 224 24 184 224 24 184 224 24 184 224 24 184 224 24 184 224 24 184 224 24 184 224 24 184 224 24 184
96 24 56 96 24 56 96 24 56 96 24 56 96 24 56 96 24 56 96 24 56 96 24 56 96 24 56 96 24 56 96 24 56 96 24 56 96 24 56 96 24 56 96 24 56 96 24 56 96 24 56 96 24 56 96 24 56 96 24 56 96 24 56 96 24 56 96 24 56 96 24 56 96 24 56 96 24 56 96 24 56 96 24 56 96 24 56 96 24 56 96 24 56 96 24 56 96 24 184 96 24 184 96 24 184 96 24 184 96 24 184 96 24 184 96 24 184 96 24 184 96 24 184 96 24 184 96 24 184 96 24 184 96 24 184 96 24 184 96 24 184 96 24 184 96 24 184 96 24 184 96 24 184 96 24 184 96 24 184 96 24 184 96 24 184 96 24 184 96 24 184 96 24 184 96 24 184 96 24 184 96 24 184 96 24 184 96 24 184 96 24 184 168 16 184 168 16 184 168 16 184 168 16 184 168 16 184 168 16 184 168 16 184 168 16 184 168 16 184 168 16 184 168 16 184 168 16 184 168 16 184 168 16 184 168 16 184 168 16 184 168 16 184 168 16 184 168 16 184 168 16 184 168 16 184 168 16 184 168 16 184 168 16 184 168 16 184 168 16 184 168 16 184 168 16 184 168 16 184 168 16 184 168 16 184 168 16 184 224 24 184 224 24 184 224 24 184 224 24 184 224 24 184 224 24 184 224 24 184 224 24 184 224 24 184 224 24 184 224 24 184 224 24 184 224 24 184 224 24 184 224 24 184 224 24 184 224 24 184 224 24 184 224 24 184 224 24 184 224 24 184 224 24 184 224 24 184 224 24 184 224 24 184 224 24 184 224 24 184 224 24 184 224 24 184 224 24 184 224 24 184 224 24 184
96 24 56 96 24 56 96 24 56 96 24 56 96 24 56 96 24 56 96 24 56 96 24 56 96 24 56 96 24 56 96 24 56 96 24 56 96 24 56 96 24 56 96 24 56 96 24 56 96 24 56 96 24 56 96 24 56 96 24 56 96 24 56 96 24 56 96 24 56 96 24 56 96 24 56 96 24 56 96 24 56 96 24 56 96 24 56 96 24 56 96 24 56 96 24 56 96 24 184 96 24 184 96 24 184 96 24 184 96 24 184 96 24 184 96 24 184 96 24 184 96 24 184 96 24 184 96 24 184 96 24 184 96 24 184 96 24 184 96 24 184 96 24 184 96 24 184 96 24 184 96 24 184 96 24 184 96 24 184 96 24 184 96 24 184 96 24 184 96 24 184 96 24 184 96 24 184 96 24 184 96 24 184 96 24 184 96 24 184 96 24 184 168 16 184 168 16 184 168 16 184 168 16 184 168 16 184 168 16 184 168 16 184 168 16 184 168 16 184 168 16 184 168 16 184 168 16 184 168 16 184 168 16 184 168 16 184 168 16 184 168 16 184 168 16 184 168 16 184 168 16 184 168 16 184 168 16 184 168 16 184 168 16 184 168 16 184 168 16 184 168 16 184 168 16 184 168 16 184 168 16 184 168 16 184 168 16 184 224 24 184 224 24 184 224 24 184 224 24 184 224 24 184 224 24 184 224 24 184 224 24 184 224 24 184 224 24 184 224 24 184 224 24 184 224 24 184 224 24 184 224 24 184 224 24 184 224 24 184 224 24 184 224 24 184 224 24 184 224 24 184 224 24 184 224 24 184 224 24 184 224 24 184 224 24 184 224 24 184 224 24 184 224 24 184 224 24 184 224 24 184 224 24 184
96 24 56 96 24 56 96 24 56 96 24 56 96 24 56 96 24 56 96 24 56 96 24 56 96 24 56 96 24 56 96 24 56 96 24 56 96 24 56 96 24 56 96 24 56 96 24 56 96 24 56 96 24 56 96 24 56 96 24 56 96 24 56 96 24 56 96 24 56 96 24 56 96 24 56 96 24 56 96 24 56 96 24 56 96 24 56 96 24 56 96 24 56 96 24 56 96 24 184 96 24 184 96 24 184 96 24 184 96 24 184 96 24 184 96 24 184 96 24 184 96 24 184 96 24 184 96 24 184 96 24 184 96 24 184 96 24 184 96 24 184 96 24 184 96 24 184 96 24 184 96 24 184 96 24 184 96 24 184 96 24 184 96 24 184 96 24 184 96 24 184 96 24 184 96 24 184 96 24 184 96 24 184 96 24 184 96 24 184 96 24 184 168 16 184 168 16 184 168 16 184 168 16 184 168 16 184 168 16 184 168 16 184 168 16 184 168 16 184 168 16 184 168 16 184 168 16 184 168 16 184 168 16 184 168 16 184 168 16 184 168 16 184 168 16 184 168 16 184 168 16 184 168 16 184 168 16 184 168 16 184 168 16 184 168 16 184 168 16 184 168 16 184 168 16 184 168 16 184 168 16 184 168 16 184 168 16 184 224 24 184 224 24 184 224 24 184 224 24 184 224 24 184 224 24 184 224 24 184 224 24 184 224 24 184 224 24 184 224 24 184 224 24 184 224 24 184 224 24 184 224 24 184 224 24 184 224 24 184 224 24 184 224 24 184 224 24 184 224 24 184 224 24 184 224 24 184 224 24 184 224 24 184 224 24 184 224 24 184 224 24 184 224 24 184 224 24 184 224 24 184 224 24 184
96 24 56 96 24 56 96 24 56 96 24 56 96 24 56 96 24 56 96 24 56 96 24 56 96 24 56 96 24 56 96 24 56 96 24 56 96 24 56 96 24 56 96 24 56 96 24 56 96 24 56 96 24 56 96 24 56 96 24 56 96 24 56 96 24 56 96 24 56 96 24 56 96 24 56 96 24 56 96 24 56 96 24 56 96 24 56 96 24 56 96 24 56 96 24 56 96 24 184 96 24 184 96 24 184 96 24 184 96 24 184 96 24 184 96 24 184 96 24 184 96 24 184 96 24 184 96 24 184 96 24 184 96 24 184 96 24 184 96 24 184 96 24 184 96 24 184 96 24 184 96 24 184 96 24 184 96 24 184 96 24 184 96 24 184 96 24 184 96 24 184 96 24 184 96 24 184 96 24 184 96 24 184 96 24 184 96 24 184 96 24 184 168 16 184 168 16 184 168 16 184 168 16 184 168 16 184 168 16 184 168 16 184 168 16 184 168 16 184 168 16 184 168 16 184 168 16 184 168 16 184 168 16 184 168 16 184 168 16 184 168 16 184 168 16 184 168 16 184 168 16 184 168 16 184 168 16 184 168 16 184 168 16 184 168 16 184 168 16 184 168 16 184 168 16 184 168 16 184 168 16 184 168 16 184 168 16 184 224 24 184 224 24 184 224 24 184 224 24 184 224 24 184 224 24 184 224 24 184 224 24 184 224 24 184 224 24 184 224 24 184 224 24 184 224 24 184 224 24 184 224 24 184 224 24 184 224 24 184 224 24 184 224 24 184 224 24 184 224 24 184 224 24 184 224 24 184 224 24 184 224 24 184 224 24 184 224 24 184 224 24 184 224 24 184 224 24 184 224 24 184 224 24 184
96 24 56 96 24 56 96 24 56 96 24 56 96 24 56 96 24 56 96 24 56 96 24 56 96 24 56 96 24 56 96 24 56 96 24 56 96 24 56 96 24 56 96 24 56 96 24 56 96 24 56 96 24 56 96 24 56 96 24 56 96 24 56 96 24 56 96 24 56 96 24 56 96 24 56 96 24 56 96 24 56 96 24 56 96 24 56 96 24 56 96 24 56 96 24 56 96 24 184 96 24 184 96 24 184 96 24 184 96 24 184 96 24 184 96 24 184 96 24 184 96 24 184 96 24 184 96 24 184 96 24 184 96 24 184 96 24 184 96 24 184 96 24 184 96 24 184 96 24 184 96 24 184 96 24 184 96 24 184 96 24 184 96 24 184 96 24 184 96 24 184 96 24 184 96 24 184 96 24 184 96 24 184 96 24 184 96 24 184 96 24 184 168 16 184 168 16 184 168 16 184 168 16 184 168 16 184 168 16 184 168 16 184 168 16 184 168 16 184 168 16 184 168 16 184 168 16 184 168 16 184 168 16 184 168 16 184 168 16 184 168 16 184 168 16 184 168 16 184 168 16 184 168 16 184 168 16 184 168 16 184 168 16 184 168 16 184 168 16 184 168 16 184 168 16 184 168 16 184 168 16 184 168 16 184 168 16 184 224 24 184 224 24 184 224 24 184 224 24 184 224 24 184 224 24 184 224 24 184 224 24 184 224 24 184 224 24 184 224 24 184 224 24 184 224 24 184 224 24 184 224 24 184 224 24 184 224 24 184 224 24 184 224 24 184 224 24 184 224 24 184 224 24 184 224 24 184 224 24 184 224 24 184 224 24 184 224 24 184 224 24 184 224 24 184 224 24 184 224 24 184 224 24 184
96 24 56 96 24 56 96 24 56 96 24 56 96 24 56 96 24 56 96 24 56 96 24 56 96 24 56 96 24 56 96 24 56 96 24 56 96 24 56 96 24 56 96 24 56 96 24 56 96 24 56 96 24 56 96 24 56 96 24 56 96 24 56 96 24 56 96 24 56 96 24 56 96 24 56 96 24 56 96 24 56 96 24 56 96 24 56 96 24 56 96 24 56 96 24 56 96 24 184 96 24 184 96 24 184 96 24 184 96 24 184 96 24 184 96 24 184 96 24 184 96 24 184 96 24 184 96 24 184 96 24 184 96 24 184 96 24 184 96 24 184 96 24 184 96 24 184 96 24 184 96 24 184 96 24 184 96 24 184 96 24 184 96 24 184 96 24 184 96 24 184 96 24 184 96 24 184 96 24 184 96 24 184 96 24 184 96 24 184 96 24 184 168 16 184 168 16 184 168 16 184 168 16 184 168 16 184 168 16 184 168 16 184 168 16 184 168 16 184 168 16 184 168 16 184 168 16 184 168 16 184 168 16 184 168 16 184 168 16 184 168 16 184 168 16 184 168 16 184 168 16 184 168 16 184 168 16 184 168 16 184 168 16 184 168 16 184 168 16 184 168 16 184 168 16 184 168 16 184 168 16 184 168 16 184 168 16 184 224 24 184 224 24 184 224 24 184 224 24 184 224 24 184 224 24 184 224 24 184 224 24 184 224 24 184 224 24 184 224 24 184 224 24 184 224 24 184 224 24 184 224 24 184 224 24 184 224 24 184 224 24 184 224 24 184 224 24 184 224 24 184 224 24 184 224 24 184 224 24 184 224 24 184 224 24 184 224 24 184 224 24 184 224 24 184 224 24 184 224 24 184 224 24 184
96 24 56 96 24 56 96 24 56 96 24 56 96 24 56 96 24 56 96 24 56 96 24 56 96 24 56 96 24 56 96 24 56 96 24 56 96 24 56 96 24 56 96 24 56 96 24 56 96 24 56 96 24 56 96 24 56 96 24 56 96 24 56 96 24 56 96 24 56 96 24 56 96 24 56 96 24 56 96 24 56 96 24 56 96 24 56 96 24 56 96 24 56 96 24 56 96 24 184 96 24 184 96 24 184 96 24 184 96 24 184 96 24 184 96 24 184 96 24 184 96 24 184 96 24 184 96 24 184 96 24 184 96 24 184 96 24 184 96 24 184 96 24 184 96 24 184 96 24 184 96 24 184 96 24 184 96 24 184 96 24 184 96 24 184 96 24 184 96 24 184 96 24 184 96 24 184 96 24 184 96 24 184 96 24 184 96 24 184 96 24 184 168 16 184 168 16 184 168 16 184 168 16 184 168 16 184 168 16 184 168 16 184 168 16 184 168 16 184 168 16 184 168 16 184 168 16 184 168 16 184 168 16 184 168 16 184 168 16 184 168 16 184 168 16 184 168 16 184 168 16 184 168 16 184 168 16 184 168 16 184 168 16 184 168 16 184 168 16 184 168 16 184 168 16 184 168 16 184 168 16 184 168 16 184 168 16 184 224 24 184 224 24 184 224 24 184 224 24 184 224 24 184 224 24 184 224 24 184 224 24 184 224 24 184 224 24 184 224 24 184 224 24 184 224 24 184 224 24 184 224 24 184 224 24 184 224 24 184 224 24 184 224 24 184 224 24 184 224 24 184 224 24 184 224 24 184 224 24 184 224 24 184 224 24 184 224 24 184 224 24 184 224 24 184 224 24 184 224 24 184 224 24 184
96 24 56 96 24 56 96 24 56 96 24 56 96 24 56 96 24 56 96 24 56 96 24 56 96 24 56 96 24 56 96 24 56 96 24 56 96 24 56 96 24 56 96 24 56 96 24 56 96 24 56 96 24 56 96 24 56 96 24 56 96 24 56 96 24 56 96 24 56 96 24 56 96 24 56 96 24 56 96 24 56 96 24 56 96 24 56 96 24 56 96 24 56 96 24 56 96 24 184 96 24 184 96 24 184 96 24 184 96 24 184 96 24 184 96 24 184 96 24 184 96 24 184 96 24 184 96 24 184 96 24 184 96 24 184 96 24 184 96 24 184 96 24 184 96 24 184 96 24 184 96 24 184 96 24 184 96 24 184 96 24 184 96 24 184 96 24 184 96 24 184 96 24 184 96 24 184 96 24 184 96 24 184 96 24 184 96 24 184 96 24 184 168 16 184 168 16 184 168 16 184 168 16 184 168 16 184 168 16 184 168 16 184 168 16 184 168 16 184 168 16 184 168 16 184 168 16 184 168 16 184 168 16 184 168 16 184 168 16 184 168 16 184 168 16 184 168 16 184 168 16 184 168 16 184 168 16 184 168 16 184 168 16 184 168 16 184 168 16 184 168 16 184 168 16 184 168 16 184 168 16 184 168 16 184 168 16 184 224 24 184 224 24 184 224 24 184 224 24 184 224 24 184 224 24 184 224 24 184 224 24 184 224 24 184 224 24 184 224 24 184 224 24 184 224 24 184 224 24 184 224 24 184 224 24 184 224 24 184 224 24 184 224 24 184 224 24 184 224 24 184 224 24 184 224 24 184 224 24 184 224 24 184 224 24 184 224 24 184 224 24 184 224 24 184 224 24 184 224 24 184 224 24 184
96 24 56 96 24 56 96 24 56 96 24 56 96 24 56 96 24 56 96 24 56 96 24 56 96 24 56 96 24 56 96 24 56 96 24 56 96 24 56 96 24 56 96 24 56 96 24 56 96 24 56 96 24 56 96 24 56 96 24 56 96 24 56 96 24 56 96 24 56 96 24 56 96 24 56 96 24 56 96 24 56 96 24 56 96 24 56 96 24 56 96 24 56 96 24 56 96 24 184 96 24 184 96 24 184 96 24 184 96 24 184 96 24 184 96 24 184 96 24 184 96 24 184 96 24 184 96 24 184 96 24 184 96 24 184 96 24 184 96 24 184 96 24 184 96 24 184 96 24 184 96 24 184 96 24 184 96 24 184 96 24 184 96 24 184 96 24 184 96 24 184 96 24 184 96 24 184 96 24 184 96 24 184 96 24 184 96 24 184 96 24 184 168 16 184 168 16 184 168 16 184 168 16 184 168 16 184 168 16 184 168 16 184 168 16 184 168 16 184 168 16 184 168 16 184 168 16 184 168 16 184 168 16 184 168 16 184 168 16 184 168 16 184 168 16 184 168 16 184 168 16 184 168 16 184 168 16 184 168 16 184 168 16 184 168 16 184 168 16 184 168 16 184 168 16 184 168 16 184 168 16 184 168 16 184 168 16 184 224 24 184 224 24 184 224 24 184 224 24 184 224 24 184 224 24 184 224 24 184 224 24 184 224 24 184 224 24 184 224 24 184 224 24 184 224 24 184 224 24 184 224 24 184 224 24 184 224 24 184 224 24 184 224 24 184 224 24 184 224 24 184 224 24 184 224 24 184 224 24 184 224 24 184 224 24 184 224 24 184 224 24 184 224 24 184 224 24 184 224 24 184 224 24 184
96 24 56 96 24 56 96 24 56 96 24 56 96 24 56 96 24 56 96 24 56 96 24 56 96 24 56 96 24 56 96 24 56 96 24 56 96 24 56 96 24 56 96 24 56 96 24 56 96 24 56 96 24 56 96 24 56 96 24 56 96 24 56 96 24 56 96 24 56 96 24 56 96 24 56 96 24 56 96 24 56 96 24 56 96 24 56 96 24 56 96 24 56 96 24 56 96 24 184 96 24 184 96 24 184 96 24 184 96 24 184 96 24 184 96 24 184 96 24 184 96 24 184 96 24 184 96 24 184 96 24 184 96 24 184 96 24 184 96 24 184 96 24 184 96 24 184 96 24 184 96 24 184 96 24 184 96 24 184 96 24 184 96 24 184 96 24 184 96 24 184 96 24 184 96 24 184 96 24 184 96 24 184 96 24 184 96 24 184 96 24 184 168 16 184 168 16 184 168 16 184 168 16 184 168 16 184 168 16 184 168 16 184 168 16 184 168 16 184 168 16 184 168 16 184 168 16 184 168 16 184 168 16 184 168 16 184 168 16 184 168 16 184 168 16 184 168 16 184 168 16 184 168 16 184 168 16 184 168 16 184 168 16 184 168 16 184 168 16 184 168 16 184 168 16 184 168 16 184 168 16 184 168 16 184 168 16 184 224 24 184 224 24 184 224 24 184 224 24 184 224 24 184 224 24 184 224 24 184 224 24 184 224 24 184 224 24 184 224 24 184 224 24 184 224 24 184 224 24 184 224 24 184 224 24 184 224 24 184 224 24 184 224 24 184 224 24 184 224 24 184 224 24 184 224 24 184 224 24 184 224 24 184 224 24 184 224 24 184 224 24 184 224 24 184 224 24 184 224 24 184 224 24 184
96 24 56 96 24 56 96 24 56 96 24 56 96 24 56 96 24 56 96 24 56 96 24 56 96 24 56 96 24 56 96 24 56 96 24 56 96 24 56 96 24 56 96 24 56 96 24 56 96 24 56 96 24 56 96 24 56 96 24 56 96 24 56 96 24 56 96 24 56 96 24 56 96 24 56 96 24 56 96 24 56 96 24 56 96 24 56 96 24 56 96 24 56 96 24 56 96 24 184 96 24 184 96 24 184 96 24 184 96 24 184 96 24 184 96 24 184 96 24 184 96 24 184 96 24 184 96 24 184 96 24 184 96 24 184 96 24 184 96 24 184 96 24 184 96 24 184 96 24 184 96 24 184 96 24 184 96 24 184 96 24 184 96 24 184 96 24 184 96 24 184 96 24 184 96 24 184 96 24 184 96 24 184 96 24 184 96 24 184 96 24 184 168 16 184 168 16 184 168 16 184 168 16 184 168 16 184 168 16 184 168 16 184 168 16 184 168 16 184 168 16 184 168 16 184 168 16 184 168 16 184 168 16 184 168 16 184 168 16 184 168 16 184 168 16 184 168 16 184 168 16 184 168 16 184 168 16 184 168 16 184 168 16 184 168 16 184 168 16 184 168 16 184 168 16 184 168 16 184 168 16 184 168 16 184 168 16 184 224 24 184 224 24 184 224 24 184 224 24 184 224 24 184 224 24 184 224 24 184 224 24 184 224 24 184 224 24 184 224 24 184 224 24 184 224 24 184 224 24 184 224 24 184 224 24 184 224 24 184 224 24 184 224 24 184 224 24 184 224 24 184 224 24 184 224 24 184 224 24 184 224 24 184 224 24 184 224 24 184 224 24 184 224 24 184 224 24 184 224 24 184 224 24 184
96 24 56 96 24 56 96 24 56 96 24 56 96 24 56 96 24 56 96 24 56 96 24 56 96 24 56 96 24 56 96 24 56 96 24 56 96 24 56 96 24 56 96 24 56 96 24 56 96 24 56 96 24 56 96 24 56 96 24 56 96 24 56 96 24 56 96 24 56 96 24 56 96 24 56 96 24 56 96 24 56 96 24 56 96 24 56 96 24 56 96 24 56 96 24 56 96 24 184 96 24 184 96 24 184 96 24 184 96 24 184 96 24 184 96 24 184 96 24 184 96 24 184 96 24 184 96 24 184 96 24 184 96 24 184 96 24 184 96 24 184 96 24 184 96 24 184 96 24 184 96 24 184 96 24 184 96 24 184 96 24 184 96 24 184 96 24 184 96 24 184 96 24 184 96 24 184 96 24 184 96 24 184 96 24 184 96 24 184 96 24 184 168 16 184 168 16 184 168 16 184 168 16 184 168 16 184 168 16 184 168 16 184 168 16 184 168 16 184 168 16 184 168 16 184 168 16 184 168 16 184 168 16 184 168 16 184 168 16 184 168 16 184 168 16 184 168 16 184 168 16 184 168 16 184 168 16 184 168 16 184 168 16 184 168 16 184 168 16 184 168 16 184 168 16 184 168 16 184 168 16 184 168 16 184 168 16 184 224 24 184 224 24 184 224 24 184 224 24 184 224 24 184 224 24 184 224 24 184 224 24 184 224 24 184 224 24 184 224 24 184 224 24 184 224 24 184 224 24 184 224 24 184 224 24 184 224 24 184 224 24 184 224 24 184 224 24 184 224 24 184 224 24 184 224 24 184 224 24 184 224 24 184 224 24 184 224 24 184 224 24 184 224 24 184 224 24 184 224 24 184 224 24 184
96 24 56 96 24 56 96 24 56 96 24 56 96 24 56 96 24 56 96 24 56 96 24 56 96 24 56 96 24 56 96 24 56 96 24 56 96 24 56 96 24 56 96 24 56 96 24 56 96 24 56 96 24 56 96 24 56 96 24 56 96 24 56 96 24 56 96 24 56 96 24 56 96 24 56 96 24 56 96 24 56 96 24 56 96 24 56 96 24 56 96 24 56 96 24 56 96 24 184 96 24 184 96 24 184 96 24 184 96 24 184 96 24 184 96 24 184 96 24 184 96 24 184 96 24 184 96 24 184 96 24 184 96 24 184 96 24 184 96 24 184 96 24 184 96 24 184 96 24 184 96 24 184 96 24 184 96 24 184 96 24 184 96 24 184 96 24 184 96 24 184 96 24 184 96 24 184 96 24 184 96 24 184 96 24 184 96 24 184 96 24 184 168 16 184 168 16 184 168 16 184 168 16 184 168 16 184 168 16 184 168 16 184 168 16 184 168 16 184 168 16 184 168 16 184 168 16 184 168 16 184 168 16 184 168 16 184 168 16 184 168 16 184 168 16 184 168 16 184 168 16 184 168 16 184 168 16 184 168 16 184 168 16 184 168 16 184 168 16 184 168 16 184 168 16 184 168 16 184 168 16 184 168 16 184 168 16 184 224 24 184 224 24 184 224 24 184 224 24 184 224 24 184 224 24 184 224 24 184 224 24 184 224 24 184 224 24 184 224 24 184 224 24 184 224 24 184 224 24 184 224 24 184 224 24 184 224 24 184 224 24 184 224 24 184 224 24 184 224 24 184 224 24 184 224 24 184 224 24 184 224 24 184 224 24 184 224 24 184 224 24 184 224 24 184 224 24 184 224 24 184 224 24 184
96 24 56 96 24 56 96 24 56 96 24 56 96 24 56 96 24 56 96 24 56 96 24 56 96 24 56 96 24 56 96 24 56 96 24 56 96 24 56 96 24 56 96 24 56 96 24 56 96 24 56 96 24 56 96 24 56 96 24 56 96 24 56 96 24 56 96 24 56 96 24 56 96 24 56 96 24 56 96 24 56 96 24 56 96 24 56 96 24 56 96 24 56 96 24 56 96 24 184 96 24 184 96 24 184 96 24 184 96 24 184 96 24 184 96 24 184 96 24 184 96 24 184 96 24 184 96 24 184 96 24 184 96 24 184 96 24 184 96 24 184 96 24 184 96 24 184 96 24 184 96 24 184 96 24 184 96 24 184 96 24 184 96 24 184 96 24 184 96 24 184 96 24 184 96 24 184 96 24 184 96 24 184 96 24 184 96 24 184 96 24 184 168 16 184 168 16 184 168 16 184 168 16 184 168 16 184 168 16 184 168 16 184 168 16 184 168 16 184 168 16 184 168 16 184 168 16 184 168 16 184 168 16 184 168 16 184 168 16 184 168 16 184 168 16 184 168 16 184 168 16 184 168 16 184 168 16 184 168 16 184 168 16 184 168 16 184 168 16 184 168 16 184 168 16 184 168 16 184 168 16 184 168 16 184 168 16 184 224 24 184 224 24 184 224 24 184 224 24 184 224 24 184 224 24 184 224 24 184 224 24 184 224 24 184 224 24 184 224 24 184 224 24 184 224 24 184 224 24 184 224 24 184 224 24 184 224 24 184 224 24 184 224 24 184 224 24 184 224 24 184 224 24 184 224 24 184 224 24 184 224 24 184 224 24 184 224 24 184 224 24 184 224 24 184 224 24 184 224 24 184 224 24 184
96 24 56 96 24 56 96 24 56 96 24 56 96 24 56 96 24 56 96 24 56 96 24 56 96 24 56 96 24 56 96 24 56 96 24 56 96 24 56 96 24 56 96 24 56 96 24 56 96 24 56 96 24 56 96 24 56 96 24 56 96 24 56 96 24 56 96 24 56 96 24 56 96 24 56 96 24 56 96 24 56 96 24 56 96 24 56 96 24 56 96 24 56 96 24 56 96 24 184 96 24 184 96 24 184 96 24 184 96 24 184 96 24 184 96 24 184 96 24 184 96 24 184 96 24 184 96 24 184 96 24 184 96 24 184 96 24 184 96 24 184 96 24 184 96 24 184 96 24 184 96 24 184 96 24 184 96 24 184 96 24 184 96 24 184 96 24 184 96 24 184 96 24 184 96 24 184 96 24 184 96 24 184 96 24 184 96 24 184 96 24 184 168 16 184 168 16 184 168 16 184 168 16 184 168 16 184 168 16 184 168 16 184 168 16 184 168 16 184 168 16 184 168 16 184 168 16 184 168 16 184 168 16 184 168 16 184 168 16 184 168 16 184 168 16 184 168 16 184 168 16 184 168 16 184 168 16 184 168 16 184 168 16 184 168 16 184 168 16 184 168 16 184 168 16 184 168 16 184 168 16 184 168 16 184 168 16 184 224 24 184 224 24 184 224 24 184 224 24 184 224 24 184 224 24 184 224 24 184 224 24 184 224 24 184 224 24 184 224 24 184 224 24 184 224 24 184 224 24 184 224 24 184 224 24 184 224 24 184 224 24 184 224 24 184 224 24 184 224 24 184 224 24 184 224 24 184 224 24 184 224 24 184 224 24 184 224 24 184 224 24 184 224 24 184 224 24 184 224 24 184 224 24 184
96 24 56 96 24 56 96 24 56 96 24 56 96 24 56 96 24 56 96 24 56 96 24 56 96 24 56 96 24 56 96 24 56 96 24 56 96 24 56 96 24 56 96 24 56 96 24 56 96 24 56 96 24 56 96 24 56 96 24 56 96 24 56 96 24 56 96 24 56 96 24 56 96 24 56 96 24 56 96 24 56 96 24 56 96 24 56 96 24 56 96 24 56 96 24 56 96 24 184 96 24 184 96 24 184 96 24 184 96 24 184 96 24 184 96 24 184 96 24 184 96 24 184 96 24 184 96 24 184 96 24 184 96 24 184 96 24 184 96 24 184 96 24 184 96 24 184 96 24 184 96 24 184 96 24 184 96 24 184 96 24 184 96 24 184 96 24 184 96 24 184 96 24 184 96 24 184 96 24 184 96 24 184 96 24 184 96 24 184 96 24 184 168 16 184 168 16 184 168 16 184 168 16 184 168 16 184 168 16 184 168 16 184 168 16 184 168 16 184 168 16 184 168 16 184 168 16 184 168 16 184 168 16 184 168 16 184 168 16 184 168 16 184 168 16 184 168 16 184 168 16 184 168 16 184 168 16 184 168 16 184 168 16 184 168 16 184 168 16 184 168 16 184 168 16 184 168 16 184 168 16 184 168 16 184 168 16 184 224 24 184 224 24 184 224 24 184 224 24 184 224 24 184 224 24 184 224 24 184 224 24 184 224 24 184 224 24 184 224 24 184 224 24 184 224 24 184 224 24 184 224 24 184 224 24 184 224 24 184 224 24 184 224 24 184 224 24 184 224 24 184 224 24 184 224 24 184 224 24 184 224 24 184 224 24 184 224 24 184 224 24 184 224 24 184 224 24 184 224 24 184 224 24 184
96 24 56 96 24 56 96 24 56 96 24 56 96 24 56 96 24 56 96 24 56 96 24 56 96 24 56 96 24 56 96 24 56 96 24 56 96 24 56 96 24 56 96 24 56 96 24 56 96 24 56 96 24 56 96 24 56 96 24 56 96 24 56 96 24 56 96 24 56 96 24 56 96 24 56 96 24 56 96 24 56 96 24 56 96 24 56 96 24 56 96 24 56 96 24 56 96 24 184 96 24 184 96 24 184 96 24 184 96 24 184 96 24 184 96 24 184 96 24 184 96 24 184 96 24 184 96 24 184 96 24 184 96 24 184 96 24 184 96 24 184 96 24 184 96 24 184 96 24 184 96 24 184 96 24 184 96 24 184 96 24 184 96 24 184 96 24 184 96 24 184 96 24 184 96 24 184 96 24 184 96 24 184 96 24 184 96 24 184 96 24 184 168 16 184 168 16 184 168 16 184 168 16 184 168 16 184 168 16 184 168 16 184 168 16 184 168 16 184 168 16 184 168 16 184 168 16 184 168 16 184 168 16 184 168 16 184 168 16 184 168 16 184 168 16 184 168 16 184 168 16 184 168 16 184 168 16 184 168 16 184 168 16 184 168 16 184 168 16 184 168 16 184 168 16 184 168 16 184 168 16 184 168 16 184 168 16 184 224 24 184 224 24 184 224 24 184 224 24 184 224 24 184 224 24 184 224 24 184 224 24 184 224 24 184 224 24 184 224 24 184 224 24 184 224 24 184 224 24 184 224 24 184 224 24 184 224 24 184 224 24 184 224 24 184 224 24 184 224 24 184 224 24 184 224 24 184 224 24 184 224 24 184 224 24 184 224 24 184 224 24 184 224 24 184 224 24 184 224 24 184 224 24 184
96 24 56 96 24 56 96 24 56 96 24 56 96 24 56 96 24 56 96 24 56 96 24 56 96 24 56 96 24 56 96 24 56 96 24 56 96 24 56 96 24 56 96 24 56 96 24 56 96 24 56 96 24 56 96 24 56 96 24 56 96 24 56 96 24 56 96 24 56 96 24 56 96 24 56 96 24 56 96 24 56 96 24 56 96 24 56 96 24 56 96 24 56 96 24 56 96 24 184 96 24 184 96 24 184 96 24 184 96 24 184 96 24 184 96 24 184 96 24 184 96 24 184 96 24 184 96 24 184 96 24 184 96 24 184 96 24 184 96 24 184 96 24 184 96 24 184 96 24 184 96 24 184 96 24 184 96 24 184 96 24 184 96 24 184 96 24 184 96 24 184 96 24 184 96 24 184 96 24 184 96 24 184 96 24 184 96 24 184 96 24 184 168 16 184 168 16 184 168 16 184 168 16 184 168 16 184 168 16 184 168 16 184 168 16 184 168 16 184 168 16 184 168 16 184 168 16 184 168 16 184 168 16 184 168 16 184 168 16 184 168 16 184 168 16 184 168 16 184 168 16 184 168 16 184 168 16 184 168 16 184 168 16 184 168 16 184 168 16 184 168 16 184 168 16 184 168 16 184 168 16 184 168 16 184 168 16 184 224 24 184 224 24 184 224 24 184 224 24 184 224 24 184 224 24 184 224 24 184 224 24 184 224 24 184 224 24 184 224 24 184 224 24 184 224 24 184 224 24 184 224 24 184 224 24 184 224 24 184 224 24 184 224 24 184 224 24 184 224 24 184 224 24 184 224 24 184 224 24 184 224 24 184 224 24 184 224 24 184 224 24 184 224 24 184 224 24 184 224 24 184 224 24 184
96 24 56 96 24 56 96 24 56 96 24 56 96 24 56 96 24 56 96 24 56 96 24 56 96 24 56 96 24 56 96 24 56 96 24 56 96 24 56 96 24 56 96 24 56 96 24 56 96 24 56 96 24 56 96 24 56 96 24 56 96 24 56 96 24 56 96 24 56 96 24 56 96 24 56 96 24 56 96 24 56 96 24 56 96 24 56 96 24 56 96 24 56 96 24 56 96 24 184 96 24 184 96 24 184 96 24 184 96 24 184 96 24 184 96 24 184 96 24 184 96 24 184 96 24 184 96 24 184 96 24 184 96 24 184 96 24 184 96 24 184 96 24 184 96 24 184 96 24 184 96 24 184 96 24 184 96 24 184 96 24 184 96 24 184 96 24 184 96 24 184 96 24 184 96 24 184 96 24 184 96 24 184 96 24 184 96 24 184 96 24 184 168 16 184 168 16 184 168 16 184 168 16 184 168 16 184 168 16 184 168 16 184 168 16 184 168 16 184 168 16 184 168 16 184 168 16 184 168 16 184 168 16 184 168 16 184 168 16 184 168 16 184 168 16 184 168 16 184 168 16 184 168 16 184 168 16 184 168 16 184 168 16 184 168 16 184 168 16 184 168 16 184 168 16 184 168 16 184 168 16 184 168 16 184 168 16 184 224 24 184 224 24 184 224 24 184 224 24 184 224 24 184 224 24 184 224 24 184 224 24 184 224 24 184 224 24 184 224 24 184 224 24 184 224 24 184 224 24 184 224 24 184 224 24 184 224 24 184 224 24 184 224 24 184 224 24 184 224 24 184 224 24 184 224 24 184 224 24 184 224 24 184 224 24 184 224 24 184 224 24 184 224 24 184 224 24 184 224 24 184 224 24 184
96 24 56 96 24 56 96 24 56 96 24 56 96 24 56 96 24 56 96 24 56 96 24 56 96 24 56 96 24 56 96 24 56 96 24 56 96 24 56 96 24 56 96 24 56 96 24 56 96 24 56 96 24 56 96 24 56 96 24 56 96 24 56 96 24 56 96 24 56 96 24 56 96 24 56 96 24 56 96 24 56 96 24 56 96 24 56 96 24 56 96 24 56 96 24 56 96 24 184 96 24 184 96 24 184 96 24 184 96 24 184 96 24 184 96 24 184 96 24 184 96 24 184 96 24 184 96 24 184 96 24 184 96 24 184 96 24 184 96 24 184 96 24 184 96 24 184 96 24 184 96 24 184 96 24 184 96 24 184 96 24 184 96 24 184 96 24 184 96 24 184 96 24 184 96 24 184 96 24 184 96 24 184 96 24 184 96 24 184 96 24 184 168 16 184 168 16 184 168 16 184 168 16 184 168 16 184 168 16 184 168 16 184 168 16 184 168 16 184 168 16 184 168 16 184 168 16 184 168 16 184 168 16 184 168 16 184 168 16 184 168 16 184 168 16 184 168 16 184 168 16 184 168 16 184 168 16 184 168 16 184 168 16 184 168 16 184 168 16 184 168 16 184 168 16 184 168 16 184 168 16 184 168 16 184 168 16 184 224 24 184 224 24 184 224 24 184 224 24 184 224 24 184 224 24 184 224 24 184 224 24 184 224 24 184 224 24 184 224 24 184 224 24 184 224 24 184 224 24 184 224 24 184 224 24 184 224 24 184 224 24 184 224 24 184 224 24 184 224 24 184 224 24 184 224 24 184 224 24 184 224 24 184 224 24 184 224 24 184 224 24 184 224 24 184 224 24 184 224 24 184 224 24 184
96 24 56 96 24 56 96 24 56 96 24 56 96 24 56 96 24 56 96 24 56 96 24 56 96 24 56 96 24 56 96 24 56 96 24 56 96 24 56 96 24 56 96 24 56 96 24 56 96 24 56 96 24 56 96 24 56 96 24 56 96 24 56 96 24 56 96 24 56 96 24 56 96 24 56 96 24 56 96 24 56 96 24 56 96 24 56 96 24 56 96 24 56 96 24 56 96 24 184 96 24 184 96 24 184 96 24 184 96 24 184 96 24 184 96 24 184 96 24 184 96 24 184 96 24 184 96 24 184 96 24 184 96 24 184 96 24 184 96 24 184 96 24 184 96 24 184 96 24 184 96 24 184 96 24 184 96 24 184 96 24 184 96 24 184 96 24 184 96 24 184 96 24 184 96 24 184 96 24 184 96 24 184 96 24 184 96 24 184 96 24 184 168 16 184 168 16 184 168 16 184 168 16 184 168 16 184 168 16 184 168 16 184 168 16 184 168 16 184 168 16 184 168 16 184 168 16 184 168 16 184 168 16 184 168 16 184 168 16 184 168 16 184 168 16 184 168 16 184 168 16 184 168 16 184 168 16 184 168 16 184 168 16 184 168 16 184 168 16 184 168 16 184 168 16 184 168 16 184 168 16 184 168 16 184 168 16 184 224 24 184 224 24 184 224 24 184 224 24 184 224 24 184 224 24 184 224 24 184 224 24 184 224 24 184 224 24 184 224 24 184 224 24 184 224 24 184 224 24 184 224 24 184 224 24 184 224 24 184 224 24 184 224 24 184 224 24 184 224 24 184 224 24 184 224 24 184 224 24 184 224 24 184 224 24 184 224 24 184 224 24 184 224 24 184 224 24 184 224 24 184 224 24 184
96 24 56 96 24 56 96 24 56 96 24 56 96 24 56 96 24 56 96 24 56 96 24 56 96 24 56 96 24 56 96 24 56 96 24 56 96 24 56 96 24 56 96 24 56 96 24 56 96 24 56 96 24 56 96 24 56 96 24 56 96 24 56 96 24 56 96 24 56 96 24 56 96 24 56 96 24 56 96 24 56 96 24 56 96 24 56 96 24 56 96 24 56 96 24 56 96 24 184 96 24 184 96 24 184 96 24 184 96 24 184 96 24 184 96 24 184 96 24 184 96 24 184 96 24 184 96 24 184 96 24 184 96 24 184 96 24 184 96 24 184 96 24 184 96 24 184 96 24 184 96 24 184 96 24 184 96 24 184 96 24 184 96 24 184 96 24 184 96 24 184 96 24 184 96 24 184 96 24 184 96 24 184 96 24 184 96 24 184 96 24 184 168 16 184 168 16 184 168 16 184 168 16 184 168 16 184 168 16 184 168 16 184 168 16 184 168 16 184 168 16 184 168 16 184 168 16 184 168 16 184 168 16 184 168 16 184 168 16 184 168 16 184 168 16 184 168 16 184 168 16 184 168 16 184 168 16 184 168 16 184 168 16 184 168 16 184 168 16 184 168 16 184 168 16 184 168 16 184 168 16 184 168 16 184 168 16 184 224 24 184 224 24 184 224 24 184 224 24 184 224 24 184 224 24 184 224 24 184 224 24 184 224 24 184 224 24 184 224 24 184 224 24 184 224 24 184 224 24 184 224 24 184 224 24 184 224 24 184 224 24 184 224 24 184 224 24 184 224 24 184 224 24 184 224 24 184 224 24 184 224 24 184 224 24 184 224 24 184 224 24 184 224 24 184 224 24 184 224 24 184 224 24 184
96 24 56 96 24 56 96 24 56 96 24 56 96 24 56 96 24 56 96 24 56 96 24 56 96 24 56 96 24 56 96 24 56 96 24 56 96 24 56 96 24 56 96 24 56 96 24 56 96 24 56 96 24 56 96 24 56 96 24 56 96 24 56 96 24 56 96 24 56 96 24 56 96 24 56 96 24 56 96 24 56 96 24 56 96 24 56 96 24 56 96 24 56 96 24 56 96 24 184 96 24 184 96 24 184 96 24 184 96 24 184 96 24 184 96 24 184 96 24 184 96 24 184 96 24 184 96 24 184 96 24 184 96 24 184 96 24 184 96 24 184 96 24 184 96 24 184 96 24 184 96 24 184 96 24 184 96 24 184 96 24 184 96 24 184 96 24 184 96 24 184 96 24 184 96 24 184 96 24 184 96 24 184 96 24 184 96 24 184 96 24 184 168 16 184 168 16 184 168 16 184 168 16 184 168 16 184 168 16 184 168 16 184 168 16 184 168 16 184 168 16 184 168 16 184 168 16 184 168 16 184 168 16 184 168 16 184 168 16 184 168 16 184 168 16 184 168 16 184 168 16 184 168 16 184 168 16 184 168 16 184 168 16 184 168 16 184 168 16 184 168 16 184 168 16 184 168 16 184 168 16 184 168 16 184 168 16 184 224 24 184 224 24 184 224 24 184 224 24 184 224 24 184 224 24 184 224 24 184 224 24 184 224 24 184 224 24 184 224 24 184 224 24 184 224 24 184 224 24 184 224 24 184 224 24 184 224 24 184 224 24 184 224 24 184 224 24 184 224 24 184 224 24 184 224 24 184 224 24 184 224 24 184 224 24 184 224 24 184 224 24 184 224 24 184 224 24 184 224 24 184 224 24 184
96 24 56 96 24 56 96 24 56 96 24 56 96 24 56 96 24 56 96 24 56 96 24 56 96 24 56 96 24 56 96 24 56 96 24 56 96 24 56 96 24 56 96 24 56 96 24 56 96 24 56 96 24 56 96 24 56 96 24 56 96 24 56 96 24 56 96 24 56 96 24 56 96 24 56 96 24 56 96 24 56 96 24 56 96 24 56 96 24 56 96 24 56 96 24 56 96 24 184 96 24 184 96 24 184 96 24 184 96 24 184 96 24 184 96 24 184 96 24 184 96 24 184 96 24 184 96 24 184 96 24 184 96 24 184 96 24 184 96 24 184 96 24 184 96 24 184 96 24 184 96 24 184 96 24 184 96 24 184 96 24 184 96 24 184 96 24 184 96 24 184 96 24 184 96 24 184 96 24 184 96 24 184 96 24 184 96 24 184 96 24 184 168 16 184 168 16 184 168 16 184 168 16 184 168 16 184 168 16 184 168 16 184 168 16 184 168 16 184 168 16 184 168 16 184 168 16 184 168 16 184 168 16 184 168 16 184 168 16 184 168 16 184 168 16 184 168 16 184 168 16 184 168 16 184 168 16 184 168 16 184 168 16 184 168 16 184 168 16 184 168 16 184 168 16 184 168 16 184 168 16 184 168 16 184 168 16 184 224 24 184 224 24 184 224 24 184 224 24 184 224 24 184 224 24 184 224 24 184 224 24 184 224 24 184 224 24 184 224 24 184 224 24 184 224 24 184 224 24 184 224 24 184 224 24 184 224 24 184 224 24 184 224 24 184 224 24 184 224 24 184 224 24 184 224 24 184 224 24 184 224 24 184 224 24 184 224 24 184 224 24 184 224 24 184 224 24 184 224 24 184 224 24 184
96 24 56 96 24 56 96 24 56 96 24 56 96 24 56 96 24 56 96 24 56 96 24 56 96 24 56 96 24 56 96 24 56 96 24 56 96 24 56 96 24 56 96 24 56 96 24 56 96 24 56 96 24 56 96 24 56 96 24 56 96 24 56 96 24 56 96 24 56 96 24 56 96 24 56 96 24 56 96 24 56 96 24 56 96 24 56 96 24 56 96 24 56 96 24 56 96 24 184 96 24 184 96 24 184 96 24 184 96 24 184 96 24 184 96 24 184 96 24 184 96 24 184 96 24 184 96 24 184 96 24 184 96 24 184 96 24 184 96 24 184 96 24 184 96 24 184 96 24 184 96 24 184 96 24 184 96 24 184 96 24 184 96 24 184 96 24 184 96 24 184 96 24 184 96 24 184 96 24 184 96 24 184 96 24 184 96 24 184 96 24 184 168 16 184 168 16 184 168 16 184 168 16 184 168 16 184 168 16 184 168 16 184 168 16 184 168 16 184 168 16 184 168 16 184 168 16 184 168 16 184 168 16 184 168 16 184 168 16 184 168 16 184 168 16 184 168 16 184 168 16 184 168 16 184 168 16 184 168 16 184 168 16 184 168 16 184 168 16 184 168 16 184 168 16 184 168 16 184 168 16 184 168 16 184 168 16 184 224 24 184 224 24 184 224 24 184 224 24 184 224 24 184 224 24 184 224 24 184 224 24 184 224 24 184 224 24 184 224 24 184 224 24 184 224 24 184 224 24 184 224 24 184 224 24 184 224 24 184 224 24 184 224 24 184 224 24 184 224 24 184 224 24 184 224 24 184 224 24 184 224 24 184 224 24 184 224 24 184 224 24 184 224 24 184 224 24 184 224 24 184 224 24 184
96 24 56 96 24 56 96 24 56 96 24 56 96 24 56 96 24 56 96 24 56 96 24 56 96 24 56 96 24 56 96 24 56 96 24 56 96 24 56 96 24 56 96 24 56 96 24 56 96 24 56 96 24 56 96 24 56 96 24 56 96 24 56 96 24 56 96 24 56 96 24 56 96 24 56 96 24 56 96 24 56 96 24 56 96 24 56 96 24 56 96 24 56 96 24 56 96 24 184 96 24 184 96 24 184 96 24 184 96 24 184 96 24 184 96 24 184 96 24 184 96 24 184 96 24 184 96 24 184 96 24 184 96 24 184 96 24 184 96 24 184 96 24 184 96 24 184 96 24 184 96 24 184 96 24 184 96 24 184 96 24 184 96 24 184 96 24 184 96 24 184 96 24 184 96 24 184 96 24 184 96 24 184 96 24 184 96 24 184 96 24 184 168 16 184 168 16 184 168 16 184 168 16 184 168 16 184 168 16 184 168 16 184 168 16 184 168 16 184 168 16 184 168 16 184 168 16 184 168 16 184 168 16 184 168 16 184 168 16 184 168 16 184 168 16 184 168 16 184 168 16 184 168 16 184 168 16 184 168 16 184 168 16 184 168 16 184 168 16 184 168 16 184 168 16 184 168 16 184 168 16 184 168 16 184 168 16 184 224 24 184 224 24 184 224 24 184 224 24 184 224 24 184 224 24 184 224 24 184 224 24 184 224 24 184 224 24 184 224 24 184 224 24 184 224 24 184 224 24 184 224 24 184 224 24 184 224 24 184 224 24 184 224 24 184 224 24 184 224 24 184 224 24 184 224 24 184 224 24 184 224 24 184 224 24 184 224 24 184 224 24 184 224 24 184 224 24 184 224 24 184 224 24 184
96 24 56 96 24 56 96 24 56 96 24 56 96 24 56 96 24 56 96 24 56 96 24 56 96 24 56 96 24 56 96 24 56 96 24 56 96 24 56 96 24 56 96 24 56 96 24 56 96 24 56 96 24 56 96 24 56 96 24 56 96 24 56 96 24 56 96 24 56 96 24 56 96 24 56 96 24 56 96 24 56 96 24 56 96 24 56 96 24 56 96 24 56 96 24 56 96 24 184 96 24 184 96 24 184 96 24 184 96 24 184 96 24 184 96 24 184 96 24 184 96 24 184 96 24 184 96 24 184 96 24 184 96 24 184 96 24 184 96 24 184 96 24 184 96 24 184 96 24 184 96 24 184 96 24 184 96 24 184 96 24 184 96 24 184 96 24 184 96 24 184 96 24 184 96 24 184 96 24 184 96 24 184 96 24 184 96 24 184 96 24 184 168 16 184 168 16 184 168 16 184 168 16 184 168 16 184 168 16 184 168 16 184 168 16 184 168 16 184 168 16 184 168 16 184 168 16 184 168 16 184 168 16 184 168 16 184 168 16 184 168 16 184 168 16 184 168 16 184 168 16 184 168 16 184 168 16 184 168 16 184 168 16 184 168 16 184 168 16 184 168 16 184 168 16 184 168 16 184 168 16 184 168 16 184 168 16 184 224 24 184 224 24 184 224 24 184 224 24 184 224 24 184 224 24 184 224 24 184 224 24 184 224 24 184 224 24 184 224 24 184 224 24 184 224 24 184 224 24 184 224 24 184 224 24 184 224 24 184 224 24 184 224 24 184 224 24 184 224 24 184 224 24 184 224 24 184 224 24 184 224 24 184 224 24 184 224 24 184 224 24 184 224 24 184 224 24 184 224 24 184 224 24 184
96 24 56 96 24 56 96 24 56 96 24 56 96 24 56 96 24 56 96 24 56 96 24 56 96 24 56 96 24 56 96 24 56 96 24 56 96 24 56 96 24 56 96 24 56 96 24 56 96 24 56 96 24 56 96 24 56 96 24 56 96 24 56 96 24 56 96 24 56 96 24 56 96 24 56 96 24 56 96 24 56 96 24 56 96 24 56 96 24 56 96 24 56 96 24 56 96 24 184 96 24 184 96 24 184 96 24 184 96 24 184 96 24 184 96 24 184 96 24 184 96 24 184 96 24 184 96 24 184 96 24 184 96 24 184 96 24 184 96 24 184 96 24 184 96 24 184 96 24 184 96 24 184 96 24 184 96 24 184 96 24 184 96 24 184 96 24 184 96 24 184 96 24 184 96 24 184 96 24 184 96 24 184 96 24 184 96 24 184 96 24 184 168 16 184 168 16 184 168 16 184 168 16 184 168 16 184 168 16 184 168 16 184 168 16 184 168 16 184 168 16 184 168 16 184 168 16 184 168 16 184 168 16 184 168 16 184 168 16 184 168 16 184 168 16 184 168 16 184 168 16 184 168 16 184 168 16 184 168 16 184 168 16 184 168 16 184 168 16 184 168 16 184 168 16 184 168 16 184 168 16 184 168 16 184 168 16 184 224 24 184 224 24 184 224 24 184 224 24 184 224 24 184 224 24 184 224 24 184 224 24 184 224 24 184 224 24 184 224 24 184 224 24 184 224 24 184 224 24 184 224 24 184 224 24 184 224 24 184 224 24 184 224 24 184 224 24 184 224 24 184 224 24 184 224 24 184 224 24 184 224 24 184 224 24 184 224 24 184 224 24 184 224 24 184 224 24 184 224 24 184 224 24 184
96 24 56 96 24 56 96 24 56 96 24 56 96 24 56 96 24 56 96 24 56 96 24 56 96 24 56 96 24 56 96 24 56 96 24 56 96 24 56 96 24 56 96 24 56 96 24 56 96 24 56 96 24 56 96 24 56 96 24 56 96 24 56 96 24 56 96 24 56 96 24 56 96 24 56 96 24 56 96 24 56 96 24 56 96 24 56 96 24 56 96 24 56 96 24 56 96 24 184 96 24 184 96 24 184 96 24 184 96 24 184 96 24 184 96 24 184 96 24 184 96 24 184 96 24 184 96 24 184 96 24 184 96 24 184 96 24 184 96 24 184 96 24 184 96 24 184 96 24 184 96 24 184 96 24 184 96 24 184 96 24 184 96 24 184 96 24 184 96 24 184 96 24 184 96 24 184 96 24 184 96 24 184 96 24 184 96 24 184 96 24 184 168 16 184 168 16 184 168 16 184 168 16 184 168 16 184 168 16 184 168 16 184 168 16 184 168 16 184 168 16 184 168 16 184 168 16 184 168 16 184 168 16 184 168 16 184 168 16 184 168 16 184 168 16 184 168 16 184 168 16 184 168 16 184 168 16 184 168 16 184 168 16 184 168 16 184 168 16 184 168 16 184 168 16 184 168 16 184 168 16 184 168 16 184 168 16 184 224 24 184 224 24 184 224 24 184 224 24 184 224 24 184 224 24 184 224 24 184 224 24 184 224 24 184 224 24 184 224 24 184 224 24 184 224 24 184 224 24 184 224 24 184 224 24 184 224 24 184 224 24 184 224 24 184 224 24 184 224 24 184 224 24 184 224 24 184 224 24 184 224 24 184 224 24 184 224 24 184 224 24 184 224 24 184 224 24 184 224 24 184 224 24 184
96 24 56 96 24 56 96 24 56 96 24 56 96 24 56 96 24 56 96 24 56 96 24 56 96 24 56 96 24 56 96 24 56 96 24 56 96 24 56 96 24 56 96 24 56 96 24 56 96 24 56 96 24 56 96 24 56 96 24 56 96 24 56 96 24 56 96 24 56 96 24 56 96 24 56 96 24 56 96 24 56 96 24 56 96 24 56 96 24 56 96 24 56 96 24 56 96 24 184 96 24 184 96 24 184 96 24 184 96 24 184 96 24 184 96 24 184 96 24 184 96 24 184 96 24 184 96 24 184 96 24 184 96 24 184 96 24 184 96 24 184 96 24 184 96 24 184 96 24 184 96 24 184 96 24 184 96 24 184 96 24 184 96 24 184 96 24 184 96 24 184 96 24 184 96 24 184 96 24 184 96 24 184 96 24 184 96 24 184 96 24 184 168 16 184 168 16 184 168 16 184 168 16 184 168 16 184 168 16 184 168 16 184 168 16 184 168 16 184 168 16 184 168 16 184 168 16 184 168 16 184 168 16 184 168 16 184 168 16 184 168 16 184 168 16 184 168 16 184 168 16 184 168 16 184 168 16 184 168 16 184 168 16 184 168 16 184 168 16 184 168 16 184 168 16 184 168 16 184 168 16 184 168 16 184 168 16 184 224 24 184 224 24 184 224 24 184 224 24 184 224 24 184 224 24 184 224 24 184 224 24 184 224 24 184 224 24 184 224 24 184 224 24 184 224 24 184 224 24 184 224 24 184 224 24 184 224 24 184 224 24 184 224 24 184 224 24 184 224 24 184 224 24 184 224 24 184 224 24 184 224 24 184 224 24 184 224 24 184 224 24 184 224 24 184 224 24 184 224 24 184 224 24 184
96 24 56 96 24 56 96 24 56 96 24 56 96 24 56 96 24 56 96 24 56 96 24 56 96 24 56 96 24 56 96 24 56 96 24 56 96 24 56 96 24 56 96 24 56 96 24 56 96 24 56 96 24 56 96 24 56 96 24 56 96 24 56 96 24 56 96 24 56 96 24 56 96 24 56 96 24 56 96 24 56 96 24 56 96 24 56 96 24 56 96 24 56 96 24 56 96 24 184 96 24 184 96 24 184 96 24 184 96 24 184 96 24 184 96 24 184 96 24 184 96 24 184 96 24 184 96 24 184 96 24 184 96 24 184 96 24 184 96 24 184 96 24 184 96 24 184 96 24 184 96 24 184 96 24 184 96 24 184 96 24 184 96 24 184 96 24 184 96 24 184 96 24 184 96 24 184 96 24 184 96 24 184 96 24 184 96 24 184 96 24 184 168 16 184 168 16 184 168 16 184 168 16 184 168 16 184 168 16 184 168 16 184 168 16 184 168 16 184 168 16 184 168 16 184 168 16 184 168 16 184 168 16 184 168 16 184 168 16 184 168 16 184 168 16 184 168 16 184 168 16 184 168 16 184 168 16 184 168 16 184 168 16 184 168 16 184 168 16 184 168 16 184 168 16 184 168 16 184 168 16 184 168 16 184 168 16 184 224 24 184 224 24 184 224 24 184 224 24 184 224 24 184 224 24 184 224 24 184 224 24 184 224 24 184 224 24 184 224 24 184 224 24 184 224 24 184 224 24 184 224 24 184 224 24 184 224 24 184 224 24 184 224 24 184 224 24 184 224 24 184 224 24 184 224 24 184 224 24 184 224 24 184 224 24 184 224 24 184 224 24 184 224 24 184 224 24 184 224 24 184 224 24 184