P3
128 128
255
56 80 160 56 80 160 56 80 160 56 80 160 56 80 160 56 80 160 56 80 160 56 80 160 56 80 160 56 80 160 56 80 160 56 80 160 56 80 160 56 80 160 56 80 160 56 80 160 56 80 160 56 80 160 56 80 160 56 80 160 56 80 160 56 80 160 56 80 160 56 80 160 56 80 160 56 80 160 56 80 160 56 80 160 56 80 160 56 80 160 56 80 160 56 80 160 56 80 160 56 80 160 56 80 160 56 80 160 56 80 160 56 80 160 56 80 160 56 80 160 56 80 160 56 80 160 56 80 160 56 80 160 56 80 160 56 80 160 56 80 160 56 80 160 56 80 160 56 80 160 56 80 160 56 80 160 56 80 160 56 80 160 56 80 160 56 80 160 56 80 160 56 80 160 56 80 160 56 80 160 56 80 160 56 80 160 56 80 160 56 80 160 48 80 160 48 80 160 48 80 160 48 80 160 48 80 160 48 80 160 48 80 160 48 80 160 48 80 160 48 80 160 48 80 160 48 80 160 48 80 160 48 80 160 48 80 160 48 80 160 48 80 160 48 80 160 48 80 160 48 80 160 48 80 160 48 80 160 48 80 160 48 80 160 48 80 160 48 80 160 48 80 160 48 80 160 48 80 160 48 80 160 48 80 160 48 80 160 112 96 16 112 96 16 112 96 16 112 96 16 112 96 16 112 96 16 112 96 16 112 96 16 112 96 16 112 96 16 112 96 16 112 96 16 112 96 16 112 96 16 112 96 16 112 96 16 112 96 16 112 96 16 112 96 16 112 96 16 112 96 16 112 96 16 112 96 16 112 96 16 112 96 16 112 96 16 112 96 16 112 96 16 112 96 16 112 96 16 112 96 16 112 96 16
56 80 160 56 80 160 56 80 160 56 80 160 56 80 160 56 80 160 56 80 160 56 80 160 56 80 160 56 80 160 56 80 160 56 80 160 56 80 160 56 80 160 56 80 160 56 80 160 56 80 160 56 80 160 56 80 160 56 80 160 56 80 160 56 80 160 56 80 160 56 80 160 56 80 160 56 80 160 56 80 160 56 80 160 56 80 160 56 80 160 56 80 160 56 80 160 56 80 160 56 80 160 56 80 160 56 80 160 56 80 160 56 80 160 56 80 160 56 80 160 56 80 160 56 80 160 56 80 160 56 80 160 56 80 160 56 80 160 56 80 160 56 80 160 56 80 160 56 80 160 56 80 160 56 80 160 56 80 160 56 80 160 56 80 160 56 80 160 56 80 160 56 80 160 56 80 160 56 80 160 56 80 160 56 80 160 56 80 160 56 80 160 48 80 160 48 80 160 48 80 160 48 80 160 48 80 160 48 80 160 48 80 160 48 80 160 48 80 160 48 80 160 48 80 160 48 80 160 48 80 160 48 80 160 48 80 160 48 80 160 48 80 160 48 80 160 48 80 160 48 80 160 48 80 160 48 80 160 48 80 160 48 80 160 48 80 160 48 80 160 48 80 160 48 80 160 48 80 160 48 80 160 48 80 160 48 80 160 112 96 16 112 96 16 112 96 16 112 96 16 112 96 16 112 96 16 112 96 16 112 96 16 112 96 16 112 96 16 112 96 16 112 96 16 112 96 16 112 96 16 112 96 16 112 96 16 112 96 16 112 96 16 112 96 16 112 96 16 112 96 16 112 96 16 112 96 16 112 96 16 112 96 16 112 96 16 112 96 16 112 96 16 112 96 16 112 96 16 112 96 16 112 96 16
56 80 160 56 80 160 56 80 160 56 80 160 56 80 160 56 80 160 56 80 160 56 80 160 56 80 160 56 80 160 56 80 160 56 80 160 56 80 160 56 80 160 56 80 160 56 80 160 56 80 160 56 80 160 56 80 160 56 80 160 56 80 160 56 80 160 56 80 160 56 80 160 56 80 160 56 80 160 56 80 160 56 80 160 56 80 160 56 80 160 56 80 160 56 80 160 56 80 160 56 80 160 56 80 160 56 80 160 56 80 160 56 80 160 56 80 160 56 80 160 56 80 160 56 80 160 56 80 160 56 80 160 56 80 160 56 80 160 56 80 160 56 80 160 56 80 160 56 80 160 56 80 160 56 80 160 56 80 160 56 80 160 56 80 160 56 80 160 56 80 160 56 80 160 56 80 160 56 80 160 56 80 160 56 80 160 56 80 160 56 80 160 48 80 160 48 80 160 48 80 160 48 80 160 48 80 160 48 80 160 48 80 160 48 80 160 48 80 160 48 80 160 48 80 160 48 80 160 48 80 160 48 80 160 48 80 160 48 80 160 48 80 160 48 80 160 48 80 160 48 80 160 48 80 160 48 80 160 48 80 160 48 80 160 48 80 160 48 80 160 48 80 160 48 80 160 48 80 160 48 80 160 48 80 160 48 80 160 112 96 16 112 96 16 112 96 16 112 96 16 112 96 16 112 96 16 112 96 16 112 96 16 112 96 16 112 96 16 112 96 16 112 96 16 112 96 16 112 96 16 112 96 16 112 96 16 112 96 16 112 96 16 112 96 16 112 96 16 112 96 16 112 96 16 112 96 16 112 96 16 112 96 16 112 96 16 112 96 16 112 96 16 112 96 16 112 96 16 112 96 16 112 96 16
56 80 160 56 80 160 56 80 160 56 80 160 56 80 160 56 80 160 56 80 160 56 80 160 56 80 160 56 80 160 56 80 160 56 80 160 56 80 160 56 80 160 56 80 160 56 80 160 56 80 160 56 80 160 56 80 160 56 80 160 56 80 160 56 80 160 56 80 160 56 80 160 56 80 160 56 80 160 56 80 160 56 80 160 56 80 160 56 80 160 56 80 160 56 80 160 56 80 160 56 80 160 56 80 160 56 80 160 56 80 160 56 80 160 56 80 160 56 80 160 56 80 160 56 80 160 56 80 160 56 80 160 56 80 160 56 80 160 56 80 160 56 80 160 56 80 160 56 80 160 56 80 160 56 80 160 56 80 160 56 80 160 56 80 160 56 80 160 56 80 160 56 80 160 56 80 160 56 80 160 56 80 160 56 80 160 56 80 160 56 80 160 48 80 160 48 80 160 48 80 160 48 80 160 48 80 160 48 80 160 48 80 160 48 80 160 48 80 160 48 80 160 48 80 160 48 80 160 48 80 160 48 80 160 48 80 160 48 80 160 48 80 160 48 80 160 48 80 160 48 80 160 48 80 160 48 80 160 48 80 160 48 80 160 48 80 160 48 80 160 48 80 160 48 80 160 48 80 160 48 80 160 48 80 160 48 80 160 112 96 16 112 96 16 112 96 16 112 96 16 112 96 16 112 96 16 112 96 16 112 96 16 112 96 16 112 96 16 112 96 16 112 96 16 112 96 16 112 96 16 112 96 16 112 96 16 112 96 16 112 96 16 112 96 16 112 96 16 112 96 16 112 96 16 112 96 16 112 96 16 112 96 16 112 96 16 112 96 16 112 96 16 112 96 16 112 96 16 112 96 16 112 96 16
56 80 160 56 80 160 56 80 160 56 80 160 56 80 160 56 80 160 56 80 160 56 80 160 56 80 160 56 80 160 56 80 160 56 80 160 56 80 160 56 80 160 56 80 160 56 80 160 56 80 160 56 80 160 56 80 160 56 80 160 56 80 160 56 80 160 56 80 160 56 80 160 56 80 160 56 80 160 56 80 160 56 80 160 56 80 160 56 80 160 56 80 160 56 80 160 56 80 160 56 80 160 56 80 160 56 80 160 56 80 160 56 80 160 56 80 160 56 80 160 56 80 160 56 80 160 56 80 160 56 80 160 56 80 160 56 80 160 56 80 160 56 80 160 56 80 160 56 80 160 56 80 160 56 80 160 56 80 160 56 80 160 56 80 160 56 80 160 56 80 160 56 80 160 56 80 160 56 80 160 56 80 160 56 80 160 56 80 160 56 80 160 48 80 160 48 80 160 48 80 160 48 80 160 48 80 160 48 80 160 48 80 160 48 80 160 48 80 160 48 80 160 48 80 160 48 80 160 48 80 160 48 80 160 48 80 160 48 80 160 48 80 160 48 80 160 48 80 160 48 80 160 48 80 160 48 80 160 48 80 160 48 80 160 48 80 160 48 80 160 48 80 160 48 80 160 48 80 160 48 80 160 48 80 160 48 80 160 112 96 16 112 96 16 112 96 16 112 96 16 112 96 16 112 96 16 112 96 16 112 96 16 112 96 16 112 96 16 112 96 16 112 96 16 112 96 16 112 96 16 112 96 16 112 96 16 112 96 16 112 96 16 112 96 16 112 96 16 112 96 16 112 96 16 112 96 16 112 96 16 112 96 16 112 96 16 112 96 16 112 96 16 112 96 16 112 96 16 112 96 16 112 96 16
56 80 160 56 80 160 56 80 160 56 80 160 56 80 160 56 80 160 56 80 160 56 80 160 56 80 160 56 80 160 56 80 160 56 80 160 56 80 160 56 80 160 56 80 160 56 80 160 56 80 160 56 80 160 56 80 160 56 80 160 56 80 160 56 80 160 56 80 160 56 80 160 56 80 160 56 80 160 56 80 160 56 80 160 56 80 160 56 80 160 56 80 160 56 80 160 56 80 160 56 80 160 56 80 160 56 80 160 56 80 160 56 80 160 56 80 160 56 80 160 56 80 160 56 80 160 56 80 160 56 80 160 56 80 160 56 80 160 56 80 160 56 80 160 56 80 160 56 80 160 56 80 160 56 80 160 56 80 160 56 80 160 56 80 160 56 80 160 56 80 160 56 80 160 56 80 160 56 80 160 56 80 160 56 80 160 56 80 160 56 80 160 48 80 160 48 80 160 48 80 160 48 80 160 48 80 160 48 80 160 48 80 160 48 80 160 48 80 160 48 80 160 48 80 160 48 80 160 48 80 160 48 80 160 48 80 160 48 80 160 48 80 160 48 80 160 48 80 160 48 80 160 48 80 160 48 80 160 48 80 160 48 80 160 48 80 160 48 80 160 48 80 160 48 80 160 48 80 160 48 80 160 48 80 160 48 80 160 112 96 16 112 96 16 112 96 16 112 96 16 112 96 16 112 96 16 112 96 16 112 96 16 112 96 16 112 96 16 112 96 16 112 96 16 112 96 16 112 96 16 112 96 16 112 96 16 112 96 16 112 96 16 112 96 16 112 96 16 112 96 16 112 96 16 112 96 16 112 96 16 112 96 16 112 96 16 112 96 16 112 96 16 112 96 16 112 96 16 112 96 16 112 96 16
56 80 160 56 80 160 56 80 160 56 80 160 56 80 160 56 80 160 56 80 160 56 80 160 56 80 160 56 80 160 56 80 160 56 80 160 56 80 160 56 80 160 56 80 160 56 80 160 56 80 160 56 80 160 56 80 160 56 80 160 56 80 160 56 80 160 56 80 160 56 80 160 56 80 160 56 80 160 56 80 160 56 80 160 56 80 160 56 80 160 56 80 160 56 80 160 56 80 160 56 80 160 56 80 160 56 80 160 56 80 160 56 80 160 56 80 160 56 80 160 56 80 160 56 80 160 56 80 160 56 80 160 56 80 160 56 80 160 56 80 160 56 80 160 56 80 160 56 80 160 56 80 160 56 80 160 56 80 160 56 80 160 56 80 160 56 80 160 56 80 160 56 80 160 56 80 160 56 80 160 56 80 160 56 80 160 56 80 160 56 80 160 48 80 160 48 80 160 48 80 160 48 80 160 48 80 160 48 80 160 48 80 160 48 80 160 48 80 160 48 80 160 48 80 160 48 80 160 48 80 160 48 80 160 48 80 160 48 80 160 48 80 160 48 80 160 48 80 160 48 80 160 48 80 160 48 80 160 48 80 160 48 80 160 48 80 160 48 80 160 48 80 160 48 80 160 48 80 160 48 80 160 48 80 160 48 80 160 112 96 16 112 96 16 112 96 16 112 96 16 112 96 16 112 96 16 112 96 16 112 96 16 112 96 16 112 96 16 112 96 16 112 96 16 112 96 16 112 96 16 112 96 16 112 96 16 112 96 16 112 96 16 112 96 16 112 96 16 112 96 16 112 96 16 112 96 16 112 96 16 112 96 16 112 96 16 112 96 16 112 96 16 112 96 16 112 96 16 112 96 16 112 96 16
56 80 160 56 80 160 56 80 160 56 80 160 56 80 160 56 80 160 56 80 160 56 80 160 56 80 160 56 80 160 56 80 160 56 80 160 56 80 160 56 80 160 56 80 160 56 80 160 56 80 160 56 80 160 56 80 160 56 80 160 56 80 160 56 80 160 56 80 160 56 80 160 56 80 160 56 80 160 56 80 160 56 80 160 56 80 160 56 80 160 56 80 160 56 80 160 56 80 160 56 80 160 56 80 160 56 80 160 56 80 160 56 80 160 56 80 160 56 80 160 56 80 160 56 80 160 56 80 160 56 80 160 56 80 160 56 80 160 56 80 160 56 80 160 56 80 160 56 80 160 56 80 160 56 80 160 56 80 160 56 80 160 56 80 160 56 80 160 56 80 160 56 80 160 56 80 160 56 80 160 56 80 160 56 80 160 56 80 160 56 80 160 48 80 160 48 80 160 48 80 160 48 80 160 48 80 160 48 80 160 48 80 160 48 80 160 48 80 160 48 80 160 48 80 160 48 80 160 48 80 160 48 80 160 48 80 160 48 80 160 48 80 160 48 80 160 48 80 160 48 80 160 48 80 160 48 80 160 48 80 160 48 80 160 48 80 160 48 80 160 48 80 160 48 80 160 48 80 160 48 80 160 48 80 160 48 80 160 112 96 16 112 96 16 112 96 16 112 96 16 112 96 16 112 96 16 112 96 16 112 96 16 112 96 16 112 96 16 112 96 16 112 96 16 112 96 16 112 96 16 112 96 16 112 96 16 112 96 16 112 96 16 112 96 16 112 96 16 112 96 16 112 96 16 112 96 16 112 96 16 112 96 16 112 96 16 112 96 16 112 96 16 112 96 16 112 96 16 112 96 16 112 96 16
56 80 160 56 80 160 56 80 160 56 80 160 56 80 160 56 80 160 56 80 160 56 80 160 56 80 160 56 80 160 56 80 160 56 80 160 56 80 160 56 80 160 56 80 160 56 80 160 56 80 160 56 80 160 56 80 160 56 80 160 56 80 160 56 80 160 56 80 160 56 80 160 56 80 160 56 80 160 56 80 160 56 80 160 56 80 160 56 80 160 56 80 160 56 80 160 56 80 160 56 80 160 56 80 160 56 80 160 56 80 160 56 80 160 56 80 160 56 80 160 56 80 160 56 80 160 56 80 160 56 80 160 56 80 160 56 80 160 56 80 160 56 80 160 56 80 160 56 80 160 56 80 160 56 80 160 56 80 160 56 80 160 56 80 160 56 80 160 56 80 160 56 80 160 56 80 160 56 80 160 56 80 160 56 80 160 56 80 160 56 80 160 48 80 160 48 80 160 48 80 160 48 80 160 48 80 160 48 80 160 48 80 160 48 80 160 48 80 160 48 80 160 48 80 160 48 80 160 48 80 160 48 80 160 48 80 160 48 80 160 48 80 160 48 80 160 48 80 160 48 80 160 48 80 160 48 80 160 48 80 160 48 80 160 48 80 160 48 80 160 48 80 160 48 80 160 48 80 160 48 80 160 48 80 160 48 80 160 112 96 16 112 96 16 112 96 16 112 96 16 112 96 16 112 96 16 112 96 16 112 96 16 112 96 16 112 96 16 112 96 16 112 96 16 112 96 16 112 96 16 112 96 16 112 96 16 112 96 16 112 96 16 112 96 16 112 96 16 112 96 16 112 96 16 112 96 16 112 96 16 112 96 16 112 96 16 112 96 16 112 96 16 112 96 16 112 96 16 112 96 16 112 96 16
56 80 160 56 80 160 56 80 160 56 80 160 56 80 160 56 80 160 56 80 160 56 80 160 56 80 160 56 80 160 56 80 160 56 80 160 56 80 160 56 80 160 56 80 160 56 80 160 56 80 160 56 80 160 56 80 160 56 80 160 56 80 160 56 80 160 56 80 160 56 80 160 56 80 160 56 80 160 56 80 160 56 80 160 56 80 160 56 80 160 56 80 160 56 80 160 56 80 160 56 80 160 56 80 160 56 80 160 56 80 160 56 80 160 56 80 160 56 80 160 56 80 160 56 80 160 56 80 160 56 80 160 56 80 160 56 80 160 56 80 160 56 80 160 56 80 160 56 80 160 56 80 160 56 80 160 56 80 160 56 80 160 56 80 160 56 80 160 56 80 160 56 80 160 56 80 160 56 80 160 56 80 160 56 80 160 56 80 160 56 80 160 48 80 160 48 80 160 48 80 160 48 80 160 48 80 160 48 80 160 48 80 160 48 80 160 48 80 160 48 80 160 48 80 160 48 80 160 48 80 160 48 80 160 48 80 160 48 80 160 48 80 160 48 80 160 48 80 160 48 80 160 48 80 160 48 80 160 48 80 160 48 80 160 48 80 160 48 80 160 48 80 160 48 80 160 48 80 160 48 80 160 48 80 160 48 80 160 112 96 16 112 96 16 112 96 16 112 96 16 112 96 16 112 96 16 112 96 16 112 96 16 112 96 16 112 96 16 112 96 16 112 96 16 112 96 16 112 96 16 112 96 16 112 96 16 112 96 16 112 96 16 112 96 16 112 96 16 112 96 16 112 96 16 112 96 16 112 96 16 112 96 16 112 96 16 112 96 16 112 96 16 112 96 16 112 96 16 112 96 16 112 96 16
56 80 160 56 80 160 56 80 160 56 80 160 56 80 160 56 80 160 56 80 160 56 80 160 56 80 160 56 80 160 56 80 160 56 80 160 56 80 160 56 80 160 56 80 160 56 80 160 56 80 160 56 80 160 56 80 160 56 80 160 56 80 160 56 80 160 56 80 160 56 80 160 56 80 160 56 80 160 56 80 160 56 80 160 56 80 160 56 80 160 56 80 160 56 80 160 56 80 160 56 80 160 56 80 160 56 80 160 56 80 160 56 80 160 56 80 160 56 80 160 56 80 160 56 80 160 56 80 160 56 80 160 56 80 160 56 80 160 56 80 160 56 80 160 56 80 160 56 80 160 56 80 160 56 80 160 56 80 160 56 80 160 56 80 160 56 80 160 56 80 160 56 80 160 56 80 160 56 80 160 56 80 160 56 80 160 56 80 160 56 80 160 48 80 160 48 80 160 48 80 160 48 80 160 48 80 160 48 80 160 48 80 160 48 80 160 48 80 160 48 80 160 48 80 160 48 80 160 48 80 160 48 80 160 48 80 160 48 80 160 48 80 160 48 80 160 48 80 160 48 80 160 48 80 160 48 80 160 48 80 160 48 80 160 48 80 160 48 80 160 48 80 160 48 80 160 48 80 160 48 80 160 48 80 160 48 80 160 112 96 16 112 96 16 112 96 16 112 96 16 112 96 16 112 96 16 112 96 16 112 96 16 112 96 16 112 96 16 112 96 16 112 96 16 112 96 16 112 96 16 112 96 16 112 96 16 112 96 16 112 96 16 112 96 16 112 96 16 112 96 16 112 96 16 112 96 16 112 96 16 112 96 16 112 96 16 112 96 16 112 96 16 112 96 16 112 96 16 112 96 16 112 96 16
56 80 160 56 80 160 56 80 160 56 80 160 56 80 160 56 80 160 56 80 160 56 80 160 56 80 160 56 80 160 56 80 160 56 80 160 56 80 160 56 80 160 56 80 160 56 80 160 56 80 160 56 80 160 56 80 160 56 80 160 56 80 160 56 80 160 56 80 160 56 80 160 56 80 160 56 80 160 56 80 160 56 80 160 56 80 160 56 80 160 56 80 160 56 80 160 56 80 160 56 80 160 56 80 160 56 80 160 56 80 160 56 80 160 56 80 160 56 80 160 56 80 160 56 80 160 56 80 160 56 80 160 56 80 160 56 80 160 56 80 160 56 80 160 56 80 160 56 80 160 56 80 160 56 80 160 56 80 160 56 80 160 56 80 160 56 80 160 56 80 160 56 80 160 56 80 160 56 80 160 56 80 160 56 80 160 56 80 160 56 80 160 48 80 160 48 80 160 48 80 160 48 80 160 48 80 160 48 80 160 48 80 160 48 80 160 48 80 160 48 80 160 48 80 160 48 80 160 48 80 160 48 80 160 48 80 160 48 80 160 48 80 160 48 80 160 48 80 160 48 80 160 48 80 160 48 80 160 48 80 160 48 80 160 48 80 160 48 80 160 48 80 160 48 80 160 48 80 160 48 80 160 48 80 160 48 80 160 112 96 16 112 96 16 112 96 16 112 96 16 112 96 16 112 96 16 112 96 16 112 96 16 112 96 16 112 96 16 112 96 16 112 96 16 112 96 16 112 96 16 112 96 16 112 96 16 112 96 16 112 96 16 112 96 16 112 96 16 112 96 16 112 96 16 112 96 16 112 96 16 112 96 16 112 96 16 112 96 16 112 96 16 112 96 16 112 96 16 112 96 16 112 96 16
56 80 160 56 80 160 56 80 160 56 80 160 56 80 160 56 80 160 56 80 160 56 80 160 56 80 160 56 80 160 56 80 160 56 80 160 56 80 160 56 80 160 56 80 160 56 80 160 56 80 160 56 80 160 56 80 160 56 80 160 56 80 160 56 80 160 56 80 160 56 80 160 56 80 160 56 80 160 56 80 160 56 80 160 56 80 160 56 80 160 56 80 160 56 80 160 56 80 160 56 80 160 56 80 160 56 80 160 56 80 160 56 80 160 56 80 160 56 80 160 56 80 160 56 80 160 56 80 160 56 80 160 56 80 160 56 80 160 56 80 160 56 80 160 56 80 160 56 80 160 56 80 160 56 80 160 56 80 160 56 80 160 56 80 160 56 80 160 56 80 160 56 80 160 56 80 160 56 80 160 56 80 160 56 80 160 56 80 160 56 80 160 48 80 160 48 80 160 48 80 160 48 80 160 48 80 160 48 80 160 48 80 160 48 80 160 48 80 160 48 80 160 48 80 160 48 80 160 48 80 160 48 80 160 48 80 160 48 80 160 48 80 160 48 80 160 48 80 160 48 80 160 48 80 160 48 80 160 48 80 160 48 80 160 48 80 160 48 80 160 48 80 160 48 80 160 48 80 160 48 80 160 48 80 160 48 80 160 112 96 16 112 96 16 112 96 16 112 96 16 112 96 16 112 96 16 112 96 16 112 96 16 112 96 16 112 96 16 112 96 16 112 96 16 112 96 16 112 96 16 112 96 16 112 96 16 112 96 16 112 96 16 112 96 16 112 96 16 112 96 16 112 96 16 112 96 16 112 96 16 112 96 16 112 96 16 112 96 16 112 96 16 112 96 16 112 96 16 112 96 16 112 96 16
56 80 160 56 80 160 56 80 160 56 80 160 56 80 160 56 80 160 56 80 160 56 80 160 56 80 160 56 80 160 56 80 160 56 80 160 56 80 160 56 80 160 56 80 160 56 80 160 56 80 160 56 80 160 56 80 160 56 80 160 56 80 160 56 80 160 56 80 160 56 80 160 56 80 160 56 80 160 56 80 160 56 80 160 56 80 160 56 80 160 56 80 160 56 80 160 56 80 160 56 80 160 56 80 160 56 80 160 56 80 160 56 80 160 56 80 160 56 80 160 56 80 160 56 80 160 56 80 160 56 80 160 56 80 160 56 80 160 56 80 160 56 80 160 56 80 160 56 80 160 56 80 160 56 80 160 56 80 160 56 80 160 56 80 160 56 80 160 56 80 160 56 80 160 56 80 160 56 80 160 56 80 160 56 80 160 56 80 160 56 80 160 48 80 160 48 80 160 48 80 160 48 80 160 48 80 160 48 80 160 48 80 160 48 80 160 48 80 160 48 80 160 48 80 160 48 80 160 48 80 160 48 80 160 48 80 160 48 80 160 48 80 160 48 80 160 48 80 160 48 80 160 48 80 160 48 80 160 48 80 160 48 80 160 48 80 160 48 80 160 48 80 160 48 80 160 48 80 160 48 80 160 48 80 160 48 80 160 112 96 16 112 96 16 112 96 16 112 96 16 112 96 16 112 96 16 112 96 16 112 96 16 112 96 16 112 96 16 112 96 16 112 96 16 112 96 16 112 96 16 112 96 16 112 96 16 112 96 16 112 96 16 112 96 16 112 96 16 112 96 16 112 96 16 112 96 16 112 96 16 112 96 16 112 96 16 112 96 16 112 96 16 112 96 16 112 96 16 112 96 16 112 96 16
56 80 160 56 80 160 56 80 160 56 80 160 56 80 160 56 80 160 56 80 160 56 80 160 56 80 160 56 80 160 56 80 160 56 80 160 56 80 160 56 80 160 56 80 160 56 80 160 56 80 160 56 80 160 56 80 160 56 80 160 56 80 160 56 80 160 56 80 160 56 80 160 56 80 160 56 80 160 56 80 160 56 80 160 56 80 160 56 80 160 56 80 160 56 80 160 56 80 160 56 80 160 56 80 160 56 80 160 56 80 160 56 80 160 56 80 160 56 80 160 56 80 160 56 80 160 56 80 160 56 80 160 56 80 160 56 80 160 56 80 160 56 80 160 56 80 160 56 80 160 56 80 160 56 80 160 56 80 160 56 80 160 56 80 160 56 80 160 56 80 160 56 80 160 56 80 160 56 80 160 56 80 160 56 80 160 56 80 160 56 80 160 48 80 160 48 80 160 48 80 160 48 80 160 48 80 160 48 80 160 48 80 160 48 80 160 48 80 160 48 80 160 48 80 160 48 80 160 48 80 160 48 80 160 48 80 160 48 80 160 48 80 160 48 80 160 48 80 160 48 80 160 48 80 160 48 80 160 48 80 160 48 80 160 48 80 160 48 80 160 48 80 160 48 80 160 48 80 160 48 80 160 48 80 160 48 80 160 112 96 16 112 96 16 112 96 16 112 96 16 112 96 16 112 96 16 112 96 16 112 96 16 112 96 16 112 96 16 112 96 16 112 96 16 112 96 16 112 96 16 112 96 16 112 96 16 112 96 16 112 96 16 112 96 16 112 96 16 112 96 16 112 96 16 112 96 16 112 96 16 112 96 16 112 96 16 112 96 16 112 96 16 112 96 16 112 96 16 112 96 16 112 96 16
56 80 160 56 80 160 56 80 160 56 80 160 56 80 160 56 80 160 56 80 160 56 80 160 56 80 160 56 80 160 56 80 160 56 80 160 56 80 160 56 80 160 56 80 160 56 80 160 56 80 160 56 80 160 56 80 160 56 80 160 56 80 160 56 80 160 56 80 160 56 80 160 56 80 160 56 80 160 56 80 160 56 80 160 56 80 160 56 80 160 56 80 160 56 80 160 56 80 160 56 80 160 56 80 160 56 80 160 56 80 160 56 80 160 56 80 160 56 80 160 56 80 160 56 80 160 56 80 160 56 80 160 56 80 160 56 80 160 56 80 160 56 80 160 56 80 160 56 80 160 56 80 160 56 80 160 56 80 160 56 80 160 56 80 160 56 80 160 56 80 160 56 80 160 56 80 160 56 80 160 56 80 160 56 80 160 56 80 160 56 80 160 48 80 160 48 80 160 48 80 160 48 80 160 48 80 160 48 80 160 48 80 160 48 80 160 48 80 160 48 80 160 48 80 160 48 80 160 48 80 160 48 80 160 48 80 160 48 80 160 48 80 160 48 80 160 48 80 160 48 80 160 48 80 160 48 80 160 48 80 160 48 80 160 48 80 160 48 80 160 48 80 160 48 80 160 48 80 160 48 80 160 48 80 160 48 80 160 112 96 16 112 96 16 112 96 16 112 96 16 112 96 16 112 96 16 112 96 16 112 96 16 112 96 16 112 96 16 112 96 16 112 96 16 112 96 16 112 96 16 112 96 16 112 96 16 112 96 16 112 96 16 112 96 16 112 96 16 112 96 16 112 96 16 112 96 16 112 96 16 112 96 16 112 96 16 112 96 16 112 96 16 112 96 16 112 96 16 112 96 16 112 96 16
56 80 160 56 80 160 56 80 160 56 80 160 56 80 160 56 80 160 56 80 160 56 80 160 56 80 160 56 80 160 56 80 160 56 80 160 56 80 160 56 80 160 56 80 160 56 80 160 56 80 160 56 80 160 56 80 160 56 80 160 56 80 160 56 80 160 56 80 160 56 80 160 56 80 160 56 80 160 56 80 160 56 80 160 56 80 160 56 80 160 56 80 160 56 80 160 56 80 160 56 80 160 56 80 160 56 80 160 56 80 160 56 80 160 56 80 160 56 80 160 56 80 160 56 80 160 56 80 160 56 80 160 56 80 160 56 80 160 56 80 160 56 80 160 56 80 160 56 80 160 56 80 160 56 80 160 56 80 160 56 80 160 56 80 160 56 80 160 56 80 160 56 80 160 56 80 160 56 80 160 56 80 160 56 80 160 56 80 160 56 80 160 48 80 160 48 80 160 48 80 160 48 80 160 48 80 160 48 80 160 48 80 160 48 80 160 48 80 160 48 80 160 48 80 160 48 80 160 48 80 160 48 80 160 48 80 160 48 80 160 48 80 160 48 80 160 48 80 160 48 80 160 48 80 160 48 80 160 48 80 160 48 80 160 48 80 160 48 80 160 48 80 160 48 80 160 48 80 160 48 80 160 48 80 160 48 80 160 112 96 16 112 96 16 112 96 16 112 96 16 112 96 16 112 96 16 112 96 16 112 96 16 112 96 16 112 96 16 112 96 16 112 96 16 112 96 16 112 96 16 112 96 16 112 96 16 112 96 16 112 96 16 112 96 16 112 96 16 112 96 16 112 96 16 112 96 16 112 96 16 112 96 16 112 96 16 112 96 16 112 96 16 112 96 16 112 96 16 112 96 16 112 96 16
56 80 160 56 80 160 56 80 160 56 80 160 56 80 160 56 80 160 56 80 160 56 80 160 56 80 160 56 80 160 56 80 160 56 80 160 56 80 160 56 80 160 56 80 160 56 80 160 56 80 160 56 80 160 56 80 160 56 80 160 56 80 160 56 80 160 56 80 160 56 80 160 56 80 160 56 80 160 56 80 160 56 80 160 56 80 160 56 80 160 56 80 160 56 80 160 56 80 160 56 80 160 56 80 160 56 80 160 56 80 160 56 80 160 56 80 160 56 80 160 56 80 160 56 80 160 56 80 160 56 80 160 56 80 160 56 80 160 56 80 160 56 80 160 56 80 160 56 80 160 56 80 160 56 80 160 56 80 160 56 80 160 56 80 160 56 80 160 56 80 160 56 80 160 56 80 160 56 80 160 56 80 160 56 80 160 56 80 160 56 80 160 48 80 160 48 80 160 48 80 160 48 80 160 48 80 160 48 80 160 48 80 160 48 80 160 48 80 160 48 80 160 48 80 160 48 80 160 48 80 160 48 80 160 48 80 160 48 80 160 48 80 160 48 80 160 48 80 160 48 80 160 48 80 160 48 80 160 48 80 160 48 80 160 48 80 160 48 80 160 48 80 160 48 80 160 48 80 160 48 80 160 48 80 160 48 80 160 112 96 16 112 96 16 112 96 16 112 96 16 112 96 16 112 96 16 112 96 16 112 96 16 112 96 16 112 96 16 112 96 16 112 96 16 112 96 16 112 96 16 112 96 16 112 96 16 112 96 16 112 96 16 112 96 16 112 96 16 112 96 16 112 96 16 112 96 16 112 96 16 112 96 16 112 96 16 112 96 16 112 96 16 112 96 16 112 96 16 112 96 16 112 96 16
56 80 160 56 80 160 56 80 160 56 80 160 56 80 160 56 80 160 56 80 160 56 80 160 56 80 160 56 80 160 56 80 160 56 80 160 56 80 160 56 80 160 56 80 160 56 80 160 56 80 160 56 80 160 56 80 160 56 80 160 56 80 160 56 80 160 56 80 160 56 80 160 56 80 160 56 80 160 56 80 160 56 80 160 56 80 160 56 80 160 56 80 160 56 80 160 56 80 160 56 80 160 56 80 160 56 80 160 56 80 160 56 80 160 56 80 160 56 80 160 56 80 160 56 80 160 56 80 160 56 80 160 56 80 160 56 80 160 56 80 160 56 80 160 56 80 160 56 80 160 56 80 160 56 80 160 56 80 160 56 80 160 56 80 160 56 80 160 56 80 160 56 80 160 56 80 160 56 80 160 56 80 160 56 80 160 56 80 160 56 80 160 48 80 160 48 80 160 48 80 160 48 80 160 48 80 160 48 80 160 48 80 160 48 80 160 48 80 160 48 80 160 48 80 160 48 80 160 48 80 160 48 80 160 48 80 160 48 80 160 48 80 160 48 80 160 48 80 160 48 80 160 48 80 160 48 80 160 48 80 160 48 80 160 48 80 160 48 80 160 48 80 160 48 80 160 48 80 160 48 80 160 48 80 160 48 80 160 112 96 16 112 96 16 112 96 16 112 96 16 112 96 16 112 96 16 112 96 16 112 96 16 112 96 16 112 96 16 112 96 16 112 96 16 112 96 16 112 96 16 112 96 16 112 96 16 112 96 16 112 96 16 112 96 16 112 96 16 112 96 16 112 96 16 112 96 16 112 96 16 112 96 16 112 96 16 112 96 16 112 96 16 112 96 16 112 96 16 112 96 16 112 96 16
56 80 160 56 80 160 56 80 160 56 80 160 56 80 160 56 80 160 56 80 160 56 80 160 56 80 160 56 80 160 56 80 160 56 80 160 56 80 160 56 80 160 56 80 160 56 80 160 56 80 160 56 80 160 56 80 160 56 80 160 56 80 160 56 80 160 56 80 160 56 80 160 56 80 160 56 80 160 56 80 160 56 80 160 56 80 160 56 80 160 56 80 160 56 80 160 56 80 160 56 80 160 56 80 160 56 80 160 56 80 160 56 80 160 56 80 160 56 80 160 56 80 160 56 80 160 56 80 160 56 80 160 56 80 160 56 80 160 56 80 160 56 80 160 56 80 160 56 80 160 56 80 160 56 80 160 56 80 160 56 80 160 56 80 160 56 80 160 56 80 160 56 80 160 56 80 160 56 80 160 56 80 160 56 80 160 56 80 160 56 80 160 48 80 160 48 80 160 48 80 160 48 80 160 48 80 160 48 80 160 48 80 160 48 80 160 48 80 160 48 80 160 48 80 160 48 80 160 48 80 160 48 80 160 48 80 160 48 80 160 48 80 160 48 80 160 48 80 160 48 80 160 48 80 160 48 80 160 48 80 160 48 80 160 48 80 160 48 80 160 48 80 160 48 80 160 48 80 160 48 80 160 48 80 160 48 80 160 112 96 16 112 96 16 112 96 16 112 96 16 112 96 16 112 96 16 112 96 16 112 96 16 112 96 16 112 96 16 112 96 16 112 96 16 112 96 16 112 96 16 112 96 16 112 96 16 112 96 16 112 96 16 112 96 16 112 96 16 112 96 16 112 96 16 112 96 16 112 96 16 112 96 16 112 96 16 112 96 16 112 96 16 112 96 16 112 96 16 112 96 16 112 96 16
56 80 160 56 80 160 56 80 160 56 80 160 56 80 160 56 80 160 56 80 160 56 80 160 56 80 160 56 80 160 56 80 160 56 80 160 56 80 160 56 80 160 56 80 160 56 80 160 56 80 160 56 80 160 56 80 160 56 80 160 56 80 160 56 80 160 56 80 160 56 80 160 56 80 160 56 80 160 56 80 160 56 80 160 56 80 160 56 80 160 56 80 160 56 80 160 56 80 160 56 80 160 56 80 160 56 80 160 56 80 160 56 80 160 56 80 160 56 80 160 56 80 160 56 80 160 56 80 160 56 80 160 56 80 160 56 80 160 56 80 160 56 80 160 56 80 160 56 80 160 56 80 160 56 80 160 56 80 160 56 80 160 56 80 160 56 80 160 56 80 160 56 80 160 56 80 160 56 80 160 56 80 160 56 80 160 56 80 160 56 80 160 48 80 160 48 80 160 48 80 160 48 80 160 48 80 160 48 80 160 48 80 160 48 80 160 48 80 160 48 80 160 48 80 160 48 80 160 48 80 160 48 80 160 48 80 160 48 80 160 48 80 160 48 80 160 48 80 160 48 80 160 48 80 160 48 80 160 48 80 160 48 80 160 48 80 160 48 80 160 48 80 160 48 80 160 48 80 160 48 80 160 48 80 160 48 80 160 112 96 16 112 96 16 112 96 16 112 96 16 112 96 16 112 96 16 112 96 16 112 96 16 112 96 16 112 96 16 112 96 16 112 96 16 112 96 16 112 96 16 112 96 16 112 96 16 112 96 16 112 96 16 112 96 16 112 96 16 112 96 16 112 96 16 112 96 16 112 96 16 112 96 16 112 96 16 112 96 16 112 96 16 112 96 16 112 96 16 112 96 16 112 96 16
56 80 160 56 80 160 56 80 160 56 80 160 56 80 160 56 80 160 56 80 160 56 80 160 56 80 160 56 80 160 56 80 160 56 80 160 56 80 160 56 80 160 56 80 160 56 80 160 56 80 160 56 80 160 56 80 160 56 80 160 56 80 160 56 80 160 56 80 160 56 80 160 56 80 160 56 80 160 56 80 160 56 80 160 56 80 160 56 80 160 56 80 160 56 80 160 56 80 160 56 80 160 56 80 160 56 80 160 56 80 160 56 80 160 56 80 160 56 80 160 56 80 160 56 80 160 56 80 160 56 80 160 56 80 160 56 80 160 56 80 160 56 80 160 56 80 160 56 80 160 56 80 160 56 80 160 56 80 160 56 80 160 56 80 160 56 80 160 56 80 160 56 80 160 56 80 160 56 80 160 56 80 160 56 80 160 56 80 160 56 80 160 48 80 160 48 80 160 48 80 160 48 80 160 48 80 160 48 80 160 48 80 160 48 80 160 48 80 160 48 80 160 48 80 160 48 80 160 48 80 160 48 80 160 48 80 160 48 80 160 48 80 160 48 80 160 48 80 160 48 80 160 48 80 160 48 80 160 48 80 160 48 80 160 48 80 160 48 80 160 48 80 160 48 80 160 48 80 160 48 80 160 48 80 160 48 80 160 112 96 16 112 96 16 112 96 16 112 96 16 112 96 16 112 96 16 112 96 16 112 96 16 112 96 16 112 96 16 112 96 16 112 96 16 112 96 16 112 96 16 112 96 16 112 96 16 112 96 16 112 96 16 112 96 16 112 96 16 112 96 16 112 96 16 112 96 16 112 96 16 112 96 16 112 96 16 112 96 16 112 96 16 112 96 16 112 96 16 112 96 16 112 96 16
56 80 160 56 80 160 56 80 160 56 80 160 56 80 160 56 80 160 56 80 160 56 80 160 56 80 160 56 80 160 56 80 160 56 80 160 56 80 160 56 80 160 56 80 160 56 80 160 56 80 160 56 80 160 56 80 160 56 80 160 56 80 160 56 80 160 56 80 160 56 80 160 56 80 160 56 80 160 56 80 160 56 80 160 56 80 160 56 80 160 56 80 160 56 80 160 56 80 160 56 80 160 56 80 160 56 80 160 56 80 160 56 80 160 56 80 160 56 80 160 56 80 160 56 80 160 56 80 160 56 80 160 56 80 160 56 80 160 56 80 160 56 80 160 56 80 160 56 80 160 56 80 160 56 80 160 56 80 160 56 80 160 56 80 160 56 80 160 56 80 160 56 80 160 56 80 160 56 80 160 56 80 160 56 80 160 56 80 160 56 80 160 48 80 160 48 80 160 48 80 160 48 80 160 48 80 160 48 80 160 48 80 160 48 80 160 48 80 160 48 80 160 48 80 160 48 80 160 48 80 160 48 80 160 48 80 160 48 80 160 48 80 160 48 80 160 48 80 160 48 80 160 48 80 160 48 80 160 48 80 160 48 80 160 48 80 160 48 80 160 48 80 160 48 80 160 48 80 160 48 80 160 48 80 160 48 80 160 112 96 16 112 96 16 112 96 16 112 96 16 112 96 16 112 96 16 112 96 16 112 96 16 112 96 16 112 96 16 112 96 16 112 96 16 112 96 16 112 96 16 112 96 16 112 96 16 112 96 16 112 96 16 112 96 16 112 96 16 112 96 16 112 96 16 112 96 16 112 96 16 112 96 16 112 96 16 112 96 16 112 96 16 112 96 16 112 96 16 112 96 16 112 96 16
56 80 160 56 80 160 56 80 160 56 80 160 56 80 160 56 80 160 56 80 160 56 80 160 56 80 160 56 80 160 56 80 160 56 80 160 56 80 160 56 80 160 56 80 160 56 80 160 56 80 160 56 80 160 56 80 160 56 80 160 56 80 160 56 80 160 56 80 160 56 80 160 56 80 160 56 80 160 56 80 160 56 80 160 56 80 160 56 80 160 56 80 160 56 80 160 56 80 160 56 80 160 56 80 160 56 80 160 56 80 160 56 80 160 56 80 160 56 80 160 56 80 160 56 80 160 56 80 160 56 80 160 56 80 160 56 80 160 56 80 160 56 80 160 56 80 160 56 80 160 56 80 160 56 80 160 56 80 160 56 80 160 56 80 160 56 80 160 56 80 160 56 80 160 56 80 160 56 80 160 56 80 160 56 80 160 56 80 160 56 80 160 48 80 160 48 80 160 48 80 160 48 80 160 48 80 160 48 80 160 48 80 160 48 80 160 48 80 160 48 80 160 48 80 160 48 80 160 48 80 160 48 80 160 48 80 160 48 80 160 48 80 160 48 80 160 48 80 160 48 80 160 48 80 160 48 80 160 48 80 160 48 80 160 48 80 160 48 80 160 48 80 160 48 80 160 48 80 160 48 80 160 48 80 160 48 80 160 112 96 16 112 96 16 112 96 16 112 96 16 112 96 16 112 96 16 112 96 16 112 96 16 112 96 16 112 96 16 112 96 16 112 96 16 112 96 16 112 96 16 112 96 16 112 96 16 112 96 16 112 96 16 112 96 16 112 96 16 112 96 16 112 96 16 112 96 16 112 96 16 112 96 16 112 96 16 112 96 16 112 96 16 112 96 16 112 96 16 112 96 16 112 96 16
56 80 160 56 80 160 56 80 160 56 80 160 56 80 160 56 80 160 56 80 160 56 80 160 56 80 160 56 80 160 56 80 160 56 80 160 56 80 160 56 80 160 56 80 160 56 80 160 56 80 160 56 80 160 56 80 160 56 80 160 56 80 160 56 80 160 56 80 160 56 80 160 56 80 160 56 80 160 56 80 160 56 80 160 56 80 160 56 80 160 56 80 160 56 80 160 56 80 160 56 80 160 56 80 160 56 80 160 56 80 160 56 80 160 56 80 160 56 80 160 56 80 160 56 80 160 56 80 160 56 80 160 56 80 160 56 80 160 56 80 160 56 80 160 56 80 160 56 80 160 56 80 160 56 80 160 56 80 160 56 80 160 56 80 160 56 80 160 56 80 160 56 80 160 56 80 160 56 80 160 56 80 160 56 80 160 56 80 160 56 80 160 48 80 160 48 80 160 48 80 160 48 80 160 48 80 160 48 80 160 48 80 160 48 80 160 48 80 160 48 80 160 48 80 160 48 80 160 48 80 160 48 80 160 48 80 160 48 80 160 48 80 160 48 80 160 48 80 160 48 80 160 48 80 160 48 80 160 48 80 160 48 80 160 48 80 160 48 80 160 48 80 160 48 80 160 48 80 160 48 80 160 48 80 160 48 80 160 112 96 16 112 96 16 112 96 16 112 96 16 112 96 16 112 96 16 112 96 16 112 96 16 112 96 16 112 96 16 112 96 16 112 96 16 112 96 16 112 96 16 112 96 16 112 96 16 112 96 16 112 96 16 112 96 16 112 96 16 112 96 16 112 96 16 112 96 16 112 96 16 112 96 16 112 96 16 112 96 16 112 96 16 112 96 16 112 96 16 112 96 16 112 96 16
56 80 160 56 80 160 56 80 160 56 80 160 56 80 160 56 80 160 56 80 160 56 80 160 56 80 160 56 80 160 56 80 160 56 80 160 56 80 160 56 80 160 56 80 160 56 80 160 56 80 160 56 80 160 56 80 160 56 80 160 56 80 160 56 80 160 56 80 160 56 80 160 56 80 160 56 80 160 56 80 160 56 80 160 56 80 160 56 80 160 56 80 160 56 80 160 56 80 160 56 80 160 56 80 160 56 80 160 56 80 160 56 80 160 56 80 160 56 80 160 56 80 160 56 80 160 56 80 160 56 80 160 56 80 160 56 80 160 56 80 160 56 80 160 56 80 160 56 80 160 56 80 160 56 80 160 56 80 160 56 80 160 56 80 160 56 80 160 56 80 160 56 80 160 56 80 160 56 80 160 56 80 160 56 80 160 56 80 160 56 80 160 48 80 160 48 80 160 48 80 160 48 80 160 48 80 160 48 80 160 48 80 160 48 80 160 48 80 160 48 80 160 48 80 160 48 80 160 48 80 160 48 80 160 48 80 160 48 80 160 48 80 160 48 80 160 48 80 160 48 80 160 48 80 160 48 80 160 48 80 160 48 80 160 48 80 160 48 80 160 48 80 160 48 80 160 48 80 160 48 80 160 48 80 160 48 80 160 112 96 16 112 96 16 112 96 16 112 96 16 112 96 16 112 96 16 112 96 16 112 96 16 112 96 16 112 96 16 112 96 16 112 96 16 112 96 16 112 96 16 112 96 16 112 96 16 112 96 16 112 96 16 112 96 16 112 96 16 112 96 16 112 96 16 112 96 16 112 96 16 112 96 16 112 96 16 112 96 16 112 96 16 112 96 16 112 96 16 112 96 16 112 96 16
56 80 160 56 80 160 56 80 160 56 80 160 56 80 160 56 80 160 56 80 160 56 80 160 56 80 160 56 80 160 56 80 160 56 80 160 56 80 160 56 80 160 56 80 160 56 80 160 56 80 160 56 80 160 56 80 160 56 80 160 56 80 160 56 80 160 56 80 160 56 80 160 56 80 160 56 80 160 56 80 160 56 80 160 56 80 160 56 80 160 56 80 160 56 80 160 56 80 160 56 80 160 56 80 160 56 80 160 56 80 160 56 80 160 56 80 160 56 80 160 56 80 160 56 80 160 56 80 160 56 80 160 56 80 160 56 80 160 56 80 160 56 80 160 56 80 160 56 80 160 56 80 160 56 80 160 56 80 160 56 80 160 56 80 160 56 80 160 56 80 160 56 80 160 56 80 160 56 80 160 56 80 160 56 80 160 56 80 160 56 80 160 48 80 160 48 80 160 48 80 160 48 80 160 48 80 160 48 80 160 48 80 160 48 80 160 48 80 160 48 80 160 48 80 160 48 80 160 48 80 160 48 80 160 48 80 160 48 80 160 48 80 160 48 80 160 48 80 160 48 80 160 48 80 160 48 80 160 48 80 160 48 80 160 48 80 160 48 80 160 48 80 160 48 80 160 48 80 160 48 80 160 48 80 160 48 80 160 112 96 16 112 96 16 112 96 16 112 96 16 112 96 16 112 96 16 112 96 16 112 96 16 112 96 16 112 96 16 112 96 16 112 96 16 112 96 16 112 96 16 112 96 16 112 96 16 112 96 16 112 96 16 112 96 16 112 96 16 112 96 16 112 96 16 112 96 16 112 96 16 112 96 16 112 96 16 112 96 16 112 96 16 112 96 16 112 96 16 112 96 16 112 96 16
56 80 160 56 80 160 56 80 160 56 80 160 56 80 160 56 80 160 56 80 160 56 80 160 56 80 160 56 80 160 56 80 160 56 80 160 56 80 160 56 80 160 56 80 160 56 80 160 56 80 160 56 80 160 56 80 160 56 80 160 56 80 160 56 80 160 56 80 160 56 80 160 56 80 160 56 80 160 56 80 160 56 80 160 56 80 160 56 80 160 56 80 160 56 80 160 56 80 160 56 80 160 56 80 160 56 80 160 56 80 160 56 80 160 56 80 160 56 80 160 56 80 160 56 80 160 56 80 160 56 80 160 56 80 160 56 80 160 56 80 160 56 80 160 56 80 160 56 80 160 56 80 160 56 80 160 56 80 160 56 80 160 56 80 160 56 80 160 56 80 160 56 80 160 56 80 160 56 80 160 56 80 160 56 80 160 56 80 160 56 80 160 48 80 160 48 80 160 48 80 160 48 80 160 48 80 160 48 80 160 48 80 160 48 80 160 48 80 160 48 80 160 48 80 160 48 80 160 48 80 160 48 80 160 48 80 160 48 80 160 48 80 160 48 80 160 48 80 160 48 80 160 48 80 160 48 80 160 48 80 160 48 80 160 48 80 160 48 80 160 48 80 160 48 80 160 48 80 160 48 80 160 48 80 160 48 80 160 112 96 16 112 96 16 112 96 16 112 96 16 112 96 16 112 96 16 112 96 16 112 96 16 112 96 16 112 96 16 112 96 16 112 96 16 112 96 16 112 96 16 112 96 16 112 96 16 112 96 16 112 96 16 112 96 16 112 96 16 112 96 16 112 96 16 112 96 16 112 96 16 112 96 16 112 96 16 112 96 16 112 96 16 112 96 16 112 96 16 112 96 16 112 96 16
56 80 160 56 80 160 56 80 160 56 80 160 56 80 160 56 80 160 56 80 160 56 80 160 56 80 160 56 80 160 56 80 160 56 80 160 56 80 160 56 80 160 56 80 160 56 80 160 56 80 160 56 80 160 56 80 160 56 80 160 56 80 160 56 80 160 56 80 160 56 80 160 56 80 160 56 80 160 56 80 160 56 80 160 56 80 160 56 80 160 56 80 160 56 80 160 56 80 160 56 80 160 56 80 160 56 80 160 56 80 160 56 80 160 56 80 160 56 80 160 56 80 160 56 80 160 56 80 160 56 80 160 56 80 160 56 80 160 56 80 160 56 80 160 56 80 160 56 80 160 56 80 160 56 80 160 56 80 160 56 80 160 56 80 160 56 80 160 56 80 160 56 80 160 56 80 160 56 80 160 56 80 160 56 80 160 56 80 160 56 80 160 48 80 160 48 80 160 48 80 160 48 80 160 48 80 160 48 80 160 48 80 160 48 80 160 48 80 160 48 80 160 48 80 160 48 80 160 48 80 160 48 80 160 48 80 160 48 80 160 48 80 160 48 80 160 48 80 160 48 80 160 48 80 160 48 80 160 48 80 160 48 80 160 48 80 160 48 80 160 48 80 160 48 80 160 48 80 160 48 80 160 48 80 160 48 80 160 112 96 16 112 96 16 112 96 16 112 96 16 112 96 16 112 96 16 112 96 16 112 96 16 112 96 16 112 96 16 112 96 16 112 96 16 112 96 16 112 96 16 112 96 16 112 96 16 112 96 16 112 96 16 112 96 16 112 96 16 112 96 16 112 96 16 112 96 16 112 96 16 112 96 16 112 96 16 112 96 16 112 96 16 112 96 16 112 96 16 112 96 16 112 96 16
56 80 160 56 80 160 56 80 160 56 80 160 56 80 160 56 80 160 56 80 160 56 80 160 56 80 160 56 80 160 56 80 160 56 80 160 56 80 160 56 80 160 56 80 160 56 80 160 56 80 160 56 80 160 56 80 160 56 80 160 56 80 160 56 80 160 56 80 160 56 80 160 56 80 160 56 80 160 56 80 160 56 80 160 56 80 160 56 80 160 56 80 160 56 80 160 56 80 160 56 80 160 56 80 160 56 80 160 56 80 160 56 80 160 56 80 160 56 80 160 56 80 160 56 80 160 56 80 160 56 80 160 56 80 160 56 80 160 56 80 160 56 80 160 56 80 160 56 80 160 56 80 160 56 80 160 56 80 160 56 80 160 56 80 160 56 80 160 56 80 160 56 80 160 56 80 160 56 80 160 56 80 160 56 80 160 56 80 160 56 80 160 48 80 160 48 80 160 48 80 160 48 80 160 48 80 160 48 80 160 48 80 160 48 80 160 48 80 160 48 80 160 48 80 160 48 80 160 48 80 160 48 80 160 48 80 160 48 80 160 48 80 160 48 80 160 48 80 160 48 80 160 48 80 160 48 80 160 48 80 160 48 80 160 48 80 160 48 80 160 48 80 160 48 80 160 48 80 160 48 80 160 48 80 160 48 80 160 112 96 16 112 96 16 112 96 16 112 96 16 112 96 16 112 96 16 112 96 16 112 96 16 112 96 16 112 96 16 112 96 16 112 96 16 112 96 16 112 96 16 112 96 16 112 96 16 112 96 16 112 96 16 112 96 16 112 96 16 112 96 16 112 96 16 112 96 16 112 96 16 112 96 16 112 96 16 112 96 16 112 96 16 112 96 16 112 96 16 112 96 16 112 96 16
56 80 160 56 80 160 56 80 160 56 80 160 56 80 160 56 80 160 56 80 160 56 80 160 56 80 160 56 80 160 56 80 160 56 80 160 56 80 160 56 80 160 56 80 160 56 80 160 56 80 160 56 80 160 56 80 160 56 80 160 56 80 160 56 80 160 56 80 160 56 80 160 56 80 160 56 80 160 56 80 160 56 80 160 56 80 160 56 80 160 56 80 160 56 80 160 56 80 160 56 80 160 56 80 160 56 80 160 56 80 160 56 80 160 56 80 160 56 80 160 56 80 160 56 80 160 56 80 160 56 80 160 56 80 160 56 80 160 56 80 160 56 80 160 56 80 160 56 80 160 56 80 160 56 80 160 56 80 160 56 80 160 56 80 160 56 80 160 56 80 160 56 80 160 56 80 160 56 80 160 56 80 160 56 80 160 56 80 160 56 80 160 48 80 160 48 80 160 48 80 160 48 80 160 48 80 160 48 80 160 48 80 160 48 80 160 48 80 160 48 80 160 48 80 160 48 80 160 48 80 160 48 80 160 48 80 160 48 80 160 48 80 160 48 80 160 48 80 160 48 80 160 48 80 160 48 80 160 48 80 160 48 80 160 48 80 160 48 80 160 48 80 160 48 80 160 48 80 160 48 80 160 48 80 160 48 80 160 112 96 16 112 96 16 112 96 16 112 96 16 112 96 16 112 96 16 112 96 16 112 96 16 112 96 16 112 96 16 112 96 16 112 96 16 112 96 16 112 96 16 112 96 16 112 96 16 112 96 16 112 96 16 112 96 16 112 96 16 112 96 16 112 96 16 112 96 16 112 96 16 112 96 16 112 96 16 112 96 16 112 96 16 112 96 16 112 96 16 112 96 16 112 96 16
56 80 160 56 80 160 56 80 160 56 80 160 56 80 160 56 80 160 56 80 160 56 80 160 56 80 160 56 80 160 56 80 160 56 80 160 56 80 160 56 80 160 56 80 160 56 80 160 56 80 160 56 80 160 56 80 160 56 80 160 56 80 160 56 80 160 56 80 160 56 80 160 56 80 160 56 80 160 56 80 160 56 80 160 56 80 160 56 80 160 56 80 160 56 80 160 56 80 160 56 80 160 56 80 160 56 80 160 56 80 160 56 80 160 56 80 160 56 80 160 56 80 160 56 80 160 56 80 160 56 80 160 56 80 160 56 80 160 56 80 160 56 80 160 56 80 160 56 80 160 56 80 160 56 80 160 56 80 160 56 80 160 56 80 160 56 80 160 56 80 160 56 80 160 56 80 160 56 80 160 56 80 160 56 80 160 56 80 160 56 80 160 48 80 160 48 80 160 48 80 160 48 80 160 48 80 160 48 80 160 48 80 160 48 80 160 48 80 160 48 80 160 48 80 160 48 80 160 48 80 160 48 80 160 48 80 160 48 80 160 48 80 160 48 80 160 48 80 160 48 80 160 48 80 160 48 80 160 48 80 160 48 80 160 48 80 160 48 80 160 48 80 160 48 80 160 48 80 160 48 80 160 48 80 160 48 80 160 112 96 16 112 96 16 112 96 16 112 96 16 112 96 16 112 96 16 112 96 16 112 96 16 112 96 16 112 96 16 112 96 16 112 96 16 112 96 16 112 96 16 112 96 16 112 96 16 112 96 16 112 96 16 112 96 16 112 96 16 112 96 16 112 96 16 112 96 16 112 96 16 112 96 16 112 96 16 112 96 16 112 96 16 112 96 16 112 96 16 112 96 16 112 96 16
112 96 16 112 96 16 112 96 16 112 96 16 112 96 16 112 96 16 112 96 16 112 96 16 112 96 16 112 96 16 112 96 16 112 96 16 112 96 16 112 96 16 112 96 16 112 96 16 112 96 16 112 96 16 112 96 16 112 96 16 112 96 16 112 96 16 112 96 16 112 96 16 112 96 16 112 96 16 112 96 16 112 96 16 112 96 16 112 96 16 112 96 16 112 96 16 240 96 16 240 96 16 240 96 16 240 96 16 240 96 16 240 96 16 240 96 16 240 96 16 240 96 16 240 96 16 240 96 16 240 96 16 240 96 16 240 96 16 240 96 16 240 96 16 240 96 16 240 96 16 240 96 16 240 96 16 240 96 16 240 96 16 240 96 16 240 96 16 240 96 16 240 96 16 240 96 16 240 96 16 240 96 16 240 96 16 240 96 16 240 96 16 48 48 56 48 48 56 48 48 56 48 48 56 48 48 56 48 48 56 48 48 56 48 48 56 48 48 56 48 48 56 48 48 56 48 48 56 48 48 56 48 48 56 48 48 56 48 48 56 48 48 56 48 48 56 48 48 56 48 48 56 48 48 56 48 48 56 48 48 56 48 48 56 48 48 56 48 48 56 48 48 56 48 48 56 48 48 56 48 48 56 48 48 56 48 48 56 48 48 56 48 48 56 48 48 56 48 48 56 48 48 56 48 48 56 48 48 56 48 48 56 48 48 56 48 48 56 48 48 56 48 48 56 48 48 56 48 48 56 48 48 56 48 48 56 48 48 56 48 48 56 48 48 56 48 48 56 48 48 56 48 48 56 48 48 56 48 48 56 48 48 56 48 48 56 48 48 56 48 48 56 48 48 56 48 48 56 48 48 56 48 48 56
112 96 16 112 96 16 112 96 16 112 96 16 112 96 16 112 96 16 112 96 16 112 96 16 112 96 16 112 96 16 112 96 16 112 96 16 112 96 16 112 96 16 112 96 16 112 96 16 112 96 16 112 96 16 112 96 16 112 96 16 112 96 16 112 96 16 112 96 16 112 96 16 112 96 16 112 96 16 112 96 16 112 96 16 112 96 16 112 96 16 112 96 16 112 96 16 240 96 16 240 96 16 240 96 16 240 96 16 240 96 16 240 96 16 240 96 16 240 96 16 240 96 16 240 96 16 240 96 16 240 96 16 240 96 16 240 96 16 240 96 16 240 96 16 240 96 16 240 96 16 240 96 16 240 96 16 240 96 16 240 96 16 240 96 16 240 96 16 240 96 16 240 96 16 240 96 16 240 96 16 240 96 16 240 96 16 240 96 16 240 96 16 48 48 56 48 48 56 48 48 56 48 48 56 48 48 56 48 48 56 48 48 56 48 48 56 48 48 56 48 48 56 48 48 56 48 48 56 48 48 56 48 48 56 48 48 56 48 48 56 48 48 56 48 48 56 48 48 56 48 48 56 48 48 56 48 48 56 48 48 56 48 48 56 48 48 56 48 48 56 48 48 56 48 48 56 48 48 56 48 48 56 48 48 56 48 48 56 48 48 56 48 48 56 48 48 56 48 48 56 48 48 56 48 48 56 48 48 56 48 48 56 48 48 56 48 48 56 48 48 56 48 48 56 48 48 56 48 48 56 48 48 56 48 48 56 48 48 56 48 48 56 48 48 56 48 48 56 48 48 56 48 48 56 48 48 56 48 48 56 48 48 56 48 48 56 48 48 56 48 48 56 48 48 56 48 48 56 48 48 56 48 48 56
112 96 16 112 96 16 112 96 16 112 96 16 112 96 16 112 96 16 112 96 16 112 96 16 112 96 16 112 96 16 112 96 16 112 96 16 112 96 16 112 96 16 112 96 16 112 96 16 112 96 16 112 96 16 112 96 16 112 96 16 112 96 16 112 96 16 112 96 16 112 96 16 112 96 16 112 96 16 112 96 16 112 96 16 112 96 16 112 96 16 112 96 16 112 96 16 240 96 16 240 96 16 240 96 16 240 96 16 240 96 16 240 96 16 240 96 16 240 96 16 240 96 16 240 96 16 240 96 16 240 96 16 240 96 16 240 96 16 240 96 16 240 96 16 240 96 16 240 96 16 240 96 16 240 96 16 240 96 16 240 96 16 240 96 16 240 96 16 240 96 16 240 96 16 240 96 16 240 96 16 240 96 16 240 96 16 240 96 16 240 96 16 48 48 56 48 48 56 48 48 56 48 48 56 48 48 56 48 48 56 48 48 56 48 48 56 48 48 56 48 48 56 48 48 56 48 48 56 48 48 56 48 48 56 48 48 56 48 48 56 48 48 56 48 48 56 48 48 56 48 48 56 48 48 56 48 48 56 48 48 56 48 48 56 48 48 56 48 48 56 48 48 56 48 48 56 48 48 56 48 48 56 48 48 56 48 48 56 48 48 56 48 48 56 48 48 56 48 48 56 48 48 56 48 48 56 48 48 56 48 48 56 48 48 56 48 48 56 48 48 56 48 48 56 48 48 56 48 48 56 48 48 56 48 48 56 48 48 56 48 48 56 48 48 56 48 48 56 48 48 56 48 48 56 48 48 56 48 48 56 48 48 56 48 48 56 48 48 56 48 48 56 48 48 56 48 48 56 48 48 56 48 48 56
112 96 16 112 96 16 112 96 16 112 96 16 112 96 16 112 96 16 112 96 16 112 96 16 112 96 16 112 96 16 112 96 16 112 96 16 112 96 16 112 96 16 112 96 16 112 96 16 112 96 16 112 96 16 112 96 16 112 96 16 112 96 16 112 96 16 112 96 16 112 96 16 112 96 16 112 96 16 112 96 16 112 96 16 112 96 16 112 96 16 112 96 16 112 96 16 240 96 16 240 96 16 240 96 16 240 96 16 240 96 16 240 96 16 240 96 16 240 96 16 240 96 16 240 96 16 240 96 16 240 96 16 240 96 16 240 96 16 240 96 16 240 96 16 240 96 16 240 96 16 240 96 16 240 96 16 240 96 16 240 96 16 240 96 16 240 96 16 240 96 16 240 96 16 240 96 16 240 96 16 240 96 16 240 96 16 240 96 16 240 96 16 48 48 56 48 48 56 48 48 56 48 48 56 48 48 56 48 48 56 48 48 56 48 48 56 48 48 56 48 48 56 48 48 56 48 48 56 48 48 56 48 48 56 48 48 56 48 48 56 48 48 56 48 48 56 48 48 56 48 48 56 48 48 56 48 48 56 48 48 56 48 48 56 48 48 56 48 48 56 48 48 56 48 48 56 48 48 56 48 48 56 48 48 56 48 48 56 48 48 56 48 48 56 48 48 56 48 48 56 48 48 56 48 48 56 48 48 56 48 48 56 48 48 56 48 48 56 48 48 56 48 48 56 48 48 56 48 48 56 48 48 56 48 48 56 48 48 56 48 48 56 48 48 56 48 48 56 48 48 56 48 48 56 48 48 56 48 48 56 48 48 56 48 48 56 48 48 56 48 48 56 48 48 56 48 48 56 48 48 56 48 48 56
112 96 16 112 96 16 112 96 16 112 96 16 112 96 16 112 96 16 112 96 16 112 96 16 112 96 16 112 96 16 112 96 16 112 96 16 112 96 16 112 96 16 112 96 16 112 96 16 112 96 16 112 96 16 112 96 16 112 96 16 112 96 16 112 96 16 112 96 16 112 96 16 112 96 16 112 96 16 112 96 16 112 96 16 112 96 16 112 96 16 112 96 16 112 96 16 240 96 16 240 96 16 240 96 16 240 96 16 240 96 16 240 96 16 240 96 16 240 96 16 240 96 16 240 96 16 240 96 16 240 96 16 240 96 16 240 96 16 240 96 16 240 96 16 240 96 16 240 96 16 240 96 16 240 96 16 240 96 16 240 96 16 240 96 16 240 96 16 240 96 16 240 96 16 240 96 16 240 96 16 240 96 16 240 96 16 240 96 16 240 96 16 48 48 56 48 48 56 48 48 56 48 48 56 48 48 56 48 48 56 48 48 56 48 48 56 48 48 56 48 48 56 48 48 56 48 48 56 48 48 56 48 48 56 48 48 56 48 48 56 48 48 56 48 48 56 48 48 56 48 48 56 48 48 56 48 48 56 48 48 56 48 48 56 48 48 56 48 48 56 48 48 56 48 48 56 48 48 56 48 48 56 48 48 56 48 48 56 48 48 56 48 48 56 48 48 56 48 48 56 48 48 56 48 48 56 48 48 56 48 48 56 48 48 56 48 48 56 48 48 56 48 48 56 48 48 56 48 48 56 48 48 56 48 48 56 48 48 56 48 48 56 48 48 56 48 48 56 48 48 56 48 48 56 48 48 56 48 48 56 48 48 56 48 48 56 48 48 56 48 48 56 48 48 56 48 48 56 48 48 56 48 48 56
112 96 16 112 96 16 112 96 16 112 96 16 112 96 16 112 96 16 112 96 16 112 96 16 112 96 16 112 96 16 112 96 16 112 96 16 112 96 16 112 96 16 112 96 16 112 96 16 112 96 16 112 96 16 112 96 16 112 96 16 112 96 16 112 96 16 112 96 16 112 96 16 112 96 16 112 96 16 112 96 16 112 96 16 112 96 16 112 96 16 112 96 16 112 96 16 240 96 16 240 96 16 240 96 16 240 96 16 240 96 16 240 96 16 240 96 16 240 96 16 240 96 16 240 96 16 240 96 16 240 96 16 240 96 16 240 96 16 240 96 16 240 96 16 240 96 16 240 96 16 240 96 16 240 96 16 240 96 16 240 96 16 240 96 16 240 96 16 240 96 16 240 96 16 240 96 16 240 96 16 240 96 16 240 96 16 240 96 16 240 96 16 48 48 56 48 48 56 48 48 56 48 48 56 48 48 56 48 48 56 48 48 56 48 48 56 48 48 56 48 48 56 48 48 56 48 48 56 48 48 56 48 48 56 48 48 56 48 48 56 48 48 56 48 48 56 48 48 56 48 48 56 48 48 56 48 48 56 48 48 56 48 48 56 48 48 56 48 48 56 48 48 56 48 48 56 48 48 56 48 48 56 48 48 56 48 48 56 48 48 56 48 48 56 48 48 56 48 48 56 48 48 56 48 48 56 48 48 56 48 48 56 48 48 56 48 48 56 48 48 56 48 48 56 48 48 56 48 48 56 48 48 56 48 48 56 48 48 56 48 48 56 48 48 56 48 48 56 48 48 56 48 48 56 48 48 56 48 48 56 48 48 56 48 48 56 48 48 56 48 48 56 48 48 56 48 48 56 48 48 56 48 48 56
112 96 16 112 96 16 112 96 16 112 96 16 112 96 16 112 96 16 112 96 16 112 96 16 112 96 16 112 96 16 112 96 16 112 96 16 112 96 16 112 96 16 112 96 16 112 96 16 112 96 16 112 96 16 112 96 16 112 96 16 112 96 16 112 96 16 112 96 16 112 96 16 112 96 16 112 96 16 112 96 16 112 96 16 112 96 16 112 96 16 112 96 16 112 96 16 240 96 16 240 96 16 240 96 16 240 96 16 240 96 16 240 96 16 240 96 16 240 96 16 240 96 16 240 96 16 240 96 16 240 96 16 240 96 16 240 96 16 240 96 16 240 96 16 240 96 16 240 96 16 240 96 16 240 96 16 240 96 16 240 96 16 240 96 16 240 96 16 240 96 16 240 96 16 240 96 16 240 96 16 240 96 16 240 96 16 240 96 16 240 96 16 48 48 56 48 48 56 48 48 56 48 48 56 48 48 56 48 48 56 48 48 56 48 48 56 48 48 56 48 48 56 48 48 56 48 48 56 48 48 56 48 48 56 48 48 56 48 48 56 48 48 56 48 48 56 48 48 56 48 48 56 48 48 56 48 48 56 48 48 56 48 48 56 48 48 56 48 48 56 48 48 56 48 48 56 48 48 56 48 48 56 48 48 56 48 48 56 48 48 56 48 48 56 48 48 56 48 48 56 48 48 56 48 48 56 48 48 56 48 48 56 48 48 56 48 48 56 48 48 56 48 48 56 48 48 56 48 48 56 48 48 56 48 48 56 48 48 56 48 48 56 48 48 56 48 48 56 48 48 56 48 48 56 48 48 56 48 48 56 48 48 56 48 48 56 48 48 56 48 48 56 48 48 56 48 48 56 48 48 56 48 48 56
112 96 16 112 96 16 112 96 16 112 96 16 112 96 16 112 96 16 112 96 16 112 96 16 112 96 16 112 96 16 112 96 16 112 96 16 112 96 16 112 96 16 112 96 16 112 96 16 112 96 16 112 96 16 112 96 16 112 96 16 112 96 16 112 96 16 112 96 16 112 96 16 112 96 16 112 96 16 112 96 16 112 96 16 112 96 16 112 96 16 112 96 16 112 96 16 240 96 16 240 96 16 240 96 16 240 96 16 240 96 16 240 96 16 240 96 16 240 96 16 240 96 16 240 96 16 240 96 16 240 96 16 240 96 16 240 96 16 240 96 16 240 96 16 240 96 16 240 96 16 240 96 16 240 96 16 240 96 16 240 96 16 240 96 16 240 96 16 240 96 16 240 96 16 240 96 16 240 96 16 240 96 16 240 96 16 240 96 16 240 96 16 48 48 56 48 48 56 48 48 56 48 48 56 48 48 56 48 48 56 48 48 56 48 48 56 48 48 56 48 48 56 48 48 56 48 48 56 48 48 56 48 48 56 48 48 56 48 48 56 48 48 56 48 48 56 48 48 56 48 48 56 48 48 56 48 48 56 48 48 56 48 48 56 48 48 56 48 48 56 48 48 56 48 48 56 48 48 56 48 48 56 48 48 56 48 48 56 48 48 56 48 48 56 48 48 56 48 48 56 48 48 56 48 48 56 48 48 56 48 48 56 48 48 56 48 48 56 48 48 56 48 48 56 48 48 56 48 48 56 48 48 56 48 48 56 48 48 56 48 48 56 48 48 56 48 48 56 48 48 56 48 48 56 48 48 56 48 48 56 48 48 56 48 48 56 48 48 56 48 48 56 48 48 56 48 48 56 48 48 56 48 48 56
112 96 16 112 96 16 112 96 16 112 96 16 112 96 16 112 96 16 112 96 16 112 96 16 112 96 16 112 96 16 112 96 16 112 96 16 112 96 16 112 96 16 112 96 16 112 96 16 112 96 16 112 96 16 112 96 16 112 96 16 112 96 16 112 96 16 112 96 16 112 96 16 112 96 16 112 96 16 112 96 16 112 96 16 112 96 16 112 96 16 112 96 16 112 96 16 240 96 16 240 96 16 240 96 16 240 96 16 240 96 16 240 96 16 240 96 16 240 96 16 240 96 16 240 96 16 240 96 16 240 96 16 240 96 16 240 96 16 240 96 16 240 96 16 240 96 16 240 96 16 240 96 16 240 96 16 240 96 16 240 96 16 240 96 16 240 96 16 240 96 16 240 96 16 240 96 16 240 96 16 240 96 16 240 96 16 240 96 16 240 96 16 48 48 56 48 48 56 48 48 56 48 48 56 48 48 56 48 48 56 48 48 56 48 48 56 48 48 56 48 48 56 48 48 56 48 48 56 48 48 56 48 48 56 48 48 56 48 48 56 48 48 56 48 48 56 48 48 56 48 48 56 48 48 56 48 48 56 48 48 56 48 48 56 48 48 56 48 48 56 48 48 56 48 48 56 48 48 56 48 48 56 48 48 56 48 48 56 48 48 56 48 48 56 48 48 56 48 48 56 48 48 56 48 48 56 48 48 56 48 48 56 48 48 56 48 48 56 48 48 56 48 48 56 48 48 56 48 48 56 48 48 56 48 48 56 48 48 56 48 48 56 48 48 56 48 48 56 48 48 56 48 48 56 48 48 56 48 48 56 48 48 56 48 48 56 48 48 56 48 48 56 48 48 56 48 48 56 48 48 56 48 48 56
112 96 16 112 96 16 112 96 16 112 96 16 112 96 16 112 96 16 112 96 16 112 96 16 112 96 16 112 96 16 112 96 16 112 96 16 112 96 16 112 96 16 112 96 16 112 96 16 112 96 16 112 96 16 112 96 16 112 96 16 112 96 16 112 96 16 112 96 16 112 96 16 112 96 16 112 96 16 112 96 16 112 96 16 112 96 16 112 96 16 112 96 16 112 96 16 240 96 16 240 96 16 240 96 16 240 96 16 240 96 16 240 96 16 240 96 16 240 96 16 240 96 16 240 96 16 240 96 16 240 96 16 240 96 16 240 96 16 240 96 16 240 96 16 240 96 16 240 96 16 240 96 16 240 96 16 240 96 16 240 96 16 240 96 16 240 96 16 240 96 16 240 96 16 240 96 16 240 96 16 240 96 16 240 96 16 240 96 16 240 96 16 48 48 56 48 48 56 48 48 56 48 48 56 48 48 56 48 48 56 48 48 56 48 48 56 48 48 56 48 48 56 48 48 56 48 48 56 48 48 56 48 48 56 48 48 56 48 48 56 48 48 56 48 48 56 48 48 56 48 48 56 48 48 56 48 48 56 48 48 56 48 48 56 48 48 56 48 48 56 48 48 56 48 48 56 48 48 56 48 48 56 48 48 56 48 48 56 48 48 56 48 48 56 48 48 56 48 48 56 48 48 56 48 48 56 48 48 56 48 48 56 48 48 56 48 48 56 48 48 56 48 48 56 48 48 56 48 48 56 48 48 56 48 48 56 48 48 56 48 48 56 48 48 56 48 48 56 48 48 56 48 48 56 48 48 56 48 48 56 48 48 56 48 48 56 48 48 56 48 48 56 48 48 56 48 48 56 48 48 56 48 48 56
112 96 16 112 96 16 112 96 16 112 96 16 112 96 16 112 96 16 112 96 16 112 96 16 112 96 16 112 96 16 112 96 16 112 96 16 112 96 16 112 96 16 112 96 16 112 96 16 112 96 16 112 96 16 112 96 16 112 96 16 112 96 16 112 96 16 112 96 16 112 96 16 112 96 16 112 96 16 112 96 16 112 96 16 112 96 16 112 96 16 112 96 16 112 96 16 240 96 16 240 96 16 240 96 16 240 96 16 240 96 16 240 96 16 240 96 16 240 96 16 240 96 16 240 96 16 240 96 16 240 96 16 240 96 16 240 96 16 240 96 16 240 96 16 240 96 16 240 96 16 240 96 16 240 96 16 240 96 16 240 96 16 240 96 16 240 96 16 240 96 16 240 96 16 240 96 16 240 96 16 240 96 16 240 96 16 240 96 16 240 96 16 48 48 56 48 48 56 48 48 56 48 48 56 48 48 56 48 48 56 48 48 56 48 48 56 48 48 56 48 48 56 48 48 56 48 48 56 48 48 56 48 48 56 48 48 56 48 48 56 48 48 56 48 48 56 48 48 56 48 48 56 48 48 56 48 48 56 48 48 56 48 48 56 48 48 56 48 48 56 48 48 56 48 48 56 48 48 56 48 48 56 48 48 56 48 48 56 48 48 56 48 48 56 48 48 56 48 48 56 48 48 56 48 48 56 48 48 56 48 48 56 48 48 56 48 48 56 48 48 56 48 48 56 48 48 56 48 48 56 48 48 56 48 48 56 48 48 56 48 48 56 48 48 56 48 48 56 48 48 56 48 48 56 48 48 56 48 48 56 48 48 56 48 48 56 48 48 56 48 48 56 48 48 56 48 48 56 48 48 56 48 48 56
112 96 16 112 96 16 112 96 16 112 96 16 112 96 16 112 96 16 112 96 16 112 96 16 112 96 16 112 96 16 112 96 16 112 96 16 112 96 16 112 96 16 112 96 16 112 96 16 112 96 16 112 96 16 112 96 16 112 96 16 112 96 16 112 96 16 112 96 16 112 96 16 112 96 16 112 96 16 112 96 16 112 96 16 112 96 16 112 96 16 112 96 16 112 96 16 240 96 16 240 96 16 240 96 16 240 96 16 240 96 16 240 96 16 240 96 16 240 96 16 240 96 16 240 96 16 240 96 16 240 96 16 240 96 16 240 96 16 240 96 16 240 96 16 240 96 16 240 96 16 240 96 16 240 96 16 240 96 16 240 96 16 240 96 16 240 96 16 240 96 16 240 96 16 240 96 16 240 96 16 240 96 16 240 96 16 240 96 16 240 96 16 48 48 56 48 48 56 48 48 56 48 48 56 48 48 56 48 48 56 48 48 56 48 48 56 48 48 56 48 48 56 48 48 56 48 48 56 48 48 56 48 48 56 48 48 56 48 48 56 48 48 56 48 48 56 48 48 56 48 48 56 48 48 56 48 48 56 48 48 56 48 48 56 48 48 56 48 48 56 48 48 56 48 48 56 48 48 56 48 48 56 48 48 56 48 48 56 48 48 56 48 48 56 48 48 56 48 48 56 48 48 56 48 48 56 48 48 56 48 48 56 48 48 56 48 48 56 48 48 56 48 48 56 48 48 56 48 48 56 48 48 56 48 48 56 48 48 56 48 48 56 48 48 56 48 48 56 48 48 56 48 48 56 48 48 56 48 48 56 48 48 56 48 48 56 48 48 56 48 48 56 48 48 56 48 48 56 48 48 56 48 48 56
112 96 16 112 96 16 112 96 16 112 96 16 112 96 16 112 96 16 112 96 16 112 96 16 112 96 16 112 96 16 112 96 16 112 96 16 112 96 16 112 96 16 112 96 16 112 96 16 112 96 16 112 96 16 112 96 16 112 96 16 112 96 16 112 96 16 112 96 16 112 96 16 112 96 16 112 96 16 112 96 16 112 96 16 112 96 16 112 96 16 112 96 16 112 96 16 240 96 16 240 96 16 240 96 16 240 96 16 240 96 16 240 96 16 240 96 16 240 96 16 240 96 16 240 96 16 240 96 16 240 96 16 240 96 16 240 96 16 240 96 16 240 96 16 240 96 16 240 96 16 240 96 16 240 96 16 240 96 16 240 96 16 240 96 16 240 96 16 240 96 16 240 96 16 240 96 16 240 96 16 240 96 16 240 96 16 240 96 16 240 96 16 48 48 56 48 48 56 48 48 56 48 48 56 48 48 56 48 48 56 48 48 56 48 48 56 48 48 56 48 48 56 48 48 56 48 48 56 48 48 56 48 48 56 48 48 56 48 48 56 48 48 56 48 48 56 48 48 56 48 48 56 48 48 56 48 48 56 48 48 56 48 48 56 48 48 56 48 48 56 48 48 56 48 48 56 48 48 56 48 48 56 48 48 56 48 48 56 48 48 56 48 48 56 48 48 56 48 48 56 48 48 56 48 48 56 48 48 56 48 48 56 48 48 56 48 48 56 48 48 56 48 48 56 48 48 56 48 48 56 48 48 56 48 48 56 48 48 56 48 48 56 48 48 56 48 48 56 48 48 56 48 48 56 48 48 56 48 48 56 48 48 56 48 48 56 48 48 56 48 48 56 48 48 56 48 48 56 48 48 56 48 48 56
112 96 16 112 96 16 112 96 16 112 96 16 112 96 16 112 96 16 112 96 16 112 96 16 112 96 16 112 96 16 112 96 16 112 96 16 112 96 16 112 96 16 112 96 16 112 96 16 112 96 16 112 96 16 112 96 16 112 96 16 112 96 16 112 96 16 112 96 16 112 96 16 112 96 16 112 96 16 112 96 16 112 96 16 112 96 16 112 96 16 112 96 16 112 96 16 240 96 16 240 96 16 240 96 16 240 96 16 240 96 16 240 96 16 240 96 16 240 96 16 240 96 16 240 96 16 240 96 16 240 96 16 240 96 16 240 96 16 240 96 16 240 96 16 240 96 16 240 96 16 240 96 16 240 96 16 240 96 16 240 96 16 240 96 16 240 96 16 240 96 16 240 96 16 240 96 16 240 96 16 240 96 16 240 96 16 240 96 16 240 96 16 48 48 56 48 48 56 48 48 56 48 48 56 48 48 56 48 48 56 48 48 56 48 48 56 48 48 56 48 48 56 48 48 56 48 48 56 48 48 56 48 48 56 48 48 56 48 48 56 48 48 56 48 48 56 48 48 56 48 48 56 48 48 56 48 48 56 48 48 56 48 48 56 48 48 56 48 48 56 48 48 56 48 48 56 48 48 56 48 48 56 48 48 56 48 48 56 48 48 56 48 48 56 48 48 56 48 48 56 48 48 56 48 48 56 48 48 56 48 48 56 48 48 56 48 48 56 48 48 56 48 48 56 48 48 56 48 48 56 48 48 56 48 48 56 48 48 56 48 48 56 48 48 56 48 48 56 48 48 56 48 48 56 48 48 56 48 48 56 48 48 56 48 48 56 48 48 56 48 48 56 48 48 56 48 48 56 48 48 56 48 48 56
112 96 16 112 96 16 112 96 16 112 96 16 112 96 16 112 96 16 112 96 16 112 96 16 112 96 16 112 96 16 112 96 16 112 96 16 112 96 16 112 96 16 112 96 16 112 96 16 112 96 16 112 96 16 112 96 16 112 96 16 112 96 16 112 96 16 112 96 16 112 96 16 112 96 16 112 96 16 112 96 16 112 96 16 112 96 16 112 96 16 112 96 16 112 96 16 240 96 16 240 96 16 240 96 16 240 96 16 240 96 16 240 96 16 240 96 16 240 96 16 240 96 16 240 96 16 240 96 16 240 96 16 240 96 16 240 96 16 240 96 16 240 96 16 240 96 16 240 96 16 240 96 16 240 96 16 240 96 16 240 96 16 240 96 16 240 96 16 240 96 16 240 96 16 240 96 16 240 96 16 240 96 16 240 96 16 240 96 16 240 96 16 48 48 56 48 48 56 48 48 56 48 48 56 48 48 56 48 48 56 48 48 56 48 48 56 48 48 56 48 48 56 48 48 56 48 48 56 48 48 56 48 48 56 48 48 56 48 48 56 48 48 56 48 48 56 48 48 56 48 48 56 48 48 56 48 48 56 48 48 56 48 48 56 48 48 56 48 48 56 48 48 56 48 48 56 48 48 56 48 48 56 48 48 56 48 48 56 48 48 56 48 48 56 48 48 56 48 48 56 48 48 56 48 48 56 48 48 56 48 48 56 48 48 56 48 48 56 48 48 56 48 48 56 48 48 56 48 48 56 48 48 56 48 48 56 48 48 56 48 48 56 48 48 56 48 48 56 48 48 56 48 48 56 48 48 56 48 48 56 48 48 56 48 48 56 48 48 56 48 48 56 48 48 56 48 48 56 48 48 56 48 48 56
112 96 16 112 96 16 112 96 16 112 96 16 112 96 16 112 96 16 112 96 16 112 96 16 112 96 16 112 96 16 112 96 16 112 96 16 112 96 16 112 96 16 112 96 16 112 96 16 112 96 16 112 96 16 112 96 16 112 96 16 112 96 16 112 96 16 112 96 16 112 96 16 112 96 16 112 96 16 112 96 16 112 96 16 112 96 16 112 96 16 112 96 16 112 96 16 240 96 16 240 96 16 240 96 16 240 96 16 240 96 16 240 96 16 240 96 16 240 96 16 240 96 16 240 96 16 240 96 16 240 96 16 240 96 16 240 96 16 240 96 16 240 96 16 240 96 16 240 96 16 240 96 16 240 96 16 240 96 16 240 96 16 240 96 16 240 96 16 240 96 16 240 96 16 240 96 16 240 96 16 240 96 16 240 96 16 240 96 16 240 96 16 48 48 56 48 48 56 48 48 56 48 48 56 48 48 56 48 48 56 48 48 56 48 48 56 48 48 56 48 48 56 48 48 56 48 48 56 48 48 56 48 48 56 48 48 56 48 48 56 48 48 56 48 48 56 48 48 56 48 48 56 48 48 56 48 48 56 48 48 56 48 48 56 48 48 56 48 48 56 48 48 56 48 48 56 48 48 56 48 48 56 48 48 56 48 48 56 48 48 56 48 48 56 48 48 56 48 48 56 48 48 56 48 48 56 48 48 56 48 48 56 48 48 56 48 48 56 48 48 56 48 48 56 48 48 56 48 48 56 48 48 56 48 48 56 48 48 56 48 48 56 48 48 56 48 48 56 48 48 56 48 48 56 48 48 56 48 48 56 48 48 56 48 48 56 48 48 56 48 48 56 48 48 56 48 48 56 48 48 56 48 48 56
112 96 16 112 96 16 112 96 16 112 96 16 112 96 16 112 96 16 112 96 16 112 96 16 112 96 16 112 96 16 112 96 16 112 96 16 112 96 16 112 96 16 112 96 16 112 96 16 112 96 16 112 96 16 112 96 16 112 96 16 112 96 16 112 96 16 112 96 16 112 96 16 112 96 16 112 96 16 112 96 16 112 96 16 112 96 16 112 96 16 112 96 16 112 96 16 240 96 16 240 96 16 240 96 16 240 96 16 240 96 16 240 96 16 240 96 16 240 96 16 240 96 16 240 96 16 240 96 16 240 96 16 240 96 16 240 96 16 240 96 16 240 96 16 240 96 16 240 96 16 240 96 16 240 96 16 240 96 16 240 96 16 240 96 16 240 96 16 240 96 16 240 96 16 240 96 16 240 96 16 240 96 16 240 96 16 240 96 16 240 96 16 48 48 56 48 48 56 48 48 56 48 48 56 48 48 56 48 48 56 48 48 56 48 48 56 48 48 56 48 48 56 48 48 56 48 48 56 48 48 56 48 48 56 48 48 56 48 48 56 48 48 56 48 48 56 48 48 56 48 48 56 48 48 56 48 48 56 48 48 56 48 48 56 48 48 56 48 48 56 48 48 56 48 48 56 48 48 56 48 48 56 48 48 56 48 48 56 48 48 56 48 48 56 48 48 56 48 48 56 48 48 56 48 48 56 48 48 56 48 48 56 48 48 56 48 48 56 48 48 56 48 48 56 48 48 56 48 48 56 48 48 56 48 48 56 48 48 56 48 48 56 48 48 56 48 48 56 48 48 56 48 48 56 48 48 56 48 48 56 48 48 56 48 48 56 48 48 56 48 48 56 48 48 56 48 48 56 48 48 56 48 48 56
112 96 16 112 96 16 112 96 16 112 96 16 112 96 16 112 96 16 112 96 16 112 96 16 112 96 16 112 96 16 112 96 16 112 96 16 112 96 16 112 96 16 112 96 16 112 96 16 112 96 16 112 96 16 112 96 16 112 96 16 112 96 16 112 96 16 112 96 16 112 96 16 112 96 16 112 96 16 112 96 16 112 96 16 112 96 16 112 96 16 112 96 16 112 96 16 240 96 16 240 96 16 240 96 16 240 96 16 240 96 16 240 96 16 240 96 16 240 96 16 240 96 16 240 96 16 240 96 16 240 96 16 240 96 16 240 96 16 240 96 16 240 96 16 240 96 16 240 96 16 240 96 16 240 96 16 240 96 16 240 96 16 240 96 16 240 96 16 240 96 16 240 96 16 240 96 16 240 96 16 240 96 16 240 96 16 240 96 16 240 96 16 48 48 56 48 48 56 48 48 56 48 48 56 48 48 56 48 48 56 48 48 56 48 48 56 48 48 56 48 48 56 48 48 56 48 48 56 48 48 56 48 48 56 48 48 56 48 48 56 48 48 56 48 48 56 48 48 56 48 48 56 48 48 56 48 48 56 48 48 56 48 48 56 48 48 56 48 48 56 48 48 56 48 48 56 48 48 56 48 48 56 48 48 56 48 48 56 48 48 56 48 48 56 48 48 56 48 48 56 48 48 56 48 48 56 48 48 56 48 48 56 48 48 56 48 48 56 48 48 56 48 48 56 48 48 56 48 48 56 48 48 56 48 48 56 48 48 56 48 48 56 48 48 56 48 48 56 48 48 56 48 48 56 48 48 56 48 48 56 48 48 56 48 48 56 48 48 56 48 48 56 48 48 56 48 48 56 48 48 56 48 48 56
112 96 16 112 96 16 112 96 16 112 96 16 112 96 16 112 96 16 112 96 16 112 96 16 112 96 16 112 96 16 112 96 16 112 96 16 112 96 16 112 96 16 112 96 16 112 96 16 112 96 16 112 96 16 112 96 16 112 96 16 112 96 16 112 96 16 112 96 16 112 96 16 112 96 16 112 96 16 112 96 16 112 96 16 112 96 16 112 96 16 112 96 16 112 96 16 240 96 16 240 96 16 240 96 16 240 96 16 240 96 16 240 96 16 240 96 16 240 96 16 240 96 16 240 96 16 240 96 16 240 96 16 240 96 16 240 96 16 240 96 16 240 96 16 240 96 16 240 96 16 240 96 16 240 96 16 240 96 16 240 96 16 240 96 16 240 96 16 240 96 16 240 96 16 240 96 16 240 96 16 240 96 16 240 96 16 240 96 16 240 96 16 48 48 56 48 48 56 48 48 56 48 48 56 48 48 56 48 48 56 48 48 56 48 48 56 48 48 56 48 48 56 48 48 56 48 48 56 48 48 56 48 48 56 48 48 56 48 48 56 48 48 56 48 48 56 48 48 56 48 48 56 48 48 56 48 48 56 48 48 56 48 48 56 48 48 56 48 48 56 48 48 56 48 48 56 48 48 56 48 48 56 48 48 56 48 48 56 48 48 56 48 48 56 48 48 56 48 48 56 48 48 56 48 48 56 48 48 56 48 48 56 48 48 56 48 48 56 48 48 56 48 48 56 48 48 56 48 48 56 48 48 56 48 48 56 48 48 56 48 48 56 48 48 56 48 48 56 48 48 56 48 48 56 48 48 56 48 48 56 48 48 56 48 48 56 48 48 56 48 48 56 48 48 56 48 48 56 48 48 56 48 48 56
112 96 16 112 96 16 112 96 16 112 96 16 112 96 16 112 96 16 112 96 16 112 96 16 112 96 16 112 96 16 112 96 16 112 96 16 112 96 16 112 96 16 112 96 16 112 96 16 112 96 16 112 96 16 112 96 16 112 96 16 112 96 16 112 96 16 112 96 16 112 96 16 112 96 16 112 96 16 112 96 16 112 96 16 112 96 16 112 96 16 112 96 16 112 96 16 240 96 16 240 96 16 240 96 16 240 96 16 240 96 16 240 96 16 240 96 16 240 96 16 240 96 16 240 96 16 240 96 16 240 96 16 240 96 16 240 96 16 240 96 16 240 96 16 240 96 16 240 96 16 240 96 16 240 96 16 240 96 16 240 96 16 240 96 16 240 96 16 240 96 16 240 96 16 240 96 16 240 96 16 240 96 16 240 96 16 240 96 16 240 96 16 48 48 56 48 48 56 48 48 56 48 48 56 48 48 56 48 48 56 48 48 56 48 48 56 48 48 56 48 48 56 48 48 56 48 48 56 48 48 56 48 48 56 48 48 56 48 48 56 48 48 56 48 48 56 48 48 56 48 48 56 48 48 56 48 48 56 48 48 56 48 48 56 48 48 56 48 48 56 48 48 56 48 48 56 48 48 56 48 48 56 48 48 56 48 48 56 48 48 56 48 48 56 48 48 56 48 48 56 48 48 56 48 48 56 48 48 56 48 48 56 48 48 56 48 48 56 48 48 56 48 48 56 48 48 56 48 48 56 48 48 56 48 48 56 48 48 56 48 48 56 48 48 56 48 48 56 48 48 56 48 48 56 48 48 56 48 48 56 48 48 56 48 48 56 48 48 56 48 48 56 48 48 56 48 48 56 48 48 56 48 48 56
112 96 16 112 96 16 112 96 16 112 96 16 112 96 16 112 96 16 112 96 16 112 96 16 112 96 16 112 96 16 112 96 16 112 96 16 112 96 16 112 96 16 112 96 16 112 96 16 112 96 16 112 96 16 112 96 16 112 96 16 112 96 16 112 96 16 112 96 16 112 96 16 112 96 16 112 96 16 112 96 16 112 96 16 112 96 16 112 96 16 112 96 16 112 96 16 240 96 16 240 96 16 240 96 16 240 96 16 240 96 16 240 96 16 240 96 16 240 96 16 240 96 16 240 96 16 240 96 16 240 96 16 240 96 16 240 96 16 240 96 16 240 96 16 240 96 16 240 96 16 240 96 16 240 96 16 240 96 16 240 96 16 240 96 16 240 96 16 240 96 16 240 96 16 240 96 16 240 96 16 240 96 16 240 96 16 240 96 16 240 96 16 48 48 56 48 48 56 48 48 56 48 48 56 48 48 56 48 48 56 48 48 56 48 48 56 48 48 56 48 48 56 48 48 56 48 48 56 48 48 56 48 48 56 48 48 56 48 48 56 48 48 56 48 48 56 48 48 56 48 48 56 48 48 56 48 48 56 48 48 56 48 48 56 48 48 56 48 48 56 48 48 56 48 48 56 48 48 56 48 48 56 48 48 56 48 48 56 48 48 56 48 48 56 48 48 56 48 48 56 48 48 56 48 48 56 48 48 56 48 48 56 48 48 56 48 48 56 48 48 56 48 48 56 48 48 56 48 48 56 48 48 56 48 48 56 48 48 56 48 48 56 48 48 56 48 48 56 48 48 56 48 48 56 48 48 56 48 48 56 48 48 56 48 48 56 48 48 56 48 48 56 48 48 56 48 48 56 48 48 56 48 48 56
112 96 16 112 96 16 112 96 16 112 96 16 112 96 16 112 96 16 112 96 16 112 96 16 112 96 16 112 96 16 112 96 16 112 96 16 112 96 16 112 96 16 112 96 16 112 96 16 112 96 16 112 96 16 112 96 16 112 96 16 112 96 16 112 96 16 112 96 16 112 96 16 112 96 16 112 96 16 112 96 16 112 96 16 112 96 16 112 96 16 112 96 16 112 96 16 240 96 16 240 96 16 240 96 16 240 96 16 240 96 16 240 96 16 240 96 16 240 96 16 240 96 16 240 96 16 240 96 16 240 96 16 240 96 16 240 96 16 240 96 16 240 96 16 240 96 16 240 96 16 240 96 16 240 96 16 240 96 16 240 96 16 240 96 16 240 96 16 240 96 16 240 96 16 240 96 16 240 96 16 240 96 16 240 96 16 240 96 16 240 96 16 48 48 56 48 48 56 48 48 56 48 48 56 48 48 56 48 48 56 48 48 56 48 48 56 48 48 56 48 48 56 48 48 56 48 48 56 48 48 56 48 48 56 48 48 56 48 48 56 48 48 56 48 48 56 48 48 56 48 48 56 48 48 56 48 48 56 48 48 56 48 48 56 48 48 56 48 48 56 48 48 56 48 48 56 48 48 56 48 48 56 48 48 56 48 48 56 48 48 56 48 48 56 48 48 56 48 48 56 48 48 56 48 48 56 48 48 56 48 48 56 48 48 56 48 48 56 48 48 56 48 48 56 48 48 56 48 48 56 48 48 56 48 48 56 48 48 56 48 48 56 48 48 56 48 48 56 48 48 56 48 48 56 48 48 56 48 48 56 48 48 56 48 48 56 48 48 56 48 48 56 48 48 56 48 48 56 48 48 56 48 48 56
112 96 16 112 96 16 112 96 16 112 96 16 112 96 16 112 96 16 112 96 16 112 96 16 112 96 16 112 96 16 112 96 16 112 96 16 112 96 16 112 96 16 112 96 16 112 96 16 112 96 16 112 96 16 112 96 16 112 96 16 112 96 16 112 96 16 112 96 16 112 96 16 112 96 16 112 96 16 112 96 16 112 96 16 112 96 16 112 96 16 112 96 16 112 96 16 240 96 16 240 96 16 240 96 16 240 96 16 240 96 16 240 96 16 240 96 16 240 96 16 240 96 16 240 96 16 240 96 16 240 96 16 240 96 16 240 96 16 240 96 16 240 96 16 240 96 16 240 96 16 240 96 16 240 96 16 240 96 16 240 96 16 240 96 16 240 96 16 240 96 16 240 96 16 240 96 16 240 96 16 240 96 16 240 96 16 240 96 16 240 96 16 48 48 56 48 48 56 48 48 56 48 48 56 48 48 56 48 48 56 48 48 56 48 48 56 48 48 56 48 48 56 48 48 56 48 48 56 48 48 56 48 48 56 48 48 56 48 48 56 48 48 56 48 48 56 48 48 56 48 48 56 48 48 56 48 48 56 48 48 56 48 48 56 48 48 56 48 48 56 48 48 56 48 48 56 48 48 56 48 48 56 48 48 56 48 48 56 48 48 56 48 48 56 48 48 56 48 48 56 48 48 56 48 48 56 48 48 56 48 48 56 48 48 56 48 48 56 48 48 56 48 48 56 48 48 56 48 48 56 48 48 56 48 48 56 48 48 56 48 48 56 48 48 56 48 48 56 48 48 56 48 48 56 48 48 56 48 48 56 48 48 56 48 48 56 48 48 56 48 48 56 48 48 56 48 48 56 48 48 56 48 48 56
112 96 16 112 96 16 112 96 16 112 96 16 112 96 16 112 96 16 112 96 16 112 96 16 112 96 16 112 96 16 112 96 16 112 96 16 112 96 16 112 96 16 112 96 16 112 96 16 112 96 16 112 96 16 112 96 16 112 96 16 112 96 16 112 96 16 112 96 16 112 96 16 112 96 16 112 96 16 112 96 16 112 96 16 112 96 16 112 96 16 112 96 16 112 96 16 240 96 16 240 96 16 240 96 16 240 96 16 240 96 16 240 96 16 240 96 16 240 96 16 240 96 16 240 96 16 240 96 16 240 96 16 240 96 16 240 96 16 240 96 16 240 96 16 240 96 16 240 96 16 240 96 16 240 96 16 240 96 16 240 96 16 240 96 16 240 96 16 240 96 16 240 96 16 240 96 16 240 96 16 240 96 16 240 96 16 240 96 16 240 96 16 48 48 56 48 48 56 48 48 56 48 48 56 48 48 56 48 48 56 48 48 56 48 48 56 48 48 56 48 48 56 48 48 56 48 48 56 48 48 56 48 48 56 48 48 56 48 48 56 48 48 56 48 48 56 48 48 56 48 48 56 48 48 56 48 48 56 48 48 56 48 48 56 48 48 56 48 48 56 48 48 56 48 48 56 48 48 56 48 48 56 48 48 56 48 48 56 48 48 56 48 48 56 48 48 56 48 48 56 48 48 56 48 48 56 48 48 56 48 48 56 48 48 56 48 48 56 48 48 56 48 48 56 48 48 56 48 48 56 48 48 56 48 48 56 48 48 56 48 48 56 48 48 56 48 48 56 48 48 56 48 48 56 48 48 56 48 48 56 48 48 56 48 48 56 48 48 56 48 48 56 48 48 56 48 48 56 48 48 56 48 48 56
112 96 16 112 96 16 112 96 16 112 96 16 112 96 16 112 96 16 112 96 16 112 96 16 112 96 16 112 96 16 112 96 16 112 96 16 112 96 16 112 96 16 112 96 16 112 96 16 112 96 16 112 96 16 112 96 16 112 96 16 112 96 16 112 96 16 112 96 16 112 96 16 112 96 16 112 96 16 112 96 16 112 96 16 112 96 16 112 96 16 112 96 16 112 96 16 240 96 16 240 96 16 240 96 16 240 96 16 240 96 16 240 96 16 240 96 16 240 96 16 240 96 16 240 96 16 240 96 16 240 96 16 240 96 16 240 96 16 240 96 16 240 96 16 240 96 16 240 96 16 240 96 16 240 96 16 240 96 16 240 96 16 240 96 16 240 96 16 240 96 16 240 96 16 240 96 16 240 96 16 240 96 16 240 96 16 240 96 16 240 96 16 48 48 56 48 48 56 48 48 56 48 48 56 48 48 56 48 48 56 48 48 56 48 48 56 48 48 56 48 48 56 48 48 56 48 48 56 48 48 56 48 48 56 48 48 56 48 48 56 48 48 56 48 48 56 48 48 56 48 48 56 48 48 56 48 48 56 48 48 56 48 48 56 48 48 56 48 48 56 48 48 56 48 48 56 48 48 56 48 48 56 48 48 56 48 48 56 48 48 56 48 48 56 48 48 56 48 48 56 48 48 56 48 48 56 48 48 56 48 48 56 48 48 56 48 48 56 48 48 56 48 48 56 48 48 56 48 48 56 48 48 56 48 48 56 48 48 56 48 48 56 48 48 56 48 48 56 48 48 56 48 48 56 48 48 56 48 48 56 48 48 56 48 48 56 48 48 56 48 48 56 48 48 56 48 48 56 48 48 56 48 48 56
112 96 16 112 96 16 112 96 16 112 96 16 112 96 16 112 96 16 112 96 16 112 96 16 112 96 16 112 96 16 112 96 16 112 96 16 112 96 16 112 96 16 112 96 16 112 96 16 112 96 16 112 96 16 112 96 16 112 96 16 112 96 16 112 96 16 112 96 16 112 96 16 112 96 16 112 96 16 112 96 16 112 96 16 112 96 16 112 96 16 112 96 16 112 96 16 240 96 16 240 96 16 240 96 16 240 96 16 240 96 16 240 96 16 240 96 16 240 96 16 240 96 16 240 96 16 240 96 16 240 96 16 240 96 16 240 96 16 240 96 16 240 96 16 240 96 16 240 96 16 240 96 16 240 96 16 240 96 16 240 96 16 240 96 16 240 96 16 240 96 16 240 96 16 240 96 16 240 96 16 240 96 16 240 96 16 240 96 16 240 96 16 48 48 56 48 48 56 48 48 56 48 48 56 48 48 56 48 48 56 48 48 56 48 48 56 48 48 56 48 48 56 48 48 56 48 48 56 48 48 56 48 48 56 48 48 56 48 48 56 48 48 56 48 48 56 48 48 56 48 48 56 48 48 56 48 48 56 48 48 56 48 48 56 48 48 56 48 48 56 48 48 56 48 48 56 48 48 56 48 48 56 48 48 56 48 48 56 48 48 56 48 48 56 48 48 56 48 48 56 48 48 56 48 48 56 48 48 56 48 48 56 48 48 56 48 48 56 48 48 56 48 48 56 48 48 56 48 48 56 48 48 56 48 48 56 48 48 56 48 48 56 48 48 56 48 48 56 48 48 56 48 48 56 48 48 56 48 48 56 48 48 56 48 48 56 48 48 56 48 48 56 48 48 56 48 48 56 48 48 56 48 48 56
112 96 16 112 96 16 112 96 16 112 96 16 112 96 16 112 96 16 112 96 16 112 96 16 112 96 16 112 96 16 112 96 16 112 96 16 112 96 16 112 96 16 112 96 16 112 96 16 112 96 16 112 96 16 112 96 16 112 96 16 112 96 16 112 96 16 112 96 16 112 96 16 112 96 16 112 96 16 112 96 16 112 96 16 112 96 16 112 96 16 112 96 16 112 96 16 240 96 16 240 96 16 240 96 16 240 96 16 240 96 16 240 96 16 240 96 16 240 96 16 240 96 16 240 96 16 240 96 16 240 96 16 240 96 16 240 96 16 240 96 16 240 96 16 240 96 16 240 96 16 240 96 16 240 96 16 240 96 16 240 96 16 240 96 16 240 96 16 240 96 16 240 96 16 240 96 16 240 96 16 240 96 16 240 96 16 240 96 16 240 96 16 48 48 56 48 48 56 48 48 56 48 48 56 48 48 56 48 48 56 48 48 56 48 48 56 48 48 56 48 48 56 48 48 56 48 48 56 48 48 56 48 48 56 48 48 56 48 48 56 48 48 56 48 48 56 48 48 56 48 48 56 48 48 56 48 48 56 48 48 56 48 48 56 48 48 56 48 48 56 48 48 56 48 48 56 48 48 56 48 48 56 48 48 56 48 48 56 48 48 56 48 48 56 48 48 56 48 48 56 48 48 56 48 48 56 48 48 56 48 48 56 48 48 56 48 48 56 48 48 56 48 48 56 48 48 56 48 48 56 48 48 56 48 48 56 48 48 56 48 48 56 48 48 56 48 48 56 48 48 56 48 48 56 48 48 56 48 48 56 48 48 56 48 48 56 48 48 56 48 48 56 48 48 56 48 48 56 48 48 56 48 48 56
112 96 16 112 96 16 112 96 16 112 96 16 112 96 16 112 96 16 112 96 16 112 96 16 112 96 16 112 96 16 112 96 16 112 96 16 112 96 16 112 96 16 112 96 16 112 96 16 112 96 16 112 96 16 112 96 16 112 96 16 112 96 16 112 96 16 112 96 16 112 96 16 112 96 16 112 96 16 112 96 16 112 96 16 112 96 16 112 96 16 112 96 16 112 96 16 240 96 16 240 96 16 240 96 16 240 96 16 240 96 16 240 96 16 240 96 16 240 96 16 240 96 16 240 96 16 240 96 16 240 96 16 240 96 16 240 96 16 240 96 16 240 96 16 240 96 16 240 96 16 240 96 16 240 96 16 240 96 16 240 96 16 240 96 16 240 96 16 240 96 16 240 96 16 240 96 16 240 96 16 240 96 16 240 96 16 240 96 16 240 96 16 48 48 56 48 48 56 48 48 56 48 48 56 48 48 56 48 48 56 48 48 56 48 48 56 48 48 56 48 48 56 48 48 56 48 48 56 48 48 56 48 48 56 48 48 56 48 48 56 48 48 56 48 48 56 48 48 56 48 48 56 48 48 56 48 48 56 48 48 56 48 48 56 48 48 56 48 48 56 48 48 56 48 48 56 48 48 56 48 48 56 48 48 56 48 48 56 48 48 56 48 48 56 48 48 56 48 48 56 48 48 56 48 48 56 48 48 56 48 48 56 48 48 56 48 48 56 48 48 56 48 48 56 48 48 56 48 48 56 48 48 56 48 48 56 48 48 56 48 48 56 48 48 56 48 48 56 48 48 56 48 48 56 48 48 56 48 48 56 48 48 56 48 48 56 48 48 56 48 48 56 48 48 56 48 48 56 48 48 56 48 48 56
112 96 16 112 96 16 112 96 16 112 96 16 112 96 16 112 96 16 112 96 16 112 96 16 112 96 16 112 96 16 112 96 16 112 96 16 112 96 16 112 96 16 112 96 16 112 96 16 112 96 16 112 96 16 112 96 16 112 96 16 112 96 16 112 96 16 112 96 16 112 96 16 112 96 16 112 96 16 112 96 16 112 96 16 112 96 16 112 96 16 112 96 16 112 96 16 240 96 16 240 96 16 240 96 16 240 96 16 240 96 16 240 96 16 240 96 16 240 96 16 240 96 16 240 96 16 240 96 16 240 96 16 240 96 16 240 96 16 240 96 16 240 96 16 240 96 16 240 96 16 240 96 16 240 96 16 240 96 16 240 96 16 240 96 16 240 96 16 240 96 16 240 96 16 240 96 16 240 96 16 240 96 16 240 96 16 240 96 16 240 96 16 48 48 56 48 48 56 48 48 56 48 48 56 48 48 56 48 48 56 48 48 56 48 48 56 48 48 56 48 48 56 48 48 56 48 48 56 48 48 56 48 48 56 48 48 56 48 48 56 48 48 56 48 48 56 48 48 56 48 48 56 48 48 56 48 48 56 48 48 56 48 48 56 48 48 56 48 48 56 48 48 56 48 48 56 48 48 56 48 48 56 48 48 56 48 48 56 48 48 56 48 48 56 48 48 56 48 48 56 48 48 56 48 48 56 48 48 56 48 48 56 48 48 56 48 48 56 48 48 56 48 48 56 48 48 56 48 48 56 48 48 56 48 48 56 48 48 56 48 48 56 48 48 56 48 48 56 48 48 56 48 48 56 48 48 56 48 48 56 48 48 56 48 48 56 48 48 56 48 48 56 48 48 56 48 48 56 48 48 56 48 48 56
112 96 16 112 96 16 112 96 16 112 96 16 112 96 16 112 96 16 112 96 16 112 96 16 112 96 16 112 96 16 112 96 16 112 96 16 112 96 16 112 96 16 112 96 16 112 96 16 112 96 16 112 96 16 112 96 16 112 96 16 112 96 16 112 96 16 112 96 16 112 96 16 112 96 16 112 96 16 112 96 16 112 96 16 112 96 16 112 96 16 112 96 16 112 96 16 240 96 16 240 96 16 240 96 16 240 96 16 240 96 16 240 96 16 240 96 16 240 96 16 240 96 16 240 96 16 240 96 16 240 96 16 240 96 16 240 96 16 240 96 16 240 96 16 240 96 16 240 96 16 240 96 16 240 96 16 240 96 16 240 96 16 240 96 16 240 96 16 240 96 16 240 96 16 240 96 16 240 96 16 240 96 16 240 96 16 240 96 16 240 96 16 48 48 56 48 48 56 48 48 56 48 48 56 48 48 56 48 48 56 48 48 56 48 48 56 48 48 56 48 48 56 48 48 56 48 48 56 48 48 56 48 48 56 48 48 56 48 48 56 48 48 56 48 48 56 48 48 56 48 48 56 48 48 56 48 48 56 48 48 56 48 48 56 48 48 56 48 48 56 48 48 56 48 48 56 48 48 56 48 48 56 48 48 56 48 48 56 48 48 56 48 48 56 48 48 56 48 48 56 48 48 56 48 48 56 48 48 56 48 48 56 48 48 56 48 48 56 48 48 56 48 48 56 48 48 56 48 48 56 48 48 56 48 48 56 48 48 56 48 48 56 48 48 56 48 48 56 48 48 56 48 48 56 48 48 56 48 48 56 48 48 56 48 48 56 48 48 56 48 48 56 48 48 56 48 48 56 48 48 56 48 48 56
112 96 16 112 96 16 112 96 16 112 96 16 112 96 16 112 96 16 112 96 16 112 96 16 112 96 16 112 96 16 112 96 16 112 96 16 112 96 16 112 96 16 112 96 16 112 96 16 112 96 16 112 96 16 112 96 16 112 96 16 112 96 16 112 96 16 112 96 16 112 96 16 112 96 16 112 96 16 112 96 16 112 96 16 112 96 16 112 96 16 112 96 16 112 96 16 240 96 16 240 96 16 240 96 16 240 96 16 240 96 16 240 96 16 240 96 16 240 96 16 240 96 16 240 96 16 240 96 16 240 96 16 240 96 16 240 96 16 240 96 16 240 96 16 240 96 16 240 96 16 240 96 16 240 96 16 240 96 16 240 96 16 240 96 16 240 96 16 240 96 16 240 96 16 240 96 16 240 96 16 240 96 16 240 96 16 240 96 16 240 96 16 48 48 56 48 48 56 48 48 56 48 48 56 48 48 56 48 48 56 48 48 56 48 48 56 48 48 56 48 48 56 48 48 56 48 48 56 48 48 56 48 48 56 48 48 56 48 48 56 48 48 56 48 48 56 48 48 56 48 48 56 48 48 56 48 48 56 48 48 56 48 48 56 48 48 56 48 48 56 48 48 56 48 48 56 48 48 56 48 48 56 48 48 56 48 48 56 48 48 56 48 48 56 48 48 56 48 48 56 48 48 56 48 48 56 48 48 56 48 48 56 48 48 56 48 48 56 48 48 56 48 48 56 48 48 56 48 48 56 48 48 56 48 48 56 48 48 56 48 48 56 48 48 56 48 48 56 48 48 56 48 48 56 48 48 56 48 48 56 48 48 56 48 48 56 48 48 56 48 48 56 48 48 56 48 48 56 48 48 56 48 48 56
112 96 16 112 96 16 112 96 16 112 96 16 112 96 16 112 96 16 112 96 16 112 96 16 112 96 16 112 96 16 112 96 16 112 96 16 112 96 16 112 96 16 112 96 16 112 96 16 112 96 16 112 96 16 112 96 16 112 96 16 112 96 16 112 96 16 112 96 16 112 96 16 112 96 16 112 96 16 112 96 16 112 96 16 112 96 16 112 96 16 112 96 16 112 96 16 240 96 16 240 96 16 240 96 16 240 96 16 240 96 16 240 96 16 240 96 16 240 96 16 240 96 16 240 96 16 240 96 16 240 96 16 240 96 16 240 96 16 240 96 16 240 96 16 240 96 16 240 96 16 240 96 16 240 96 16 240 96 16 240 96 16 240 96 16 240 96 16 240 96 16 240 96 16 240 96 16 240 96 16 240 96 16 240 96 16 240 96 16 240 96 16 48 48 56 48 48 56 48 48 56 48 48 56 48 48 56 48 48 56 48 48 56 48 48 56 48 48 56 48 48 56 48 48 56 48 48 56 48 48 56 48 48 56 48 48 56 48 48 56 48 48 56 48 48 56 48 48 56 48 48 56 48 48 56 48 48 56 48 48 56 48 48 56 48 48 56 48 48 56 48 48 56 48 48 56 48 48 56 48 48 56 48 48 56 48 48 56 48 48 56 48 48 56 48 48 56 48 48 56 48 48 56 48 48 56 48 48 56 48 48 56 48 48 56 48 48 56 48 48 56 48 48 56 48 48 56 48 48 56 48 48 56 48 48 56 48 48 56 48 48 56 48 48 56 48 48 56 48 48 56 48 48 56 48 48 56 48 48 56 48 48 56 48 48 56 48 48 56 48 48 56 48 48 56 48 48 56 48 48 56 48 48 56
248 96 16 248 96 16 248 96 16 248 96 16 248 96 16 248 96 16 248 96 16 248 96 16 248 96 16 248 96 16 248 96 16 248 96 16 248 96 16 248 96 16 248 96 16 248 96 16 248 96 16 248 96 16 248 96 16 248 96 16 248 96 16 248 96 16 248 96 16 248 96 16 248 96 16 248 96 16 248 96 16 248 96 16 248 96 16 248 96 16 248 96 16 248 96 16 48 48 56 48 48 56 48 48 56 48 48 56 48 48 56 48 48 56 48 48 56 48 48 56 48 48 56 48 48 56 48 48 56 48 48 56 48 48 56 48 48 56 48 48 56 48 48 56 48 48 56 48 48 56 48 48 56 48 48 56 48 48 56 48 48 56 48 48 56 48 48 56 48 48 56 48 48 56 48 48 56 48 48 56 48 48 56 48 48 56 48 48 56 48 48 56 120 96 144 120 96 144 120 96 144 120 96 144 120 96 144 120 96 144 120 96 144 120 96 144 120 96 144 120 96 144 120 96 144 120 96 144 120 96 144 120 96 144 120 96 144 120 96 144 120 96 144 120 96 144 120 96 144 120 96 144 120 96 144 120 96 144 120 96 144 120 96 144 120 96 144 120 96 144 120 96 144 120 96 144 120 96 144 120 96 144 120 96 144 120 96 144 240 96 144 240 96 144 240 96 144 240 96 144 240 96 144 240 96 144 240 96 144 240 96 144 240 96 144 240 96 144 240 96 144 240 96 144 240 96 144 240 96 144 240 96 144 240 96 144 240 96 144 240 96 144 240 96 144 240 96 144 240 96 144 240 96 144 240 96 144 240 96 144 240 96 144 240 96 144 240 96 144 240 96 144 240 96 144 240 96 144 240 96 144 240 96 144
248 96 16 248 96 16 248 96 16 248 96 16 248 96 16 248 96 16 248 96 16 248 96 16 248 96 16 248 96 16 248 96 16 248 96 16 248 96 16 248 96 16 248 96 16 248 96 16 248 96 16 248 96 16 248 96 16 248 96 16 248 96 16 248 96 16 248 96 16 248 96 16 248 96 16 248 96 16 248 96 16 248 96 16 248 96 16 248 96 16 248 96 16 248 96 16 48 48 56 48 48 56 48 48 56 48 48 56 48 48 56 48 48 56 48 48 56 48 48 56 48 48 56 48 48 56 48 48 56 48 48 56 48 48 56 48 48 56 48 48 56 48 48 56 48 48 56 48 48 56 48 48 56 48 48 56 48 48 56 48 48 56 48 48 56 48 48 56 48 48 56 48 48 56 48 48 56 48 48 56 48 48 56 48 48 56 48 48 56 48 48 56 120 96 144 120 96 144 120 96 144 120 96 144 120 96 144 120 96 144 120 96 144 120 96 144 120 96 144 120 96 144 120 96 144 120 96 144 120 96 144 120 96 144 120 96 144 120 96 144 120 96 144 120 96 144 120 96 144 120 96 144 120 96 144 120 96 144 120 96 144 120 96 144 120 96 144 120 96 144 120 96 144 120 96 144 120 96 144 120 96 144 120 96 144 120 96 144 240 96 144 240 96 144 240 96 144 240 96 144 240 96 144 240 96 144 240 96 144 240 96 144 240 96 144 240 96 144 240 96 144 240 96 144 240 96 144 240 96 144 240 96 144 240 96 144 240 96 144 240 96 144 240 96 144 240 96 144 240 96 144 240 96 144 240 96 144 240 96 144 240 96 144 240 96 144 240 96 144 240 96 144 240 96 144 240 96 144 240 96 144 240 96 144
248 96 16 248 96 16 248 96 16 248 96 16 248 96 16 248 96 16 248 96 16 248 96 16 248 96 16 248 96 16 248 96 16 248 96 16 248 96 16 248 96 16 248 96 16 248 96 16 248 96 16 248 96 16 248 96 16 248 96 16 248 96 16 248 96 16 248 96 16 248 96 16 248 96 16 248 96 16 248 96 16 248 96 16 248 96 16 248 96 16 248 96 16 248 96 16 48 48 56 48 48 56 48 48 56 48 48 56 48 48 56 48 48 56 48 48 56 48 48 56 48 48 56 48 48 56 48 48 56 48 48 56 48 48 56 48 48 56 48 48 56 48 48 56 48 48 56 48 48 56 48 48 56 48 48 56 48 48 56 48 48 56 48 48 56 48 48 56 48 48 56 48 48 56 48 48 56 48 48 56 48 48 56 48 48 56 48 48 56 48 48 56 120 96 144 120 96 144 120 96 144 120 96 144 120 96 144 120 96 144 120 96 144 120 96 144 120 96 144 120 96 144 120 96 144 120 96 144 120 96 144 120 96 144 120 96 144 120 96 144 120 96 144 120 96 144 120 96 144 120 96 144 120 96 144 120 96 144 120 96 144 120 96 144 120 96 144 120 96 144 120 96 144 120 96 144 120 96 144 120 96 144 120 96 144 120 96 144 240 96 144 240 96 144 240 96 144 240 96 144 240 96 144 240 96 144 240 96 144 240 96 144 240 96 144 240 96 144 240 96 144 240 96 144 240 96 144 240 96 144 240 96 144 240 96 144 240 96 144 240 96 144 240 96 144 240 96 144 240 96 144 240 96 144 240 96 144 240 96 144 240 96 144 240 96 144 240 96 144 240 96 144 240 96 144 240 96 144 240 96 144 240 96 144
248 96 16 248 96 16 248 96 16 248 96 16 248 96 16 248 96 16 248 96 16 248 96 16 248 96 16 248 96 16 248 96 16 248 96 16 248 96 16 248 96 16 248 96 16 248 96 16 248 96 16 248 96 16 248 96 16 248 96 16 248 96 16 248 96 16 248 96 16 248 96 16 248 96 16 248 96 16 248 96 16 248 96 16 248 96 16 248 96 16 248 96 16 248 96 16 48 48 56 48 48 56 48 48 56 48 48 56 48 48 56 48 48 56 48 48 56 48 48 56 48 48 56 48 48 56 48 48 56 48 48 56 48 48 56 48 48 56 48 48 56 48 48 56 48 48 56 48 48 56 48 48 56 48 48 56 48 48 56 48 48 56 48 48 56 48 48 56 48 48 56 48 48 56 48 48 56 48 48 56 48 48 56 48 48 56 48 48 56 48 48 56 120 96 144 120 96 144 120 96 144 120 96 144 120 96 144 120 96 144 120 96 144 120 96 144 120 96 144 120 96 144 120 96 144 120 96 144 120 96 144 120 96 144 120 96 144 120 96 144 120 96 144 120 96 144 120 96 144 120 96 144 120 96 144 120 96 144 120 96 144 120 96 144 120 96 144 120 96 144 120 96 144 120 96 144 120 96 144 120 96 144 120 96 144 120 96 144 240 96 144 240 96 144 240 96 144 240 96 144 240 96 144 240 96 144 240 96 144 240 96 144 240 96 144 240 96 144 240 96 144 240 96 144 240 96 144 240 96 144 240 96 144 240 96 144 240 96 144 240 96 144 240 96 144 240 96 144 240 96 144 240 96 144 240 96 144 240 96 144 240 96 144 240 96 144 240 96 144 240 96 144 240 96 144 240 96 144 240 96 144 240 96 144
248 96 16 248 96 16 248 96 16 248 96 16 248 96 16 248 96 16 248 96 16 248 96 16 248 96 16 248 96 16 248 96 16 248 96 16 248 96 16 248 96 16 248 96 16 248 96 16 248 96 16 248 96 16 248 96 16 248 96 16 248 96 16 248 96 16 248 96 16 248 96 16 248 96 16 248 96 16 248 96 16 248 96 16 248 96 16 248 96 16 248 96 16 248 96 16 48 48 56 48 48 56 48 48 56 48 48 56 48 48 56 48 48 56 48 48 56 48 48 56 48 48 56 48 48 56 48 48 56 48 48 56 48 48 56 48 48 56 48 48 56 48 48 56 48 48 56 48 48 56 48 48 56 48 48 56 48 48 56 48 48 56 48 48 56 48 48 56 48 48 56 48 48 56 48 48 56 48 48 56 48 48 56 48 48 56 48 48 56 48 48 56 120 96 144 120 96 144 120 96 144 120 96 144 120 96 144 120 96 144 120 96 144 120 96 144 120 96 144 120 96 144 120 96 144 120 96 144 120 96 144 120 96 144 120 96 144 120 96 144 120 96 144 120 96 144 120 96 144 120 96 144 120 96 144 120 96 144 120 96 144 120 96 144 120 96 144 120 96 144 120 96 144 120 96 144 120 96 144 120 96 144 120 96 144 120 96 144 240 96 144 240 96 144 240 96 144 240 96 144 240 96 144 240 96 144 240 96 144 240 96 144 240 96 144 240 96 144 240 96 144 240 96 144 240 96 144 240 96 144 240 96 144 240 96 144 240 96 144 240 96 144 240 96 144 240 96 144 240 96 144 240 96 144 240 96 144 240 96 144 240 96 144 240 96 144 240 96 144 240 96 144 240 96 144 240 96 144 240 96 144 240 96 144
248 96 16 248 96 16 248 96 16 248 96 16 248 96 16 248 96 16 248 96 16 248 96 16 248 96 16 248 96 16 248 96 16 248 96 16 248 96 16 248 96 16 248 96 16 248 96 16 248 96 16 248 96 16 248 96 16 248 96 16 248 96 16 248 96 16 248 96 16 248 96 16 248 96 16 248 96 16 248 96 16 248 96 16 248 96 16 248 96 16 248 96 16 248 96 16 48 48 56 48 48 56 48 48 56 48 48 56 48 48 56 48 48 56 48 48 56 48 48 56 48 48 56 48 48 56 48 48 56 48 48 56 48 48 56 48 48 56 48 48 56 48 48 56 48 48 56 48 48 56 48 48 56 48 48 56 48 48 56 48 48 56 48 48 56 48 48 56 48 48 56 48 48 56 48 48 56 48 48 56 48 48 56 48 48 56 48 48 56 48 48 56 120 96 144 120 96 144 120 96 144 120 96 144 120 96 144 120 96 144 120 96 144 120 96 144 120 96 144 120 96 144 120 96 144 120 96 144 120 96 144 120 96 144 120 96 144 120 96 144 120 96 144 120 96 144 120 96 144 120 96 144 120 96 144 120 96 144 120 96 144 120 96 144 120 96 144 120 96 144 120 96 144 120 96 144 120 96 144 120 96 144 120 96 144 120 96 144 240 96 144 240 96 144 240 96 144 240 96 144 240 96 144 240 96 144 240 96 144 240 96 144 240 96 144 240 96 144 240 96 144 240 96 144 240 96 144 240 96 144 240 96 144 240 96 144 240 96 144 240 96 144 240 96 144 240 96 144 240 96 144 240 96 144 240 96 144 240 96 144 240 96 144 240 96 144 240 96 144 240 96 144 240 96 144 240 96 144 240 96 144 240 96 144
248 96 16 248 96 16 248 96 16 248 96 16 248 96 16 248 96 16 248 96 16 248 96 16 248 96 16 248 96 16 248 96 16 248 96 16 248 96 16 248 96 16 248 96 16 248 96 16 248 96 16 248 96 16 248 96 16 248 96 16 248 96 16 248 96 16 248 96 16 248 96 16 248 96 16 248 96 16 248 96 16 248 96 16 248 96 16 248 96 16 248 96 16 248 96 16 48 48 56 48 48 56 48 48 56 48 48 56 48 48 56 48 48 56 48 48 56 48 48 56 48 48 56 48 48 56 48 48 56 48 48 56 48 48 56 48 48 56 48 48 56 48 48 56 48 48 56 48 48 56 48 48 56 48 48 56 48 48 56 48 48 56 48 48 56 48 48 56 48 48 56 48 48 56 48 48 56 48 48 56 48 48 56 48 48 56 48 48 56 48 48 56 120 96 144 120 96 144 120 96 144 120 96 144 120 96 144 120 96 144 120 96 144 120 96 144 120 96 144 120 96 144 120 96 144 120 96 144 120 96 144 120 96 144 120 96 144 120 96 144 120 96 144 120 96 144 120 96 144 120 96 144 120 96 144 120 96 144 120 96 144 120 96 144 120 96 144 120 96 144 120 96 144 120 96 144 120 96 144 120 96 144 120 96 144 120 96 144 240 96 144 240 96 144 240 96 144 240 96 144 240 96 144 240 96 144 240 96 144 240 96 144 240 96 144 240 96 144 240 96 144 240 96 144 240 96 144 240 96 144 240 96 144 240 96 144 240 96 144 240 96 144 240 96 144 240 96 144 240 96 144 240 96 144 240 96 144 240 96 144 240 96 144 240 96 144 240 96 144 240 96 144 240 96 144 240 96 144 240 96 144 240 96 144
248 96 16 248 96 16 248 96 16 248 96 16 248 96 16 248 96 16 248 96 16 248 96 16 248 96 16 248 96 16 248 96 16 248 96 16 248 96 16 248 96 16 248 96 16 248 96 16 248 96 16 248 96 16 248 96 16 248 96 16 248 96 16 248 96 16 248 96 16 248 96 16 248 96 16 248 96 16 248 96 16 248 96 16 248 96 16 248 96 16 248 96 16 248 96 16 48 48 56 48 48 56 48 48 56 48 48 56 48 48 56 48 48 56 48 48 56 48 48 56 48 48 56 48 48 56 48 48 56 48 48 56 48 48 56 48 48 56 48 48 56 48 48 56 48 48 56 48 48 56 48 48 56 48 48 56 48 48 56 48 48 56 48 48 56 48 48 56 48 48 56 48 48 56 48 48 56 48 48 56 48 48 56 48 48 56 48 48 56 48 48 56 120 96 144 120 96 144 120 96 144 120 96 144 120 96 144 120 96 144 120 96 144 120 96 144 120 96 144 120 96 144 120 96 144 120 96 144 120 96 144 120 96 144 120 96 144 120 96 144 120 96 144 120 96 144 120 96 144 120 96 144 120 96 144 120 96 144 120 96 144 120 96 144 120 96 144 120 96 144 120 96 144 120 96 144 120 96 144 120 96 144 120 96 144 120 96 144 240 96 144 240 96 144 240 96 144 240 96 144 240 96 144 240 96 144 240 96 144 240 96 144 240 96 144 240 96 144 240 96 144 240 96 144 240 96 144 240 96 144 240 96 144 240 96 144 240 96 144 240 96 144 240 96 144 240 96 144 240 96 144 240 96 144 240 96 144 240 96 144 240 96 144 240 96 144 240 96 144 240 96 144 240 96 144 240 96 144 240 96 144 240 96 144
248 96 16 248 96 16 248 96 16 248 96 16 248 96 16 248 96 16 248 96 16 248 96 16 248 96 16 248 96 16 248 96 16 248 96 16 248 96 16 248 96 16 248 96 16 248 96 16 248 96 16 248 96 16 248 96 16 248 96 16 248 96 16 248 96 16 248 96 16 248 96 16 248 96 16 248 96 16 248 96 16 248 96 16 248 96 16 248 96 16 248 96 16 248 96 16 48 48 56 48 48 56 48 48 56 48 48 56 48 48 56 48 48 56 48 48 56 48 48 56 48 48 56 48 48 56 48 48 56 48 48 56 48 48 56 48 48 56 48 48 56 48 48 56 48 48 56 48 48 56 48 48 56 48 48 56 48 48 56 48 48 56 48 48 56 48 48 56 48 48 56 48 48 56 48 48 56 48 48 56 48 48 56 48 48 56 48 48 56 48 48 56 120 96 144 120 96 144 120 96 144 120 96 144 120 96 144 120 96 144 120 96 144 120 96 144 120 96 144 120 96 144 120 96 144 120 96 144 120 96 144 120 96 144 120 96 144 120 96 144 120 96 144 120 96 144 120 96 144 120 96 144 120 96 144 120 96 144 120 96 144 120 96 144 120 96 144 120 96 144 120 96 144 120 96 144 120 96 144 120 96 144 120 96 144 120 96 144 240 96 144 240 96 144 240 96 144 240 96 144 240 96 144 240 96 144 240 96 144 240 96 144 240 96 144 240 96 144 240 96 144 240 96 144 240 96 144 240 96 144 240 96 144 240 96 144 240 96 144 240 96 144 240 96 144 240 96 144 240 96 144 240 96 144 240 96 144 240 96 144 240 96 144 240 96 144 240 96 144 240 96 144 240 96 144 240 96 144 240 96 144 240 96 144
248 96 16 248 96 16 248 96 16 248 96 16 248 96 16 248 96 16 248 96 16 248 96 16 248 96 16 248 96 16 248 96 16 248 96 16 248 96 16 248 96 16 248 96 16 248 96 16 248 96 16 248 96 16 248 96 16 248 96 16 248 96 16 248 96 16 248 96 16 248 96 16 248 96 16 248 96 16 248 96 16 248 96 16 248 96 16 248 96 16 248 96 16 248 96 16 48 48 56 48 48 56 48 48 56 48 48 56 48 48 56 48 48 56 48 48 56 48 48 56 48 48 56 48 48 56 48 48 56 48 48 56 48 48 56 48 48 56 48 48 56 48 48 56 48 48 56 48 48 56 48 48 56 48 48 56 48 48 56 48 48 56 48 48 56 48 48 56 48 48 56 48 48 56 48 48 56 48 48 56 48 48 56 48 48 56 48 48 56 48 48 56 120 96 144 120 96 144 120 96 144 120 96 144 120 96 144 120 96 144 120 96 144 120 96 144 120 96 144 120 96 144 120 96 144 120 96 144 120 96 144 120 96 144 120 96 144 120 96 144 120 96 144 120 96 144 120 96 144 120 96 144 120 96 144 120 96 144 120 96 144 120 96 144 120 96 144 120 96 144 120 96 144 120 96 144 120 96 144 120 96 144 120 96 144 120 96 144 240 96 144 240 96 144 240 96 144 240 96 144 240 96 144 240 96 144 240 96 144 240 96 144 240 96 144 240 96 144 240 96 144 240 96 144 240 96 144 240 96 144 240 96 144 240 96 144 240 96 144 240 96 144 240 96 144 240 96 144 240 96 144 240 96 144 240 96 144 240 96 144 240 96 144 240 96 144 240 96 144 240 96 144 240 96 144 240 96 144 240 96 144 240 96 144
248 96 16 248 96 16 248 96 16 248 96 16 248 96 16 248 96 16 248 96 16 248 96 16 248 96 16 248 96 16 248 96 16 248 96 16 248 96 16 248 96 16 248 96 16 248 96 16 248 96 16 248 96 16 248 96 16 248 96 16 248 96 16 248 96 16 248 96 16 248 96 16 248 96 16 248 96 16 248 96 16 248 96 16 248 96 16 248 96 16 248 96 16 248 96 16 48 48 56 48 48 56 48 48 56 48 48 56 48 48 56 48 48 56 48 48 56 48 48 56 48 48 56 48 48 56 48 48 56 48 48 56 48 48 56 48 48 56 48 48 56 48 48 56 48 48 56 48 48 56 48 48 56 48 48 56 48 48 56 48 48 56 48 48 56 48 48 56 48 48 56 48 48 56 48 48 56 48 48 56 48 48 56 48 48 56 48 48 56 48 48 56 120 96 144 120 96 144 120 96 144 120 96 144 120 96 144 120 96 144 120 96 144 120 96 144 120 96 144 120 96 144 120 96 144 120 96 144 120 96 144 120 96 144 120 96 144 120 96 144 120 96 144 120 96 144 120 96 144 120 96 144 120 96 144 120 96 144 120 96 144 120 96 144 120 96 144 120 96 144 120 96 144 120 96 144 120 96 144 120 96 144 120 96 144 120 96 144 240 96 144 240 96 144 240 96 144 240 96 144 240 96 144 240 96 144 240 96 144 240 96 144 240 96 144 240 96 144 240 96 144 240 96 144 240 96 144 240 96 144 240 96 144 240 96 144 240 96 144 240 96 144 240 96 144 240 96 144 240 96 144 240 96 144 240 96 144 240 96 144 240 96 144 240 96 144 240 96 144 240 96 144 240 96 144 240 96 144 240 96 144 240 96 144
248 96 16 248 96 16 248 96 16 248 96 16 248 96 16 248 96 16 248 96 16 248 96 16 248 96 16 248 96 16 248 96 16 248 96 16 248 96 16 248 96 16 248 96 16 248 96 16 248 96 16 248 96 16 248 96 16 248 96 16 248 96 16 248 96 16 248 96 16 248 96 16 248 96 16 248 96 16 248 96 16 248 96 16 248 96 16 248 96 16 248 96 16 248 96 16 48 48 56 48 48 56 48 48 56 48 48 56 48 48 56 48 48 56 48 48 56 48 48 56 48 48 56 48 48 56 48 48 56 48 48 56 48 48 56 48 48 56 48 48 56 48 48 56 48 48 56 48 48 56 48 48 56 48 48 56 48 48 56 48 48 56 48 48 56 48 48 56 48 48 56 48 48 56 48 48 56 48 48 56 48 48 56 48 48 56 48 48 56 48 48 56 120 96 144 120 96 144 120 96 144 120 96 144 120 96 144 120 96 144 120 96 144 120 96 144 120 96 144 120 96 144 120 96 144 120 96 144 120 96 144 120 96 144 120 96 144 120 96 144 120 96 144 120 96 144 120 96 144 120 96 144 120 96 144 120 96 144 120 96 144 120 96 144 120 96 144 120 96 144 120 96 144 120 96 144 120 96 144 120 96 144 120 96 144 120 96 144 240 96 144 240 96 144 240 96 144 240 96 144 240 96 144 240 96 144 240 96 144 240 96 144 240 96 144 240 96 144 240 96 144 240 96 144 240 96 144 240 96 144 240 96 144 240 96 144 240 96 144 240 96 144 240 96 144 240 96 144 240 96 144 240 96 144 240 96 144 240 96 144 240 96 144 240 96 144 240 96 144 240 96 144 240 96 144 240 96 144 240 96 144 240 96 144
248 96 16 248 96 16 248 96 16 248 96 16 248 96 16 248 96 16 248 96 16 248 96 16 248 96 16 248 96 16 248 96 16 248 96 16 248 96 16 248 96 16 248 96 16 248 96 16 248 96 16 248 96 16 248 96 16 248 96 16 248 96 16 248 96 16 248 96 16 248 96 16 248 96 16 248 96 16 248 96 16 248 96 16 248 96 16 248 96 16 248 96 16 248 96 16 48 48 56 48 48 56 48 48 56 48 48 56 48 48 56 48 48 56 48 48 56 48 48 56 48 48 56 48 48 56 48 48 56 48 48 56 48 48 56 48 48 56 48 48 56 48 48 56 48 48 56 48 48 56 48 48 56 48 48 56 48 48 56 48 48 56 48 48 56 48 48 56 48 48 56 48 48 56 48 48 56 48 48 56 48 48 56 48 48 56 48 48 56 48 48 56 120 96 144 120 96 144 120 96 144 120 96 144 120 96 144 120 96 144 120 96 144 120 96 144 120 96 144 120 96 144 120 96 144 120 96 144 120 96 144 120 96 144 120 96 144 120 96 144 120 96 144 120 96 144 120 96 144 120 96 144 120 96 144 120 96 144 120 96 144 120 96 144 120 96 144 120 96 144 120 96 144 120 96 144 120 96 144 120 96 144 120 96 144 120 96 144 240 96 144 240 96 144 240 96 144 240 96 144 240 96 144 240 96 144 240 96 144 240 96 144 240 96 144 240 96 144 240 96 144 240 96 144 240 96 144 240 96 144 240 96 144 240 96 144 240 96 144 240 96 144 240 96 144 240 96 144 240 96 144 240 96 144 240 96 144 240 96 144 240 96 144 240 96 144 240 96 144 240 96 144 240 96 144 240 96 144 240 96 144 240 96 144
248 96 16 248 96 16 248 96 16 248 96 16 248 96 16 248 96 16 248 96 16 248 96 16 248 96 16 248 96 16 248 96 16 248 96 16 248 96 16 248 96 16 248 96 16 248 96 16 248 96 16 248 96 16 248 96 16 248 96 16 248 96 16 248 96 16 248 96 16 248 96 16 248 96 16 248 96 16 248 96 16 248 96 16 248 96 16 248 96 16 248 96 16 248 96 16 48 48 56 48 48 56 48 48 56 48 48 56 48 48 56 48 48 56 48 48 56 48 48 56 48 48 56 48 48 56 48 48 56 48 48 56 48 48 56 48 48 56 48 48 56 48 48 56 48 48 56 48 48 56 48 48 56 48 48 56 48 48 56 48 48 56 48 48 56 48 48 56 48 48 56 48 48 56 48 48 56 48 48 56 48 48 56 48 48 56 48 48 56 48 48 56 120 96 144 120 96 144 120 96 144 120 96 144 120 96 144 120 96 144 120 96 144 120 96 144 120 96 144 120 96 144 120 96 144 120 96 144 120 96 144 120 96 144 120 96 144 120 96 144 120 96 144 120 96 144 120 96 144 120 96 144 120 96 144 120 96 144 120 96 144 120 96 144 120 96 144 120 96 144 120 96 144 120 96 144 120 96 144 120 96 144 120 96 144 120 96 144 240 96 144 240 96 144 240 96 144 240 96 144 240 96 144 240 96 144 240 96 144 240 96 144 240 96 144 240 96 144 240 96 144 240 96 144 240 96 144 240 96 144 240 96 144 240 96 144 240 96 144 240 96 144 240 96 144 240 96 144 240 96 144 240 96 144 240 96 144 240 96 144 240 96 144 240 96 144 240 96 144 240 96 144 240 96 144 240 96 144 240 96 144 240 96 144
248 96 16 248 96 16 248 96 16 248 96 16 248 96 16 248 96 16 248 96 16 248 96 16 248 96 16 248 96 16 248 96 16 248 96 16 248 96 16 248 96 16 248 96 16 248 96 16 248 96 16 248 96 16 248 96 16 248 96 16 248 96 16 248 96 16 248 96 16 248 96 16 248 96 16 248 96 16 248 96 16 248 96 16 248 96 16 248 96 16 248 96 16 248 96 16 48 48 56 48 48 56 48 48 56 48 48 56 48 48 56 48 48 56 48 48 56 48 48 56 48 48 56 48 48 56 48 48 56 48 48 56 48 48 56 48 48 56 48 48 56 48 48 56 48 48 56 48 48 56 48 48 56 48 48 56 48 48 56 48 48 56 48 48 56 48 48 56 48 48 56 48 48 56 48 48 56 48 48 56 48 48 56 48 48 56 48 48 56 48 48 56 120 96 144 120 96 144 120 96 144 120 96 144 120 96 144 120 96 144 120 96 144 120 96 144 120 96 144 120 96 144 120 96 144 120 96 144 120 96 144 120 96 144 120 96 144 120 96 144 120 96 144 120 96 144 120 96 144 120 96 144 120 96 144 120 96 144 120 96 144 120 96 144 120 96 144 120 96 144 120 96 144 120 96 144 120 96 144 120 96 144 120 96 144 120 96 144 240 96 144 240 96 144 240 96 144 240 96 144 240 96 144 240 96 144 240 96 144 240 96 144 240 96 144 240 96 144 240 96 144 240 96 144 240 96 144 240 96 144 240 96 144 240 96 144 240 96 144 240 96 144 240 96 144 240 96 144 240 96 144 240 96 144 240 96 144 240 96 144 240 96 144 240 96 144 240 96 144 240 96 144 240 96 144 240 96 144 240 96 144 240 96 144
248 96 16 248 96 16 248 96 16 248 96 16 248 96 16 248 96 16 248 96 16 248 96 16 248 96 16 248 96 16 248 96 16 248 96 16 248 96 16 248 96 16 248 96 16 248 96 16 248 96 16 248 96 16 248 96 16 248 96 16 248 96 16 248 96 16 248 96 16 248 96 16 248 96 16 248 96 16 248 96 16 248 96 16 248 96 16 248 96 16 248 96 16 248 96 16 48 48 56 48 48 56 48 48 56 48 48 56 48 48 56 48 48 56 48 48 56 48 48 56 48 48 56 48 48 56 48 48 56 48 48 56 48 48 56 48 48 56 48 48 56 48 48 56 48 48 56 48 48 56 48 48 56 48 48 56 48 48 56 48 48 56 48 48 56 48 48 56 48 48 56 48 48 56 48 48 56 48 48 56 48 48 56 48 48 56 48 48 56 48 48 56 120 96 144 120 96 144 120 96 144 120 96 144 120 96 144 120 96 144 120 96 144 120 96 144 120 96 144 120 96 144 120 96 144 120 96 144 120 96 144 120 96 144 120 96 144 120 96 144 120 96 144 120 96 144 120 96 144 120 96 144 120 96 144 120 96 144 120 96 144 120 96 144 120 96 144 120 96 144 120 96 144 120 96 144 120 96 144 120 96 144 120 96 144 120 96 144 240 96 144 240 96 144 240 96 144 240 96 144 240 96 144 240 96 144 240 96 144 240 96 144 240 96 144 240 96 144 240 96 144 240 96 144 240 96 144 240 96 144 240 96 144 240 96 144 240 96 144 240 96 144 240 96 144 240 96 144 240 96 144 240 96 144 240 96 144 240 96 144 240 96 144 240 96 144 240 96 144 240 96 144 240 96 144 240 96 144 240 96 144 240 96 144
248 96 16 248 96 16 248 96 16 248 96 16 248 96 16 248 96 16 248 96 16 248 96 16 248 96 16 248 96 16 248 96 16 248 96 16 248 96 16 248 96 16 248 96 16 248 96 16 248 96 16 248 96 16 248 96 16 248 96 16 248 96 16 248 96 16 248 96 16 248 96 16 248 96 16 248 96 16 248 96 16 248 96 16 248 96 16 248 96 16 248 96 16 248 96 16 48 48 56 48 48 56 48 48 56 48 48 56 48 48 56 48 48 56 48 48 56 48 48 56 48 48 56 48 48 56 48 48 56 48 48 56 48 48 56 48 48 56 48 48 56 48 48 56 48 48 56 48 48 56 48 48 56 48 48 56 48 48 56 48 48 56 48 48 56 48 48 56 48 48 56 48 48 56 48 48 56 48 48 56 48 48 56 48 48 56 48 48 56 48 48 56 120 96 144 120 96 144 120 96 144 120 96 144 120 96 144 120 96 144 120 96 144 120 96 144 120 96 144 120 96 144 120 96 144 120 96 144 120 96 144 120 96 144 120 96 144 120 96 144 120 96 144 120 96 144 120 96 144 120 96 144 120 96 144 120 96 144 120 96 144 120 96 144 120 96 144 120 96 144 120 96 144 120 96 144 120 96 144 120 96 144 120 96 144 120 96 144 240 96 144 240 96 144 240 96 144 240 96 144 240 96 144 240 96 144 240 96 144 240 96 144 240 96 144 240 96 144 240 96 144 240 96 144 240 96 144 240 96 144 240 96 144 240 96 144 240 96 144 240 96 144 240 96 144 240 96 144 240 96 144 240 96 144 240 96 144 240 96 144 240 96 144 240 96 144 240 96 144 240 96 144 240 96 144 240 96 144 240 96 144 240 96 144
248 96 16 248 96 16 248 96 16 248 96 16 248 96 16 248 96 16 248 96 16 248 96 16 248 96 16 248 96 16 248 96 16 248 96 16 248 96 16 248 96 16 248 96 16 248 96 16 248 96 16 248 96 16 248 96 16 248 96 16 248 96 16 248 96 16 248 96 16 248 96 16 248 96 16 248 96 16 248 96 16 248 96 16 248 96 16 248 96 16 248 96 16 248 96 16 48 48 56 48 48 56 48 48 56 48 48 56 48 48 56 48 48 56 48 48 56 48 48 56 48 48 56 48 48 56 48 48 56 48 48 56 48 48 56 48 48 56 48 48 56 48 48 56 48 48 56 48 48 56 48 48 56 48 48 56 48 48 56 48 48 56 48 48 56 48 48 56 48 48 56 48 48 56 48 48 56 48 48 56 48 48 56 48 48 56 48 48 56 48 48 56 120 96 144 120 96 144 120 96 144 120 96 144 120 96 144 120 96 144 120 96 144 120 96 144 120 96 144 120 96 144 120 96 144 120 96 144 120 96 144 120 96 144 120 96 144 120 96 144 120 96 144 120 96 144 120 96 144 120 96 144 120 96 144 120 96 144 120 96 144 120 96 144 120 96 144 120 96 144 120 96 144 120 96 144 120 96 144 120 96 144 120 96 144 120 96 144 240 96 144 240 96 144 240 96 144 240 96 144 240 96 144 240 96 144 240 96 144 240 96 144 240 96 144 240 96 144 240 96 144 240 96 144 240 96 144 240 96 144 240 96 144 240 96 144 240 96 144 240 96 144 240 96 144 240 96 144 240 96 144 240 96 144 240 96 144 240 96 144 240 96 144 240 96 144 240 96 144 240 96 144 240 96 144 240 96 144 240 96 144 240 96 144
248 96 16 248 96 16 248 96 16 248 96 16 248 96 16 248 96 16 248 96 16 248 96 16 248 96 16 248 96 16 248 96 16 248 96 16 248 96 16 248 96 16 248 96 16 248 96 16 248 96 16 248 96 16 248 96 16 248 96 16 248 96 16 248 96 16 248 96 16 248 96 16 248 96 16 248 96 16 248 96 16 248 96 16 248 96 16 248 96 16 248 96 16 248 96 16 48 48 56 48 48 56 48 48 56 48 48 56 48 48 56 48 48 56 48 48 56 48 48 56 48 48 56 48 48 56 48 48 56 48 48 56 48 48 56 48 48 56 48 48 56 48 48 56 48 48 56 48 48 56 48 48 56 48 48 56 48 48 56 48 48 56 48 48 56 48 48 56 48 48 56 48 48 56 48 48 56 48 48 56 48 48 56 48 48 56 48 48 56 48 48 56 120 96 144 120 96 144 120 96 144 120 96 144 120 96 144 120 96 144 120 96 144 120 96 144 120 96 144 120 96 144 120 96 144 120 96 144 120 96 144 120 96 144 120 96 144 120 96 144 120 96 144 120 96 144 120 96 144 120 96 144 120 96 144 120 96 144 120 96 144 120 96 144 120 96 144 120 96 144 120 96 144 120 96 144 120 96 144 120 96 144 120 96 144 120 96 144 240 96 144 240 96 144 240 96 144 240 96 144 240 96 144 240 96 144 240 96 144 240 96 144 240 96 144 240 96 144 240 96 144 240 96 144 240 96 144 240 96 144 240 96 144 240 96 144 240 96 144 240 96 144 240 96 144 240 96 144 240 96 144 240 96 144 240 96 144 240 96 144 240 96 144 240 96 144 240 96 144 240 96 144 240 96 144 240 96 144 240 96 144 240 96 144
248 96 16 248 96 16 248 96 16 248 96 16 248 96 16 248 96 16 248 96 16 248 96 16 248 96 16 248 96 16 248 96 16 248 96 16 248 96 16 248 96 16 248 96 16 248 96 16 248 96 16 248 96 16 248 96 16 248 96 16 248 96 16 248 96 16 248 96 16 248 96 16 248 96 16 248 96 16 248 96 16 248 96 16 248 96 16 248 96 16 248 96 16 248 96 16 48 48 56 48 48 56 48 48 56 48 48 56 48 48 56 48 48 56 48 48 56 48 48 56 48 48 56 48 48 56 48 48 56 48 48 56 48 48 56 48 48 56 48 48 56 48 48 56 48 48 56 48 48 56 48 48 56 48 48 56 48 48 56 48 48 56 48 48 56 48 48 56 48 48 56 48 48 56 48 48 56 48 48 56 48 48 56 48 48 56 48 48 56 48 48 56 120 96 144 120 96 144 120 96 144 120 96 144 120 96 144 120 96 144 120 96 144 120 96 144 120 96 144 120 96 144 120 96 144 120 96 144 120 96 144 120 96 144 120 96 144 120 96 144 120 96 144 120 96 144 120 96 144 120 96 144 120 96 144 120 96 144 120 96 144 120 96 144 120 96 144 120 96 144 120 96 144 120 96 144 120 96 144 120 96 144 120 96 144 120 96 144 240 96 144 240 96 144 240 96 144 240 96 144 240 96 144 240 96 144 240 96 144 240 96 144 240 96 144 240 96 144 240 96 144 240 96 144 240 96 144 240 96 144 240 96 144 240 96 144 240 96 144 240 96 144 240 96 144 240 96 144 240 96 144 240 96 144 240 96 144 240 96 144 240 96 144 240 96 144 240 96 144 240 96 144 240 96 144 240 96 144 240 96 144 240 96 144
248 96 16 248 96 16 248 96 16 248 96 16 248 96 16 248 96 16 248 96 16 248 96 16 248 96 16 248 96 16 248 96 16 248 96 16 248 96 16 248 96 16 248 96 16 248 96 16 248 96 16 248 96 16 248 96 16 248 96 16 248 96 16 248 96 16 248 96 16 248 96 16 248 96 16 248 96 16 248 96 16 248 96 16 248 96 16 248 96 16 248 96 16 248 96 16 48 48 56 48 48 56 48 48 56 48 48 56 48 48 56 48 48 56 48 48 56 48 48 56 48 48 56 48 48 56 48 48 56 48 48 56 48 48 56 48 48 56 48 48 56 48 48 56 48 48 56 48 48 56 48 48 56 48 48 56 48 48 56 48 48 56 48 48 56 48 48 56 48 48 56 48 48 56 48 48 56 48 48 56 48 48 56 48 48 56 48 48 56 48 48 56 120 96 144 120 96 144 120 96 144 120 96 144 120 96 144 120 96 144 120 96 144 120 96 144 120 96 144 120 96 144 120 96 144 120 96 144 120 96 144 120 96 144 120 96 144 120 96 144 120 96 144 120 96 144 120 96 144 120 96 144 120 96 144 120 96 144 120 96 144 120 96 144 120 96 144 120 96 144 120 96 144 120 96 144 120 96 144 120 96 144 120 96 144 120 96 144 240 96 144 240 96 144 240 96 144 240 96 144 240 96 144 240 96 144 240 96 144 240 96 144 240 96 144 240 96 144 240 96 144 240 96 144 240 96 144 240 96 144 240 96 144 240 96 144 240 96 144 240 96 144 240 96 144 240 96 144 240 96 144 240 96 144 240 96 144 240 96 144 240 96 144 240 96 144 240 96 144 240 96 144 240 96 144 240 96 144 240 96 144 240 96 144
248 96 16 248 96 16 248 96 16 248 96 16 248 96 16 248 96 16 248 96 16 248 96 16 248 96 16 248 96 16 248 96 16 248 96 16 248 96 16 248 96 16 248 96 16 248 96 16 248 96 16 248 96 16 248 96 16 248 96 16 248 96 16 248 96 16 248 96 16 248 96 16 248 96 16 248 96 16 248 96 16 248 96 16 248 96 16 248 96 16 248 96 16 248 96 16 48 48 56 48 48 56 48 48 56 48 48 56 48 48 56 48 48 56 48 48 56 48 48 56 48 48 56 48 48 56 48 48 56 48 48 56 48 48 56 48 48 56 48 48 56 48 48 56 48 48 56 48 48 56 48 48 56 48 48 56 48 48 56 48 48 56 48 48 56 48 48 56 48 48 56 48 48 56 48 48 56 48 48 56 48 48 56 48 48 56 48 48 56 48 48 56 120 96 144 120 96 144 120 96 144 120 96 144 120 96 144 120 96 144 120 96 144 120 96 144 120 96 144 120 96 144 120 96 144 120 96 144 120 96 144 120 96 144 120 96 144 120 96 144 120 96 144 120 96 144 120 96 144 120 96 144 120 96 144 120 96 144 120 96 144 120 96 144 120 96 144 120 96 144 120 96 144 120 96 144 120 96 144 120 96 144 120 96 144 120 96 144 240 96 144 240 96 144 240 96 144 240 96 144 240 96 144 240 96 144 240 96 144 240 96 144 240 96 144 240 96 144 240 96 144 240 96 144 240 96 144 240 96 144 240 96 144 240 96 144 240 96 144 240 96 144 240 96 144 240 96 144 240 96 144 240 96 144 240 96 144 240 96 144 240 96 144 240 96 144 240 96 144 240 96 144 240 96 144 240 96 144 240 96 144 240 96 144
248 96 16 248 96 16 248 96 16 248 96 16 248 96 16 248 96 16 248 96 16 248 96 16 248 96 16 248 96 16 248 96 16 248 96 16 248 96 16 248 96 16 248 96 16 248 96 16 248 96 16 248 96 16 248 96 16 248 96 16 248 96 16 248 96 16 248 96 16 248 96 16 248 96 16 248 96 16 248 96 16 248 96 16 248 96 16 248 96 16 248 96 16 248 96 16 48 48 56 48 48 56 48 48 56 48 48 56 48 48 56 48 48 56 48 48 56 48 48 56 48 48 56 48 48 56 48 48 56 48 48 56 48 48 56 48 48 56 48 48 56 48 48 56 48 48 56 48 48 56 48 48 56 48 48 56 48 48 56 48 48 56 48 48 56 48 48 56 48 48 56 48 48 56 48 48 56 48 48 56 48 48 56 48 48 56 48 48 56 48 48 56 120 96 144 120 96 144 120 96 144 120 96 144 120 96 144 120 96 144 120 96 144 120 96 144 120 96 144 120 96 144 120 96 144 120 96 144 120 96 144 120 96 144 120 96 144 120 96 144 120 96 144 120 96 144 120 96 144 120 96 144 120 96 144 120 96 144 120 96 144 120 96 144 120 96 144 120 96 144 120 96 144 120 96 144 120 96 144 120 96 144 120 96 144 120 96 144 240 96 144 240 96 144 240 96 144 240 96 144 240 96 144 240 96 144 240 96 144 240 96 144 240 96 144 240 96 144 240 96 144 240 96 144 240 96 144 240 96 144 240 96 144 240 96 144 240 96 144 240 96 144 240 96 144 240 96 144 240 96 144 240 96 144 240 96 144 240 96 144 240 96 144 240 96 144 240 96 144 240 96 144 240 96 144 240 96 144 240 96 144 240 96 144
248 96 16 248 96 16 248 96 16 248 96 16 248 96 16 248 96 16 248 96 16 248 96 16 248 96 16 248 96 16 248 96 16 248 96 16 248 96 16 248 96 16 248 96 16 248 96 16 248 96 16 248 96 16 248 96 16 248 96 16 248 96 16 248 96 16 248 96 16 248 96 16 248 96 16 248 96 16 248 96 16 248 96 16 248 96 16 248 96 16 248 96 16 248 96 16 48 48 56 48 48 56 48 48 56 48 48 56 48 48 56 48 48 56 48 48 56 48 48 56 48 48 56 48 48 56 48 48 56 48 48 56 48 48 56 48 48 56 48 48 56 48 48 56 48 48 56 48 48 56 48 48 56 48 48 56 48 48 56 48 48 56 48 48 56 48 48 56 48 48 56 48 48 56 48 48 56 48 48 56 48 48 56 48 48 56 48 48 56 48 48 56 120 96 144 120 96 144 120 96 144 120 96 144 120 96 144 120 96 144 120 96 144 120 96 144 120 96 144 120 96 144 120 96 144 120 96 144 120 96 144 120 96 144 120 96 144 120 96 144 120 96 144 120 96 144 120 96 144 120 96 144 120 96 144 120 96 144 120 96 144 120 96 144 120 96 144 120 96 144 120 96 144 120 96 144 120 96 144 120 96 144 120 96 144 120 96 144 240 96 144 240 96 144 240 96 144 240 96 144 240 96 144 240 96 144 240 96 144 240 96 144 240 96 144 240 96 144 240 96 144 240 96 144 240 96 144 240 96 144 240 96 144 240 96 144 240 96 144 240 96 144 240 96 144 240 96 144 240 96 144 240 96 144 240 96 144 240 96 144 240 96 144 240 96 144 240 96 144 240 96 144 240 96 144 240 96 144 240 96 144 240 96 144
248 96 16 248 96 16 248 96 16 248 96 16 248 96 16 248 96 16 248 96 16 248 96 16 248 96 16 248 96 16 248 96 16 248 96 16 248 96 16 248 96 16 248 96 16 248 96 16 248 96 16 248 96 16 248 96 16 248 96 16 248 96 16 248 96 16 248 96 16 248 96 16 248 96 16 248 96 16 248 96 16 248 96 16 248 96 16 248 96 16 248 96 16 248 96 16 48 48 56 48 48 56 48 48 56 48 48 56 48 48 56 48 48 56 48 48 56 48 48 56 48 48 56 48 48 56 48 48 56 48 48 56 48 48 56 48 48 56 48 48 56 48 48 56 48 48 56 48 48 56 48 48 56 48 48 56 48 48 56 48 48 56 48 48 56 48 48 56 48 48 56 48 48 56 48 48 56 48 48 56 48 48 56 48 48 56 48 48 56 48 48 56 120 96 144 120 96 144 120 96 144 120 96 144 120 96 144 120 96 144 120 96 144 120 96 144 120 96 144 120 96 144 120 96 144 120 96 144 120 96 144 120 96 144 120 96 144 120 96 144 120 96 144 120 96 144 120 96 144 120 96 144 120 96 144 120 96 144 120 96 144 120 96 144 120 96 144 120 96 144 120 96 144 120 96 144 120 96 144 120 96 144 120 96 144 120 96 144 240 96 144 240 96 144 240 96 144 240 96 144 240 96 144 240 96 144 240 96 144 240 96 144 240 96 144 240 96 144 240 96 144 240 96 144 240 96 144 240 96 144 240 96 144 240 96 144 240 96 144 240 96 144 240 96 144 240 96 144 240 96 144 240 96 144 240 96 144 240 96 144 240 96 144 240 96 144 240 96 144 240 96 144 240 96 144 240 96 144 240 96 144 240 96 144
248 96 16 248 96 16 248 96 16 248 96 16 248 96 16 248 96 16 248 96 16 248 96 16 248 96 16 248 96 16 248 96 16 248 96 16 248 96 16 248 96 16 248 96 16 248 96 16 248 96 16 248 96 16 248 96 16 248 96 16 248 96 16 248 96 16 248 96 16 248 96 16 248 96 16 248 96 16 248 96 16 248 96 16 248 96 16 248 96 16 248 96 16 248 96 16 48 48 56 48 48 56 48 48 56 48 48 56 48 48 56 48 48 56 48 48 56 48 48 56 48 48 56 48 48 56 48 48 56 48 48 56 48 48 56 48 48 56 48 48 56 48 48 56 48 48 56 48 48 56 48 48 56 48 48 56 48 48 56 48 48 56 48 48 56 48 48 56 48 48 56 48 48 56 48 48 56 48 48 56 48 48 56 48 48 56 48 48 56 48 48 56 120 96 144 120 96 144 120 96 144 120 96 144 120 96 144 120 96 144 120 96 144 120 96 144 120 96 144 120 96 144 120 96 144 120 96 144 120 96 144 120 96 144 120 96 144 120 96 144 120 96 144 120 96 144 120 96 144 120 96 144 120 96 144 120 96 144 120 96 144 120 96 144 120 96 144 120 96 144 120 96 144 120 96 144 120 96 144 120 96 144 120 96 144 120 96 144 240 96 144 240 96 144 240 96 144 240 96 144 240 96 144 240 96 144 240 96 144 240 96 144 240 96 144 240 96 144 240 96 144 240 96 144 240 96 144 240 96 144 240 96 144 240 96 144 240 96 144 240 96 144 240 96 144 240 96 144 240 96 144 240 96 144 240 96 144 240 96 144 240 96 144 240 96 144 240 96 144 240 96 144 240 96 144 240 96 144 240 96 144 240 96 144
248 96 16 248 96 16 248 96 16 248 96 16 248 96 16 248 96 16 248 96 16 248 96 16 248 96 16 248 96 16 248 96 16 248 96 16 248 96 16 248 96 16 248 96 16 248 96 16 248 96 16 248 96 16 248 96 16 248 96 16 248 96 16 248 96 16 248 96 16 248 96 16 248 96 16 248 96 16 248 96 16 248 96 16 248 96 16 248 96 16 248 96 16 248 96 16 48 48 56 48 48 56 48 48 56 48 48 56 48 48 56 48 48 56 48 48 56 48 48 56 48 48 56 48 48 56 48 48 56 48 48 56 48 48 56 48 48 56 48 48 56 48 48 56 48 48 56 48 48 56 48 48 56 48 48 56 48 48 56 48 48 56 48 48 56 48 48 56 48 48 56 48 48 56 48 48 56 48 48 56 48 48 56 48 48 56 48 48 56 48 48 56 120 96 144 120 96 144 120 96 144 120 96 144 120 96 144 120 96 144 120 96 144 120 96 144 120 96 144 120 96 144 120 96 144 120 96 144 120 96 144 120 96 144 120 96 144 120 96 144 120 96 144 120 96 144 120 96 144 120 96 144 120 96 144 120 96 144 120 96 144 120 96 144 120 96 144 120 96 144 120 96 144 120 96 144 120 96 144 120 96 144 120 96 144 120 96 144 240 96 144 240 96 144 240 96 144 240 96 144 240 96 144 240 96 144 240 96 144 240 96 144 240 96 144 240 96 144 240 96 144 240 96 144 240 96 144 240 96 144 240 96 144 240 96 144 240 96 144 240 96 144 240 96 144 240 96 144 240 96 144 240 96 144 240 96 144 240 96 144 240 96 144 240 96 144 240 96 144 240 96 144 240 96 144 240 96 144 240 96 144 240 96 144
248 96 16 248 96 16 248 96 16 248 96 16 248 96 16 248 96 16 248 96 16 248 96 16 248 96 16 248 96 16 248 96 16 248 96 16 248 96 16 248 96 16 248 96 16 248 96 16 248 96 16 248 96 16 248 96 16 248 96 16 248 96 16 248 96 16 248 96 16 248 96 16 248 96 16 248 96 16 248 96 16 248 96 16 248 96 16 248 96 16 248 96 16 248 96 16 48 48 56 48 48 56 48 48 56 48 48 56 48 48 56 48 48 56 48 48 56 48 48 56 48 48 56 48 48 56 48 48 56 48 48 56 48 48 56 48 48 56 48 48 56 48 48 56 48 48 56 48 48 56 48 48 56 48 48 56 48 48 56 48 48 56 48 48 56 48 48 56 48 48 56 48 48 56 48 48 56 48 48 56 48 48 56 48 48 56 48 48 56 48 48 56 120 96 144 120 96 144 120 96 144 120 96 144 120 96 144 120 96 144 120 96 144 120 96 144 120 96 144 120 96 144 120 96 144 120 96 144 120 96 144 120 96 144 120 96 144 120 96 144 120 96 144 120 96 144 120 96 144 120 96 144 120 96 144 120 96 144 120 96 144 120 96 144 120 96 144 120 96 144 120 96 144 120 96 144 120 96 144 120 96 144 120 96 144 120 96 144 240 96 144 240 96 144 240 96 144 240 96 144 240 96 144 240 96 144 240 96 144 240 96 144 240 96 144 240 96 144 240 96 144 240 96 144 240 96 144 240 96 144 240 96 144 240 96 144 240 96 144 240 96 144 240 96 144 240 96 144 240 96 144 240 96 144 240 96 144 240 96 144 240 96 144 240 96 144 240 96 144 240 96 144 240 96 144 240 96 144 240 96 144 240 96 144
248 96 16 248 96 16 248 96 16 248 96 16 248 96 16 248 96 16 248 96 16 248 96 16 248 96 16 248 96 16 248 96 16 248 96 16 248 96 16 248 96 16 248 96 16 248 96 16 248 96 16 248 96 16 248 96 16 248 96 16 248 96 16 248 96 16 248 96 16 248 96 16 248 96 16 248 96 16 248 96 16 248 96 16 248 96 16 248 96 16 248 96 16 248 96 16 48 48 56 48 48 56 48 48 56 48 48 56 48 48 56 48 48 56 48 48 56 48 48 56 48 48 56 48 48 56 48 48 56 48 48 56 48 48 56 48 48 56 48 48 56 48 48 56 48 48 56 48 48 56 48 48 56 48 48 56 48 48 56 48 48 56 48 48 56 48 48 56 48 48 56 48 48 56 48 48 56 48 48 56 48 48 56 48 48 56 48 48 56 48 48 56 120 96 144 120 96 144 120 96 144 120 96 144 120 96 144 120 96 144 120 96 144 120 96 144 120 96 144 120 96 144 120 96 144 120 96 144 120 96 144 120 96 144 120 96 144 120 96 144 120 96 144 120 96 144 120 96 144 120 96 144 120 96 144 120 96 144 120 96 144 120 96 144 120 96 144 120 96 144 120 96 144 120 96 144 120 96 144 120 96 144 120 96 144 120 96 144 240 96 144 240 96 144 240 96 144 240 96 144 240 96 144 240 96 144 240 96 144 240 96 144 240 96 144 240 96 144 240 96 144 240 96 144 240 96 144 240 96 144 240 96 144 240 96 144 240 96 144 240 96 144 240 96 144 240 96 144 240 96 144 240 96 144 240 96 144 240 96 144 240 96 144 240 96 144 240 96 144 240 96 144 240 96 144 240 96 144 240 96 144 240 96 144
248 96 16 248 96 16 248 96 16 248 96 16 248 96 16 248 96 16 248 96 16 248 96 16 248 96 16 248 96 16 248 96 16 248 96 16 248 96 16 248 96 16 248 96 16 248 96 16 248 96 16 248 96 16 248 96 16 248 96 16 248 96 16 248 96 16 248 96 16 248 96 16 248 96 16 248 96 16 248 96 16 248 96 16 248 96 16 248 96 16 248 96 16 248 96 16 48 48 56 48 48 56 48 48 56 48 48 56 48 48 56 48 48 56 48 48 56 48 48 56 48 48 56 48 48 56 48 48 56 48 48 56 48 48 56 48 48 56 48 48 56 48 48 56 48 48 56 48 48 56 48 48 56 48 48 56 48 48 56 48 48 56 48 48 56 48 48 56 48 48 56 48 48 56 48 48 56 48 48 56 48 48 56 48 48 56 48 48 56 48 48 56 120 96 144 120 96 144 120 96 144 120 96 144 120 96 144 120 96 144 120 96 144 120 96 144 120 96 144 120 96 144 120 96 144 120 96 144 120 96 144 120 96 144 120 96 144 120 96 144 120 96 144 120 96 144 120 96 144 120 96 144 120 96 144 120 96 144 120 96 144 120 96 144 120 96 144 120 96 144 120 96 144 120 96 144 120 96 144 120 96 144 120 96 144 120 96 144 240 96 144 240 96 144 240 96 144 240 96 144 240 96 144 240 96 144 240 96 144 240 96 144 240 96 144 240 96 144 240 96 144 240 96 144 240 96 144 240 96 144 240 96 144 240 96 144 240 96 144 240 96 144 240 96 144 240 96 144 240 96 144 240 96 144 240 96 144 240 96 144 240 96 144 240 96 144 240 96 144 240 96 144 240 96 144 240 96 144 240 96 144 240 96 144
248 96 16 248 96 16 248 96 16 248 96 16 248 96 16 248 96 16 248 96 16 248 96 16 248 96 16 248 96 16 248 96 16 248 96 16 248 96 16 248 96 16 248 96 16 248 96 16 248 96 16 248 96 16 248 96 16 248 96 16 248 96 16 248 96 16 248 96 16 248 96 16 248 96 16 248 96 16 248 96 16 248 96 16 248 96 16 248 96 16 248 96 16 248 96 16 48 48 56 48 48 56 48 48 56 48 48 56 48 48 56 48 48 56 48 48 56 48 48 56 48 48 56 48 48 56 48 48 56 48 48 56 48 48 56 48 48 56 48 48 56 48 48 56 48 48 56 48 48 56 48 48 56 48 48 56 48 48 56 48 48 56 48 48 56 48 48 56 48 48 56 48 48 56 48 48 56 48 48 56 48 48 56 48 48 56 48 48 56 48 48 56 120 96 144 120 96 144 120 96 144 120 96 144 120 96 144 120 96 144 120 96 144 120 96 144 120 96 144 120 96 144 120 96 144 120 96 144 120 96 144 120 96 144 120 96 144 120 96 144 120 96 144 120 96 144 120 96 144 120 96 144 120 96 144 120 96 144 120 96 144 120 96 144 120 96 144 120 96 144 120 96 144 120 96 144 120 96 144 120 96 144 120 96 144 120 96 144 240 96 144 240 96 144 240 96 144 240 96 144 240 96 144 240 96 144 240 96 144 240 96 144 240 96 144 240 96 144 240 96 144 240 96 144 240 96 144 240 96 144 240 96 144 240 96 144 240 96 144 240 96 144 240 96 144 240 96 144 240 96 144 240 96 144 240 96 144 240 96 144 240 96 144 240 96 144 240 96 144 240 96 144 240 96 144 240 96 144 240 96 144 240 96 144
248 96 16 248 96 16 248 96 16 248 96 16 248 96 16 248 96 16 248 96 16 248 96 16 248 96 16 248 96 16 248 96 16 248 96 16 248 96 16 248 96 16 248 96 16 248 96 16 248 96 16 248 96 16 248 96 16 248 96 16 248 96 16 248 96 16 248 96 16 248 96 16 248 96 16 248 96 16 248 96 16 248 96 16 248 96 16 248 96 16 248 96 16 248 96 16 48 48 56 48 48 56 48 48 56 48 48 56 48 48 56 48 48 56 48 48 56 48 48 56 48 48 56 48 48 56 48 48 56 48 48 56 48 48 56 48 48 56 48 48 56 48 48 56 48 48 56 48 48 56 48 48 56 48 48 56 48 48 56 48 48 56 48 48 56 48 48 56 48 48 56 48 48 56 48 48 56 48 48 56 48 48 56 48 48 56 48 48 56 48 48 56 120 96 144 120 96 144 120 96 144 120 96 144 120 96 144 120 96 144 120 96 144 120 96 144 120 96 144 120 96 144 120 96 144 120 96 144 120 96 144 120 96 144 120 96 144 120 96 144 120 96 144 120 96 144 120 96 144 120 96 144 120 96 144 120 96 144 120 96 144 120 96 144 120 96 144 120 96 144 120 96 144 120 96 144 120 96 144 120 96 144 120 96 144 120 96 144 240 96 144 240 96 144 240 96 144 240 96 144 240 96 144 240 96 144 240 96 144 240 96 144 240 96 144 240 96 144 240 96 144 240 96 144 240 96 144 240 96 144 240 96 144 240 96 144 240 96 144 240 96 144 240 96 144 240 96 144 240 96 144 240 96 144 240 96 144 240 96 144 240 96 144 240 96 144 240 96 144 240 96 144 240 96 144 240 96 144 240 96 144 240 96 144
48 48 56 48 48 56 48 48 56 48 48 56 48 48 56 48 48 56 48 48 56 48 48 56 48 48 56 48 48 56 48 48 56 48 48 56 48 48 56 48 48 56 48 48 56 48 48 56 48 48 56 48 48 56 48 48 56 48 48 56 48 48 56 48 48 56 48 48 56 48 48 56 48 48 56 48 48 56 48 48 56 48 48 56 48 48 56 48 48 56 48 48 56 48 48 56 144 88 16 144 88 16 144 88 16 144 88 16 144 88 16 144 88 16 144 88 16 144 88 16 144 88 16 144 88 16 144 88 16 144 88 16 144 88 16 144 88 16 144 88 16 144 88 16 144 88 16 144 88 16 144 88 16 144 88 16 144 88 16 144 88 16 144 88 16 144 88 16 144 88 16 144 88 16 144 88 16 144 88 16 144 88 16 144 88 16 144 88 16 144 88 16 144 88 16 144 88 16 144 88 16 144 88 16 144 88 16 144 88 16 144 88 16 144 88 16 144 88 16 144 88 16 144 88 16 144 88 16 144 88 16 144 88 16 144 88 16 144 88 16 144 88 16 144 88 16 144 88 16 144 88 16 144 88 16 144 88 16 144 88 16 144 88 16 144 88 16 144 88 16 144 88 16 144 88 16 144 88 16 144 88 16 144 88 16 144 88 16 48 48 56 48 48 56 48 48 56 48 48 56 48 48 56 48 48 56 48 48 56 48 48 56 48 48 56 48 48 56 48 48 56 48 48 56 48 48 56 48 48 56 48 48 56 48 48 56 48 48 56 48 48 56 48 48 56 48 48 56 48 48 56 48 48 56 48 48 56 48 48 56 48 48 56 48 48 56 48 48 56 48 48 56 48 48 56 48 48 56 48 48 56 48 48 56
48 48 56 48 48 56 48 48 56 48 48 56 48 48 56 48 48 56 48 48 56 48 48 56 48 48 56 48 48 56 48 48 56 48 48 56 48 48 56 48 48 56 48 48 56 48 48 56 48 48 56 48 48 56 48 48 56 48 48 56 48 48 56 48 48 56 48 48 56 48 48 56 48 48 56 48 48 56 48 48 56 48 48 56 48 48 56 48 48 56 48 48 56 48 48 56 144 88 16 144 88 16 144 88 16 144 88 16 144 88 16 144 88 16 144 88 16 144 88 16 144 88 16 144 88 16 144 88 16 144 88 16 144 88 16 144 88 16 144 88 16 144 88 16 144 88 16 144 88 16 144 88 16 144 88 16 144 88 16 144 88 16 144 88 16 144 88 16 144 88 16 144 88 16 144 88 16 144 88 16 144 88 16 144 88 16 144 88 16 144 88 16 144 88 16 144 88 16 144 88 16 144 88 16 144 88 16 144 88 16 144 88 16 144 88 16 144 88 16 144 88 16 144 88 16 144 88 16 144 88 16 144 88 16 144 88 16 144 88 16 144 88 16 144 88 16 144 88 16 144 88 16 144 88 16 144 88 16 144 88 16 144 88 16 144 88 16 144 88 16 144 88 16 144 88 16 144 88 16 144 88 16 144 88 16 144 88 16 48 48 56 48 48 56 48 48 56 48 48 56 48 48 56 48 48 56 48 48 56 48 48 56 48 48 56 48 48 56 48 48 56 48 48 56 48 48 56 48 48 56 48 48 56 48 48 56 48 48 56 48 48 56 48 48 56 48 48 56 48 48 56 48 48 56 48 48 56 48 48 56 48 48 56 48 48 56 48 48 56 48 48 56 48 48 56 48 48 56 48 48 56 48 48 56
48 48 56 48 48 56 48 48 56 48 48 56 48 48 56 48 48 56 48 48 56 48 48 56 48 48 56 48 48 56 48 48 56 48 48 56 48 48 56 48 48 56 48 48 56 48 48 56 48 48 56 48 48 56 48 48 56 48 48 56 48 48 56 48 48 56 48 48 56 48 48 56 48 48 56 48 48 56 48 48 56 48 48 56 48 48 56 48 48 56 48 48 56 48 48 56 144 88 16 144 88 16 144 88 16 144 88 16 144 88 16 144 88 16 144 88 16 144 88 16 144 88 16 144 88 16 144 88 16 144 88 16 144 88 16 144 88 16 144 88 16 144 88 16 144 88 16 144 88 16 144 88 16 144 88 16 144 88 16 144 88 16 144 88 16 144 88 16 144 88 16 144 88 16 144 88 16 144 88 16 144 88 16 144 88 16 144 88 16 144 88 16 144 88 16 144 88 16 144 88 16 144 88 16 144 88 16 144 88 16 144 88 16 144 88 16 144 88 16 144 88 16 144 88 16 144 88 16 144 88 16 144 88 16 144 88 16 144 88 16 144 88 16 144 88 16 144 88 16 144 88 16 144 88 16 144 88 16 144 88 16 144 88 16 144 88 16 144 88 16 144 88 16 144 88 16 144 88 16 144 88 16 144 88 16 144 88 16 48 48 56 48 48 56 48 48 56 48 48 56 48 48 56 48 48 56 48 48 56 48 48 56 48 48 56 48 48 56 48 48 56 48 48 56 48 48 56 48 48 56 48 48 56 48 48 56 48 48 56 48 48 56 48 48 56 48 48 56 48 48 56 48 48 56 48 48 56 48 48 56 48 48 56 48 48 56 48 48 56 48 48 56 48 48 56 48 48 56 48 48 56 48 48 56
48 48 56 48 48 56 48 48 56 48 48 56 48 48 56 48 48 56 48 48 56 48 48 56 48 48 56 48 48 56 48 48 56 48 48 56 48 48 56 48 48 56 48 48 56 48 48 56 48 48 56 48 48 56 48 48 56 48 48 56 48 48 56 48 48 56 48 48 56 48 48 56 48 48 56 48 48 56 48 48 56 48 48 56 48 48 56 48 48 56 48 48 56 48 48 56 144 88 16 144 88 16 144 88 16 144 88 16 144 88 16 144 88 16 144 88 16 144 88 16 144 88 16 144 88 16 144 88 16 144 88 16 144 88 16 144 88 16 144 88 16 144 88 16 144 88 16 144 88 16 144 88 16 144 88 16 144 88 16 144 88 16 144 88 16 144 88 16 144 88 16 144 88 16 144 88 16 144 88 16 144 88 16 144 88 16 144 88 16 144 88 16 144 88 16 144 88 16 144 88 16 144 88 16 144 88 16 144 88 16 144 88 16 144 88 16 144 88 16 144 88 16 144 88 16 144 88 16 144 88 16 144 88 16 144 88 16 144 88 16 144 88 16 144 88 16 144 88 16 144 88 16 144 88 16 144 88 16 144 88 16 144 88 16 144 88 16 144 88 16 144 88 16 144 88 16 144 88 16 144 88 16 144 88 16 144 88 16 48 48 56 48 48 56 48 48 56 48 48 56 48 48 56 48 48 56 48 48 56 48 48 56 48 48 56 48 48 56 48 48 56 48 48 56 48 48 56 48 48 56 48 48 56 48 48 56 48 48 56 48 48 56 48 48 56 48 48 56 48 48 56 48 48 56 48 48 56 48 48 56 48 48 56 48 48 56 48 48 56 48 48 56 48 48 56 48 48 56 48 48 56 48 48 56
48 48 56 48 48 56 48 48 56 48 48 56 48 48 56 48 48 56 48 48 56 48 48 56 48 48 56 48 48 56 48 48 56 48 48 56 48 48 56 48 48 56 48 48 56 48 48 56 48 48 56 48 48 56 48 48 56 48 48 56 48 48 56 48 48 56 48 48 56 48 48 56 48 48 56 48 48 56 48 48 56 48 48 56 48 48 56 48 48 56 48 48 56 48 48 56 144 88 16 144 88 16 144 88 16 144 88 16 144 88 16 144 88 16 144 88 16 144 88 16 144 88 16 144 88 16 144 88 16 144 88 16 144 88 16 144 88 16 144 88 16 144 88 16 144 88 16 144 88 16 144 88 16 144 88 16 144 88 16 144 88 16 144 88 16 144 88 16 144 88 16 144 88 16 144 88 16 144 88 16 144 88 16 144 88 16 144 88 16 144 88 16 144 88 16 144 88 16 144 88 16 144 88 16 144 88 16 144 88 16 144 88 16 144 88 16 144 88 16 144 88 16 144 88 16 144 88 16 144 88 16 144 88 16 144 88 16 144 88 16 144 88 16 144 88 16 144 88 16 144 88 16 144 88 16 144 88 16 144 88 16 144 88 16 144 88 16 144 88 16 144 88 16 144 88 16 144 88 16 144 88 16 144 88 16 144 88 16 48 48 56 48 48 56 48 48 56 48 48 56 48 48 56 48 48 56 48 48 56 48 48 56 48 48 56 48 48 56 48 48 56 48 48 56 48 48 56 48 48 56 48 48 56 48 48 56 48 48 56 48 48 56 48 48 56 48 48 56 48 48 56 48 48 56 48 48 56 48 48 56 48 48 56 48 48 56 48 48 56 48 48 56 48 48 56 48 48 56 48 48 56 48 48 56
48 48 56 48 48 56 48 48 56 48 48 56 48 48 56 48 48 56 48 48 56 48 48 56 48 48 56 48 48 56 48 48 56 48 48 56 48 48 56 48 48 56 48 48 56 48 48 56 48 48 56 48 48 56 48 48 56 48 48 56 48 48 56 48 48 56 48 48 56 48 48 56 48 48 56 48 48 56 48 48 56 48 48 56 48 48 56 48 48 56 48 48 56 48 48 56 144 88 16 144 88 16 144 88 16 144 88 16 144 88 16 144 88 16 144 88 16 144 88 16 144 88 16 144 88 16 144 88 16 144 88 16 144 88 16 144 88 16 144 88 16 144 88 16 144 88 16 144 88 16 144 88 16 144 88 16 144 88 16 144 88 16 144 88 16 144 88 16 144 88 16 144 88 16 144 88 16 144 88 16 144 88 16 144 88 16 144 88 16 144 88 16 144 88 16 144 88 16 144 88 16 144 88 16 144 88 16 144 88 16 144 88 16 144 88 16 144 88 16 144 88 16 144 88 16 144 88 16 144 88 16 144 88 16 144 88 16 144 88 16 144 88 16 144 88 16 144 88 16 144 88 16 144 88 16 144 88 16 144 88 16 144 88 16 144 88 16 144 88 16 144 88 16 144 88 16 144 88 16 144 88 16 144 88 16 144 88 16 48 48 56 48 48 56 48 48 56 48 48 56 48 48 56 48 48 56 48 48 56 48 48 56 48 48 56 48 48 56 48 48 56 48 48 56 48 48 56 48 48 56 48 48 56 48 48 56 48 48 56 48 48 56 48 48 56 48 48 56 48 48 56 48 48 56 48 48 56 48 48 56 48 48 56 48 48 56 48 48 56 48 48 56 48 48 56 48 48 56 48 48 56 48 48 56
48 48 56 48 48 56 48 48 56 48 48 56 48 48 56 48 48 56 48 48 56 48 48 56 48 48 56 48 48 56 48 48 56 48 48 56 48 48 56 48 48 56 48 48 56 48 48 56 48 48 56 48 48 56 48 48 56 48 48 56 48 48 56 48 48 56 48 48 56 48 48 56 48 48 56 48 48 56 48 48 56 48 48 56 48 48 56 48 48 56 48 48 56 48 48 56 144 88 16 144 88 16 144 88 16 144 88 16 144 88 16 144 88 16 144 88 16 144 88 16 144 88 16 144 88 16 144 88 16 144 88 16 144 88 16 144 88 16 144 88 16 144 88 16 144 88 16 144 88 16 144 88 16 144 88 16 144 88 16 144 88 16 144 88 16 144 88 16 144 88 16 144 88 16 144 88 16 144 88 16 144 88 16 144 88 16 144 88 16 144 88 16 144 88 16 144 88 16 144 88 16 144 88 16 144 88 16 144 88 16 144 88 16 144 88 16 144 88 16 144 88 16 144 88 16 144 88 16 144 88 16 144 88 16 144 88 16 144 88 16 144 88 16 144 88 16 144 88 16 144 88 16 144 88 16 144 88 16 144 88 16 144 88 16 144 88 16 144 88 16 144 88 16 144 88 16 144 88 16 144 88 16 144 88 16 144 88 16 48 48 56 48 48 56 48 48 56 48 48 56 48 48 56 48 48 56 48 48 56 48 48 56 48 48 56 48 48 56 48 48 56 48 48 56 48 48 56 48 48 56 48 48 56 48 48 56 48 48 56 48 48 56 48 48 56 48 48 56 48 48 56 48 48 56 48 48 56 48 48 56 48 48 56 48 48 56 48 48 56 48 48 56 48 48 56 48 48 56 48 48 56 48 48 56
48 48 56 48 48 56 48 48 56 48 48 56 48 48 56 48 48 56 48 48 56 48 48 56 48 48 56 48 48 56 48 48 56 48 48 56 48 48 56 48 48 56 48 48 56 48 48 56 48 48 56 48 48 56 48 48 56 48 48 56 48 48 56 48 48 56 48 48 56 48 48 56 48 48 56 48 48 56 48 48 56 48 48 56 48 48 56 48 48 56 48 48 56 48 48 56 144 88 16 144 88 16 144 88 16 144 88 16 144 88 16 144 88 16 144 88 16 144 88 16 144 88 16 144 88 16 144 88 16 144 88 16 144 88 16 144 88 16 144 88 16 144 88 16 144 88 16 144 88 16 144 88 16 144 88 16 144 88 16 144 88 16 144 88 16 144 88 16 144 88 16 144 88 16 144 88 16 144 88 16 144 88 16 144 88 16 144 88 16 144 88 16 144 88 16 144 88 16 144 88 16 144 88 16 144 88 16 144 88 16 144 88 16 144 88 16 144 88 16 144 88 16 144 88 16 144 88 16 144 88 16 144 88 16 144 88 16 144 88 16 144 88 16 144 88 16 144 88 16 144 88 16 144 88 16 144 88 16 144 88 16 144 88 16 144 88 16 144 88 16 144 88 16 144 88 16 144 88 16 144 88 16 144 88 16 144 88 16 48 48 56 48 48 56 48 48 56 48 48 56 48 48 56 48 48 56 48 48 56 48 48 56 48 48 56 48 48 56 48 48 56 48 48 56 48 48 56 48 48 56 48 48 56 48 48 56 48 48 56 48 48 56 48 48 56 48 48 56 48 48 56 48 48 56 48 48 56 48 48 56 48 48 56 48 48 56 48 48 56 48 48 56 48 48 56 48 48 56 48 48 56 48 48 56
48 48 56 48 48 56 48 48 56 48 48 56 48 48 56 48 48 56 48 48 56 48 48 56 48 48 56 48 48 56 48 48 56 48 48 56 48 48 56 48 48 56 48 48 56 48 48 56 48 48 56 48 48 56 48 48 56 48 48 56 48 48 56 48 48 56 48 48 56 48 48 56 48 48 56 48 48 56 48 48 56 48 48 56 48 48 56 48 48 56 48 48 56 48 48 56 144 88 16 144 88 16 144 88 16 144 88 16 144 88 16 144 88 16 144 88 16 144 88 16 144 88 16 144 88 16 144 88 16 144 88 16 144 88 16 144 88 16 144 88 16 144 88 16 144 88 16 144 88 16 144 88 16 144 88 16 144 88 16 144 88 16 144 88 16 144 88 16 144 88 16 144 88 16 144 88 16 144 88 16 144 88 16 144 88 16 144 88 16 144 88 16 144 88 16 144 88 16 144 88 16 144 88 16 144 88 16 144 88 16 144 88 16 144 88 16 144 88 16 144 88 16 144 88 16 144 88 16 144 88 16 144 88 16 144 88 16 144 88 16 144 88 16 144 88 16 144 88 16 144 88 16 144 88 16 144 88 16 144 88 16 144 88 16 144 88 16 144 88 16 144 88 16 144 88 16 144 88 16 144 88 16 144 88 16 144 88 16 48 48 56 48 48 56 48 48 56 48 48 56 48 48 56 48 48 56 48 48 56 48 48 56 48 48 56 48 48 56 48 48 56 48 48 56 48 48 56 48 48 56 48 48 56 48 48 56 48 48 56 48 48 56 48 48 56 48 48 56 48 48 56 48 48 56 48 48 56 48 48 56 48 48 56 48 48 56 48 48 56 48 48 56 48 48 56 48 48 56 48 48 56 48 48 56
48 48 56 48 48 56 48 48 56 48 48 56 48 48 56 48 48 56 48 48 56 48 48 56 48 48 56 48 48 56 48 48 56 48 48 56 48 48 56 48 48 56 48 48 56 48 48 56 48 48 56 48 48 56 48 48 56 48 48 56 48 48 56 48 48 56 48 48 56 48 48 56 48 48 56 48 48 56 48 48 56 48 48 56 48 48 56 48 48 56 48 48 56 48 48 56 144 88 16 144 88 16 144 88 16 144 88 16 144 88 16 144 88 16 144 88 16 144 88 16 144 88 16 144 88 16 144 88 16 144 88 16 144 88 16 144 88 16 144 88 16 144 88 16 144 88 16 144 88 16 144 88 16 144 88 16 144 88 16 144 88 16 144 88 16 144 88 16 144 88 16 144 88 16 144 88 16 144 88 16 144 88 16 144 88 16 144 88 16 144 88 16 144 88 16 144 88 16 144 88 16 144 88 16 144 88 16 144 88 16 144 88 16 144 88 16 144 88 16 144 88 16 144 88 16 144 88 16 144 88 16 144 88 16 144 88 16 144 88 16 144 88 16 144 88 16 144 88 16 144 88 16 144 88 16 144 88 16 144 88 16 144 88 16 144 88 16 144 88 16 144 88 16 144 88 16 144 88 16 144 88 16 144 88 16 144 88 16 48 48 56 48 48 56 48 48 56 48 48 56 48 48 56 48 48 56 48 48 56 48 48 56 48 48 56 48 48 56 48 48 56 48 48 56 48 48 56 48 48 56 48 48 56 48 48 56 48 48 56 48 48 56 48 48 56 48 48 56 48 48 56 48 48 56 48 48 56 48 48 56 48 48 56 48 48 56 48 48 56 48 48 56 48 48 56 48 48 56 48 48 56 48 48 56
48 48 56 48 48 56 48 48 56 48 48 56 48 48 56 48 48 56 48 48 56 48 48 56 48 48 56 48 48 56 48 48 56 48 48 56 48 48 56 48 48 56 48 48 56 48 48 56 48 48 56 48 48 56 48 48 56 48 48 56 48 48 56 48 48 56 48 48 56 48 48 56 48 48 56 48 48 56 48 48 56 48 48 56 48 48 56 48 48 56 48 48 56 48 48 56 144 88 16 144 88 16 144 88 16 144 88 16 144 88 16 144 88 16 144 88 16 144 88 16 144 88 16 144 88 16 144 88 16 144 88 16 144 88 16 144 88 16 144 88 16 144 88 16 144 88 16 144 88 16 144 88 16 144 88 16 144 88 16 144 88 16 144 88 16 144 88 16 144 88 16 144 88 16 144 88 16 144 88 16 144 88 16 144 88 16 144 88 16 144 88 16 144 88 16 144 88 16 144 88 16 144 88 16 144 88 16 144 88 16 144 88 16 144 88 16 144 88 16 144 88 16 144 88 16 144 88 16 144 88 16 144 88 16 144 88 16 144 88 16 144 88 16 144 88 16 144 88 16 144 88 16 144 88 16 144 88 16 144 88 16 144 88 16 144 88 16 144 88 16 144 88 16 144 88 16 144 88 16 144 88 16 144 88 16 144 88 16 48 48 56 48 48 56 48 48 56 48 48 56 48 48 56 48 48 56 48 48 56 48 48 56 48 48 56 48 48 56 48 48 56 48 48 56 48 48 56 48 48 56 48 48 56 48 48 56 48 48 56 48 48 56 48 48 56 48 48 56 48 48 56 48 48 56 48 48 56 48 48 56 48 48 56 48 48 56 48 48 56 48 48 56 48 48 56 48 48 56 48 48 56 48 48 56
48 48 56 48 48 56 48 48 56 48 48 56 48 48 56 48 48 56 48 48 56 48 48 56 48 48 56 48 48 56 48 48 56 48 48 56 48 48 56 48 48 56 48 48 56 48 48 56 48 48 56 48 48 56 48 48 56 48 48 56 48 48 56 48 48 56 48 48 56 48 48 56 48 48 56 48 48 56 48 48 56 48 48 56 48 48 56 48 48 56 48 48 56 48 48 56 144 88 16 144 88 16 144 88 16 144 88 16 144 88 16 144 88 16 144 88 16 144 88 16 144 88 16 144 88 16 144 88 16 144 88 16 144 88 16 144 88 16 144 88 16 144 88 16 144 88 16 144 88 16 144 88 16 144 88 16 144 88 16 144 88 16 144 88 16 144 88 16 144 88 16 144 88 16 144 88 16 144 88 16 144 88 16 144 88 16 144 88 16 144 88 16 144 88 16 144 88 16 144 88 16 144 88 16 144 88 16 144 88 16 144 88 16 144 88 16 144 88 16 144 88 16 144 88 16 144 88 16 144 88 16 144 88 16 144 88 16 144 88 16 144 88 16 144 88 16 144 88 16 144 88 16 144 88 16 144 88 16 144 88 16 144 88 16 144 88 16 144 88 16 144 88 16 144 88 16 144 88 16 144 88 16 144 88 16 144 88 16 48 48 56 48 48 56 48 48 56 48 48 56 48 48 56 48 48 56 48 48 56 48 48 56 48 48 56 48 48 56 48 48 56 48 48 56 48 48 56 48 48 56 48 48 56 48 48 56 48 48 56 48 48 56 48 48 56 48 48 56 48 48 56 48 48 56 48 48 56 48 48 56 48 48 56 48 48 56 48 48 56 48 48 56 48 48 56 48 48 56 48 48 56 48 48 56
48 48 56 48 48 56 48 48 56 48 48 56 48 48 56 48 48 56 48 48 56 48 48 56 48 48 56 48 48 56 48 48 56 48 48 56 48 48 56 48 48 56 48 48 56 48 48 56 48 48 56 48 48 56 48 48 56 48 48 56 48 48 56 48 48 56 48 48 56 48 48 56 48 48 56 48 48 56 48 48 56 48 48 56 48 48 56 48 48 56 48 48 56 48 48 56 144 88 16 144 88 16 144 88 16 144 88 16 144 88 16 144 88 16 144 88 16 144 88 16 144 88 16 144 88 16 144 88 16 144 88 16 144 88 16 144 88 16 144 88 16 144 88 16 144 88 16 144 88 16 144 88 16 144 88 16 144 88 16 144 88 16 144 88 16 144 88 16 144 88 16 144 88 16 144 88 16 144 88 16 144 88 16 144 88 16 144 88 16 144 88 16 144 88 16 144 88 16 144 88 16 144 88 16 144 88 16 144 88 16 144 88 16 144 88 16 144 88 16 144 88 16 144 88 16 144 88 16 144 88 16 144 88 16 144 88 16 144 88 16 144 88 16 144 88 16 144 88 16 144 88 16 144 88 16 144 88 16 144 88 16 144 88 16 144 88 16 144 88 16 144 88 16 144 88 16 144 88 16 144 88 16 144 88 16 144 88 16 48 48 56 48 48 56 48 48 56 48 48 56 48 48 56 48 48 56 48 48 56 48 48 56 48 48 56 48 48 56 48 48 56 48 48 56 48 48 56 48 48 56 48 48 56 48 48 56 48 48 56 48 48 56 48 48 56 48 48 56 48 48 56 48 48 56 48 48 56 48 48 56 48 48 56 48 48 56 48 48 56 48 48 56 48 48 56 48 48 56 48 48 56 48 48 56
48 48 56 48 48 56 48 48 56 48 48 56 48 48 56 48 48 56 48 48 56 48 48 56 48 48 56 48 48 56 48 48 56 48 48 56 48 48 56 48 48 56 48 48 56 48 48 56 48 48 56 48 48 56 48 48 56 48 48 56 48 48 56 48 48 56 48 48 56 48 48 56 48 48 56 48 48 56 48 48 56 48 48 56 48 48 56 48 48 56 48 48 56 48 48 56 144 88 16 144 88 16 144 88 16 144 88 16 144 88 16 144 88 16 144 88 16 144 88 16 144 88 16 144 88 16 144 88 16 144 88 16 144 88 16 144 88 16 144 88 16 144 88 16 144 88 16 144 88 16 144 88 16 144 88 16 144 88 16 144 88 16 144 88 16 144 88 16 144 88 16 144 88 16 144 88 16 144 88 16 144 88 16 144 88 16 144 88 16 144 88 16 144 88 16 144 88 16 144 88 16 144 88 16 144 88 16 144 88 16 144 88 16 144 88 16 144 88 16 144 88 16 144 88 16 144 88 16 144 88 16 144 88 16 144 88 16 144 88 16 144 88 16 144 88 16 144 88 16 144 88 16 144 88 16 144 88 16 144 88 16 144 88 16 144 88 16 144 88 16 144 88 16 144 88 16 144 88 16 144 88 16 144 88 16 144 88 16 48 48 56 48 48 56 48 48 56 48 48 56 48 48 56 48 48 56 48 48 56 48 48 56 48 48 56 48 48 56 48 48 56 48 48 56 48 48 56 48 48 56 48 48 56 48 48 56 48 48 56 48 48 56 48 48 56 48 48 56 48 48 56 48 48 56 48 48 56 48 48 56 48 48 56 48 48 56 48 48 56 48 48 56 48 48 56 48 48 56 48 48 56 48 48 56
48 48 56 48 48 56 48 48 56 48 48 56 48 48 56 48 48 56 48 48 56 48 48 56 48 48 56 48 48 56 48 48 56 48 48 56 48 48 56 48 48 56 48 48 56 48 48 56 48 48 56 48 48 56 48 48 56 48 48 56 48 48 56 48 48 56 48 48 56 48 48 56 48 48 56 48 48 56 48 48 56 48 48 56 48 48 56 48 48 56 48 48 56 48 48 56 144 88 16 144 88 16 144 88 16 144 88 16 144 88 16 144 88 16 144 88 16 144 88 16 144 88 16 144 88 16 144 88 16 144 88 16 144 88 16 144 88 16 144 88 16 144 88 16 144 88 16 144 88 16 144 88 16 144 88 16 144 88 16 144 88 16 144 88 16 144 88 16 144 88 16 144 88 16 144 88 16 144 88 16 144 88 16 144 88 16 144 88 16 144 88 16 144 88 16 144 88 16 144 88 16 144 88 16 144 88 16 144 88 16 144 88 16 144 88 16 144 88 16 144 88 16 144 88 16 144 88 16 144 88 16 144 88 16 144 88 16 144 88 16 144 88 16 144 88 16 144 88 16 144 88 16 144 88 16 144 88 16 144 88 16 144 88 16 144 88 16 144 88 16 144 88 16 144 88 16 144 88 16 144 88 16 144 88 16 144 88 16 48 48 56 48 48 56 48 48 56 48 48 56 48 48 56 48 48 56 48 48 56 48 48 56 48 48 56 48 48 56 48 48 56 48 48 56 48 48 56 48 48 56 48 48 56 48 48 56 48 48 56 48 48 56 48 48 56 48 48 56 48 48 56 48 48 56 48 48 56 48 48 56 48 48 56 48 48 56 48 48 56 48 48 56 48 48 56 48 48 56 48 48 56 48 48 56
48 48 56 48 48 56 48 48 56 48 48 56 48 48 56 48 48 56 48 48 56 48 48 56 48 48 56 48 48 56 48 48 56 48 48 56 48 48 56 48 48 56 48 48 56 48 48 56 48 48 56 48 48 56 48 48 56 48 48 56 48 48 56 48 48 56 48 48 56 48 48 56 48 48 56 48 48 56 48 48 56 48 48 56 48 48 56 48 48 56 48 48 56 48 48 56 144 88 16 144 88 16 144 88 16 144 88 16 144 88 16 144 88 16 144 88 16 144 88 16 144 88 16 144 88 16 144 88 16 144 88 16 144 88 16 144 88 16 144 88 16 144 88 16 144 88 16 144 88 16 144 88 16 144 88 16 144 88 16 144 88 16 144 88 16 144 88 16 144 88 16 144 88 16 144 88 16 144 88 16 144 88 16 144 88 16 144 88 16 144 88 16 144 88 16 144 88 16 144 88 16 144 88 16 144 88 16 144 88 16 144 88 16 144 88 16 144 88 16 144 88 16 144 88 16 144 88 16 144 88 16 144 88 16 144 88 16 144 88 16 144 88 16 144 88 16 144 88 16 144 88 16 144 88 16 144 88 16 144 88 16 144 88 16 144 88 16 144 88 16 144 88 16 144 88 16 144 88 16 144 88 16 144 88 16 144 88 16 48 48 56 48 48 56 48 48 56 48 48 56 48 48 56 48 48 56 48 48 56 48 48 56 48 48 56 48 48 56 48 48 56 48 48 56 48 48 56 48 48 56 48 48 56 48 48 56 48 48 56 48 48 56 48 48 56 48 48 56 48 48 56 48 48 56 48 48 56 48 48 56 48 48 56 48 48 56 48 48 56 48 48 56 48 48 56 48 48 56 48 48 56 48 48 56
48 48 56 48 48 56 48 48 56 48 48 56 48 48 56 48 48 56 48 48 56 48 48 56 48 48 56 48 48 56 48 48 56 48 48 56 48 48 56 48 48 56 48 48 56 48 48 56 48 48 56 48 48 56 48 48 56 48 48 56 48 48 56 48 48 56 48 48 56 48 48 56 48 48 56 48 48 56 48 48 56 48 48 56 48 48 56 48 48 56 48 48 56 48 48 56 144 88 16 144 88 16 144 88 16 144 88 16 144 88 16 144 88 16 144 88 16 144 88 16 144 88 16 144 88 16 144 88 16 144 88 16 144 88 16 144 88 16 144 88 16 144 88 16 144 88 16 144 88 16 144 88 16 144 88 16 144 88 16 144 88 16 144 88 16 144 88 16 144 88 16 144 88 16 144 88 16 144 88 16 144 88 16 144 88 16 144 88 16 144 88 16 144 88 16 144 88 16 144 88 16 144 88 16 144 88 16 144 88 16 144 88 16 144 88 16 144 88 16 144 88 16 144 88 16 144 88 16 144 88 16 144 88 16 144 88 16 144 88 16 144 88 16 144 88 16 144 88 16 144 88 16 144 88 16 144 88 16 144 88 16 144 88 16 144 88 16 144 88 16 144 88 16 144 88 16 144 88 16 144 88 16 144 88 16 144 88 16 48 48 56 48 48 56 48 48 56 48 48 56 48 48 56 48 48 56 48 48 56 48 48 56 48 48 56 48 48 56 48 48 56 48 48 56 48 48 56 48 48 56 48 48 56 48 48 56 48 48 56 48 48 56 48 48 56 48 48 56 48 48 56 48 48 56 48 48 56 48 48 56 48 48 56 48 48 56 48 48 56 48 48 56 48 48 56 48 48 56 48 48 56 48 48 56
48 48 56 48 48 56 48 48 56 48 48 56 48 48 56 48 48 56 48 48 56 48 48 56 48 48 56 48 48 56 48 48 56 48 48 56 48 48 56 48 48 56 48 48 56 48 48 56 48 48 56 48 48 56 48 48 56 48 48 56 48 48 56 48 48 56 48 48 56 48 48 56 48 48 56 48 48 56 48 48 56 48 48 56 48 48 56 48 48 56 48 48 56 48 48 56 144 88 16 144 88 16 144 88 16 144 88 16 144 88 16 144 88 16 144 88 16 144 88 16 144 88 16 144 88 16 144 88 16 144 88 16 144 88 16 144 88 16 144 88 16 144 88 16 144 88 16 144 88 16 144 88 16 144 88 16 144 88 16 144 88 16 144 88 16 144 88 16 144 88 16 144 88 16 144 88 16 144 88 16 144 88 16 144 88 16 144 88 16 144 88 16 144 88 16 144 88 16 144 88 16 144 88 16 144 88 16 144 88 16 144 88 16 144 88 16 144 88 16 144 88 16 144 88 16 144 88 16 144 88 16 144 88 16 144 88 16 144 88 16 144 88 16 144 88 16 144 88 16 144 88 16 144 88 16 144 88 16 144 88 16 144 88 16 144 88 16 144 88 16 144 88 16 144 88 16 144 88 16 144 88 16 144 88 16 144 88 16 48 48 56 48 48 56 48 48 56 48 48 56 48 48 56 48 48 56 48 48 56 48 48 56 48 48 56 48 48 56 48 48 56 48 48 56 48 48 56 48 48 56 48 48 56 48 48 56 48 48 56 48 48 56 48 48 56 48 48 56 48 48 56 48 48 56 48 48 56 48 48 56 48 48 56 48 48 56 48 48 56 48 48 56 48 48 56 48 48 56 48 48 56 48 48 56
48 48 56 48 48 56 48 48 56 48 48 56 48 48 56 48 48 56 48 48 56 48 48 56 48 48 56 48 48 56 48 48 56 48 48 56 48 48 56 48 48 56 48 48 56 48 48 56 48 48 56 48 48 56 48 48 56 48 48 56 48 48 56 48 48 56 48 48 56 48 48 56 48 48 56 48 48 56 48 48 56 48 48 56 48 48 56 48 48 56 48 48 56 48 48 56 144 88 16 144 88 16 144 88 16 144 88 16 144 88 16 144 88 16 144 88 16 144 88 16 144 88 16 144 88 16 144 88 16 144 88 16 144 88 16 144 88 16 144 88 16 144 88 16 144 88 16 144 88 16 144 88 16 144 88 16 144 88 16 144 88 16 144 88 16 144 88 16 144 88 16 144 88 16 144 88 16 144 88 16 144 88 16 144 88 16 144 88 16 144 88 16 144 88 16 144 88 16 144 88 16 144 88 16 144 88 16 144 88 16 144 88 16 144 88 16 144 88 16 144 88 16 144 88 16 144 88 16 144 88 16 144 88 16 144 88 16 144 88 16 144 88 16 144 88 16 144 88 16 144 88 16 144 88 16 144 88 16 144 88 16 144 88 16 144 88 16 144 88 16 144 88 16 144 88 16 144 88 16 144 88 16 144 88 16 144 88 16 48 48 56 48 48 56 48 48 56 48 48 56 48 48 56 48 48 56 48 48 56 48 48 56 48 48 56 48 48 56 48 48 56 48 48 56 48 48 56 48 48 56 48 48 56 48 48 56 48 48 56 48 48 56 48 48 56 48 48 56 48 48 56 48 48 56 48 48 56 48 48 56 48 48 56 48 48 56 48 48 56 48 48 56 48 48 56 48 48 56 48 48 56 48 48 56
48 48 56 48 48 56 48 48 56 48 48 56 48 48 56 48 48 56 48 48 56 48 48 56 48 48 56 48 48 56 48 48 56 48 48 56 48 48 56 48 48 56 48 48 56 48 48 56 48 48 56 48 48 56 48 48 56 48 48 56 48 48 56 48 48 56 48 48 56 48 48 56 48 48 56 48 48 56 48 48 56 48 48 56 48 48 56 48 48 56 48 48 56 48 48 56 144 88 16 144 88 16 144 88 16 144 88 16 144 88 16 144 88 16 144 88 16 144 88 16 144 88 16 144 88 16 144 88 16 144 88 16 144 88 16 144 88 16 144 88 16 144 88 16 144 88 16 144 88 16 144 88 16 144 88 16 144 88 16 144 88 16 144 88 16 144 88 16 144 88 16 144 88 16 144 88 16 144 88 16 144 88 16 144 88 16 144 88 16 144 88 16 144 88 16 144 88 16 144 88 16 144 88 16 144 88 16 144 88 16 144 88 16 144 88 16 144 88 16 144 88 16 144 88 16 144 88 16 144 88 16 144 88 16 144 88 16 144 88 16 144 88 16 144 88 16 144 88 16 144 88 16 144 88 16 144 88 16 144 88 16 144 88 16 144 88 16 144 88 16 144 88 16 144 88 16 144 88 16 144 88 16 144 88 16 144 88 16 48 48 56 48 48 56 48 48 56 48 48 56 48 48 56 48 48 56 48 48 56 48 48 56 48 48 56 48 48 56 48 48 56 48 48 56 48 48 56 48 48 56 48 48 56 48 48 56 48 48 56 48 48 56 48 48 56 48 48 56 48 48 56 48 48 56 48 48 56 48 48 56 48 48 56 48 48 56 48 48 56 48 48 56 48 48 56 48 48 56 48 48 56 48 48 56
48 48 56 48 48 56 48 48 56 48 48 56 48 48 56 48 48 56 48 48 56 48 48 56 48 48 56 48 48 56 48 48 56 48 48 56 48 48 56 48 48 56 48 48 56 48 48 56 48 48 56 48 48 56 48 48 56 48 48 56 48 48 56 48 48 56 48 48 56 48 48 56 48 48 56 48 48 56 48 48 56 48 48 56 48 48 56 48 48 56 48 48 56 48 48 56 144 88 16 144 88 16 144 88 16 144 88 16 144 88 16 144 88 16 144 88 16 144 88 16 144 88 16 144 88 16 144 88 16 144 88 16 144 88 16 144 88 16 144 88 16 144 88 16 144 88 16 144 88 16 144 88 16 144 88 16 144 88 16 144 88 16 144 88 16 144 88 16 144 88 16 144 88 16 144 88 16 144 88 16 144 88 16 144 88 16 144 88 16 144 88 16 144 88 16 144 88 16 144 88 16 144 88 16 144 88 16 144 88 16 144 88 16 144 88 16 144 88 16 144 88 16 144 88 16 144 88 16 144 88 16 144 88 16 144 88 16 144 88 16 144 88 16 144 88 16 144 88 16 144 88 16 144 88 16 144 88 16 144 88 16 144 88 16 144 88 16 144 88 16 144 88 16 144 88 16 144 88 16 144 88 16 144 88 16 144 88 16 48 48 56 48 48 56 48 48 56 48 48 56 48 48 56 48 48 56 48 48 56 48 48 56 48 48 56 48 48 56 48 48 56 48 48 56 48 48 56 48 48 56 48 48 56 48 48 56 48 48 56 48 48 56 48 48 56 48 48 56 48 48 56 48 48 56 48 48 56 48 48 56 48 48 56 48 48 56 48 48 56 48 48 56 48 48 56 48 48 56 48 48 56 48 48 56
48 48 56 48 48 56 48 48 56 48 48 56 48 48 56 48 48 56 48 48 56 48 48 56 48 48 56 48 48 56 48 48 56 48 48 56 48 48 56 48 48 56 48 48 56 48 48 56 48 48 56 48 48 56 48 48 56 48 48 56 48 48 56 48 48 56 48 48 56 48 48 56 48 48 56 48 48 56 48 48 56 48 48 56 48 48 56 48 48 56 48 48 56 48 48 56 144 88 16 144 88 16 144 88 16 144 88 16 144 88 16 144 88 16 144 88 16 144 88 16 144 88 16 144 88 16 144 88 16 144 88 16 144 88 16 144 88 16 144 88 16 144 88 16 144 88 16 144 88 16 144 88 16 144 88 16 144 88 16 144 88 16 144 88 16 144 88 16 144 88 16 144 88 16 144 88 16 144 88 16 144 88 16 144 88 16 144 88 16 144 88 16 144 88 16 144 88 16 144 88 16 144 88 16 144 88 16 144 88 16 144 88 16 144 88 16 144 88 16 144 88 16 144 88 16 144 88 16 144 88 16 144 88 16 144 88 16 144 88 16 144 88 16 144 88 16 144 88 16 144 88 16 144 88 16 144 88 16 144 88 16 144 88 16 144 88 16 144 88 16 144 88 16 144 88 16 144 88 16 144 88 16 144 88 16 144 88 16 48 48 56 48 48 56 48 48 56 48 48 56 48 48 56 48 48 56 48 48 56 48 48 56 48 48 56 48 48 56 48 48 56 48 48 56 48 48 56 48 48 56 48 48 56 48 48 56 48 48 56 48 48 56 48 48 56 48 48 56 48 48 56 48 48 56 48 48 56 48 48 56 48 48 56 48 48 56 48 48 56 48 48 56 48 48 56 48 48 56 48 48 56 48 48 56
48 48 56 48 48 56 48 48 56 48 48 56 48 48 56 48 48 56 48 48 56 48 48 56 48 48 56 48 48 56 48 48 56 48 48 56 48 48 56 48 48 56 48 48 56 48 48 56 48 48 56 48 48 56 48 48 56 48 48 56 48 48 56 48 48 56 48 48 56 48 48 56 48 48 56 48 48 56 48 48 56 48 48 56 48 48 56 48 48 56 48 48 56 48 48 56 144 88 16 144 88 16 144 88 16 144 88 16 144 88 16 144 88 16 144 88 16 144 88 16 144 88 16 144 88 16 144 88 16 144 88 16 144 88 16 144 88 16 144 88 16 144 88 16 144 88 16 144 88 16 144 88 16 144 88 16 144 88 16 144 88 16 144 88 16 144 88 16 144 88 16 144 88 16 144 88 16 144 88 16 144 88 16 144 88 16 144 88 16 144 88 16 144 88 16 144 88 16 144 88 16 144 88 16 144 88 16 144 88 16 144 88 16 144 88 16 144 88 16 144 88 16 144 88 16 144 88 16 144 88 16 144 88 16 144 88 16 144 88 16 144 88 16 144 88 16 144 88 16 144 88 16 144 88 16 144 88 16 144 88 16 144 88 16 144 88 16 144 88 16 144 88 16 144 88 16 144 88 16 144 88 16 144 88 16 144 88 16 48 48 56 48 48 56 48 48 56 48 48 56 48 48 56 48 48 56 48 48 56 48 48 56 48 48 56 48 48 56 48 48 56 48 48 56 48 48 56 48 48 56 48 48 56 48 48 56 48 48 56 48 48 56 48 48 56 48 48 56 48 48 56 48 48 56 48 48 56 48 48 56 48 48 56 48 48 56 48 48 56 48 48 56 48 48 56 48 48 56 48 48 56 48 48 56
48 48 56 48 48 56 48 48 56 48 48 56 48 48 56 48 48 56 48 48 56 48 48 56 48 48 56 48 48 56 48 48 56 48 48 56 48 48 56 48 48 56 48 48 56 48 48 56 48 48 56 48 48 56 48 48 56 48 48 56 48 48 56 48 48 56 48 48 56 48 48 56 48 48 56 48 48 56 48 48 56 48 48 56 48 48 56 48 48 56 48 48 56 48 48 56 144 88 16 144 88 16 144 88 16 144 88 16 144 88 16 144 88 16 144 88 16 144 88 16 144 88 16 144 88 16 144 88 16 144 88 16 144 88 16 144 88 16 144 88 16 144 88 16 144 88 16 144 88 16 144 88 16 144 88 16 144 88 16 144 88 16 144 88 16 144 88 16 144 88 16 144 88 16 144 88 16 144 88 16 144 88 16 144 88 16 144 88 16 144 88 16 144 88 16 144 88 16 144 88 16 144 88 16 144 88 16 144 88 16 144 88 16 144 88 16 144 88 16 144 88 16 144 88 16 144 88 16 144 88 16 144 88 16 144 88 16 144 88 16 144 88 16 144 88 16 144 88 16 144 88 16 144 88 16 144 88 16 144 88 16 144 88 16 144 88 16 144 88 16 144 88 16 144 88 16 144 88 16 144 88 16 144 88 16 144 88 16 48 48 56 48 48 56 48 48 56 48 48 56 48 48 56 48 48 56 48 48 56 48 48 56 48 48 56 48 48 56 48 48 56 48 48 56 48 48 56 48 48 56 48 48 56 48 48 56 48 48 56 48 48 56 48 48 56 48 48 56 48 48 56 48 48 56 48 48 56 48 48 56 48 48 56 48 48 56 48 48 56 48 48 56 48 48 56 48 48 56 48 48 56 48 48 56
48 48 56 48 48 56 48 48 56 48 48 56 48 48 56 48 48 56 48 48 56 48 48 56 48 48 56 48 48 56 48 48 56 48 48 56 48 48 56 48 48 56 48 48 56 48 48 56 48 48 56 48 48 56 48 48 56 48 48 56 48 48 56 48 48 56 48 48 56 48 48 56 48 48 56 48 48 56 48 48 56 48 48 56 48 48 56 48 48 56 48 48 56 48 48 56 144 88 16 144 88 16 144 88 16 144 88 16 144 88 16 144 88 16 144 88 16 144 88 16 144 88 16 144 88 16 144 88 16 144 88 16 144 88 16 144 88 16 144 88 16 144 88 16 144 88 16 144 88 16 144 88 16 144 88 16 144 88 16 144 88 16 144 88 16 144 88 16 144 88 16 144 88 16 144 88 16 144 88 16 144 88 16 144 88 16 144 88 16 144 88 16 144 88 16 144 88 16 144 88 16 144 88 16 144 88 16 144 88 16 144 88 16 144 88 16 144 88 16 144 88 16 144 88 16 144 88 16 144 88 16 144 88 16 144 88 16 144 88 16 144 88 16 144 88 16 144 88 16 144 88 16 144 88 16 144 88 16 144 88 16 144 88 16 144 88 16 144 88 16 144 88 16 144 88 16 144 88 16 144 88 16 144 88 16 144 88 16 48 48 56 48 48 56 48 48 56 48 48 56 48 48 56 48 48 56 48 48 56 48 48 56 48 48 56 48 48 56 48 48 56 48 48 56 48 48 56 48 48 56 48 48 56 48 48 56 48 48 56 48 48 56 48 48 56 48 48 56 48 48 56 48 48 56 48 48 56 48 48 56 48 48 56 48 48 56 48 48 56 48 48 56 48 48 56 48 48 56 48 48 56 48 48 56
48 48 56 48 48 56 48 48 56 48 48 56 48 48 56 48 48 56 48 48 56 48 48 56 48 48 56 48 48 56 48 48 56 48 48 56 48 48 56 48 48 56 48 48 56 48 48 56 48 48 56 48 48 56 48 48 56 48 48 56 48 48 56 48 48 56 48 48 56 48 48 56 48 48 56 48 48 56 48 48 56 48 48 56 48 48 56 48 48 56 48 48 56 48 48 56 144 88 16 144 88 16 144 88 16 144 88 16 144 88 16 144 88 16 144 88 16 144 88 16 144 88 16 144 88 16 144 88 16 144 88 16 144 88 16 144 88 16 144 88 16 144 88 16 144 88 16 144 88 16 144 88 16 144 88 16 144 88 16 144 88 16 144 88 16 144 88 16 144 88 16 144 88 16 144 88 16 144 88 16 144 88 16 144 88 16 144 88 16 144 88 16 144 88 16 144 88 16 144 88 16 144 88 16 144 88 16 144 88 16 144 88 16 144 88 16 144 88 16 144 88 16 144 88 16 144 88 16 144 88 16 144 88 16 144 88 16 144 88 16 144 88 16 144 88 16 144 88 16 144 88 16 144 88 16 144 88 16 144 88 16 144 88 16 144 88 16 144 88 16 144 88 16 144 88 16 144 88 16 144 88 16 144 88 16 144 88 16 48 48 56 48 48 56 48 48 56 48 48 56 48 48 56 48 48 56 48 48 56 48 48 56 48 48 56 48 48 56 48 48 56 48 48 56 48 48 56 48 48 56 48 48 56 48 48 56 48 48 56 48 48 56 48 48 56 48 48 56 48 48 56 48 48 56 48 48 56 48 48 56 48 48 56 48 48 56 48 48 56 48 48 56 48 48 56 48 48 56 48 48 56 48 48 56
48 48 56 48 48 56 48 48 56 48 48 56 48 48 56 48 48 56 48 48 56 48 48 56 48 48 56 48 48 56 48 48 56 48 48 56 48 48 56 48 48 56 48 48 56 48 48 56 48 48 56 48 48 56 48 48 56 48 48 56 48 48 56 48 48 56 48 48 56 48 48 56 48 48 56 48 48 56 48 48 56 48 48 56 48 48 56 48 48 56 48 48 56 48 48 56 144 88 16 144 88 16 144 88 16 144 88 16 144 88 16 144 88 16 144 88 16 144 88 16 144 88 16 144 88 16 144 88 16 144 88 16 144 88 16 144 88 16 144 88 16 144 88 16 144 88 16 144 88 16 144 88 16 144 88 16 144 88 16 144 88 16 144 88 16 144 88 16 144 88 16 144 88 16 144 88 16 144 88 16 144 88 16 144 88 16 144 88 16 144 88 16 144 88 16 144 88 16 144 88 16 144 88 16 144 88 16 144 88 16 144 88 16 144 88 16 144 88 16 144 88 16 144 88 16 144 88 16 144 88 16 144 88 16 144 88 16 144 88 16 144 88 16 144 88 16 144 88 16 144 88 16 144 88 16 144 88 16 144 88 16 144 88 16 144 88 16 144 88 16 144 88 16 144 88 16 144 88 16 144 88 16 144 88 16 144 88 16 48 48 56 48 48 56 48 48 56 48 48 56 48 48 56 48 48 56 48 48 56 48 48 56 48 48 56 48 48 56 48 48 56 48 48 56 48 48 56 48 48 56 48 48 56 48 48 56 48 48 56 48 48 56 48 48 56 48 48 56 48 48 56 48 48 56 48 48 56 48 48 56 48 48 56 48 48 56 48 48 56 48 48 56 48 48 56 48 48 56 48 48 56 48 48 56
48 48 56 48 48 56 48 48 56 48 48 56 48 48 56 48 48 56 48 48 56 48 48 56 48 48 56 48 48 56 48 48 56 48 48 56 48 48 56 48 48 56 48 48 56 48 48 56 48 48 56 48 48 56 48 48 56 48 48 56 48 48 56 48 48 56 48 48 56 48 48 56 48 48 56 48 48 56 48 48 56 48 48 56 48 48 56 48 48 56 48 48 56 48 48 56 144 88 16 144 88 16 144 88 16 144 88 16 144 88 16 144 88 16 144 88 16 144 88 16 144 88 16 144 88 16 144 88 16 144 88 16 144 88 16 144 88 16 144 88 16 144 88 16 144 88 16 144 88 16 144 88 16 144 88 16 144 88 16 144 88 16 144 88 16 144 88 16 144 88 16 144 88 16 144 88 16 144 88 16 144 88 16 144 88 16 144 88 16 144 88 16 144 88 16 144 88 16 144 88 16 144 88 16 144 88 16 144 88 16 144 88 16 144 88 16 144 88 16 144 88 16 144 88 16 144 88 16 144 88 16 144 88 16 144 88 16 144 88 16 144 88 16 144 88 16 144 88 16 144 88 16 144 88 16 144 88 16 144 88 16 144 88 16 144 88 16 144 88 16 144 88 16 144 88 16 144 88 16 144 88 16 144 88 16 144 88 16 48 48 56 48 48 56 48 48 56 48 48 56 48 48 56 48 48 56 48 48 56 48 48 56 48 48 56 48 48 56 48 48 56 48 48 56 48 48 56 48 48 56 48 48 56 48 48 56 48 48 56 48 48 56 48 48 56 48 48 56 48 48 56 48 48 56 48 48 56 48 48 56 48 48 56 48 48 56 48 48 56 48 48 56 48 48 56 48 48 56 48 48 56 48 48 56
48 48 56 48 48 56 48 48 56 48 48 56 48 48 56 48 48 56 48 48 56 48 48 56 48 48 56 48 48 56 48 48 56 48 48 56 48 48 56 48 48 56 48 48 56 48 48 56 48 48 56 48 48 56 48 48 56 48 48 56 48 48 56 48 48 56 48 48 56 48 48 56 48 48 56 48 48 56 48 48 56 48 48 56 48 48 56 48 48 56 48 48 56 48 48 56 144 88 16 144 88 16 144 88 16 144 88 16 144 88 16 144 88 16 144 88 16 144 88 16 144 88 16 144 88 16 144 88 16 144 88 16 144 88 16 144 88 16 144 88 16 144 88 16 144 88 16 144 88 16 144 88 16 144 88 16 144 88 16 144 88 16 144 88 16 144 88 16 144 88 16 144 88 16 144 88 16 144 88 16 144 88 16 144 88 16 144 88 16 144 88 16 144 88 16 144 88 16 144 88 16 144 88 16 144 88 16 144 88 16 144 88 16 144 88 16 144 88 16 144 88 16 144 88 16 144 88 16 144 88 16 144 88 16 144 88 16 144 88 16 144 88 16 144 88 16 144 88 16 144 88 16 144 88 16 144 88 16 144 88 16 144 88 16 144 88 16 144 88 16 144 88 16 144 88 16 144 88 16 144 88 16 144 88 16 144 88 16 48 48 56 48 48 56 48 48 56 48 48 56 48 48 56 48 48 56 48 48 56 48 48 56 48 48 56 48 48 56 48 48 56 48 48 56 48 48 56 48 48 56 48 48 56 48 48 56 48 48 56 48 48 56 48 48 56 48 48 56 48 48 56 48 48 56 48 48 56 48 48 56 48 48 56 48 48 56 48 48 56 48 48 56 48 48 56 48 48 56 48 48 56 48 48 56
48 48 56 48 48 56 48 48 56 48 48 56 48 48 56 48 48 56 48 48 56 48 48 56 48 48 56 48 48 56 48 48 56 48 48 56 48 48 56 48 48 56 48 48 56 48 48 56 48 48 56 48 48 56 48 48 56 48 48 56 48 48 56 48 48 56 48 48 56 48 48 56 48 48 56 48 48 56 48 48 56 48 48 56 48 48 56 48 48 56 48 48 56 48 48 56 144 88 16 144 88 16 144 88 16 144 88 16 144 88 16 144 88 16 144 88 16 144 88 16 144 88 16 144 88 16 144 88 16 144 88 16 144 88 16 144 88 16 144 88 16 144 88 16 144 88 16 144 88 16 144 88 16 144 88 16 144 88 16 144 88 16 144 88 16 144 88 16 144 88 16 144 88 16 144 88 16 144 88 16 144 88 16 144 88 16 144 88 16 144 88 16 144 88 16 144 88 16 144 88 16 144 88 16 144 88 16 144 88 16 144 88 16 144 88 16 144 88 16 144 88 16 144 88 16 144 88 16 144 88 16 144 88 16 144 88 16 144 88 16 144 88 16 144 88 16 144 88 16 144 88 16 144 88 16 144 88 16 144 88 16 144 88 16 144 88 16 144 88 16 144 88 16 144 88 16 144 88 16 144 88 16 144 88 16 144 88 16 48 48 56 48 48 56 48 48 56 48 48 56 48 48 56 48 48 56 48 48 56 48 48 56 48 48 56 48 48 56 48 48 56 48 48 56 48 48 56 48 48 56 48 48 56 48 48 56 48 48 56 48 48 56 48 48 56 48 48 56 48 48 56 48 48 56 48 48 56 48 48 56 48 48 56 48 48 56 48 48 56 48 48 56 48 48 56 48 48 56 48 48 56 48 48 56
48 48 56 48 48 56 48 48 56 48 48 56 48 48 56 48 48 56 48 48 56 48 48 56 48 48 56 48 48 56 48 48 56 48 48 56 48 48 56 48 48 56 48 48 56 48 48 56 48 48 56 48 48 56 48 48 56 48 48 56 48 48 56 48 48 56 48 48 56 48 48 56 48 48 56 48 48 56 48 48 56 48 48 56 48 48 56 48 48 56 48 48 56 48 48 56 144 88 16 144 88 16 144 88 16 144 88 16 144 88 16 144 88 16 144 88 16 144 88 16 144 88 16 144 88 16 144 88 16 144 88 16 144 88 16 144 88 16 144 88 16 144 88 16 144 88 16 144 88 16 144 88 16 144 88 16 144 88 16 144 88 16 144 88 16 144 88 16 144 88 16 144 88 16 144 88 16 144 88 16 144 88 16 144 88 16 144 88 16 144 88 16 144 88 16 144 88 16 144 88 16 144 88 16 144 88 16 144 88 16 144 88 16 144 88 16 144 88 16 144 88 16 144 88 16 144 88 16 144 88 16 144 88 16 144 88 16 144 88 16 144 88 16 144 88 16 144 88 16 144 88 16 144 88 16 144 88 16 144 88 16 144 88 16 144 88 16 144 88 16 144 88 16 144 88 16 144 88 16 144 88 16 144 88 16 144 88 16 48 48 56 48 48 56 48 48 56 48 48 56 48 48 56 48 48 56 48 48 56 48 48 56 48 48 56 48 48 56 48 48 56 48 48 56 48 48 56 48 48 56 48 48 56 48 48 56 48 48 56 48 48 56 48 48 56 48 48 56 48 48 56 48 48 56 48 48 56 48 48 56 48 48 56 48 48 56 48 48 56 48 48 56 48 48 56 48 48 56 48 48 56 48 48 56
48 48 56 48 48 56 48 48 56 48 48 56 48 48 56 48 48 56 48 48 56 48 48 56 48 48 56 48 48 56 48 48 56 48 48 56 48 48 56 48 48 56 48 48 56 48 48 56 48 48 56 48 48 56 48 48 56 48 48 56 48 48 56 48 48 56 48 48 56 48 48 56 48 48 56 48 48 56 48 48 56 48 48 56 48 48 56 48 48 56 48 48 56 48 48 56 144 88 16 144 88 16 144 88 16 144 88 16 144 88 16 144 88 16 144 88 16 144 88 16 144 88 16 144 88 16 144 88 16 144 88 16 144 88 16 144 88 16 144 88 16 144 88 16 144 88 16 144 88 16 144 88 16 144 88 16 144 88 16 144 88 16 144 88 16 144 88 16 144 88 16 144 88 16 144 88 16 144 88 16 144 88 16 144 88 16 144 88 16 144 88 16 144 88 16 144 88 16 144 88 16 144 88 16 144 88 16 144 88 16 144 88 16 144 88 16 144 88 16 144 88 16 144 88 16 144 88 16 144 88 16 144 88 16 144 88 16 144 88 16 144 88 16 144 88 16 144 88 16 144 88 16 144 88 16 144 88 16 144 88 16 144 88 16 144 88 16 144 88 16 144 88 16 144 88 16 144 88 16 144 88 16 144 88 16 144 88 16 48 48 56 48 48 56 48 48 56 48 48 56 48 48 56 48 48 56 48 48 56 48 48 56 48 48 56 48 48 56 48 48 56 48 48 56 48 48 56 48 48 56 48 48 56 48 48 56 48 48 56 48 48 56 48 48 56 48 48 56 48 48 56 48 48 56 48 48 56 48 48 56 48 48 56 48 48 56 48 48 56 48 48 56 48 48 56 48 48 56 48 48 56 48 48 56