P3
128 128
255
144 16 0 144 16 0 144 16 0 144 16 0 144 16 0 144 16 0 144 16 0 144 16 0 144 16 0 144 16 0 144 16 0 144 16 0 144 16 0 144 16 0 144 16 0 144 16 0 144 16 0 144 16 0 144 16 0 144 16 0 144 16 0 144 16 0 144 16 0 144 16 0 144 16 0 144 16 0 144 16 0 144 16 0 144 16 0 144 16 0 144 16 0 144 16 0 0 0 0 0 0 0 0 0 0 0 0 0 0 0 0 0 0 0 0 0 0 0 0 0 0 0 0 0 0 0 0 0 0 0 0 0 0 0 0 0 0 0 0 0 0 0 0 0 0 0 0 0 0 0 0 0 0 0 0 0 0 0 0 0 0 0 0 0 0 0 0 0 0 0 0 0 0 0 0 0 0 0 0 0 0 0 0 0 0 0 0 0 0 0 0 0 0 16 0 0 16 0 0 16 0 0 16 0 0 16 0 0 16 0 0 16 0 0 16 0 0 16 0 0 16 0 0 16 0 0 16 0 0 16 0 0 16 0 0 16 0 0 16 0 0 16 0 0 16 0 0 16 0 0 16 0 0 16 0 0 16 0 0 16 0 0 16 0 0 16 0 0 16 0 0 16 0 0 16 0 0 16 0 0 16 0 0 16 0 0 16 0 0 0 32 0 0 32 0 0 32 0 0 32 0 0 32 0 0 32 0 0 32 0 0 32 0 0 32 0 0 32 0 0 32 0 0 32 0 0 32 0 0 32 0 0 32 0 0 32 0 0 32 0 0 32 0 0 32 0 0 32 0 0 32 0 0 32 0 0 32 0 0 32 0 0 32 0 0 32 0 0 32 0 0 32 0 0 32 0 0 32 0 0 32 0 0 32
144 16 0 144 16 0 144 16 0 144 16 0 144 16 0 144 16 0 144 16 0 144 16 0 144 16 0 144 16 0 144 16 0 144 16 0 144 16 0 144 16 0 144 16 0 144 16 0 144 16 0 144 16 0 144 16 0 144 16 0 144 16 0 144 16 0 144 16 0 144 16 0 144 16 0 144 16 0 144 16 0 144 16 0 144 16 0 144 16 0 144 16 0 144 16 0 0 0 0 0 0 0 0 0 0 0 0 0 0 0 0 0 0 0 0 0 0 0 0 0 0 0 0 0 0 0 0 0 0 0 0 0 0 0 0 0 0 0 0 0 0 0 0 0 0 0 0 0 0 0 0 0 0 0 0 0 0 0 0 0 0 0 0 0 0 0 0 0 0 0 0 0 0 0 0 0 0 0 0 0 0 0 0 0 0 0 0 0 0 0 0 0 0 16 0 0 16 0 0 16 0 0 16 0 0 16 0 0 16 0 0 16 0 0 16 0 0 16 0 0 16 0 0 16 0 0 16 0 0 16 0 0 16 0 0 16 0 0 16 0 0 16 0 0 16 0 0 16 0 0 16 0 0 16 0 0 16 0 0 16 0 0 16 0 0 16 0 0 16 0 0 16 0 0 16 0 0 16 0 0 16 0 0 16 0 0 16 0 0 0 32 0 0 32 0 0 32 0 0 32 0 0 32 0 0 32 0 0 32 0 0 32 0 0 32 0 0 32 0 0 32 0 0 32 0 0 32 0 0 32 0 0 32 0 0 32 0 0 32 0 0 32 0 0 32 0 0 32 0 0 32 0 0 32 0 0 32 0 0 32 0 0 32 0 0 32 0 0 32 0 0 32 0 0 32 0 0 32 0 0 32 0 0 32
144 16 0 144 16 0 144 16 0 144 16 0 144 16 0 144 16 0 144 16 0 144 16 0 144 16 0 144 16 0 144 16 0 144 16 0 144 16 0 144 16 0 144 16 0 144 16 0 144 16 0 144 16 0 144 16 0 144 16 0 144 16 0 144 16 0 144 16 0 144 16 0 144 16 0 144 16 0 144 16 0 144 16 0 144 16 0 144 16 0 144 16 0 144 16 0 0 0 0 0 0 0 0 0 0 0 0 0 0 0 0 0 0 0 0 0 0 0 0 0 0 0 0 0 0 0 0 0 0 0 0 0 0 0 0 0 0 0 0 0 0 0 0 0 0 0 0 0 0 0 0 0 0 0 0 0 0 0 0 0 0 0 0 0 0 0 0 0 0 0 0 0 0 0 0 0 0 0 0 0 0 0 0 0 0 0 0 0 0 0 0 0 0 16 0 0 16 0 0 16 0 0 16 0 0 16 0 0 16 0 0 16 0 0 16 0 0 16 0 0 16 0 0 16 0 0 16 0 0 16 0 0 16 0 0 16 0 0 16 0 0 16 0 0 16 0 0 16 0 0 16 0 0 16 0 0 16 0 0 16 0 0 16 0 0 16 0 0 16 0 0 16 0 0 16 0 0 16 0 0 16 0 0 16 0 0 16 0 0 0 32 0 0 32 0 0 32 0 0 32 0 0 32 0 0 32 0 0 32 0 0 32 0 0 32 0 0 32 0 0 32 0 0 32 0 0 32 0 0 32 0 0 32 0 0 32 0 0 32 0 0 32 0 0 32 0 0 32 0 0 32 0 0 32 0 0 32 0 0 32 0 0 32 0 0 32 0 0 32 0 0 32 0 0 32 0 0 32 0 0 32 0 0 32
144 16 0 144 16 0 144 16 0 144 16 0 144 16 0 144 16 0 144 16 0 144 16 0 144 16 0 144 16 0 144 16 0 144 16 0 144 16 0 144 16 0 144 16 0 144 16 0 144 16 0 144 16 0 144 16 0 144 16 0 144 16 0 144 16 0 144 16 0 144 16 0 144 16 0 144 16 0 144 16 0 144 16 0 144 16 0 144 16 0 144 16 0 144 16 0 0 0 0 0 0 0 0 0 0 0 0 0 0 0 0 0 0 0 0 0 0 0 0 0 0 0 0 0 0 0 0 0 0 0 0 0 0 0 0 0 0 0 0 0 0 0 0 0 0 0 0 0 0 0 0 0 0 0 0 0 0 0 0 0 0 0 0 0 0 0 0 0 0 0 0 0 0 0 0 0 0 0 0 0 0 0 0 0 0 0 0 0 0 0 0 0 0 16 0 0 16 0 0 16 0 0 16 0 0 16 0 0 16 0 0 16 0 0 16 0 0 16 0 0 16 0 0 16 0 0 16 0 0 16 0 0 16 0 0 16 0 0 16 0 0 16 0 0 16 0 0 16 0 0 16 0 0 16 0 0 16 0 0 16 0 0 16 0 0 16 0 0 16 0 0 16 0 0 16 0 0 16 0 0 16 0 0 16 0 0 16 0 0 0 32 0 0 32 0 0 32 0 0 32 0 0 32 0 0 32 0 0 32 0 0 32 0 0 32 0 0 32 0 0 32 0 0 32 0 0 32 0 0 32 0 0 32 0 0 32 0 0 32 0 0 32 0 0 32 0 0 32 0 0 32 0 0 32 0 0 32 0 0 32 0 0 32 0 0 32 0 0 32 0 0 32 0 0 32 0 0 32 0 0 32 0 0 32
144 16 0 144 16 0 144 16 0 144 16 0 144 16 0 144 16 0 144 16 0 144 16 0 144 16 0 144 16 0 144 16 0 144 16 0 144 16 0 144 16 0 144 16 0 144 16 0 144 16 0 144 16 0 144 16 0 144 16 0 144 16 0 144 16 0 144 16 0 144 16 0 144 16 0 144 16 0 144 16 0 144 16 0 144 16 0 144 16 0 144 16 0 144 16 0 0 0 0 0 0 0 0 0 0 0 0 0 0 0 0 0 0 0 0 0 0 0 0 0 0 0 0 0 0 0 0 0 0 0 0 0 0 0 0 0 0 0 0 0 0 0 0 0 0 0 0 0 0 0 0 0 0 0 0 0 0 0 0 0 0 0 0 0 0 0 0 0 0 0 0 0 0 0 0 0 0 0 0 0 0 0 0 0 0 0 0 0 0 0 0 0 0 16 0 0 16 0 0 16 0 0 16 0 0 16 0 0 16 0 0 16 0 0 16 0 0 16 0 0 16 0 0 16 0 0 16 0 0 16 0 0 16 0 0 16 0 0 16 0 0 16 0 0 16 0 0 16 0 0 16 0 0 16 0 0 16 0 0 16 0 0 16 0 0 16 0 0 16 0 0 16 0 0 16 0 0 16 0 0 16 0 0 16 0 0 16 0 0 0 32 0 0 32 0 0 32 0 0 32 0 0 32 0 0 32 0 0 32 0 0 32 0 0 32 0 0 32 0 0 32 0 0 32 0 0 32 0 0 32 0 0 32 0 0 32 0 0 32 0 0 32 0 0 32 0 0 32 0 0 32 0 0 32 0 0 32 0 0 32 0 0 32 0 0 32 0 0 32 0 0 32 0 0 32 0 0 32 0 0 32 0 0 32
144 16 0 144 16 0 144 16 0 144 16 0 144 16 0 144 16 0 144 16 0 144 16 0 144 16 0 144 16 0 144 16 0 144 16 0 144 16 0 144 16 0 144 16 0 144 16 0 144 16 0 144 16 0 144 16 0 144 16 0 144 16 0 144 16 0 144 16 0 144 16 0 144 16 0 144 16 0 144 16 0 144 16 0 144 16 0 144 16 0 144 16 0 144 16 0 0 0 0 0 0 0 0 0 0 0 0 0 0 0 0 0 0 0 0 0 0 0 0 0 0 0 0 0 0 0 0 0 0 0 0 0 0 0 0 0 0 0 0 0 0 0 0 0 0 0 0 0 0 0 0 0 0 0 0 0 0 0 0 0 0 0 0 0 0 0 0 0 0 0 0 0 0 0 0 0 0 0 0 0 0 0 0 0 0 0 0 0 0 0 0 0 0 16 0 0 16 0 0 16 0 0 16 0 0 16 0 0 16 0 0 16 0 0 16 0 0 16 0 0 16 0 0 16 0 0 16 0 0 16 0 0 16 0 0 16 0 0 16 0 0 16 0 0 16 0 0 16 0 0 16 0 0 16 0 0 16 0 0 16 0 0 16 0 0 16 0 0 16 0 0 16 0 0 16 0 0 16 0 0 16 0 0 16 0 0 16 0 0 0 32 0 0 32 0 0 32 0 0 32 0 0 32 0 0 32 0 0 32 0 0 32 0 0 32 0 0 32 0 0 32 0 0 32 0 0 32 0 0 32 0 0 32 0 0 32 0 0 32 0 0 32 0 0 32 0 0 32 0 0 32 0 0 32 0 0 32 0 0 32 0 0 32 0 0 32 0 0 32 0 0 32 0 0 32 0 0 32 0 0 32 0 0 32
144 16 0 144 16 0 144 16 0 144 16 0 144 16 0 144 16 0 144 16 0 144 16 0 144 16 0 144 16 0 144 16 0 144 16 0 144 16 0 144 16 0 144 16 0 144 16 0 144 16 0 144 16 0 144 16 0 144 16 0 144 16 0 144 16 0 144 16 0 144 16 0 144 16 0 144 16 0 144 16 0 144 16 0 144 16 0 144 16 0 144 16 0 144 16 0 0 0 0 0 0 0 0 0 0 0 0 0 0 0 0 0 0 0 0 0 0 0 0 0 0 0 0 0 0 0 0 0 0 0 0 0 0 0 0 0 0 0 0 0 0 0 0 0 0 0 0 0 0 0 0 0 0 0 0 0 0 0 0 0 0 0 0 0 0 0 0 0 0 0 0 0 0 0 0 0 0 0 0 0 0 0 0 0 0 0 0 0 0 0 0 0 0 16 0 0 16 0 0 16 0 0 16 0 0 16 0 0 16 0 0 16 0 0 16 0 0 16 0 0 16 0 0 16 0 0 16 0 0 16 0 0 16 0 0 16 0 0 16 0 0 16 0 0 16 0 0 16 0 0 16 0 0 16 0 0 16 0 0 16 0 0 16 0 0 16 0 0 16 0 0 16 0 0 16 0 0 16 0 0 16 0 0 16 0 0 16 0 0 0 32 0 0 32 0 0 32 0 0 32 0 0 32 0 0 32 0 0 32 0 0 32 0 0 32 0 0 32 0 0 32 0 0 32 0 0 32 0 0 32 0 0 32 0 0 32 0 0 32 0 0 32 0 0 32 0 0 32 0 0 32 0 0 32 0 0 32 0 0 32 0 0 32 0 0 32 0 0 32 0 0 32 0 0 32 0 0 32 0 0 32 0 0 32
144 16 0 144 16 0 144 16 0 144 16 0 144 16 0 144 16 0 144 16 0 144 16 0 144 16 0 144 16 0 144 16 0 144 16 0 144 16 0 144 16 0 144 16 0 144 16 0 144 16 0 144 16 0 144 16 0 144 16 0 144 16 0 144 16 0 144 16 0 144 16 0 144 16 0 144 16 0 144 16 0 144 16 0 144 16 0 144 16 0 144 16 0 144 16 0 0 0 0 0 0 0 0 0 0 0 0 0 0 0 0 0 0 0 0 0 0 0 0 0 0 0 0 0 0 0 0 0 0 0 0 0 0 0 0 0 0 0 0 0 0 0 0 0 0 0 0 0 0 0 0 0 0 0 0 0 0 0 0 0 0 0 0 0 0 0 0 0 0 0 0 0 0 0 0 0 0 0 0 0 0 0 0 0 0 0 0 0 0 0 0 0 0 16 0 0 16 0 0 16 0 0 16 0 0 16 0 0 16 0 0 16 0 0 16 0 0 16 0 0 16 0 0 16 0 0 16 0 0 16 0 0 16 0 0 16 0 0 16 0 0 16 0 0 16 0 0 16 0 0 16 0 0 16 0 0 16 0 0 16 0 0 16 0 0 16 0 0 16 0 0 16 0 0 16 0 0 16 0 0 16 0 0 16 0 0 16 0 0 0 32 0 0 32 0 0 32 0 0 32 0 0 32 0 0 32 0 0 32 0 0 32 0 0 32 0 0 32 0 0 32 0 0 32 0 0 32 0 0 32 0 0 32 0 0 32 0 0 32 0 0 32 0 0 32 0 0 32 0 0 32 0 0 32 0 0 32 0 0 32 0 0 32 0 0 32 0 0 32 0 0 32 0 0 32 0 0 32 0 0 32 0 0 32
144 16 0 144 16 0 144 16 0 144 16 0 144 16 0 144 16 0 144 16 0 144 16 0 144 16 0 144 16 0 144 16 0 144 16 0 144 16 0 144 16 0 144 16 0 144 16 0 144 16 0 144 16 0 144 16 0 144 16 0 144 16 0 144 16 0 144 16 0 144 16 0 144 16 0 144 16 0 144 16 0 144 16 0 144 16 0 144 16 0 144 16 0 144 16 0 0 0 0 0 0 0 0 0 0 0 0 0 0 0 0 0 0 0 0 0 0 0 0 0 0 0 0 0 0 0 0 0 0 0 0 0 0 0 0 0 0 0 0 0 0 0 0 0 0 0 0 0 0 0 0 0 0 0 0 0 0 0 0 0 0 0 0 0 0 0 0 0 0 0 0 0 0 0 0 0 0 0 0 0 0 0 0 0 0 0 0 0 0 0 0 0 0 16 0 0 16 0 0 16 0 0 16 0 0 16 0 0 16 0 0 16 0 0 16 0 0 16 0 0 16 0 0 16 0 0 16 0 0 16 0 0 16 0 0 16 0 0 16 0 0 16 0 0 16 0 0 16 0 0 16 0 0 16 0 0 16 0 0 16 0 0 16 0 0 16 0 0 16 0 0 16 0 0 16 0 0 16 0 0 16 0 0 16 0 0 16 0 0 0 32 0 0 32 0 0 32 0 0 32 0 0 32 0 0 32 0 0 32 0 0 32 0 0 32 0 0 32 0 0 32 0 0 32 0 0 32 0 0 32 0 0 32 0 0 32 0 0 32 0 0 32 0 0 32 0 0 32 0 0 32 0 0 32 0 0 32 0 0 32 0 0 32 0 0 32 0 0 32 0 0 32 0 0 32 0 0 32 0 0 32 0 0 32
144 16 0 144 16 0 144 16 0 144 16 0 144 16 0 144 16 0 144 16 0 144 16 0 144 16 0 144 16 0 144 16 0 144 16 0 144 16 0 144 16 0 144 16 0 144 16 0 144 16 0 144 16 0 144 16 0 144 16 0 144 16 0 144 16 0 144 16 0 144 16 0 144 16 0 144 16 0 144 16 0 144 16 0 144 16 0 144 16 0 144 16 0 144 16 0 0 0 0 0 0 0 0 0 0 0 0 0 0 0 0 0 0 0 0 0 0 0 0 0 0 0 0 0 0 0 0 0 0 0 0 0 0 0 0 0 0 0 0 0 0 0 0 0 0 0 0 0 0 0 0 0 0 0 0 0 0 0 0 0 0 0 0 0 0 0 0 0 0 0 0 0 0 0 0 0 0 0 0 0 0 0 0 0 0 0 0 0 0 0 0 0 0 16 0 0 16 0 0 16 0 0 16 0 0 16 0 0 16 0 0 16 0 0 16 0 0 16 0 0 16 0 0 16 0 0 16 0 0 16 0 0 16 0 0 16 0 0 16 0 0 16 0 0 16 0 0 16 0 0 16 0 0 16 0 0 16 0 0 16 0 0 16 0 0 16 0 0 16 0 0 16 0 0 16 0 0 16 0 0 16 0 0 16 0 0 16 0 0 0 32 0 0 32 0 0 32 0 0 32 0 0 32 0 0 32 0 0 32 0 0 32 0 0 32 0 0 32 0 0 32 0 0 32 0 0 32 0 0 32 0 0 32 0 0 32 0 0 32 0 0 32 0 0 32 0 0 32 0 0 32 0 0 32 0 0 32 0 0 32 0 0 32 0 0 32 0 0 32 0 0 32 0 0 32 0 0 32 0 0 32 0 0 32
144 16 0 144 16 0 144 16 0 144 16 0 144 16 0 144 16 0 144 16 0 144 16 0 144 16 0 144 16 0 144 16 0 144 16 0 144 16 0 144 16 0 144 16 0 144 16 0 144 16 0 144 16 0 144 16 0 144 16 0 144 16 0 144 16 0 144 16 0 144 16 0 144 16 0 144 16 0 144 16 0 144 16 0 144 16 0 144 16 0 144 16 0 144 16 0 0 0 0 0 0 0 0 0 0 0 0 0 0 0 0 0 0 0 0 0 0 0 0 0 0 0 0 0 0 0 0 0 0 0 0 0 0 0 0 0 0 0 0 0 0 0 0 0 0 0 0 0 0 0 0 0 0 0 0 0 0 0 0 0 0 0 0 0 0 0 0 0 0 0 0 0 0 0 0 0 0 0 0 0 0 0 0 0 0 0 0 0 0 0 0 0 0 16 0 0 16 0 0 16 0 0 16 0 0 16 0 0 16 0 0 16 0 0 16 0 0 16 0 0 16 0 0 16 0 0 16 0 0 16 0 0 16 0 0 16 0 0 16 0 0 16 0 0 16 0 0 16 0 0 16 0 0 16 0 0 16 0 0 16 0 0 16 0 0 16 0 0 16 0 0 16 0 0 16 0 0 16 0 0 16 0 0 16 0 0 16 0 0 0 32 0 0 32 0 0 32 0 0 32 0 0 32 0 0 32 0 0 32 0 0 32 0 0 32 0 0 32 0 0 32 0 0 32 0 0 32 0 0 32 0 0 32 0 0 32 0 0 32 0 0 32 0 0 32 0 0 32 0 0 32 0 0 32 0 0 32 0 0 32 0 0 32 0 0 32 0 0 32 0 0 32 0 0 32 0 0 32 0 0 32 0 0 32
144 16 0 144 16 0 144 16 0 144 16 0 144 16 0 144 16 0 144 16 0 144 16 0 144 16 0 144 16 0 144 16 0 144 16 0 144 16 0 144 16 0 144 16 0 144 16 0 144 16 0 144 16 0 144 16 0 144 16 0 144 16 0 144 16 0 144 16 0 144 16 0 144 16 0 144 16 0 144 16 0 144 16 0 144 16 0 144 16 0 144 16 0 144 16 0 0 0 0 0 0 0 0 0 0 0 0 0 0 0 0 0 0 0 0 0 0 0 0 0 0 0 0 0 0 0 0 0 0 0 0 0 0 0 0 0 0 0 0 0 0 0 0 0 0 0 0 0 0 0 0 0 0 0 0 0 0 0 0 0 0 0 0 0 0 0 0 0 0 0 0 0 0 0 0 0 0 0 0 0 0 0 0 0 0 0 0 0 0 0 0 0 0 16 0 0 16 0 0 16 0 0 16 0 0 16 0 0 16 0 0 16 0 0 16 0 0 16 0 0 16 0 0 16 0 0 16 0 0 16 0 0 16 0 0 16 0 0 16 0 0 16 0 0 16 0 0 16 0 0 16 0 0 16 0 0 16 0 0 16 0 0 16 0 0 16 0 0 16 0 0 16 0 0 16 0 0 16 0 0 16 0 0 16 0 0 16 0 0 0 32 0 0 32 0 0 32 0 0 32 0 0 32 0 0 32 0 0 32 0 0 32 0 0 32 0 0 32 0 0 32 0 0 32 0 0 32 0 0 32 0 0 32 0 0 32 0 0 32 0 0 32 0 0 32 0 0 32 0 0 32 0 0 32 0 0 32 0 0 32 0 0 32 0 0 32 0 0 32 0 0 32 0 0 32 0 0 32 0 0 32 0 0 32
144 16 0 144 16 0 144 16 0 144 16 0 144 16 0 144 16 0 144 16 0 144 16 0 144 16 0 144 16 0 144 16 0 144 16 0 144 16 0 144 16 0 144 16 0 144 16 0 144 16 0 144 16 0 144 16 0 144 16 0 144 16 0 144 16 0 144 16 0 144 16 0 144 16 0 144 16 0 144 16 0 144 16 0 144 16 0 144 16 0 144 16 0 144 16 0 0 0 0 0 0 0 0 0 0 0 0 0 0 0 0 0 0 0 0 0 0 0 0 0 0 0 0 0 0 0 0 0 0 0 0 0 0 0 0 0 0 0 0 0 0 0 0 0 0 0 0 0 0 0 0 0 0 0 0 0 0 0 0 0 0 0 0 0 0 0 0 0 0 0 0 0 0 0 0 0 0 0 0 0 0 0 0 0 0 0 0 0 0 0 0 0 0 16 0 0 16 0 0 16 0 0 16 0 0 16 0 0 16 0 0 16 0 0 16 0 0 16 0 0 16 0 0 16 0 0 16 0 0 16 0 0 16 0 0 16 0 0 16 0 0 16 0 0 16 0 0 16 0 0 16 0 0 16 0 0 16 0 0 16 0 0 16 0 0 16 0 0 16 0 0 16 0 0 16 0 0 16 0 0 16 0 0 16 0 0 16 0 0 0 32 0 0 32 0 0 32 0 0 32 0 0 32 0 0 32 0 0 32 0 0 32 0 0 32 0 0 32 0 0 32 0 0 32 0 0 32 0 0 32 0 0 32 0 0 32 0 0 32 0 0 32 0 0 32 0 0 32 0 0 32 0 0 32 0 0 32 0 0 32 0 0 32 0 0 32 0 0 32 0 0 32 0 0 32 0 0 32 0 0 32 0 0 32
144 16 0 144 16 0 144 16 0 144 16 0 144 16 0 144 16 0 144 16 0 144 16 0 144 16 0 144 16 0 144 16 0 144 16 0 144 16 0 144 16 0 144 16 0 144 16 0 144 16 0 144 16 0 144 16 0 144 16 0 144 16 0 144 16 0 144 16 0 144 16 0 144 16 0 144 16 0 144 16 0 144 16 0 144 16 0 144 16 0 144 16 0 144 16 0 0 0 0 0 0 0 0 0 0 0 0 0 0 0 0 0 0 0 0 0 0 0 0 0 0 0 0 0 0 0 0 0 0 0 0 0 0 0 0 0 0 0 0 0 0 0 0 0 0 0 0 0 0 0 0 0 0 0 0 0 0 0 0 0 0 0 0 0 0 0 0 0 0 0 0 0 0 0 0 0 0 0 0 0 0 0 0 0 0 0 0 0 0 0 0 0 0 16 0 0 16 0 0 16 0 0 16 0 0 16 0 0 16 0 0 16 0 0 16 0 0 16 0 0 16 0 0 16 0 0 16 0 0 16 0 0 16 0 0 16 0 0 16 0 0 16 0 0 16 0 0 16 0 0 16 0 0 16 0 0 16 0 0 16 0 0 16 0 0 16 0 0 16 0 0 16 0 0 16 0 0 16 0 0 16 0 0 16 0 0 16 0 0 0 32 0 0 32 0 0 32 0 0 32 0 0 32 0 0 32 0 0 32 0 0 32 0 0 32 0 0 32 0 0 32 0 0 32 0 0 32 0 0 32 0 0 32 0 0 32 0 0 32 0 0 32 0 0 32 0 0 32 0 0 32 0 0 32 0 0 32 0 0 32 0 0 32 0 0 32 0 0 32 0 0 32 0 0 32 0 0 32 0 0 32 0 0 32
144 16 0 144 16 0 144 16 0 144 16 0 144 16 0 144 16 0 144 16 0 144 16 0 144 16 0 144 16 0 144 16 0 144 16 0 144 16 0 144 16 0 144 16 0 144 16 0 144 16 0 144 16 0 144 16 0 144 16 0 144 16 0 144 16 0 144 16 0 144 16 0 144 16 0 144 16 0 144 16 0 144 16 0 144 16 0 144 16 0 144 16 0 144 16 0 0 0 0 0 0 0 0 0 0 0 0 0 0 0 0 0 0 0 0 0 0 0 0 0 0 0 0 0 0 0 0 0 0 0 0 0 0 0 0 0 0 0 0 0 0 0 0 0 0 0 0 0 0 0 0 0 0 0 0 0 0 0 0 0 0 0 0 0 0 0 0 0 0 0 0 0 0 0 0 0 0 0 0 0 0 0 0 0 0 0 0 0 0 0 0 0 0 16 0 0 16 0 0 16 0 0 16 0 0 16 0 0 16 0 0 16 0 0 16 0 0 16 0 0 16 0 0 16 0 0 16 0 0 16 0 0 16 0 0 16 0 0 16 0 0 16 0 0 16 0 0 16 0 0 16 0 0 16 0 0 16 0 0 16 0 0 16 0 0 16 0 0 16 0 0 16 0 0 16 0 0 16 0 0 16 0 0 16 0 0 16 0 0 0 32 0 0 32 0 0 32 0 0 32 0 0 32 0 0 32 0 0 32 0 0 32 0 0 32 0 0 32 0 0 32 0 0 32 0 0 32 0 0 32 0 0 32 0 0 32 0 0 32 0 0 32 0 0 32 0 0 32 0 0 32 0 0 32 0 0 32 0 0 32 0 0 32 0 0 32 0 0 32 0 0 32 0 0 32 0 0 32 0 0 32 0 0 32
144 16 0 144 16 0 144 16 0 144 16 0 144 16 0 144 16 0 144 16 0 144 16 0 144 16 0 144 16 0 144 16 0 144 16 0 144 16 0 144 16 0 144 16 0 144 16 0 144 16 0 144 16 0 144 16 0 144 16 0 144 16 0 144 16 0 144 16 0 144 16 0 144 16 0 144 16 0 144 16 0 144 16 0 144 16 0 144 16 0 144 16 0 144 16 0 0 0 0 0 0 0 0 0 0 0 0 0 0 0 0 0 0 0 0 0 0 0 0 0 0 0 0 0 0 0 0 0 0 0 0 0 0 0 0 0 0 0 0 0 0 0 0 0 0 0 0 0 0 0 0 0 0 0 0 0 0 0 0 0 0 0 0 0 0 0 0 0 0 0 0 0 0 0 0 0 0 0 0 0 0 0 0 0 0 0 0 0 0 0 0 0 0 16 0 0 16 0 0 16 0 0 16 0 0 16 0 0 16 0 0 16 0 0 16 0 0 16 0 0 16 0 0 16 0 0 16 0 0 16 0 0 16 0 0 16 0 0 16 0 0 16 0 0 16 0 0 16 0 0 16 0 0 16 0 0 16 0 0 16 0 0 16 0 0 16 0 0 16 0 0 16 0 0 16 0 0 16 0 0 16 0 0 16 0 0 16 0 0 0 32 0 0 32 0 0 32 0 0 32 0 0 32 0 0 32 0 0 32 0 0 32 0 0 32 0 0 32 0 0 32 0 0 32 0 0 32 0 0 32 0 0 32 0 0 32 0 0 32 0 0 32 0 0 32 0 0 32 0 0 32 0 0 32 0 0 32 0 0 32 0 0 32 0 0 32 0 0 32 0 0 32 0 0 32 0 0 32 0 0 32 0 0 32
144 16 0 144 16 0 144 16 0 144 16 0 144 16 0 144 16 0 144 16 0 144 16 0 144 16 0 144 16 0 144 16 0 144 16 0 144 16 0 144 16 0 144 16 0 144 16 0 144 16 0 144 16 0 144 16 0 144 16 0 144 16 0 144 16 0 144 16 0 144 16 0 144 16 0 144 16 0 144 16 0 144 16 0 144 16 0 144 16 0 144 16 0 144 16 0 0 0 0 0 0 0 0 0 0 0 0 0 0 0 0 0 0 0 0 0 0 0 0 0 0 0 0 0 0 0 0 0 0 0 0 0 0 0 0 0 0 0 0 0 0 0 0 0 0 0 0 0 0 0 0 0 0 0 0 0 0 0 0 0 0 0 0 0 0 0 0 0 0 0 0 0 0 0 0 0 0 0 0 0 0 0 0 0 0 0 0 0 0 0 0 0 0 16 0 0 16 0 0 16 0 0 16 0 0 16 0 0 16 0 0 16 0 0 16 0 0 16 0 0 16 0 0 16 0 0 16 0 0 16 0 0 16 0 0 16 0 0 16 0 0 16 0 0 16 0 0 16 0 0 16 0 0 16 0 0 16 0 0 16 0 0 16 0 0 16 0 0 16 0 0 16 0 0 16 0 0 16 0 0 16 0 0 16 0 0 16 0 0 0 32 0 0 32 0 0 32 0 0 32 0 0 32 0 0 32 0 0 32 0 0 32 0 0 32 0 0 32 0 0 32 0 0 32 0 0 32 0 0 32 0 0 32 0 0 32 0 0 32 0 0 32 0 0 32 0 0 32 0 0 32 0 0 32 0 0 32 0 0 32 0 0 32 0 0 32 0 0 32 0 0 32 0 0 32 0 0 32 0 0 32 0 0 32
144 16 0 144 16 0 144 16 0 144 16 0 144 16 0 144 16 0 144 16 0 144 16 0 144 16 0 144 16 0 144 16 0 144 16 0 144 16 0 144 16 0 144 16 0 144 16 0 144 16 0 144 16 0 144 16 0 144 16 0 144 16 0 144 16 0 144 16 0 144 16 0 144 16 0 144 16 0 144 16 0 144 16 0 144 16 0 144 16 0 144 16 0 144 16 0 0 0 0 0 0 0 0 0 0 0 0 0 0 0 0 0 0 0 0 0 0 0 0 0 0 0 0 0 0 0 0 0 0 0 0 0 0 0 0 0 0 0 0 0 0 0 0 0 0 0 0 0 0 0 0 0 0 0 0 0 0 0 0 0 0 0 0 0 0 0 0 0 0 0 0 0 0 0 0 0 0 0 0 0 0 0 0 0 0 0 0 0 0 0 0 0 0 16 0 0 16 0 0 16 0 0 16 0 0 16 0 0 16 0 0 16 0 0 16 0 0 16 0 0 16 0 0 16 0 0 16 0 0 16 0 0 16 0 0 16 0 0 16 0 0 16 0 0 16 0 0 16 0 0 16 0 0 16 0 0 16 0 0 16 0 0 16 0 0 16 0 0 16 0 0 16 0 0 16 0 0 16 0 0 16 0 0 16 0 0 16 0 0 0 32 0 0 32 0 0 32 0 0 32 0 0 32 0 0 32 0 0 32 0 0 32 0 0 32 0 0 32 0 0 32 0 0 32 0 0 32 0 0 32 0 0 32 0 0 32 0 0 32 0 0 32 0 0 32 0 0 32 0 0 32 0 0 32 0 0 32 0 0 32 0 0 32 0 0 32 0 0 32 0 0 32 0 0 32 0 0 32 0 0 32 0 0 32
144 16 0 144 16 0 144 16 0 144 16 0 144 16 0 144 16 0 144 16 0 144 16 0 144 16 0 144 16 0 144 16 0 144 16 0 144 16 0 144 16 0 144 16 0 144 16 0 144 16 0 144 16 0 144 16 0 144 16 0 144 16 0 144 16 0 144 16 0 144 16 0 144 16 0 144 16 0 144 16 0 144 16 0 144 16 0 144 16 0 144 16 0 144 16 0 0 0 0 0 0 0 0 0 0 0 0 0 0 0 0 0 0 0 0 0 0 0 0 0 0 0 0 0 0 0 0 0 0 0 0 0 0 0 0 0 0 0 0 0 0 0 0 0 0 0 0 0 0 0 0 0 0 0 0 0 0 0 0 0 0 0 0 0 0 0 0 0 0 0 0 0 0 0 0 0 0 0 0 0 0 0 0 0 0 0 0 0 0 0 0 0 0 16 0 0 16 0 0 16 0 0 16 0 0 16 0 0 16 0 0 16 0 0 16 0 0 16 0 0 16 0 0 16 0 0 16 0 0 16 0 0 16 0 0 16 0 0 16 0 0 16 0 0 16 0 0 16 0 0 16 0 0 16 0 0 16 0 0 16 0 0 16 0 0 16 0 0 16 0 0 16 0 0 16 0 0 16 0 0 16 0 0 16 0 0 16 0 0 0 32 0 0 32 0 0 32 0 0 32 0 0 32 0 0 32 0 0 32 0 0 32 0 0 32 0 0 32 0 0 32 0 0 32 0 0 32 0 0 32 0 0 32 0 0 32 0 0 32 0 0 32 0 0 32 0 0 32 0 0 32 0 0 32 0 0 32 0 0 32 0 0 32 0 0 32 0 0 32 0 0 32 0 0 32 0 0 32 0 0 32 0 0 32
144 16 0 144 16 0 144 16 0 144 16 0 144 16 0 144 16 0 144 16 0 144 16 0 144 16 0 144 16 0 144 16 0 144 16 0 144 16 0 144 16 0 144 16 0 144 16 0 144 16 0 144 16 0 144 16 0 144 16 0 144 16 0 144 16 0 144 16 0 144 16 0 144 16 0 144 16 0 144 16 0 144 16 0 144 16 0 144 16 0 144 16 0 144 16 0 0 0 0 0 0 0 0 0 0 0 0 0 0 0 0 0 0 0 0 0 0 0 0 0 0 0 0 0 0 0 0 0 0 0 0 0 0 0 0 0 0 0 0 0 0 0 0 0 0 0 0 0 0 0 0 0 0 0 0 0 0 0 0 0 0 0 0 0 0 0 0 0 0 0 0 0 0 0 0 0 0 0 0 0 0 0 0 0 0 0 0 0 0 0 0 0 0 16 0 0 16 0 0 16 0 0 16 0 0 16 0 0 16 0 0 16 0 0 16 0 0 16 0 0 16 0 0 16 0 0 16 0 0 16 0 0 16 0 0 16 0 0 16 0 0 16 0 0 16 0 0 16 0 0 16 0 0 16 0 0 16 0 0 16 0 0 16 0 0 16 0 0 16 0 0 16 0 0 16 0 0 16 0 0 16 0 0 16 0 0 16 0 0 0 32 0 0 32 0 0 32 0 0 32 0 0 32 0 0 32 0 0 32 0 0 32 0 0 32 0 0 32 0 0 32 0 0 32 0 0 32 0 0 32 0 0 32 0 0 32 0 0 32 0 0 32 0 0 32 0 0 32 0 0 32 0 0 32 0 0 32 0 0 32 0 0 32 0 0 32 0 0 32 0 0 32 0 0 32 0 0 32 0 0 32 0 0 32
144 16 0 144 16 0 144 16 0 144 16 0 144 16 0 144 16 0 144 16 0 144 16 0 144 16 0 144 16 0 144 16 0 144 16 0 144 16 0 144 16 0 144 16 0 144 16 0 144 16 0 144 16 0 144 16 0 144 16 0 144 16 0 144 16 0 144 16 0 144 16 0 144 16 0 144 16 0 144 16 0 144 16 0 144 16 0 144 16 0 144 16 0 144 16 0 0 0 0 0 0 0 0 0 0 0 0 0 0 0 0 0 0 0 0 0 0 0 0 0 0 0 0 0 0 0 0 0 0 0 0 0 0 0 0 0 0 0 0 0 0 0 0 0 0 0 0 0 0 0 0 0 0 0 0 0 0 0 0 0 0 0 0 0 0 0 0 0 0 0 0 0 0 0 0 0 0 0 0 0 0 0 0 0 0 0 0 0 0 0 0 0 0 16 0 0 16 0 0 16 0 0 16 0 0 16 0 0 16 0 0 16 0 0 16 0 0 16 0 0 16 0 0 16 0 0 16 0 0 16 0 0 16 0 0 16 0 0 16 0 0 16 0 0 16 0 0 16 0 0 16 0 0 16 0 0 16 0 0 16 0 0 16 0 0 16 0 0 16 0 0 16 0 0 16 0 0 16 0 0 16 0 0 16 0 0 16 0 0 0 32 0 0 32 0 0 32 0 0 32 0 0 32 0 0 32 0 0 32 0 0 32 0 0 32 0 0 32 0 0 32 0 0 32 0 0 32 0 0 32 0 0 32 0 0 32 0 0 32 0 0 32 0 0 32 0 0 32 0 0 32 0 0 32 0 0 32 0 0 32 0 0 32 0 0 32 0 0 32 0 0 32 0 0 32 0 0 32 0 0 32 0 0 32
144 16 0 144 16 0 144 16 0 144 16 0 144 16 0 144 16 0 144 16 0 144 16 0 144 16 0 144 16 0 144 16 0 144 16 0 144 16 0 144 16 0 144 16 0 144 16 0 144 16 0 144 16 0 144 16 0 144 16 0 144 16 0 144 16 0 144 16 0 144 16 0 144 16 0 144 16 0 144 16 0 144 16 0 144 16 0 144 16 0 144 16 0 144 16 0 0 0 0 0 0 0 0 0 0 0 0 0 0 0 0 0 0 0 0 0 0 0 0 0 0 0 0 0 0 0 0 0 0 0 0 0 0 0 0 0 0 0 0 0 0 0 0 0 0 0 0 0 0 0 0 0 0 0 0 0 0 0 0 0 0 0 0 0 0 0 0 0 0 0 0 0 0 0 0 0 0 0 0 0 0 0 0 0 0 0 0 0 0 0 0 0 0 16 0 0 16 0 0 16 0 0 16 0 0 16 0 0 16 0 0 16 0 0 16 0 0 16 0 0 16 0 0 16 0 0 16 0 0 16 0 0 16 0 0 16 0 0 16 0 0 16 0 0 16 0 0 16 0 0 16 0 0 16 0 0 16 0 0 16 0 0 16 0 0 16 0 0 16 0 0 16 0 0 16 0 0 16 0 0 16 0 0 16 0 0 16 0 0 0 32 0 0 32 0 0 32 0 0 32 0 0 32 0 0 32 0 0 32 0 0 32 0 0 32 0 0 32 0 0 32 0 0 32 0 0 32 0 0 32 0 0 32 0 0 32 0 0 32 0 0 32 0 0 32 0 0 32 0 0 32 0 0 32 0 0 32 0 0 32 0 0 32 0 0 32 0 0 32 0 0 32 0 0 32 0 0 32 0 0 32 0 0 32
144 16 0 144 16 0 144 16 0 144 16 0 144 16 0 144 16 0 144 16 0 144 16 0 144 16 0 144 16 0 144 16 0 144 16 0 144 16 0 144 16 0 144 16 0 144 16 0 144 16 0 144 16 0 144 16 0 144 16 0 144 16 0 144 16 0 144 16 0 144 16 0 144 16 0 144 16 0 144 16 0 144 16 0 144 16 0 144 16 0 144 16 0 144 16 0 0 0 0 0 0 0 0 0 0 0 0 0 0 0 0 0 0 0 0 0 0 0 0 0 0 0 0 0 0 0 0 0 0 0 0 0 0 0 0 0 0 0 0 0 0 0 0 0 0 0 0 0 0 0 0 0 0 0 0 0 0 0 0 0 0 0 0 0 0 0 0 0 0 0 0 0 0 0 0 0 0 0 0 0 0 0 0 0 0 0 0 0 0 0 0 0 0 16 0 0 16 0 0 16 0 0 16 0 0 16 0 0 16 0 0 16 0 0 16 0 0 16 0 0 16 0 0 16 0 0 16 0 0 16 0 0 16 0 0 16 0 0 16 0 0 16 0 0 16 0 0 16 0 0 16 0 0 16 0 0 16 0 0 16 0 0 16 0 0 16 0 0 16 0 0 16 0 0 16 0 0 16 0 0 16 0 0 16 0 0 16 0 0 0 32 0 0 32 0 0 32 0 0 32 0 0 32 0 0 32 0 0 32 0 0 32 0 0 32 0 0 32 0 0 32 0 0 32 0 0 32 0 0 32 0 0 32 0 0 32 0 0 32 0 0 32 0 0 32 0 0 32 0 0 32 0 0 32 0 0 32 0 0 32 0 0 32 0 0 32 0 0 32 0 0 32 0 0 32 0 0 32 0 0 32 0 0 32
144 16 0 144 16 0 144 16 0 144 16 0 144 16 0 144 16 0 144 16 0 144 16 0 144 16 0 144 16 0 144 16 0 144 16 0 144 16 0 144 16 0 144 16 0 144 16 0 144 16 0 144 16 0 144 16 0 144 16 0 144 16 0 144 16 0 144 16 0 144 16 0 144 16 0 144 16 0 144 16 0 144 16 0 144 16 0 144 16 0 144 16 0 144 16 0 0 0 0 0 0 0 0 0 0 0 0 0 0 0 0 0 0 0 0 0 0 0 0 0 0 0 0 0 0 0 0 0 0 0 0 0 0 0 0 0 0 0 0 0 0 0 0 0 0 0 0 0 0 0 0 0 0 0 0 0 0 0 0 0 0 0 0 0 0 0 0 0 0 0 0 0 0 0 0 0 0 0 0 0 0 0 0 0 0 0 0 0 0 0 0 0 0 16 0 0 16 0 0 16 0 0 16 0 0 16 0 0 16 0 0 16 0 0 16 0 0 16 0 0 16 0 0 16 0 0 16 0 0 16 0 0 16 0 0 16 0 0 16 0 0 16 0 0 16 0 0 16 0 0 16 0 0 16 0 0 16 0 0 16 0 0 16 0 0 16 0 0 16 0 0 16 0 0 16 0 0 16 0 0 16 0 0 16 0 0 16 0 0 0 32 0 0 32 0 0 32 0 0 32 0 0 32 0 0 32 0 0 32 0 0 32 0 0 32 0 0 32 0 0 32 0 0 32 0 0 32 0 0 32 0 0 32 0 0 32 0 0 32 0 0 32 0 0 32 0 0 32 0 0 32 0 0 32 0 0 32 0 0 32 0 0 32 0 0 32 0 0 32 0 0 32 0 0 32 0 0 32 0 0 32 0 0 32
144 16 0 144 16 0 144 16 0 144 16 0 144 16 0 144 16 0 144 16 0 144 16 0 144 16 0 144 16 0 144 16 0 144 16 0 144 16 0 144 16 0 144 16 0 144 16 0 144 16 0 144 16 0 144 16 0 144 16 0 144 16 0 144 16 0 144 16 0 144 16 0 144 16 0 144 16 0 144 16 0 144 16 0 144 16 0 144 16 0 144 16 0 144 16 0 0 0 0 0 0 0 0 0 0 0 0 0 0 0 0 0 0 0 0 0 0 0 0 0 0 0 0 0 0 0 0 0 0 0 0 0 0 0 0 0 0 0 0 0 0 0 0 0 0 0 0 0 0 0 0 0 0 0 0 0 0 0 0 0 0 0 0 0 0 0 0 0 0 0 0 0 0 0 0 0 0 0 0 0 0 0 0 0 0 0 0 0 0 0 0 0 0 16 0 0 16 0 0 16 0 0 16 0 0 16 0 0 16 0 0 16 0 0 16 0 0 16 0 0 16 0 0 16 0 0 16 0 0 16 0 0 16 0 0 16 0 0 16 0 0 16 0 0 16 0 0 16 0 0 16 0 0 16 0 0 16 0 0 16 0 0 16 0 0 16 0 0 16 0 0 16 0 0 16 0 0 16 0 0 16 0 0 16 0 0 16 0 0 0 32 0 0 32 0 0 32 0 0 32 0 0 32 0 0 32 0 0 32 0 0 32 0 0 32 0 0 32 0 0 32 0 0 32 0 0 32 0 0 32 0 0 32 0 0 32 0 0 32 0 0 32 0 0 32 0 0 32 0 0 32 0 0 32 0 0 32 0 0 32 0 0 32 0 0 32 0 0 32 0 0 32 0 0 32 0 0 32 0 0 32 0 0 32
144 16 0 144 16 0 144 16 0 144 16 0 144 16 0 144 16 0 144 16 0 144 16 0 144 16 0 144 16 0 144 16 0 144 16 0 144 16 0 144 16 0 144 16 0 144 16 0 144 16 0 144 16 0 144 16 0 144 16 0 144 16 0 144 16 0 144 16 0 144 16 0 144 16 0 144 16 0 144 16 0 144 16 0 144 16 0 144 16 0 144 16 0 144 16 0 0 0 0 0 0 0 0 0 0 0 0 0 0 0 0 0 0 0 0 0 0 0 0 0 0 0 0 0 0 0 0 0 0 0 0 0 0 0 0 0 0 0 0 0 0 0 0 0 0 0 0 0 0 0 0 0 0 0 0 0 0 0 0 0 0 0 0 0 0 0 0 0 0 0 0 0 0 0 0 0 0 0 0 0 0 0 0 0 0 0 0 0 0 0 0 0 0 16 0 0 16 0 0 16 0 0 16 0 0 16 0 0 16 0 0 16 0 0 16 0 0 16 0 0 16 0 0 16 0 0 16 0 0 16 0 0 16 0 0 16 0 0 16 0 0 16 0 0 16 0 0 16 0 0 16 0 0 16 0 0 16 0 0 16 0 0 16 0 0 16 0 0 16 0 0 16 0 0 16 0 0 16 0 0 16 0 0 16 0 0 16 0 0 0 32 0 0 32 0 0 32 0 0 32 0 0 32 0 0 32 0 0 32 0 0 32 0 0 32 0 0 32 0 0 32 0 0 32 0 0 32 0 0 32 0 0 32 0 0 32 0 0 32 0 0 32 0 0 32 0 0 32 0 0 32 0 0 32 0 0 32 0 0 32 0 0 32 0 0 32 0 0 32 0 0 32 0 0 32 0 0 32 0 0 32 0 0 32
144 16 0 144 16 0 144 16 0 144 16 0 144 16 0 144 16 0 144 16 0 144 16 0 144 16 0 144 16 0 144 16 0 144 16 0 144 16 0 144 16 0 144 16 0 144 16 0 144 16 0 144 16 0 144 16 0 144 16 0 144 16 0 144 16 0 144 16 0 144 16 0 144 16 0 144 16 0 144 16 0 144 16 0 144 16 0 144 16 0 144 16 0 144 16 0 0 0 0 0 0 0 0 0 0 0 0 0 0 0 0 0 0 0 0 0 0 0 0 0 0 0 0 0 0 0 0 0 0 0 0 0 0 0 0 0 0 0 0 0 0 0 0 0 0 0 0 0 0 0 0 0 0 0 0 0 0 0 0 0 0 0 0 0 0 0 0 0 0 0 0 0 0 0 0 0 0 0 0 0 0 0 0 0 0 0 0 0 0 0 0 0 0 16 0 0 16 0 0 16 0 0 16 0 0 16 0 0 16 0 0 16 0 0 16 0 0 16 0 0 16 0 0 16 0 0 16 0 0 16 0 0 16 0 0 16 0 0 16 0 0 16 0 0 16 0 0 16 0 0 16 0 0 16 0 0 16 0 0 16 0 0 16 0 0 16 0 0 16 0 0 16 0 0 16 0 0 16 0 0 16 0 0 16 0 0 16 0 0 0 32 0 0 32 0 0 32 0 0 32 0 0 32 0 0 32 0 0 32 0 0 32 0 0 32 0 0 32 0 0 32 0 0 32 0 0 32 0 0 32 0 0 32 0 0 32 0 0 32 0 0 32 0 0 32 0 0 32 0 0 32 0 0 32 0 0 32 0 0 32 0 0 32 0 0 32 0 0 32 0 0 32 0 0 32 0 0 32 0 0 32 0 0 32
144 16 0 144 16 0 144 16 0 144 16 0 144 16 0 144 16 0 144 16 0 144 16 0 144 16 0 144 16 0 144 16 0 144 16 0 144 16 0 144 16 0 144 16 0 144 16 0 144 16 0 144 16 0 144 16 0 144 16 0 144 16 0 144 16 0 144 16 0 144 16 0 144 16 0 144 16 0 144 16 0 144 16 0 144 16 0 144 16 0 144 16 0 144 16 0 0 0 0 0 0 0 0 0 0 0 0 0 0 0 0 0 0 0 0 0 0 0 0 0 0 0 0 0 0 0 0 0 0 0 0 0 0 0 0 0 0 0 0 0 0 0 0 0 0 0 0 0 0 0 0 0 0 0 0 0 0 0 0 0 0 0 0 0 0 0 0 0 0 0 0 0 0 0 0 0 0 0 0 0 0 0 0 0 0 0 0 0 0 0 0 0 0 16 0 0 16 0 0 16 0 0 16 0 0 16 0 0 16 0 0 16 0 0 16 0 0 16 0 0 16 0 0 16 0 0 16 0 0 16 0 0 16 0 0 16 0 0 16 0 0 16 0 0 16 0 0 16 0 0 16 0 0 16 0 0 16 0 0 16 0 0 16 0 0 16 0 0 16 0 0 16 0 0 16 0 0 16 0 0 16 0 0 16 0 0 16 0 0 0 32 0 0 32 0 0 32 0 0 32 0 0 32 0 0 32 0 0 32 0 0 32 0 0 32 0 0 32 0 0 32 0 0 32 0 0 32 0 0 32 0 0 32 0 0 32 0 0 32 0 0 32 0 0 32 0 0 32 0 0 32 0 0 32 0 0 32 0 0 32 0 0 32 0 0 32 0 0 32 0 0 32 0 0 32 0 0 32 0 0 32 0 0 32
144 16 0 144 16 0 144 16 0 144 16 0 144 16 0 144 16 0 144 16 0 144 16 0 144 16 0 144 16 0 144 16 0 144 16 0 144 16 0 144 16 0 144 16 0 144 16 0 144 16 0 144 16 0 144 16 0 144 16 0 144 16 0 144 16 0 144 16 0 144 16 0 144 16 0 144 16 0 144 16 0 144 16 0 144 16 0 144 16 0 144 16 0 144 16 0 0 0 0 0 0 0 0 0 0 0 0 0 0 0 0 0 0 0 0 0 0 0 0 0 0 0 0 0 0 0 0 0 0 0 0 0 0 0 0 0 0 0 0 0 0 0 0 0 0 0 0 0 0 0 0 0 0 0 0 0 0 0 0 0 0 0 0 0 0 0 0 0 0 0 0 0 0 0 0 0 0 0 0 0 0 0 0 0 0 0 0 0 0 0 0 0 0 16 0 0 16 0 0 16 0 0 16 0 0 16 0 0 16 0 0 16 0 0 16 0 0 16 0 0 16 0 0 16 0 0 16 0 0 16 0 0 16 0 0 16 0 0 16 0 0 16 0 0 16 0 0 16 0 0 16 0 0 16 0 0 16 0 0 16 0 0 16 0 0 16 0 0 16 0 0 16 0 0 16 0 0 16 0 0 16 0 0 16 0 0 16 0 0 0 32 0 0 32 0 0 32 0 0 32 0 0 32 0 0 32 0 0 32 0 0 32 0 0 32 0 0 32 0 0 32 0 0 32 0 0 32 0 0 32 0 0 32 0 0 32 0 0 32 0 0 32 0 0 32 0 0 32 0 0 32 0 0 32 0 0 32 0 0 32 0 0 32 0 0 32 0 0 32 0 0 32 0 0 32 0 0 32 0 0 32 0 0 32
144 16 0 144 16 0 144 16 0 144 16 0 144 16 0 144 16 0 144 16 0 144 16 0 144 16 0 144 16 0 144 16 0 144 16 0 144 16 0 144 16 0 144 16 0 144 16 0 144 16 0 144 16 0 144 16 0 144 16 0 144 16 0 144 16 0 144 16 0 144 16 0 144 16 0 144 16 0 144 16 0 144 16 0 144 16 0 144 16 0 144 16 0 144 16 0 0 0 0 0 0 0 0 0 0 0 0 0 0 0 0 0 0 0 0 0 0 0 0 0 0 0 0 0 0 0 0 0 0 0 0 0 0 0 0 0 0 0 0 0 0 0 0 0 0 0 0 0 0 0 0 0 0 0 0 0 0 0 0 0 0 0 0 0 0 0 0 0 0 0 0 0 0 0 0 0 0 0 0 0 0 0 0 0 0 0 0 0 0 0 0 0 0 16 0 0 16 0 0 16 0 0 16 0 0 16 0 0 16 0 0 16 0 0 16 0 0 16 0 0 16 0 0 16 0 0 16 0 0 16 0 0 16 0 0 16 0 0 16 0 0 16 0 0 16 0 0 16 0 0 16 0 0 16 0 0 16 0 0 16 0 0 16 0 0 16 0 0 16 0 0 16 0 0 16 0 0 16 0 0 16 0 0 16 0 0 16 0 0 0 32 0 0 32 0 0 32 0 0 32 0 0 32 0 0 32 0 0 32 0 0 32 0 0 32 0 0 32 0 0 32 0 0 32 0 0 32 0 0 32 0 0 32 0 0 32 0 0 32 0 0 32 0 0 32 0 0 32 0 0 32 0 0 32 0 0 32 0 0 32 0 0 32 0 0 32 0 0 32 0 0 32 0 0 32 0 0 32 0 0 32 0 0 32
144 16 0 144 16 0 144 16 0 144 16 0 144 16 0 144 16 0 144 16 0 144 16 0 144 16 0 144 16 0 144 16 0 144 16 0 144 16 0 144 16 0 144 16 0 144 16 0 144 16 0 144 16 0 144 16 0 144 16 0 144 16 0 144 16 0 144 16 0 144 16 0 144 16 0 144 16 0 144 16 0 144 16 0 144 16 0 144 16 0 144 16 0 144 16 0 0 0 0 0 0 0 0 0 0 0 0 0 0 0 0 0 0 0 0 0 0 0 0 0 0 0 0 0 0 0 0 0 0 0 0 0 0 0 0 0 0 0 0 0 0 0 0 0 0 0 0 0 0 0 0 0 0 0 0 0 0 0 0 0 0 0 0 0 0 0 0 0 0 0 0 0 0 0 0 0 0 0 0 0 0 0 0 0 0 0 0 0 0 0 0 0 0 16 0 0 16 0 0 16 0 0 16 0 0 16 0 0 16 0 0 16 0 0 16 0 0 16 0 0 16 0 0 16 0 0 16 0 0 16 0 0 16 0 0 16 0 0 16 0 0 16 0 0 16 0 0 16 0 0 16 0 0 16 0 0 16 0 0 16 0 0 16 0 0 16 0 0 16 0 0 16 0 0 16 0 0 16 0 0 16 0 0 16 0 0 16 0 0 0 32 0 0 32 0 0 32 0 0 32 0 0 32 0 0 32 0 0 32 0 0 32 0 0 32 0 0 32 0 0 32 0 0 32 0 0 32 0 0 32 0 0 32 0 0 32 0 0 32 0 0 32 0 0 32 0 0 32 0 0 32 0 0 32 0 0 32 0 0 32 0 0 32 0 0 32 0 0 32 0 0 32 0 0 32 0 0 32 0 0 32 0 0 32
144 16 0 144 16 0 144 16 0 144 16 0 144 16 0 144 16 0 144 16 0 144 16 0 144 16 0 144 16 0 144 16 0 144 16 0 144 16 0 144 16 0 144 16 0 144 16 0 144 16 0 144 16 0 144 16 0 144 16 0 144 16 0 144 16 0 144 16 0 144 16 0 144 16 0 144 16 0 144 16 0 144 16 0 144 16 0 144 16 0 144 16 0 144 16 0 0 0 0 0 0 0 0 0 0 0 0 0 0 0 0 0 0 0 0 0 0 0 0 0 0 0 0 0 0 0 0 0 0 0 0 0 0 0 0 0 0 0 0 0 0 0 0 0 0 0 0 0 0 0 0 0 0 0 0 0 0 0 0 0 0 0 0 0 0 0 0 0 0 0 0 0 0 0 0 0 0 0 0 0 0 0 0 0 0 0 0 0 0 0 0 0 0 16 0 0 16 0 0 16 0 0 16 0 0 16 0 0 16 0 0 16 0 0 16 0 0 16 0 0 16 0 0 16 0 0 16 0 0 16 0 0 16 0 0 16 0 0 16 0 0 16 0 0 16 0 0 16 0 0 16 0 0 16 0 0 16 0 0 16 0 0 16 0 0 16 0 0 16 0 0 16 0 0 16 0 0 16 0 0 16 0 0 16 0 0 16 0 0 0 32 0 0 32 0 0 32 0 0 32 0 0 32 0 0 32 0 0 32 0 0 32 0 0 32 0 0 32 0 0 32 0 0 32 0 0 32 0 0 32 0 0 32 0 0 32 0 0 32 0 0 32 0 0 32 0 0 32 0 0 32 0 0 32 0 0 32 0 0 32 0 0 32 0 0 32 0 0 32 0 0 32 0 0 32 0 0 32 0 0 32 0 0 32
0 16 32 0 16 32 0 16 32 0 16 32 0 16 32 0 16 32 0 16 32 0 16 32 0 16 32 0 16 32 0 16 32 0 16 32 0 16 32 0 16 32 0 16 32 0 16 32 0 16 32 0 16 32 0 16 32 0 16 32 0 16 32 0 16 32 0 16 32 0 16 32 0 16 32 0 16 32 0 16 32 0 16 32 0 16 32 0 16 32 0 16 32 0 16 32 40 0 0 40 0 0 40 0 0 40 0 0 40 0 0 40 0 0 40 0 0 40 0 0 40 0 0 40 0 0 40 0 0 40 0 0 40 0 0 40 0 0 40 0 0 40 0 0 40 0 0 40 0 0 40 0 0 40 0 0 40 0 0 40 0 0 40 0 0 40 0 0 40 0 0 40 0 0 40 0 0 40 0 0 40 0 0 40 0 0 40 0 0 40 0 0 56 0 0 56 0 0 56 0 0 56 0 0 56 0 0 56 0 0 56 0 0 56 0 0 56 0 0 56 0 0 56 0 0 56 0 0 56 0 0 56 0 0 56 0 0 56 0 0 56 0 0 56 0 0 56 0 0 56 0 0 56 0 0 56 0 0 56 0 0 56 0 0 56 0 0 56 0 0 56 0 0 56 0 0 56 0 0 56 0 0 56 0 0 56 0 0 88 0 0 88 0 0 88 0 0 88 0 0 88 0 0 88 0 0 88 0 0 88 0 0 88 0 0 88 0 0 88 0 0 88 0 0 88 0 0 88 0 0 88 0 0 88 0 0 88 0 0 88 0 0 88 0 0 88 0 0 88 0 0 88 0 0 88 0 0 88 0 0 88 0 0 88 0 0 88 0 0 88 0 0 88 0 0 88 0 0 88 0 0 88 0 0
0 16 32 0 16 32 0 16 32 0 16 32 0 16 32 0 16 32 0 16 32 0 16 32 0 16 32 0 16 32 0 16 32 0 16 32 0 16 32 0 16 32 0 16 32 0 16 32 0 16 32 0 16 32 0 16 32 0 16 32 0 16 32 0 16 32 0 16 32 0 16 32 0 16 32 0 16 32 0 16 32 0 16 32 0 16 32 0 16 32 0 16 32 0 16 32 40 0 0 40 0 0 40 0 0 40 0 0 40 0 0 40 0 0 40 0 0 40 0 0 40 0 0 40 0 0 40 0 0 40 0 0 40 0 0 40 0 0 40 0 0 40 0 0 40 0 0 40 0 0 40 0 0 40 0 0 40 0 0 40 0 0 40 0 0 40 0 0 40 0 0 40 0 0 40 0 0 40 0 0 40 0 0 40 0 0 40 0 0 40 0 0 56 0 0 56 0 0 56 0 0 56 0 0 56 0 0 56 0 0 56 0 0 56 0 0 56 0 0 56 0 0 56 0 0 56 0 0 56 0 0 56 0 0 56 0 0 56 0 0 56 0 0 56 0 0 56 0 0 56 0 0 56 0 0 56 0 0 56 0 0 56 0 0 56 0 0 56 0 0 56 0 0 56 0 0 56 0 0 56 0 0 56 0 0 56 0 0 88 0 0 88 0 0 88 0 0 88 0 0 88 0 0 88 0 0 88 0 0 88 0 0 88 0 0 88 0 0 88 0 0 88 0 0 88 0 0 88 0 0 88 0 0 88 0 0 88 0 0 88 0 0 88 0 0 88 0 0 88 0 0 88 0 0 88 0 0 88 0 0 88 0 0 88 0 0 88 0 0 88 0 0 88 0 0 88 0 0 88 0 0 88 0 0
0 16 32 0 16 32 0 16 32 0 16 32 0 16 32 0 16 32 0 16 32 0 16 32 0 16 32 0 16 32 0 16 32 0 16 32 0 16 32 0 16 32 0 16 32 0 16 32 0 16 32 0 16 32 0 16 32 0 16 32 0 16 32 0 16 32 0 16 32 0 16 32 0 16 32 0 16 32 0 16 32 0 16 32 0 16 32 0 16 32 0 16 32 0 16 32 40 0 0 40 0 0 40 0 0 40 0 0 40 0 0 40 0 0 40 0 0 40 0 0 40 0 0 40 0 0 40 0 0 40 0 0 40 0 0 40 0 0 40 0 0 40 0 0 40 0 0 40 0 0 40 0 0 40 0 0 40 0 0 40 0 0 40 0 0 40 0 0 40 0 0 40 0 0 40 0 0 40 0 0 40 0 0 40 0 0 40 0 0 40 0 0 56 0 0 56 0 0 56 0 0 56 0 0 56 0 0 56 0 0 56 0 0 56 0 0 56 0 0 56 0 0 56 0 0 56 0 0 56 0 0 56 0 0 56 0 0 56 0 0 56 0 0 56 0 0 56 0 0 56 0 0 56 0 0 56 0 0 56 0 0 56 0 0 56 0 0 56 0 0 56 0 0 56 0 0 56 0 0 56 0 0 56 0 0 56 0 0 88 0 0 88 0 0 88 0 0 88 0 0 88 0 0 88 0 0 88 0 0 88 0 0 88 0 0 88 0 0 88 0 0 88 0 0 88 0 0 88 0 0 88 0 0 88 0 0 88 0 0 88 0 0 88 0 0 88 0 0 88 0 0 88 0 0 88 0 0 88 0 0 88 0 0 88 0 0 88 0 0 88 0 0 88 0 0 88 0 0 88 0 0 88 0 0
0 16 32 0 16 32 0 16 32 0 16 32 0 16 32 0 16 32 0 16 32 0 16 32 0 16 32 0 16 32 0 16 32 0 16 32 0 16 32 0 16 32 0 16 32 0 16 32 0 16 32 0 16 32 0 16 32 0 16 32 0 16 32 0 16 32 0 16 32 0 16 32 0 16 32 0 16 32 0 16 32 0 16 32 0 16 32 0 16 32 0 16 32 0 16 32 40 0 0 40 0 0 40 0 0 40 0 0 40 0 0 40 0 0 40 0 0 40 0 0 40 0 0 40 0 0 40 0 0 40 0 0 40 0 0 40 0 0 40 0 0 40 0 0 40 0 0 40 0 0 40 0 0 40 0 0 40 0 0 40 0 0 40 0 0 40 0 0 40 0 0 40 0 0 40 0 0 40 0 0 40 0 0 40 0 0 40 0 0 40 0 0 56 0 0 56 0 0 56 0 0 56 0 0 56 0 0 56 0 0 56 0 0 56 0 0 56 0 0 56 0 0 56 0 0 56 0 0 56 0 0 56 0 0 56 0 0 56 0 0 56 0 0 56 0 0 56 0 0 56 0 0 56 0 0 56 0 0 56 0 0 56 0 0 56 0 0 56 0 0 56 0 0 56 0 0 56 0 0 56 0 0 56 0 0 56 0 0 88 0 0 88 0 0 88 0 0 88 0 0 88 0 0 88 0 0 88 0 0 88 0 0 88 0 0 88 0 0 88 0 0 88 0 0 88 0 0 88 0 0 88 0 0 88 0 0 88 0 0 88 0 0 88 0 0 88 0 0 88 0 0 88 0 0 88 0 0 88 0 0 88 0 0 88 0 0 88 0 0 88 0 0 88 0 0 88 0 0 88 0 0 88 0 0
0 16 32 0 16 32 0 16 32 0 16 32 0 16 32 0 16 32 0 16 32 0 16 32 0 16 32 0 16 32 0 16 32 0 16 32 0 16 32 0 16 32 0 16 32 0 16 32 0 16 32 0 16 32 0 16 32 0 16 32 0 16 32 0 16 32 0 16 32 0 16 32 0 16 32 0 16 32 0 16 32 0 16 32 0 16 32 0 16 32 0 16 32 0 16 32 40 0 0 40 0 0 40 0 0 40 0 0 40 0 0 40 0 0 40 0 0 40 0 0 40 0 0 40 0 0 40 0 0 40 0 0 40 0 0 40 0 0 40 0 0 40 0 0 40 0 0 40 0 0 40 0 0 40 0 0 40 0 0 40 0 0 40 0 0 40 0 0 40 0 0 40 0 0 40 0 0 40 0 0 40 0 0 40 0 0 40 0 0 40 0 0 56 0 0 56 0 0 56 0 0 56 0 0 56 0 0 56 0 0 56 0 0 56 0 0 56 0 0 56 0 0 56 0 0 56 0 0 56 0 0 56 0 0 56 0 0 56 0 0 56 0 0 56 0 0 56 0 0 56 0 0 56 0 0 56 0 0 56 0 0 56 0 0 56 0 0 56 0 0 56 0 0 56 0 0 56 0 0 56 0 0 56 0 0 56 0 0 88 0 0 88 0 0 88 0 0 88 0 0 88 0 0 88 0 0 88 0 0 88 0 0 88 0 0 88 0 0 88 0 0 88 0 0 88 0 0 88 0 0 88 0 0 88 0 0 88 0 0 88 0 0 88 0 0 88 0 0 88 0 0 88 0 0 88 0 0 88 0 0 88 0 0 88 0 0 88 0 0 88 0 0 88 0 0 88 0 0 88 0 0 88 0 0
0 16 32 0 16 32 0 16 32 0 16 32 0 16 32 0 16 32 0 16 32 0 16 32 0 16 32 0 16 32 0 16 32 0 16 32 0 16 32 0 16 32 0 16 32 0 16 32 0 16 32 0 16 32 0 16 32 0 16 32 0 16 32 0 16 32 0 16 32 0 16 32 0 16 32 0 16 32 0 16 32 0 16 32 0 16 32 0 16 32 0 16 32 0 16 32 40 0 0 40 0 0 40 0 0 40 0 0 40 0 0 40 0 0 40 0 0 40 0 0 40 0 0 40 0 0 40 0 0 40 0 0 40 0 0 40 0 0 40 0 0 40 0 0 40 0 0 40 0 0 40 0 0 40 0 0 40 0 0 40 0 0 40 0 0 40 0 0 40 0 0 40 0 0 40 0 0 40 0 0 40 0 0 40 0 0 40 0 0 40 0 0 56 0 0 56 0 0 56 0 0 56 0 0 56 0 0 56 0 0 56 0 0 56 0 0 56 0 0 56 0 0 56 0 0 56 0 0 56 0 0 56 0 0 56 0 0 56 0 0 56 0 0 56 0 0 56 0 0 56 0 0 56 0 0 56 0 0 56 0 0 56 0 0 56 0 0 56 0 0 56 0 0 56 0 0 56 0 0 56 0 0 56 0 0 56 0 0 88 0 0 88 0 0 88 0 0 88 0 0 88 0 0 88 0 0 88 0 0 88 0 0 88 0 0 88 0 0 88 0 0 88 0 0 88 0 0 88 0 0 88 0 0 88 0 0 88 0 0 88 0 0 88 0 0 88 0 0 88 0 0 88 0 0 88 0 0 88 0 0 88 0 0 88 0 0 88 0 0 88 0 0 88 0 0 88 0 0 88 0 0 88 0 0
0 16 32 0 16 32 0 16 32 0 16 32 0 16 32 0 16 32 0 16 32 0 16 32 0 16 32 0 16 32 0 16 32 0 16 32 0 16 32 0 16 32 0 16 32 0 16 32 0 16 32 0 16 32 0 16 32 0 16 32 0 16 32 0 16 32 0 16 32 0 16 32 0 16 32 0 16 32 0 16 32 0 16 32 0 16 32 0 16 32 0 16 32 0 16 32 40 0 0 40 0 0 40 0 0 40 0 0 40 0 0 40 0 0 40 0 0 40 0 0 40 0 0 40 0 0 40 0 0 40 0 0 40 0 0 40 0 0 40 0 0 40 0 0 40 0 0 40 0 0 40 0 0 40 0 0 40 0 0 40 0 0 40 0 0 40 0 0 40 0 0 40 0 0 40 0 0 40 0 0 40 0 0 40 0 0 40 0 0 40 0 0 56 0 0 56 0 0 56 0 0 56 0 0 56 0 0 56 0 0 56 0 0 56 0 0 56 0 0 56 0 0 56 0 0 56 0 0 56 0 0 56 0 0 56 0 0 56 0 0 56 0 0 56 0 0 56 0 0 56 0 0 56 0 0 56 0 0 56 0 0 56 0 0 56 0 0 56 0 0 56 0 0 56 0 0 56 0 0 56 0 0 56 0 0 56 0 0 88 0 0 88 0 0 88 0 0 88 0 0 88 0 0 88 0 0 88 0 0 88 0 0 88 0 0 88 0 0 88 0 0 88 0 0 88 0 0 88 0 0 88 0 0 88 0 0 88 0 0 88 0 0 88 0 0 88 0 0 88 0 0 88 0 0 88 0 0 88 0 0 88 0 0 88 0 0 88 0 0 88 0 0 88 0 0 88 0 0 88 0 0 88 0 0
0 16 32 0 16 32 0 16 32 0 16 32 0 16 32 0 16 32 0 16 32 0 16 32 0 16 32 0 16 32 0 16 32 0 16 32 0 16 32 0 16 32 0 16 32 0 16 32 0 16 32 0 16 32 0 16 32 0 16 32 0 16 32 0 16 32 0 16 32 0 16 32 0 16 32 0 16 32 0 16 32 0 16 32 0 16 32 0 16 32 0 16 32 0 16 32 40 0 0 40 0 0 40 0 0 40 0 0 40 0 0 40 0 0 40 0 0 40 0 0 40 0 0 40 0 0 40 0 0 40 0 0 40 0 0 40 0 0 40 0 0 40 0 0 40 0 0 40 0 0 40 0 0 40 0 0 40 0 0 40 0 0 40 0 0 40 0 0 40 0 0 40 0 0 40 0 0 40 0 0 40 0 0 40 0 0 40 0 0 40 0 0 56 0 0 56 0 0 56 0 0 56 0 0 56 0 0 56 0 0 56 0 0 56 0 0 56 0 0 56 0 0 56 0 0 56 0 0 56 0 0 56 0 0 56 0 0 56 0 0 56 0 0 56 0 0 56 0 0 56 0 0 56 0 0 56 0 0 56 0 0 56 0 0 56 0 0 56 0 0 56 0 0 56 0 0 56 0 0 56 0 0 56 0 0 56 0 0 88 0 0 88 0 0 88 0 0 88 0 0 88 0 0 88 0 0 88 0 0 88 0 0 88 0 0 88 0 0 88 0 0 88 0 0 88 0 0 88 0 0 88 0 0 88 0 0 88 0 0 88 0 0 88 0 0 88 0 0 88 0 0 88 0 0 88 0 0 88 0 0 88 0 0 88 0 0 88 0 0 88 0 0 88 0 0 88 0 0 88 0 0 88 0 0
0 16 32 0 16 32 0 16 32 0 16 32 0 16 32 0 16 32 0 16 32 0 16 32 0 16 32 0 16 32 0 16 32 0 16 32 0 16 32 0 16 32 0 16 32 0 16 32 0 16 32 0 16 32 0 16 32 0 16 32 0 16 32 0 16 32 0 16 32 0 16 32 0 16 32 0 16 32 0 16 32 0 16 32 0 16 32 0 16 32 0 16 32 0 16 32 40 0 0 40 0 0 40 0 0 40 0 0 40 0 0 40 0 0 40 0 0 40 0 0 40 0 0 40 0 0 40 0 0 40 0 0 40 0 0 40 0 0 40 0 0 40 0 0 40 0 0 40 0 0 40 0 0 40 0 0 40 0 0 40 0 0 40 0 0 40 0 0 40 0 0 40 0 0 40 0 0 40 0 0 40 0 0 40 0 0 40 0 0 40 0 0 56 0 0 56 0 0 56 0 0 56 0 0 56 0 0 56 0 0 56 0 0 56 0 0 56 0 0 56 0 0 56 0 0 56 0 0 56 0 0 56 0 0 56 0 0 56 0 0 56 0 0 56 0 0 56 0 0 56 0 0 56 0 0 56 0 0 56 0 0 56 0 0 56 0 0 56 0 0 56 0 0 56 0 0 56 0 0 56 0 0 56 0 0 56 0 0 88 0 0 88 0 0 88 0 0 88 0 0 88 0 0 88 0 0 88 0 0 88 0 0 88 0 0 88 0 0 88 0 0 88 0 0 88 0 0 88 0 0 88 0 0 88 0 0 88 0 0 88 0 0 88 0 0 88 0 0 88 0 0 88 0 0 88 0 0 88 0 0 88 0 0 88 0 0 88 0 0 88 0 0 88 0 0 88 0 0 88 0 0 88 0 0
0 16 32 0 16 32 0 16 32 0 16 32 0 16 32 0 16 32 0 16 32 0 16 32 0 16 32 0 16 32 0 16 32 0 16 32 0 16 32 0 16 32 0 16 32 0 16 32 0 16 32 0 16 32 0 16 32 0 16 32 0 16 32 0 16 32 0 16 32 0 16 32 0 16 32 0 16 32 0 16 32 0 16 32 0 16 32 0 16 32 0 16 32 0 16 32 40 0 0 40 0 0 40 0 0 40 0 0 40 0 0 40 0 0 40 0 0 40 0 0 40 0 0 40 0 0 40 0 0 40 0 0 40 0 0 40 0 0 40 0 0 40 0 0 40 0 0 40 0 0 40 0 0 40 0 0 40 0 0 40 0 0 40 0 0 40 0 0 40 0 0 40 0 0 40 0 0 40 0 0 40 0 0 40 0 0 40 0 0 40 0 0 56 0 0 56 0 0 56 0 0 56 0 0 56 0 0 56 0 0 56 0 0 56 0 0 56 0 0 56 0 0 56 0 0 56 0 0 56 0 0 56 0 0 56 0 0 56 0 0 56 0 0 56 0 0 56 0 0 56 0 0 56 0 0 56 0 0 56 0 0 56 0 0 56 0 0 56 0 0 56 0 0 56 0 0 56 0 0 56 0 0 56 0 0 56 0 0 88 0 0 88 0 0 88 0 0 88 0 0 88 0 0 88 0 0 88 0 0 88 0 0 88 0 0 88 0 0 88 0 0 88 0 0 88 0 0 88 0 0 88 0 0 88 0 0 88 0 0 88 0 0 88 0 0 88 0 0 88 0 0 88 0 0 88 0 0 88 0 0 88 0 0 88 0 0 88 0 0 88 0 0 88 0 0 88 0 0 88 0 0 88 0 0
0 16 32 0 16 32 0 16 32 0 16 32 0 16 32 0 16 32 0 16 32 0 16 32 0 16 32 0 16 32 0 16 32 0 16 32 0 16 32 0 16 32 0 16 32 0 16 32 0 16 32 0 16 32 0 16 32 0 16 32 0 16 32 0 16 32 0 16 32 0 16 32 0 16 32 0 16 32 0 16 32 0 16 32 0 16 32 0 16 32 0 16 32 0 16 32 40 0 0 40 0 0 40 0 0 40 0 0 40 0 0 40 0 0 40 0 0 40 0 0 40 0 0 40 0 0 40 0 0 40 0 0 40 0 0 40 0 0 40 0 0 40 0 0 40 0 0 40 0 0 40 0 0 40 0 0 40 0 0 40 0 0 40 0 0 40 0 0 40 0 0 40 0 0 40 0 0 40 0 0 40 0 0 40 0 0 40 0 0 40 0 0 56 0 0 56 0 0 56 0 0 56 0 0 56 0 0 56 0 0 56 0 0 56 0 0 56 0 0 56 0 0 56 0 0 56 0 0 56 0 0 56 0 0 56 0 0 56 0 0 56 0 0 56 0 0 56 0 0 56 0 0 56 0 0 56 0 0 56 0 0 56 0 0 56 0 0 56 0 0 56 0 0 56 0 0 56 0 0 56 0 0 56 0 0 56 0 0 88 0 0 88 0 0 88 0 0 88 0 0 88 0 0 88 0 0 88 0 0 88 0 0 88 0 0 88 0 0 88 0 0 88 0 0 88 0 0 88 0 0 88 0 0 88 0 0 88 0 0 88 0 0 88 0 0 88 0 0 88 0 0 88 0 0 88 0 0 88 0 0 88 0 0 88 0 0 88 0 0 88 0 0 88 0 0 88 0 0 88 0 0 88 0 0
0 16 32 0 16 32 0 16 32 0 16 32 0 16 32 0 16 32 0 16 32 0 16 32 0 16 32 0 16 32 0 16 32 0 16 32 0 16 32 0 16 32 0 16 32 0 16 32 0 16 32 0 16 32 0 16 32 0 16 32 0 16 32 0 16 32 0 16 32 0 16 32 0 16 32 0 16 32 0 16 32 0 16 32 0 16 32 0 16 32 0 16 32 0 16 32 40 0 0 40 0 0 40 0 0 40 0 0 40 0 0 40 0 0 40 0 0 40 0 0 40 0 0 40 0 0 40 0 0 40 0 0 40 0 0 40 0 0 40 0 0 40 0 0 40 0 0 40 0 0 40 0 0 40 0 0 40 0 0 40 0 0 40 0 0 40 0 0 40 0 0 40 0 0 40 0 0 40 0 0 40 0 0 40 0 0 40 0 0 40 0 0 56 0 0 56 0 0 56 0 0 56 0 0 56 0 0 56 0 0 56 0 0 56 0 0 56 0 0 56 0 0 56 0 0 56 0 0 56 0 0 56 0 0 56 0 0 56 0 0 56 0 0 56 0 0 56 0 0 56 0 0 56 0 0 56 0 0 56 0 0 56 0 0 56 0 0 56 0 0 56 0 0 56 0 0 56 0 0 56 0 0 56 0 0 56 0 0 88 0 0 88 0 0 88 0 0 88 0 0 88 0 0 88 0 0 88 0 0 88 0 0 88 0 0 88 0 0 88 0 0 88 0 0 88 0 0 88 0 0 88 0 0 88 0 0 88 0 0 88 0 0 88 0 0 88 0 0 88 0 0 88 0 0 88 0 0 88 0 0 88 0 0 88 0 0 88 0 0 88 0 0 88 0 0 88 0 0 88 0 0 88 0 0
0 16 32 0 16 32 0 16 32 0 16 32 0 16 32 0 16 32 0 16 32 0 16 32 0 16 32 0 16 32 0 16 32 0 16 32 0 16 32 0 16 32 0 16 32 0 16 32 0 16 32 0 16 32 0 16 32 0 16 32 0 16 32 0 16 32 0 16 32 0 16 32 0 16 32 0 16 32 0 16 32 0 16 32 0 16 32 0 16 32 0 16 32 0 16 32 40 0 0 40 0 0 40 0 0 40 0 0 40 0 0 40 0 0 40 0 0 40 0 0 40 0 0 40 0 0 40 0 0 40 0 0 40 0 0 40 0 0 40 0 0 40 0 0 40 0 0 40 0 0 40 0 0 40 0 0 40 0 0 40 0 0 40 0 0 40 0 0 40 0 0 40 0 0 40 0 0 40 0 0 40 0 0 40 0 0 40 0 0 40 0 0 56 0 0 56 0 0 56 0 0 56 0 0 56 0 0 56 0 0 56 0 0 56 0 0 56 0 0 56 0 0 56 0 0 56 0 0 56 0 0 56 0 0 56 0 0 56 0 0 56 0 0 56 0 0 56 0 0 56 0 0 56 0 0 56 0 0 56 0 0 56 0 0 56 0 0 56 0 0 56 0 0 56 0 0 56 0 0 56 0 0 56 0 0 56 0 0 88 0 0 88 0 0 88 0 0 88 0 0 88 0 0 88 0 0 88 0 0 88 0 0 88 0 0 88 0 0 88 0 0 88 0 0 88 0 0 88 0 0 88 0 0 88 0 0 88 0 0 88 0 0 88 0 0 88 0 0 88 0 0 88 0 0 88 0 0 88 0 0 88 0 0 88 0 0 88 0 0 88 0 0 88 0 0 88 0 0 88 0 0 88 0 0
0 16 32 0 16 32 0 16 32 0 16 32 0 16 32 0 16 32 0 16 32 0 16 32 0 16 32 0 16 32 0 16 32 0 16 32 0 16 32 0 16 32 0 16 32 0 16 32 0 16 32 0 16 32 0 16 32 0 16 32 0 16 32 0 16 32 0 16 32 0 16 32 0 16 32 0 16 32 0 16 32 0 16 32 0 16 32 0 16 32 0 16 32 0 16 32 40 0 0 40 0 0 40 0 0 40 0 0 40 0 0 40 0 0 40 0 0 40 0 0 40 0 0 40 0 0 40 0 0 40 0 0 40 0 0 40 0 0 40 0 0 40 0 0 40 0 0 40 0 0 40 0 0 40 0 0 40 0 0 40 0 0 40 0 0 40 0 0 40 0 0 40 0 0 40 0 0 40 0 0 40 0 0 40 0 0 40 0 0 40 0 0 56 0 0 56 0 0 56 0 0 56 0 0 56 0 0 56 0 0 56 0 0 56 0 0 56 0 0 56 0 0 56 0 0 56 0 0 56 0 0 56 0 0 56 0 0 56 0 0 56 0 0 56 0 0 56 0 0 56 0 0 56 0 0 56 0 0 56 0 0 56 0 0 56 0 0 56 0 0 56 0 0 56 0 0 56 0 0 56 0 0 56 0 0 56 0 0 88 0 0 88 0 0 88 0 0 88 0 0 88 0 0 88 0 0 88 0 0 88 0 0 88 0 0 88 0 0 88 0 0 88 0 0 88 0 0 88 0 0 88 0 0 88 0 0 88 0 0 88 0 0 88 0 0 88 0 0 88 0 0 88 0 0 88 0 0 88 0 0 88 0 0 88 0 0 88 0 0 88 0 0 88 0 0 88 0 0 88 0 0 88 0 0
0 16 32 0 16 32 0 16 32 0 16 32 0 16 32 0 16 32 0 16 32 0 16 32 0 16 32 0 16 32 0 16 32 0 16 32 0 16 32 0 16 32 0 16 32 0 16 32 0 16 32 0 16 32 0 16 32 0 16 32 0 16 32 0 16 32 0 16 32 0 16 32 0 16 32 0 16 32 0 16 32 0 16 32 0 16 32 0 16 32 0 16 32 0 16 32 40 0 0 40 0 0 40 0 0 40 0 0 40 0 0 40 0 0 40 0 0 40 0 0 40 0 0 40 0 0 40 0 0 40 0 0 40 0 0 40 0 0 40 0 0 40 0 0 40 0 0 40 0 0 40 0 0 40 0 0 40 0 0 40 0 0 40 0 0 40 0 0 40 0 0 40 0 0 40 0 0 40 0 0 40 0 0 40 0 0 40 0 0 40 0 0 56 0 0 56 0 0 56 0 0 56 0 0 56 0 0 56 0 0 56 0 0 56 0 0 56 0 0 56 0 0 56 0 0 56 0 0 56 0 0 56 0 0 56 0 0 56 0 0 56 0 0 56 0 0 56 0 0 56 0 0 56 0 0 56 0 0 56 0 0 56 0 0 56 0 0 56 0 0 56 0 0 56 0 0 56 0 0 56 0 0 56 0 0 56 0 0 88 0 0 88 0 0 88 0 0 88 0 0 88 0 0 88 0 0 88 0 0 88 0 0 88 0 0 88 0 0 88 0 0 88 0 0 88 0 0 88 0 0 88 0 0 88 0 0 88 0 0 88 0 0 88 0 0 88 0 0 88 0 0 88 0 0 88 0 0 88 0 0 88 0 0 88 0 0 88 0 0 88 0 0 88 0 0 88 0 0 88 0 0 88 0 0
0 16 32 0 16 32 0 16 32 0 16 32 0 16 32 0 16 32 0 16 32 0 16 32 0 16 32 0 16 32 0 16 32 0 16 32 0 16 32 0 16 32 0 16 32 0 16 32 0 16 32 0 16 32 0 16 32 0 16 32 0 16 32 0 16 32 0 16 32 0 16 32 0 16 32 0 16 32 0 16 32 0 16 32 0 16 32 0 16 32 0 16 32 0 16 32 40 0 0 40 0 0 40 0 0 40 0 0 40 0 0 40 0 0 40 0 0 40 0 0 40 0 0 40 0 0 40 0 0 40 0 0 40 0 0 40 0 0 40 0 0 40 0 0 40 0 0 40 0 0 40 0 0 40 0 0 40 0 0 40 0 0 40 0 0 40 0 0 40 0 0 40 0 0 40 0 0 40 0 0 40 0 0 40 0 0 40 0 0 40 0 0 56 0 0 56 0 0 56 0 0 56 0 0 56 0 0 56 0 0 56 0 0 56 0 0 56 0 0 56 0 0 56 0 0 56 0 0 56 0 0 56 0 0 56 0 0 56 0 0 56 0 0 56 0 0 56 0 0 56 0 0 56 0 0 56 0 0 56 0 0 56 0 0 56 0 0 56 0 0 56 0 0 56 0 0 56 0 0 56 0 0 56 0 0 56 0 0 88 0 0 88 0 0 88 0 0 88 0 0 88 0 0 88 0 0 88 0 0 88 0 0 88 0 0 88 0 0 88 0 0 88 0 0 88 0 0 88 0 0 88 0 0 88 0 0 88 0 0 88 0 0 88 0 0 88 0 0 88 0 0 88 0 0 88 0 0 88 0 0 88 0 0 88 0 0 88 0 0 88 0 0 88 0 0 88 0 0 88 0 0 88 0 0
0 16 32 0 16 32 0 16 32 0 16 32 0 16 32 0 16 32 0 16 32 0 16 32 0 16 32 0 16 32 0 16 32 0 16 32 0 16 32 0 16 32 0 16 32 0 16 32 0 16 32 0 16 32 0 16 32 0 16 32 0 16 32 0 16 32 0 16 32 0 16 32 0 16 32 0 16 32 0 16 32 0 16 32 0 16 32 0 16 32 0 16 32 0 16 32 40 0 0 40 0 0 40 0 0 40 0 0 40 0 0 40 0 0 40 0 0 40 0 0 40 0 0 40 0 0 40 0 0 40 0 0 40 0 0 40 0 0 40 0 0 40 0 0 40 0 0 40 0 0 40 0 0 40 0 0 40 0 0 40 0 0 40 0 0 40 0 0 40 0 0 40 0 0 40 0 0 40 0 0 40 0 0 40 0 0 40 0 0 40 0 0 56 0 0 56 0 0 56 0 0 56 0 0 56 0 0 56 0 0 56 0 0 56 0 0 56 0 0 56 0 0 56 0 0 56 0 0 56 0 0 56 0 0 56 0 0 56 0 0 56 0 0 56 0 0 56 0 0 56 0 0 56 0 0 56 0 0 56 0 0 56 0 0 56 0 0 56 0 0 56 0 0 56 0 0 56 0 0 56 0 0 56 0 0 56 0 0 88 0 0 88 0 0 88 0 0 88 0 0 88 0 0 88 0 0 88 0 0 88 0 0 88 0 0 88 0 0 88 0 0 88 0 0 88 0 0 88 0 0 88 0 0 88 0 0 88 0 0 88 0 0 88 0 0 88 0 0 88 0 0 88 0 0 88 0 0 88 0 0 88 0 0 88 0 0 88 0 0 88 0 0 88 0 0 88 0 0 88 0 0 88 0 0
0 16 32 0 16 32 0 16 32 0 16 32 0 16 32 0 16 32 0 16 32 0 16 32 0 16 32 0 16 32 0 16 32 0 16 32 0 16 32 0 16 32 0 16 32 0 16 32 0 16 32 0 16 32 0 16 32 0 16 32 0 16 32 0 16 32 0 16 32 0 16 32 0 16 32 0 16 32 0 16 32 0 16 32 0 16 32 0 16 32 0 16 32 0 16 32 40 0 0 40 0 0 40 0 0 40 0 0 40 0 0 40 0 0 40 0 0 40 0 0 40 0 0 40 0 0 40 0 0 40 0 0 40 0 0 40 0 0 40 0 0 40 0 0 40 0 0 40 0 0 40 0 0 40 0 0 40 0 0 40 0 0 40 0 0 40 0 0 40 0 0 40 0 0 40 0 0 40 0 0 40 0 0 40 0 0 40 0 0 40 0 0 56 0 0 56 0 0 56 0 0 56 0 0 56 0 0 56 0 0 56 0 0 56 0 0 56 0 0 56 0 0 56 0 0 56 0 0 56 0 0 56 0 0 56 0 0 56 0 0 56 0 0 56 0 0 56 0 0 56 0 0 56 0 0 56 0 0 56 0 0 56 0 0 56 0 0 56 0 0 56 0 0 56 0 0 56 0 0 56 0 0 56 0 0 56 0 0 88 0 0 88 0 0 88 0 0 88 0 0 88 0 0 88 0 0 88 0 0 88 0 0 88 0 0 88 0 0 88 0 0 88 0 0 88 0 0 88 0 0 88 0 0 88 0 0 88 0 0 88 0 0 88 0 0 88 0 0 88 0 0 88 0 0 88 0 0 88 0 0 88 0 0 88 0 0 88 0 0 88 0 0 88 0 0 88 0 0 88 0 0 88 0 0
0 16 32 0 16 32 0 16 32 0 16 32 0 16 32 0 16 32 0 16 32 0 16 32 0 16 32 0 16 32 0 16 32 0 16 32 0 16 32 0 16 32 0 16 32 0 16 32 0 16 32 0 16 32 0 16 32 0 16 32 0 16 32 0 16 32 0 16 32 0 16 32 0 16 32 0 16 32 0 16 32 0 16 32 0 16 32 0 16 32 0 16 32 0 16 32 40 0 0 40 0 0 40 0 0 40 0 0 40 0 0 40 0 0 40 0 0 40 0 0 40 0 0 40 0 0 40 0 0 40 0 0 40 0 0 40 0 0 40 0 0 40 0 0 40 0 0 40 0 0 40 0 0 40 0 0 40 0 0 40 0 0 40 0 0 40 0 0 40 0 0 40 0 0 40 0 0 40 0 0 40 0 0 40 0 0 40 0 0 40 0 0 56 0 0 56 0 0 56 0 0 56 0 0 56 0 0 56 0 0 56 0 0 56 0 0 56 0 0 56 0 0 56 0 0 56 0 0 56 0 0 56 0 0 56 0 0 56 0 0 56 0 0 56 0 0 56 0 0 56 0 0 56 0 0 56 0 0 56 0 0 56 0 0 56 0 0 56 0 0 56 0 0 56 0 0 56 0 0 56 0 0 56 0 0 56 0 0 88 0 0 88 0 0 88 0 0 88 0 0 88 0 0 88 0 0 88 0 0 88 0 0 88 0 0 88 0 0 88 0 0 88 0 0 88 0 0 88 0 0 88 0 0 88 0 0 88 0 0 88 0 0 88 0 0 88 0 0 88 0 0 88 0 0 88 0 0 88 0 0 88 0 0 88 0 0 88 0 0 88 0 0 88 0 0 88 0 0 88 0 0 88 0 0
0 16 32 0 16 32 0 16 32 0 16 32 0 16 32 0 16 32 0 16 32 0 16 32 0 16 32 0 16 32 0 16 32 0 16 32 0 16 32 0 16 32 0 16 32 0 16 32 0 16 32 0 16 32 0 16 32 0 16 32 0 16 32 0 16 32 0 16 32 0 16 32 0 16 32 0 16 32 0 16 32 0 16 32 0 16 32 0 16 32 0 16 32 0 16 32 40 0 0 40 0 0 40 0 0 40 0 0 40 0 0 40 0 0 40 0 0 40 0 0 40 0 0 40 0 0 40 0 0 40 0 0 40 0 0 40 0 0 40 0 0 40 0 0 40 0 0 40 0 0 40 0 0 40 0 0 40 0 0 40 0 0 40 0 0 40 0 0 40 0 0 40 0 0 40 0 0 40 0 0 40 0 0 40 0 0 40 0 0 40 0 0 56 0 0 56 0 0 56 0 0 56 0 0 56 0 0 56 0 0 56 0 0 56 0 0 56 0 0 56 0 0 56 0 0 56 0 0 56 0 0 56 0 0 56 0 0 56 0 0 56 0 0 56 0 0 56 0 0 56 0 0 56 0 0 56 0 0 56 0 0 56 0 0 56 0 0 56 0 0 56 0 0 56 0 0 56 0 0 56 0 0 56 0 0 56 0 0 88 0 0 88 0 0 88 0 0 88 0 0 88 0 0 88 0 0 88 0 0 88 0 0 88 0 0 88 0 0 88 0 0 88 0 0 88 0 0 88 0 0 88 0 0 88 0 0 88 0 0 88 0 0 88 0 0 88 0 0 88 0 0 88 0 0 88 0 0 88 0 0 88 0 0 88 0 0 88 0 0 88 0 0 88 0 0 88 0 0 88 0 0 88 0 0
0 16 32 0 16 32 0 16 32 0 16 32 0 16 32 0 16 32 0 16 32 0 16 32 0 16 32 0 16 32 0 16 32 0 16 32 0 16 32 0 16 32 0 16 32 0 16 32 0 16 32 0 16 32 0 16 32 0 16 32 0 16 32 0 16 32 0 16 32 0 16 32 0 16 32 0 16 32 0 16 32 0 16 32 0 16 32 0 16 32 0 16 32 0 16 32 40 0 0 40 0 0 40 0 0 40 0 0 40 0 0 40 0 0 40 0 0 40 0 0 40 0 0 40 0 0 40 0 0 40 0 0 40 0 0 40 0 0 40 0 0 40 0 0 40 0 0 40 0 0 40 0 0 40 0 0 40 0 0 40 0 0 40 0 0 40 0 0 40 0 0 40 0 0 40 0 0 40 0 0 40 0 0 40 0 0 40 0 0 40 0 0 56 0 0 56 0 0 56 0 0 56 0 0 56 0 0 56 0 0 56 0 0 56 0 0 56 0 0 56 0 0 56 0 0 56 0 0 56 0 0 56 0 0 56 0 0 56 0 0 56 0 0 56 0 0 56 0 0 56 0 0 56 0 0 56 0 0 56 0 0 56 0 0 56 0 0 56 0 0 56 0 0 56 0 0 56 0 0 56 0 0 56 0 0 56 0 0 88 0 0 88 0 0 88 0 0 88 0 0 88 0 0 88 0 0 88 0 0 88 0 0 88 0 0 88 0 0 88 0 0 88 0 0 88 0 0 88 0 0 88 0 0 88 0 0 88 0 0 88 0 0 88 0 0 88 0 0 88 0 0 88 0 0 88 0 0 88 0 0 88 0 0 88 0 0 88 0 0 88 0 0 88 0 0 88 0 0 88 0 0 88 0 0
0 16 32 0 16 32 0 16 32 0 16 32 0 16 32 0 16 32 0 16 32 0 16 32 0 16 32 0 16 32 0 16 32 0 16 32 0 16 32 0 16 32 0 16 32 0 16 32 0 16 32 0 16 32 0 16 32 0 16 32 0 16 32 0 16 32 0 16 32 0 16 32 0 16 32 0 16 32 0 16 32 0 16 32 0 16 32 0 16 32 0 16 32 0 16 32 40 0 0 40 0 0 40 0 0 40 0 0 40 0 0 40 0 0 40 0 0 40 0 0 40 0 0 40 0 0 40 0 0 40 0 0 40 0 0 40 0 0 40 0 0 40 0 0 40 0 0 40 0 0 40 0 0 40 0 0 40 0 0 40 0 0 40 0 0 40 0 0 40 0 0 40 0 0 40 0 0 40 0 0 40 0 0 40 0 0 40 0 0 40 0 0 56 0 0 56 0 0 56 0 0 56 0 0 56 0 0 56 0 0 56 0 0 56 0 0 56 0 0 56 0 0 56 0 0 56 0 0 56 0 0 56 0 0 56 0 0 56 0 0 56 0 0 56 0 0 56 0 0 56 0 0 56 0 0 56 0 0 56 0 0 56 0 0 56 0 0 56 0 0 56 0 0 56 0 0 56 0 0 56 0 0 56 0 0 56 0 0 88 0 0 88 0 0 88 0 0 88 0 0 88 0 0 88 0 0 88 0 0 88 0 0 88 0 0 88 0 0 88 0 0 88 0 0 88 0 0 88 0 0 88 0 0 88 0 0 88 0 0 88 0 0 88 0 0 88 0 0 88 0 0 88 0 0 88 0 0 88 0 0 88 0 0 88 0 0 88 0 0 88 0 0 88 0 0 88 0 0 88 0 0 88 0 0
0 16 32 0 16 32 0 16 32 0 16 32 0 16 32 0 16 32 0 16 32 0 16 32 0 16 32 0 16 32 0 16 32 0 16 32 0 16 32 0 16 32 0 16 32 0 16 32 0 16 32 0 16 32 0 16 32 0 16 32 0 16 32 0 16 32 0 16 32 0 16 32 0 16 32 0 16 32 0 16 32 0 16 32 0 16 32 0 16 32 0 16 32 0 16 32 40 0 0 40 0 0 40 0 0 40 0 0 40 0 0 40 0 0 40 0 0 40 0 0 40 0 0 40 0 0 40 0 0 40 0 0 40 0 0 40 0 0 40 0 0 40 0 0 40 0 0 40 0 0 40 0 0 40 0 0 40 0 0 40 0 0 40 0 0 40 0 0 40 0 0 40 0 0 40 0 0 40 0 0 40 0 0 40 0 0 40 0 0 40 0 0 56 0 0 56 0 0 56 0 0 56 0 0 56 0 0 56 0 0 56 0 0 56 0 0 56 0 0 56 0 0 56 0 0 56 0 0 56 0 0 56 0 0 56 0 0 56 0 0 56 0 0 56 0 0 56 0 0 56 0 0 56 0 0 56 0 0 56 0 0 56 0 0 56 0 0 56 0 0 56 0 0 56 0 0 56 0 0 56 0 0 56 0 0 56 0 0 88 0 0 88 0 0 88 0 0 88 0 0 88 0 0 88 0 0 88 0 0 88 0 0 88 0 0 88 0 0 88 0 0 88 0 0 88 0 0 88 0 0 88 0 0 88 0 0 88 0 0 88 0 0 88 0 0 88 0 0 88 0 0 88 0 0 88 0 0 88 0 0 88 0 0 88 0 0 88 0 0 88 0 0 88 0 0 88 0 0 88 0 0 88 0 0
0 16 32 0 16 32 0 16 32 0 16 32 0 16 32 0 16 32 0 16 32 0 16 32 0 16 32 0 16 32 0 16 32 0 16 32 0 16 32 0 16 32 0 16 32 0 16 32 0 16 32 0 16 32 0 16 32 0 16 32 0 16 32 0 16 32 0 16 32 0 16 32 0 16 32 0 16 32 0 16 32 0 16 32 0 16 32 0 16 32 0 16 32 0 16 32 40 0 0 40 0 0 40 0 0 40 0 0 40 0 0 40 0 0 40 0 0 40 0 0 40 0 0 40 0 0 40 0 0 40 0 0 40 0 0 40 0 0 40 0 0 40 0 0 40 0 0 40 0 0 40 0 0 40 0 0 40 0 0 40 0 0 40 0 0 40 0 0 40 0 0 40 0 0 40 0 0 40 0 0 40 0 0 40 0 0 40 0 0 40 0 0 56 0 0 56 0 0 56 0 0 56 0 0 56 0 0 56 0 0 56 0 0 56 0 0 56 0 0 56 0 0 56 0 0 56 0 0 56 0 0 56 0 0 56 0 0 56 0 0 56 0 0 56 0 0 56 0 0 56 0 0 56 0 0 56 0 0 56 0 0 56 0 0 56 0 0 56 0 0 56 0 0 56 0 0 56 0 0 56 0 0 56 0 0 56 0 0 88 0 0 88 0 0 88 0 0 88 0 0 88 0 0 88 0 0 88 0 0 88 0 0 88 0 0 88 0 0 88 0 0 88 0 0 88 0 0 88 0 0 88 0 0 88 0 0 88 0 0 88 0 0 88 0 0 88 0 0 88 0 0 88 0 0 88 0 0 88 0 0 88 0 0 88 0 0 88 0 0 88 0 0 88 0 0 88 0 0 88 0 0 88 0 0
0 16 32 0 16 32 0 16 32 0 16 32 0 16 32 0 16 32 0 16 32 0 16 32 0 16 32 0 16 32 0 16 32 0 16 32 0 16 32 0 16 32 0 16 32 0 16 32 0 16 32 0 16 32 0 16 32 0 16 32 0 16 32 0 16 32 0 16 32 0 16 32 0 16 32 0 16 32 0 16 32 0 16 32 0 16 32 0 16 32 0 16 32 0 16 32 40 0 0 40 0 0 40 0 0 40 0 0 40 0 0 40 0 0 40 0 0 40 0 0 40 0 0 40 0 0 40 0 0 40 0 0 40 0 0 40 0 0 40 0 0 40 0 0 40 0 0 40 0 0 40 0 0 40 0 0 40 0 0 40 0 0 40 0 0 40 0 0 40 0 0 40 0 0 40 0 0 40 0 0 40 0 0 40 0 0 40 0 0 40 0 0 56 0 0 56 0 0 56 0 0 56 0 0 56 0 0 56 0 0 56 0 0 56 0 0 56 0 0 56 0 0 56 0 0 56 0 0 56 0 0 56 0 0 56 0 0 56 0 0 56 0 0 56 0 0 56 0 0 56 0 0 56 0 0 56 0 0 56 0 0 56 0 0 56 0 0 56 0 0 56 0 0 56 0 0 56 0 0 56 0 0 56 0 0 56 0 0 88 0 0 88 0 0 88 0 0 88 0 0 88 0 0 88 0 0 88 0 0 88 0 0 88 0 0 88 0 0 88 0 0 88 0 0 88 0 0 88 0 0 88 0 0 88 0 0 88 0 0 88 0 0 88 0 0 88 0 0 88 0 0 88 0 0 88 0 0 88 0 0 88 0 0 88 0 0 88 0 0 88 0 0 88 0 0 88 0 0 88 0 0 88 0 0
0 16 32 0 16 32 0 16 32 0 16 32 0 16 32 0 16 32 0 16 32 0 16 32 0 16 32 0 16 32 0 16 32 0 16 32 0 16 32 0 16 32 0 16 32 0 16 32 0 16 32 0 16 32 0 16 32 0 16 32 0 16 32 0 16 32 0 16 32 0 16 32 0 16 32 0 16 32 0 16 32 0 16 32 0 16 32 0 16 32 0 16 32 0 16 32 40 0 0 40 0 0 40 0 0 40 0 0 40 0 0 40 0 0 40 0 0 40 0 0 40 0 0 40 0 0 40 0 0 40 0 0 40 0 0 40 0 0 40 0 0 40 0 0 40 0 0 40 0 0 40 0 0 40 0 0 40 0 0 40 0 0 40 0 0 40 0 0 40 0 0 40 0 0 40 0 0 40 0 0 40 0 0 40 0 0 40 0 0 40 0 0 56 0 0 56 0 0 56 0 0 56 0 0 56 0 0 56 0 0 56 0 0 56 0 0 56 0 0 56 0 0 56 0 0 56 0 0 56 0 0 56 0 0 56 0 0 56 0 0 56 0 0 56 0 0 56 0 0 56 0 0 56 0 0 56 0 0 56 0 0 56 0 0 56 0 0 56 0 0 56 0 0 56 0 0 56 0 0 56 0 0 56 0 0 56 0 0 88 0 0 88 0 0 88 0 0 88 0 0 88 0 0 88 0 0 88 0 0 88 0 0 88 0 0 88 0 0 88 0 0 88 0 0 88 0 0 88 0 0 88 0 0 88 0 0 88 0 0 88 0 0 88 0 0 88 0 0 88 0 0 88 0 0 88 0 0 88 0 0 88 0 0 88 0 0 88 0 0 88 0 0 88 0 0 88 0 0 88 0 0 88 0 0
0 16 32 0 16 32 0 16 32 0 16 32 0 16 32 0 16 32 0 16 32 0 16 32 0 16 32 0 16 32 0 16 32 0 16 32 0 16 32 0 16 32 0 16 32 0 16 32 0 16 32 0 16 32 0 16 32 0 16 32 0 16 32 0 16 32 0 16 32 0 16 32 0 16 32 0 16 32 0 16 32 0 16 32 0 16 32 0 16 32 0 16 32 0 16 32 40 0 0 40 0 0 40 0 0 40 0 0 40 0 0 40 0 0 40 0 0 40 0 0 40 0 0 40 0 0 40 0 0 40 0 0 40 0 0 40 0 0 40 0 0 40 0 0 40 0 0 40 0 0 40 0 0 40 0 0 40 0 0 40 0 0 40 0 0 40 0 0 40 0 0 40 0 0 40 0 0 40 0 0 40 0 0 40 0 0 40 0 0 40 0 0 56 0 0 56 0 0 56 0 0 56 0 0 56 0 0 56 0 0 56 0 0 56 0 0 56 0 0 56 0 0 56 0 0 56 0 0 56 0 0 56 0 0 56 0 0 56 0 0 56 0 0 56 0 0 56 0 0 56 0 0 56 0 0 56 0 0 56 0 0 56 0 0 56 0 0 56 0 0 56 0 0 56 0 0 56 0 0 56 0 0 56 0 0 56 0 0 88 0 0 88 0 0 88 0 0 88 0 0 88 0 0 88 0 0 88 0 0 88 0 0 88 0 0 88 0 0 88 0 0 88 0 0 88 0 0 88 0 0 88 0 0 88 0 0 88 0 0 88 0 0 88 0 0 88 0 0 88 0 0 88 0 0 88 0 0 88 0 0 88 0 0 88 0 0 88 0 0 88 0 0 88 0 0 88 0 0 88 0 0 88 0 0
0 16 32 0 16 32 0 16 32 0 16 32 0 16 32 0 16 32 0 16 32 0 16 32 0 16 32 0 16 32 0 16 32 0 16 32 0 16 32 0 16 32 0 16 32 0 16 32 0 16 32 0 16 32 0 16 32 0 16 32 0 16 32 0 16 32 0 16 32 0 16 32 0 16 32 0 16 32 0 16 32 0 16 32 0 16 32 0 16 32 0 16 32 0 16 32 40 0 0 40 0 0 40 0 0 40 0 0 40 0 0 40 0 0 40 0 0 40 0 0 40 0 0 40 0 0 40 0 0 40 0 0 40 0 0 40 0 0 40 0 0 40 0 0 40 0 0 40 0 0 40 0 0 40 0 0 40 0 0 40 0 0 40 0 0 40 0 0 40 0 0 40 0 0 40 0 0 40 0 0 40 0 0 40 0 0 40 0 0 40 0 0 56 0 0 56 0 0 56 0 0 56 0 0 56 0 0 56 0 0 56 0 0 56 0 0 56 0 0 56 0 0 56 0 0 56 0 0 56 0 0 56 0 0 56 0 0 56 0 0 56 0 0 56 0 0 56 0 0 56 0 0 56 0 0 56 0 0 56 0 0 56 0 0 56 0 0 56 0 0 56 0 0 56 0 0 56 0 0 56 0 0 56 0 0 56 0 0 88 0 0 88 0 0 88 0 0 88 0 0 88 0 0 88 0 0 88 0 0 88 0 0 88 0 0 88 0 0 88 0 0 88 0 0 88 0 0 88 0 0 88 0 0 88 0 0 88 0 0 88 0 0 88 0 0 88 0 0 88 0 0 88 0 0 88 0 0 88 0 0 88 0 0 88 0 0 88 0 0 88 0 0 88 0 0 88 0 0 88 0 0 88 0 0
0 16 32 0 16 32 0 16 32 0 16 32 0 16 32 0 16 32 0 16 32 0 16 32 0 16 32 0 16 32 0 16 32 0 16 32 0 16 32 0 16 32 0 16 32 0 16 32 0 16 32 0 16 32 0 16 32 0 16 32 0 16 32 0 16 32 0 16 32 0 16 32 0 16 32 0 16 32 0 16 32 0 16 32 0 16 32 0 16 32 0 16 32 0 16 32 40 0 0 40 0 0 40 0 0 40 0 0 40 0 0 40 0 0 40 0 0 40 0 0 40 0 0 40 0 0 40 0 0 40 0 0 40 0 0 40 0 0 40 0 0 40 0 0 40 0 0 40 0 0 40 0 0 40 0 0 40 0 0 40 0 0 40 0 0 40 0 0 40 0 0 40 0 0 40 0 0 40 0 0 40 0 0 40 0 0 40 0 0 40 0 0 56 0 0 56 0 0 56 0 0 56 0 0 56 0 0 56 0 0 56 0 0 56 0 0 56 0 0 56 0 0 56 0 0 56 0 0 56 0 0 56 0 0 56 0 0 56 0 0 56 0 0 56 0 0 56 0 0 56 0 0 56 0 0 56 0 0 56 0 0 56 0 0 56 0 0 56 0 0 56 0 0 56 0 0 56 0 0 56 0 0 56 0 0 56 0 0 88 0 0 88 0 0 88 0 0 88 0 0 88 0 0 88 0 0 88 0 0 88 0 0 88 0 0 88 0 0 88 0 0 88 0 0 88 0 0 88 0 0 88 0 0 88 0 0 88 0 0 88 0 0 88 0 0 88 0 0 88 0 0 88 0 0 88 0 0 88 0 0 88 0 0 88 0 0 88 0 0 88 0 0 88 0 0 88 0 0 88 0 0 88 0 0
0 16 32 0 16 32 0 16 32 0 16 32 0 16 32 0 16 32 0 16 32 0 16 32 0 16 32 0 16 32 0 16 32 0 16 32 0 16 32 0 16 32 0 16 32 0 16 32 0 16 32 0 16 32 0 16 32 0 16 32 0 16 32 0 16 32 0 16 32 0 16 32 0 16 32 0 16 32 0 16 32 0 16 32 0 16 32 0 16 32 0 16 32 0 16 32 40 0 0 40 0 0 40 0 0 40 0 0 40 0 0 40 0 0 40 0 0 40 0 0 40 0 0 40 0 0 40 0 0 40 0 0 40 0 0 40 0 0 40 0 0 40 0 0 40 0 0 40 0 0 40 0 0 40 0 0 40 0 0 40 0 0 40 0 0 40 0 0 40 0 0 40 0 0 40 0 0 40 0 0 40 0 0 40 0 0 40 0 0 40 0 0 56 0 0 56 0 0 56 0 0 56 0 0 56 0 0 56 0 0 56 0 0 56 0 0 56 0 0 56 0 0 56 0 0 56 0 0 56 0 0 56 0 0 56 0 0 56 0 0 56 0 0 56 0 0 56 0 0 56 0 0 56 0 0 56 0 0 56 0 0 56 0 0 56 0 0 56 0 0 56 0 0 56 0 0 56 0 0 56 0 0 56 0 0 56 0 0 88 0 0 88 0 0 88 0 0 88 0 0 88 0 0 88 0 0 88 0 0 88 0 0 88 0 0 88 0 0 88 0 0 88 0 0 88 0 0 88 0 0 88 0 0 88 0 0 88 0 0 88 0 0 88 0 0 88 0 0 88 0 0 88 0 0 88 0 0 88 0 0 88 0 0 88 0 0 88 0 0 88 0 0 88 0 0 88 0 0 88 0 0 88 0 0
0 16 32 0 16 32 0 16 32 0 16 32 0 16 32 0 16 32 0 16 32 0 16 32 0 16 32 0 16 32 0 16 32 0 16 32 0 16 32 0 16 32 0 16 32 0 16 32 0 16 32 0 16 32 0 16 32 0 16 32 0 16 32 0 16 32 0 16 32 0 16 32 0 16 32 0 16 32 0 16 32 0 16 32 0 16 32 0 16 32 0 16 32 0 16 32 40 0 0 40 0 0 40 0 0 40 0 0 40 0 0 40 0 0 40 0 0 40 0 0 40 0 0 40 0 0 40 0 0 40 0 0 40 0 0 40 0 0 40 0 0 40 0 0 40 0 0 40 0 0 40 0 0 40 0 0 40 0 0 40 0 0 40 0 0 40 0 0 40 0 0 40 0 0 40 0 0 40 0 0 40 0 0 40 0 0 40 0 0 40 0 0 56 0 0 56 0 0 56 0 0 56 0 0 56 0 0 56 0 0 56 0 0 56 0 0 56 0 0 56 0 0 56 0 0 56 0 0 56 0 0 56 0 0 56 0 0 56 0 0 56 0 0 56 0 0 56 0 0 56 0 0 56 0 0 56 0 0 56 0 0 56 0 0 56 0 0 56 0 0 56 0 0 56 0 0 56 0 0 56 0 0 56 0 0 56 0 0 88 0 0 88 0 0 88 0 0 88 0 0 88 0 0 88 0 0 88 0 0 88 0 0 88 0 0 88 0 0 88 0 0 88 0 0 88 0 0 88 0 0 88 0 0 88 0 0 88 0 0 88 0 0 88 0 0 88 0 0 88 0 0 88 0 0 88 0 0 88 0 0 88 0 0 88 0 0 88 0 0 88 0 0 88 0 0 88 0 0 88 0 0 88 0 0
0 16 32 0 16 32 0 16 32 0 16 32 0 16 32 0 16 32 0 16 32 0 16 32 0 16 32 0 16 32 0 16 32 0 16 32 0 16 32 0 16 32 0 16 32 0 16 32 0 16 32 0 16 32 0 16 32 0 16 32 0 16 32 0 16 32 0 16 32 0 16 32 0 16 32 0 16 32 0 16 32 0 16 32 0 16 32 0 16 32 0 16 32 0 16 32 40 0 0 40 0 0 40 0 0 40 0 0 40 0 0 40 0 0 40 0 0 40 0 0 40 0 0 40 0 0 40 0 0 40 0 0 40 0 0 40 0 0 40 0 0 40 0 0 40 0 0 40 0 0 40 0 0 40 0 0 40 0 0 40 0 0 40 0 0 40 0 0 40 0 0 40 0 0 40 0 0 40 0 0 40 0 0 40 0 0 40 0 0 40 0 0 56 0 0 56 0 0 56 0 0 56 0 0 56 0 0 56 0 0 56 0 0 56 0 0 56 0 0 56 0 0 56 0 0 56 0 0 56 0 0 56 0 0 56 0 0 56 0 0 56 0 0 56 0 0 56 0 0 56 0 0 56 0 0 56 0 0 56 0 0 56 0 0 56 0 0 56 0 0 56 0 0 56 0 0 56 0 0 56 0 0 56 0 0 56 0 0 88 0 0 88 0 0 88 0 0 88 0 0 88 0 0 88 0 0 88 0 0 88 0 0 88 0 0 88 0 0 88 0 0 88 0 0 88 0 0 88 0 0 88 0 0 88 0 0 88 0 0 88 0 0 88 0 0 88 0 0 88 0 0 88 0 0 88 0 0 88 0 0 88 0 0 88 0 0 88 0 0 88 0 0 88 0 0 88 0 0 88 0 0 88 0 0
120 0 0 120 0 0 120 0 0 120 0 0 120 0 0 120 0 0 120 0 0 120 0 0 120 0 0 120 0 0 120 0 0 120 0 0 120 0 0 120 0 0 120 0 0 120 0 0 120 0 0 120 0 0 120 0 0 120 0 0 120 0 0 120 0 0 120 0 0 120 0 0 120 0 0 120 0 0 120 0 0 120 0 0 120 0 0 120 0 0 120 0 0 120 0 0 64 0 0 64 0 0 64 0 0 64 0 0 64 0 0 64 0 0 64 0 0 64 0 0 64 0 0 64 0 0 64 0 0 64 0 0 64 0 0 64 0 0 64 0 0 64 0 0 64 0 0 64 0 0 64 0 0 64 0 0 64 0 0 64 0 0 64 0 0 64 0 0 64 0 0 64 0 0 64 0 0 64 0 0 64 0 0 64 0 0 64 0 0 64 0 0 128 0 0 128 0 0 128 0 0 128 0 0 128 0 0 128 0 0 128 0 0 128 0 0 128 0 0 128 0 0 128 0 0 128 0 0 128 0 0 128 0 0 128 0 0 128 0 0 128 0 0 128 0 0 128 0 0 128 0 0 128 0 0 128 0 0 128 0 0 128 0 0 128 0 0 128 0 0 128 0 0 128 0 0 128 0 0 128 0 0 128 0 0 128 0 0 192 0 0 192 0 0 192 0 0 192 0 0 192 0 0 192 0 0 192 0 0 192 0 0 192 0 0 192 0 0 192 0 0 192 0 0 192 0 0 192 0 0 192 0 0 192 0 0 192 0 0 192 0 0 192 0 0 192 0 0 192 0 0 192 0 0 192 0 0 192 0 0 192 0 0 192 0 0 192 0 0 192 0 0 192 0 0 192 0 0 192 0 0 192 0 0
120 0 0 120 0 0 120 0 0 120 0 0 120 0 0 120 0 0 120 0 0 120 0 0 120 0 0 120 0 0 120 0 0 120 0 0 120 0 0 120 0 0 120 0 0 120 0 0 120 0 0 120 0 0 120 0 0 120 0 0 120 0 0 120 0 0 120 0 0 120 0 0 120 0 0 120 0 0 120 0 0 120 0 0 120 0 0 120 0 0 120 0 0 120 0 0 64 0 0 64 0 0 64 0 0 64 0 0 64 0 0 64 0 0 64 0 0 64 0 0 64 0 0 64 0 0 64 0 0 64 0 0 64 0 0 64 0 0 64 0 0 64 0 0 64 0 0 64 0 0 64 0 0 64 0 0 64 0 0 64 0 0 64 0 0 64 0 0 64 0 0 64 0 0 64 0 0 64 0 0 64 0 0 64 0 0 64 0 0 64 0 0 128 0 0 128 0 0 128 0 0 128 0 0 128 0 0 128 0 0 128 0 0 128 0 0 128 0 0 128 0 0 128 0 0 128 0 0 128 0 0 128 0 0 128 0 0 128 0 0 128 0 0 128 0 0 128 0 0 128 0 0 128 0 0 128 0 0 128 0 0 128 0 0 128 0 0 128 0 0 128 0 0 128 0 0 128 0 0 128 0 0 128 0 0 128 0 0 192 0 0 192 0 0 192 0 0 192 0 0 192 0 0 192 0 0 192 0 0 192 0 0 192 0 0 192 0 0 192 0 0 192 0 0 192 0 0 192 0 0 192 0 0 192 0 0 192 0 0 192 0 0 192 0 0 192 0 0 192 0 0 192 0 0 192 0 0 192 0 0 192 0 0 192 0 0 192 0 0 192 0 0 192 0 0 192 0 0 192 0 0 192 0 0
120 0 0 120 0 0 120 0 0 120 0 0 120 0 0 120 0 0 120 0 0 120 0 0 120 0 0 120 0 0 120 0 0 120 0 0 120 0 0 120 0 0 120 0 0 120 0 0 120 0 0 120 0 0 120 0 0 120 0 0 120 0 0 120 0 0 120 0 0 120 0 0 120 0 0 120 0 0 120 0 0 120 0 0 120 0 0 120 0 0 120 0 0 120 0 0 64 0 0 64 0 0 64 0 0 64 0 0 64 0 0 64 0 0 64 0 0 64 0 0 64 0 0 64 0 0 64 0 0 64 0 0 64 0 0 64 0 0 64 0 0 64 0 0 64 0 0 64 0 0 64 0 0 64 0 0 64 0 0 64 0 0 64 0 0 64 0 0 64 0 0 64 0 0 64 0 0 64 0 0 64 0 0 64 0 0 64 0 0 64 0 0 128 0 0 128 0 0 128 0 0 128 0 0 128 0 0 128 0 0 128 0 0 128 0 0 128 0 0 128 0 0 128 0 0 128 0 0 128 0 0 128 0 0 128 0 0 128 0 0 128 0 0 128 0 0 128 0 0 128 0 0 128 0 0 128 0 0 128 0 0 128 0 0 128 0 0 128 0 0 128 0 0 128 0 0 128 0 0 128 0 0 128 0 0 128 0 0 192 0 0 192 0 0 192 0 0 192 0 0 192 0 0 192 0 0 192 0 0 192 0 0 192 0 0 192 0 0 192 0 0 192 0 0 192 0 0 192 0 0 192 0 0 192 0 0 192 0 0 192 0 0 192 0 0 192 0 0 192 0 0 192 0 0 192 0 0 192 0 0 192 0 0 192 0 0 192 0 0 192 0 0 192 0 0 192 0 0 192 0 0 192 0 0
120 0 0 120 0 0 120 0 0 120 0 0 120 0 0 120 0 0 120 0 0 120 0 0 120 0 0 120 0 0 120 0 0 120 0 0 120 0 0 120 0 0 120 0 0 120 0 0 120 0 0 120 0 0 120 0 0 120 0 0 120 0 0 120 0 0 120 0 0 120 0 0 120 0 0 120 0 0 120 0 0 120 0 0 120 0 0 120 0 0 120 0 0 120 0 0 64 0 0 64 0 0 64 0 0 64 0 0 64 0 0 64 0 0 64 0 0 64 0 0 64 0 0 64 0 0 64 0 0 64 0 0 64 0 0 64 0 0 64 0 0 64 0 0 64 0 0 64 0 0 64 0 0 64 0 0 64 0 0 64 0 0 64 0 0 64 0 0 64 0 0 64 0 0 64 0 0 64 0 0 64 0 0 64 0 0 64 0 0 64 0 0 128 0 0 128 0 0 128 0 0 128 0 0 128 0 0 128 0 0 128 0 0 128 0 0 128 0 0 128 0 0 128 0 0 128 0 0 128 0 0 128 0 0 128 0 0 128 0 0 128 0 0 128 0 0 128 0 0 128 0 0 128 0 0 128 0 0 128 0 0 128 0 0 128 0 0 128 0 0 128 0 0 128 0 0 128 0 0 128 0 0 128 0 0 128 0 0 192 0 0 192 0 0 192 0 0 192 0 0 192 0 0 192 0 0 192 0 0 192 0 0 192 0 0 192 0 0 192 0 0 192 0 0 192 0 0 192 0 0 192 0 0 192 0 0 192 0 0 192 0 0 192 0 0 192 0 0 192 0 0 192 0 0 192 0 0 192 0 0 192 0 0 192 0 0 192 0 0 192 0 0 192 0 0 192 0 0 192 0 0 192 0 0
120 0 0 120 0 0 120 0 0 120 0 0 120 0 0 120 0 0 120 0 0 120 0 0 120 0 0 120 0 0 120 0 0 120 0 0 120 0 0 120 0 0 120 0 0 120 0 0 120 0 0 120 0 0 120 0 0 120 0 0 120 0 0 120 0 0 120 0 0 120 0 0 120 0 0 120 0 0 120 0 0 120 0 0 120 0 0 120 0 0 120 0 0 120 0 0 64 0 0 64 0 0 64 0 0 64 0 0 64 0 0 64 0 0 64 0 0 64 0 0 64 0 0 64 0 0 64 0 0 64 0 0 64 0 0 64 0 0 64 0 0 64 0 0 64 0 0 64 0 0 64 0 0 64 0 0 64 0 0 64 0 0 64 0 0 64 0 0 64 0 0 64 0 0 64 0 0 64 0 0 64 0 0 64 0 0 64 0 0 64 0 0 128 0 0 128 0 0 128 0 0 128 0 0 128 0 0 128 0 0 128 0 0 128 0 0 128 0 0 128 0 0 128 0 0 128 0 0 128 0 0 128 0 0 128 0 0 128 0 0 128 0 0 128 0 0 128 0 0 128 0 0 128 0 0 128 0 0 128 0 0 128 0 0 128 0 0 128 0 0 128 0 0 128 0 0 128 0 0 128 0 0 128 0 0 128 0 0 192 0 0 192 0 0 192 0 0 192 0 0 192 0 0 192 0 0 192 0 0 192 0 0 192 0 0 192 0 0 192 0 0 192 0 0 192 0 0 192 0 0 192 0 0 192 0 0 192 0 0 192 0 0 192 0 0 192 0 0 192 0 0 192 0 0 192 0 0 192 0 0 192 0 0 192 0 0 192 0 0 192 0 0 192 0 0 192 0 0 192 0 0 192 0 0
120 0 0 120 0 0 120 0 0 120 0 0 120 0 0 120 0 0 120 0 0 120 0 0 120 0 0 120 0 0 120 0 0 120 0 0 120 0 0 120 0 0 120 0 0 120 0 0 120 0 0 120 0 0 120 0 0 120 0 0 120 0 0 120 0 0 120 0 0 120 0 0 120 0 0 120 0 0 120 0 0 120 0 0 120 0 0 120 0 0 120 0 0 120 0 0 64 0 0 64 0 0 64 0 0 64 0 0 64 0 0 64 0 0 64 0 0 64 0 0 64 0 0 64 0 0 64 0 0 64 0 0 64 0 0 64 0 0 64 0 0 64 0 0 64 0 0 64 0 0 64 0 0 64 0 0 64 0 0 64 0 0 64 0 0 64 0 0 64 0 0 64 0 0 64 0 0 64 0 0 64 0 0 64 0 0 64 0 0 64 0 0 128 0 0 128 0 0 128 0 0 128 0 0 128 0 0 128 0 0 128 0 0 128 0 0 128 0 0 128 0 0 128 0 0 128 0 0 128 0 0 128 0 0 128 0 0 128 0 0 128 0 0 128 0 0 128 0 0 128 0 0 128 0 0 128 0 0 128 0 0 128 0 0 128 0 0 128 0 0 128 0 0 128 0 0 128 0 0 128 0 0 128 0 0 128 0 0 192 0 0 192 0 0 192 0 0 192 0 0 192 0 0 192 0 0 192 0 0 192 0 0 192 0 0 192 0 0 192 0 0 192 0 0 192 0 0 192 0 0 192 0 0 192 0 0 192 0 0 192 0 0 192 0 0 192 0 0 192 0 0 192 0 0 192 0 0 192 0 0 192 0 0 192 0 0 192 0 0 192 0 0 192 0 0 192 0 0 192 0 0 192 0 0
120 0 0 120 0 0 120 0 0 120 0 0 120 0 0 120 0 0 120 0 0 120 0 0 120 0 0 120 0 0 120 0 0 120 0 0 120 0 0 120 0 0 120 0 0 120 0 0 120 0 0 120 0 0 120 0 0 120 0 0 120 0 0 120 0 0 120 0 0 120 0 0 120 0 0 120 0 0 120 0 0 120 0 0 120 0 0 120 0 0 120 0 0 120 0 0 64 0 0 64 0 0 64 0 0 64 0 0 64 0 0 64 0 0 64 0 0 64 0 0 64 0 0 64 0 0 64 0 0 64 0 0 64 0 0 64 0 0 64 0 0 64 0 0 64 0 0 64 0 0 64 0 0 64 0 0 64 0 0 64 0 0 64 0 0 64 0 0 64 0 0 64 0 0 64 0 0 64 0 0 64 0 0 64 0 0 64 0 0 64 0 0 128 0 0 128 0 0 128 0 0 128 0 0 128 0 0 128 0 0 128 0 0 128 0 0 128 0 0 128 0 0 128 0 0 128 0 0 128 0 0 128 0 0 128 0 0 128 0 0 128 0 0 128 0 0 128 0 0 128 0 0 128 0 0 128 0 0 128 0 0 128 0 0 128 0 0 128 0 0 128 0 0 128 0 0 128 0 0 128 0 0 128 0 0 128 0 0 192 0 0 192 0 0 192 0 0 192 0 0 192 0 0 192 0 0 192 0 0 192 0 0 192 0 0 192 0 0 192 0 0 192 0 0 192 0 0 192 0 0 192 0 0 192 0 0 192 0 0 192 0 0 192 0 0 192 0 0 192 0 0 192 0 0 192 0 0 192 0 0 192 0 0 192 0 0 192 0 0 192 0 0 192 0 0 192 0 0 192 0 0 192 0 0
120 0 0 120 0 0 120 0 0 120 0 0 120 0 0 120 0 0 120 0 0 120 0 0 120 0 0 120 0 0 120 0 0 120 0 0 120 0 0 120 0 0 120 0 0 120 0 0 120 0 0 120 0 0 120 0 0 120 0 0 120 0 0 120 0 0 120 0 0 120 0 0 120 0 0 120 0 0 120 0 0 120 0 0 120 0 0 120 0 0 120 0 0 120 0 0 64 0 0 64 0 0 64 0 0 64 0 0 64 0 0 64 0 0 64 0 0 64 0 0 64 0 0 64 0 0 64 0 0 64 0 0 64 0 0 64 0 0 64 0 0 64 0 0 64 0 0 64 0 0 64 0 0 64 0 0 64 0 0 64 0 0 64 0 0 64 0 0 64 0 0 64 0 0 64 0 0 64 0 0 64 0 0 64 0 0 64 0 0 64 0 0 128 0 0 128 0 0 128 0 0 128 0 0 128 0 0 128 0 0 128 0 0 128 0 0 128 0 0 128 0 0 128 0 0 128 0 0 128 0 0 128 0 0 128 0 0 128 0 0 128 0 0 128 0 0 128 0 0 128 0 0 128 0 0 128 0 0 128 0 0 128 0 0 128 0 0 128 0 0 128 0 0 128 0 0 128 0 0 128 0 0 128 0 0 128 0 0 192 0 0 192 0 0 192 0 0 192 0 0 192 0 0 192 0 0 192 0 0 192 0 0 192 0 0 192 0 0 192 0 0 192 0 0 192 0 0 192 0 0 192 0 0 192 0 0 192 0 0 192 0 0 192 0 0 192 0 0 192 0 0 192 0 0 192 0 0 192 0 0 192 0 0 192 0 0 192 0 0 192 0 0 192 0 0 192 0 0 192 0 0 192 0 0
120 0 0 120 0 0 120 0 0 120 0 0 120 0 0 120 0 0 120 0 0 120 0 0 120 0 0 120 0 0 120 0 0 120 0 0 120 0 0 120 0 0 120 0 0 120 0 0 120 0 0 120 0 0 120 0 0 120 0 0 120 0 0 120 0 0 120 0 0 120 0 0 120 0 0 120 0 0 120 0 0 120 0 0 120 0 0 120 0 0 120 0 0 120 0 0 64 0 0 64 0 0 64 0 0 64 0 0 64 0 0 64 0 0 64 0 0 64 0 0 64 0 0 64 0 0 64 0 0 64 0 0 64 0 0 64 0 0 64 0 0 64 0 0 64 0 0 64 0 0 64 0 0 64 0 0 64 0 0 64 0 0 64 0 0 64 0 0 64 0 0 64 0 0 64 0 0 64 0 0 64 0 0 64 0 0 64 0 0 64 0 0 128 0 0 128 0 0 128 0 0 128 0 0 128 0 0 128 0 0 128 0 0 128 0 0 128 0 0 128 0 0 128 0 0 128 0 0 128 0 0 128 0 0 128 0 0 128 0 0 128 0 0 128 0 0 128 0 0 128 0 0 128 0 0 128 0 0 128 0 0 128 0 0 128 0 0 128 0 0 128 0 0 128 0 0 128 0 0 128 0 0 128 0 0 128 0 0 192 0 0 192 0 0 192 0 0 192 0 0 192 0 0 192 0 0 192 0 0 192 0 0 192 0 0 192 0 0 192 0 0 192 0 0 192 0 0 192 0 0 192 0 0 192 0 0 192 0 0 192 0 0 192 0 0 192 0 0 192 0 0 192 0 0 192 0 0 192 0 0 192 0 0 192 0 0 192 0 0 192 0 0 192 0 0 192 0 0 192 0 0 192 0 0
120 0 0 120 0 0 120 0 0 120 0 0 120 0 0 120 0 0 120 0 0 120 0 0 120 0 0 120 0 0 120 0 0 120 0 0 120 0 0 120 0 0 120 0 0 120 0 0 120 0 0 120 0 0 120 0 0 120 0 0 120 0 0 120 0 0 120 0 0 120 0 0 120 0 0 120 0 0 120 0 0 120 0 0 120 0 0 120 0 0 120 0 0 120 0 0 64 0 0 64 0 0 64 0 0 64 0 0 64 0 0 64 0 0 64 0 0 64 0 0 64 0 0 64 0 0 64 0 0 64 0 0 64 0 0 64 0 0 64 0 0 64 0 0 64 0 0 64 0 0 64 0 0 64 0 0 64 0 0 64 0 0 64 0 0 64 0 0 64 0 0 64 0 0 64 0 0 64 0 0 64 0 0 64 0 0 64 0 0 64 0 0 128 0 0 128 0 0 128 0 0 128 0 0 128 0 0 128 0 0 128 0 0 128 0 0 128 0 0 128 0 0 128 0 0 128 0 0 128 0 0 128 0 0 128 0 0 128 0 0 128 0 0 128 0 0 128 0 0 128 0 0 128 0 0 128 0 0 128 0 0 128 0 0 128 0 0 128 0 0 128 0 0 128 0 0 128 0 0 128 0 0 128 0 0 128 0 0 192 0 0 192 0 0 192 0 0 192 0 0 192 0 0 192 0 0 192 0 0 192 0 0 192 0 0 192 0 0 192 0 0 192 0 0 192 0 0 192 0 0 192 0 0 192 0 0 192 0 0 192 0 0 192 0 0 192 0 0 192 0 0 192 0 0 192 0 0 192 0 0 192 0 0 192 0 0 192 0 0 192 0 0 192 0 0 192 0 0 192 0 0 192 0 0
120 0 0 120 0 0 120 0 0 120 0 0 120 0 0 120 0 0 120 0 0 120 0 0 120 0 0 120 0 0 120 0 0 120 0 0 120 0 0 120 0 0 120 0 0 120 0 0 120 0 0 120 0 0 120 0 0 120 0 0 120 0 0 120 0 0 120 0 0 120 0 0 120 0 0 120 0 0 120 0 0 120 0 0 120 0 0 120 0 0 120 0 0 120 0 0 64 0 0 64 0 0 64 0 0 64 0 0 64 0 0 64 0 0 64 0 0 64 0 0 64 0 0 64 0 0 64 0 0 64 0 0 64 0 0 64 0 0 64 0 0 64 0 0 64 0 0 64 0 0 64 0 0 64 0 0 64 0 0 64 0 0 64 0 0 64 0 0 64 0 0 64 0 0 64 0 0 64 0 0 64 0 0 64 0 0 64 0 0 64 0 0 128 0 0 128 0 0 128 0 0 128 0 0 128 0 0 128 0 0 128 0 0 128 0 0 128 0 0 128 0 0 128 0 0 128 0 0 128 0 0 128 0 0 128 0 0 128 0 0 128 0 0 128 0 0 128 0 0 128 0 0 128 0 0 128 0 0 128 0 0 128 0 0 128 0 0 128 0 0 128 0 0 128 0 0 128 0 0 128 0 0 128 0 0 128 0 0 192 0 0 192 0 0 192 0 0 192 0 0 192 0 0 192 0 0 192 0 0 192 0 0 192 0 0 192 0 0 192 0 0 192 0 0 192 0 0 192 0 0 192 0 0 192 0 0 192 0 0 192 0 0 192 0 0 192 0 0 192 0 0 192 0 0 192 0 0 192 0 0 192 0 0 192 0 0 192 0 0 192 0 0 192 0 0 192 0 0 192 0 0 192 0 0
120 0 0 120 0 0 120 0 0 120 0 0 120 0 0 120 0 0 120 0 0 120 0 0 120 0 0 120 0 0 120 0 0 120 0 0 120 0 0 120 0 0 120 0 0 120 0 0 120 0 0 120 0 0 120 0 0 120 0 0 120 0 0 120 0 0 120 0 0 120 0 0 120 0 0 120 0 0 120 0 0 120 0 0 120 0 0 120 0 0 120 0 0 120 0 0 64 0 0 64 0 0 64 0 0 64 0 0 64 0 0 64 0 0 64 0 0 64 0 0 64 0 0 64 0 0 64 0 0 64 0 0 64 0 0 64 0 0 64 0 0 64 0 0 64 0 0 64 0 0 64 0 0 64 0 0 64 0 0 64 0 0 64 0 0 64 0 0 64 0 0 64 0 0 64 0 0 64 0 0 64 0 0 64 0 0 64 0 0 64 0 0 128 0 0 128 0 0 128 0 0 128 0 0 128 0 0 128 0 0 128 0 0 128 0 0 128 0 0 128 0 0 128 0 0 128 0 0 128 0 0 128 0 0 128 0 0 128 0 0 128 0 0 128 0 0 128 0 0 128 0 0 128 0 0 128 0 0 128 0 0 128 0 0 128 0 0 128 0 0 128 0 0 128 0 0 128 0 0 128 0 0 128 0 0 128 0 0 192 0 0 192 0 0 192 0 0 192 0 0 192 0 0 192 0 0 192 0 0 192 0 0 192 0 0 192 0 0 192 0 0 192 0 0 192 0 0 192 0 0 192 0 0 192 0 0 192 0 0 192 0 0 192 0 0 192 0 0 192 0 0 192 0 0 192 0 0 192 0 0 192 0 0 192 0 0 192 0 0 192 0 0 192 0 0 192 0 0 192 0 0 192 0 0
120 0 0 120 0 0 120 0 0 120 0 0 120 0 0 120 0 0 120 0 0 120 0 0 120 0 0 120 0 0 120 0 0 120 0 0 120 0 0 120 0 0 120 0 0 120 0 0 120 0 0 120 0 0 120 0 0 120 0 0 120 0 0 120 0 0 120 0 0 120 0 0 120 0 0 120 0 0 120 0 0 120 0 0 120 0 0 120 0 0 120 0 0 120 0 0 64 0 0 64 0 0 64 0 0 64 0 0 64 0 0 64 0 0 64 0 0 64 0 0 64 0 0 64 0 0 64 0 0 64 0 0 64 0 0 64 0 0 64 0 0 64 0 0 64 0 0 64 0 0 64 0 0 64 0 0 64 0 0 64 0 0 64 0 0 64 0 0 64 0 0 64 0 0 64 0 0 64 0 0 64 0 0 64 0 0 64 0 0 64 0 0 128 0 0 128 0 0 128 0 0 128 0 0 128 0 0 128 0 0 128 0 0 128 0 0 128 0 0 128 0 0 128 0 0 128 0 0 128 0 0 128 0 0 128 0 0 128 0 0 128 0 0 128 0 0 128 0 0 128 0 0 128 0 0 128 0 0 128 0 0 128 0 0 128 0 0 128 0 0 128 0 0 128 0 0 128 0 0 128 0 0 128 0 0 128 0 0 192 0 0 192 0 0 192 0 0 192 0 0 192 0 0 192 0 0 192 0 0 192 0 0 192 0 0 192 0 0 192 0 0 192 0 0 192 0 0 192 0 0 192 0 0 192 0 0 192 0 0 192 0 0 192 0 0 192 0 0 192 0 0 192 0 0 192 0 0 192 0 0 192 0 0 192 0 0 192 0 0 192 0 0 192 0 0 192 0 0 192 0 0 192 0 0
120 0 0 120 0 0 120 0 0 120 0 0 120 0 0 120 0 0 120 0 0 120 0 0 120 0 0 120 0 0 120 0 0 120 0 0 120 0 0 120 0 0 120 0 0 120 0 0 120 0 0 120 0 0 120 0 0 120 0 0 120 0 0 120 0 0 120 0 0 120 0 0 120 0 0 120 0 0 120 0 0 120 0 0 120 0 0 120 0 0 120 0 0 120 0 0 64 0 0 64 0 0 64 0 0 64 0 0 64 0 0 64 0 0 64 0 0 64 0 0 64 0 0 64 0 0 64 0 0 64 0 0 64 0 0 64 0 0 64 0 0 64 0 0 64 0 0 64 0 0 64 0 0 64 0 0 64 0 0 64 0 0 64 0 0 64 0 0 64 0 0 64 0 0 64 0 0 64 0 0 64 0 0 64 0 0 64 0 0 64 0 0 128 0 0 128 0 0 128 0 0 128 0 0 128 0 0 128 0 0 128 0 0 128 0 0 128 0 0 128 0 0 128 0 0 128 0 0 128 0 0 128 0 0 128 0 0 128 0 0 128 0 0 128 0 0 128 0 0 128 0 0 128 0 0 128 0 0 128 0 0 128 0 0 128 0 0 128 0 0 128 0 0 128 0 0 128 0 0 128 0 0 128 0 0 128 0 0 192 0 0 192 0 0 192 0 0 192 0 0 192 0 0 192 0 0 192 0 0 192 0 0 192 0 0 192 0 0 192 0 0 192 0 0 192 0 0 192 0 0 192 0 0 192 0 0 192 0 0 192 0 0 192 0 0 192 0 0 192 0 0 192 0 0 192 0 0 192 0 0 192 0 0 192 0 0 192 0 0 192 0 0 192 0 0 192 0 0 192 0 0 192 0 0
120 0 0 120 0 0 120 0 0 120 0 0 120 0 0 120 0 0 120 0 0 120 0 0 120 0 0 120 0 0 120 0 0 120 0 0 120 0 0 120 0 0 120 0 0 120 0 0 120 0 0 120 0 0 120 0 0 120 0 0 120 0 0 120 0 0 120 0 0 120 0 0 120 0 0 120 0 0 120 0 0 120 0 0 120 0 0 120 0 0 120 0 0 120 0 0 64 0 0 64 0 0 64 0 0 64 0 0 64 0 0 64 0 0 64 0 0 64 0 0 64 0 0 64 0 0 64 0 0 64 0 0 64 0 0 64 0 0 64 0 0 64 0 0 64 0 0 64 0 0 64 0 0 64 0 0 64 0 0 64 0 0 64 0 0 64 0 0 64 0 0 64 0 0 64 0 0 64 0 0 64 0 0 64 0 0 64 0 0 64 0 0 128 0 0 128 0 0 128 0 0 128 0 0 128 0 0 128 0 0 128 0 0 128 0 0 128 0 0 128 0 0 128 0 0 128 0 0 128 0 0 128 0 0 128 0 0 128 0 0 128 0 0 128 0 0 128 0 0 128 0 0 128 0 0 128 0 0 128 0 0 128 0 0 128 0 0 128 0 0 128 0 0 128 0 0 128 0 0 128 0 0 128 0 0 128 0 0 192 0 0 192 0 0 192 0 0 192 0 0 192 0 0 192 0 0 192 0 0 192 0 0 192 0 0 192 0 0 192 0 0 192 0 0 192 0 0 192 0 0 192 0 0 192 0 0 192 0 0 192 0 0 192 0 0 192 0 0 192 0 0 192 0 0 192 0 0 192 0 0 192 0 0 192 0 0 192 0 0 192 0 0 192 0 0 192 0 0 192 0 0 192 0 0
120 0 0 120 0 0 120 0 0 120 0 0 120 0 0 120 0 0 120 0 0 120 0 0 120 0 0 120 0 0 120 0 0 120 0 0 120 0 0 120 0 0 120 0 0 120 0 0 120 0 0 120 0 0 120 0 0 120 0 0 120 0 0 120 0 0 120 0 0 120 0 0 120 0 0 120 0 0 120 0 0 120 0 0 120 0 0 120 0 0 120 0 0 120 0 0 64 0 0 64 0 0 64 0 0 64 0 0 64 0 0 64 0 0 64 0 0 64 0 0 64 0 0 64 0 0 64 0 0 64 0 0 64 0 0 64 0 0 64 0 0 64 0 0 64 0 0 64 0 0 64 0 0 64 0 0 64 0 0 64 0 0 64 0 0 64 0 0 64 0 0 64 0 0 64 0 0 64 0 0 64 0 0 64 0 0 64 0 0 64 0 0 128 0 0 128 0 0 128 0 0 128 0 0 128 0 0 128 0 0 128 0 0 128 0 0 128 0 0 128 0 0 128 0 0 128 0 0 128 0 0 128 0 0 128 0 0 128 0 0 128 0 0 128 0 0 128 0 0 128 0 0 128 0 0 128 0 0 128 0 0 128 0 0 128 0 0 128 0 0 128 0 0 128 0 0 128 0 0 128 0 0 128 0 0 128 0 0 192 0 0 192 0 0 192 0 0 192 0 0 192 0 0 192 0 0 192 0 0 192 0 0 192 0 0 192 0 0 192 0 0 192 0 0 192 0 0 192 0 0 192 0 0 192 0 0 192 0 0 192 0 0 192 0 0 192 0 0 192 0 0 192 0 0 192 0 0 192 0 0 192 0 0 192 0 0 192 0 0 192 0 0 192 0 0 192 0 0 192 0 0 192 0 0
120 0 0 120 0 0 120 0 0 120 0 0 120 0 0 120 0 0 120 0 0 120 0 0 120 0 0 120 0 0 120 0 0 120 0 0 120 0 0 120 0 0 120 0 0 120 0 0 120 0 0 120 0 0 120 0 0 120 0 0 120 0 0 120 0 0 120 0 0 120 0 0 120 0 0 120 0 0 120 0 0 120 0 0 120 0 0 120 0 0 120 0 0 120 0 0 64 0 0 64 0 0 64 0 0 64 0 0 64 0 0 64 0 0 64 0 0 64 0 0 64 0 0 64 0 0 64 0 0 64 0 0 64 0 0 64 0 0 64 0 0 64 0 0 64 0 0 64 0 0 64 0 0 64 0 0 64 0 0 64 0 0 64 0 0 64 0 0 64 0 0 64 0 0 64 0 0 64 0 0 64 0 0 64 0 0 64 0 0 64 0 0 128 0 0 128 0 0 128 0 0 128 0 0 128 0 0 128 0 0 128 0 0 128 0 0 128 0 0 128 0 0 128 0 0 128 0 0 128 0 0 128 0 0 128 0 0 128 0 0 128 0 0 128 0 0 128 0 0 128 0 0 128 0 0 128 0 0 128 0 0 128 0 0 128 0 0 128 0 0 128 0 0 128 0 0 128 0 0 128 0 0 128 0 0 128 0 0 192 0 0 192 0 0 192 0 0 192 0 0 192 0 0 192 0 0 192 0 0 192 0 0 192 0 0 192 0 0 192 0 0 192 0 0 192 0 0 192 0 0 192 0 0 192 0 0 192 0 0 192 0 0 192 0 0 192 0 0 192 0 0 192 0 0 192 0 0 192 0 0 192 0 0 192 0 0 192 0 0 192 0 0 192 0 0 192 0 0 192 0 0 192 0 0
120 0 0 120 0 0 120 0 0 120 0 0 120 0 0 120 0 0 120 0 0 120 0 0 120 0 0 120 0 0 120 0 0 120 0 0 120 0 0 120 0 0 120 0 0 120 0 0 120 0 0 120 0 0 120 0 0 120 0 0 120 0 0 120 0 0 120 0 0 120 0 0 120 0 0 120 0 0 120 0 0 120 0 0 120 0 0 120 0 0 120 0 0 120 0 0 64 0 0 64 0 0 64 0 0 64 0 0 64 0 0 64 0 0 64 0 0 64 0 0 64 0 0 64 0 0 64 0 0 64 0 0 64 0 0 64 0 0 64 0 0 64 0 0 64 0 0 64 0 0 64 0 0 64 0 0 64 0 0 64 0 0 64 0 0 64 0 0 64 0 0 64 0 0 64 0 0 64 0 0 64 0 0 64 0 0 64 0 0 64 0 0 128 0 0 128 0 0 128 0 0 128 0 0 128 0 0 128 0 0 128 0 0 128 0 0 128 0 0 128 0 0 128 0 0 128 0 0 128 0 0 128 0 0 128 0 0 128 0 0 128 0 0 128 0 0 128 0 0 128 0 0 128 0 0 128 0 0 128 0 0 128 0 0 128 0 0 128 0 0 128 0 0 128 0 0 128 0 0 128 0 0 128 0 0 128 0 0 192 0 0 192 0 0 192 0 0 192 0 0 192 0 0 192 0 0 192 0 0 192 0 0 192 0 0 192 0 0 192 0 0 192 0 0 192 0 0 192 0 0 192 0 0 192 0 0 192 0 0 192 0 0 192 0 0 192 0 0 192 0 0 192 0 0 192 0 0 192 0 0 192 0 0 192 0 0 192 0 0 192 0 0 192 0 0 192 0 0 192 0 0 192 0 0
120 0 0 120 0 0 120 0 0 120 0 0 120 0 0 120 0 0 120 0 0 120 0 0 120 0 0 120 0 0 120 0 0 120 0 0 120 0 0 120 0 0 120 0 0 120 0 0 120 0 0 120 0 0 120 0 0 120 0 0 120 0 0 120 0 0 120 0 0 120 0 0 120 0 0 120 0 0 120 0 0 120 0 0 120 0 0 120 0 0 120 0 0 120 0 0 64 0 0 64 0 0 64 0 0 64 0 0 64 0 0 64 0 0 64 0 0 64 0 0 64 0 0 64 0 0 64 0 0 64 0 0 64 0 0 64 0 0 64 0 0 64 0 0 64 0 0 64 0 0 64 0 0 64 0 0 64 0 0 64 0 0 64 0 0 64 0 0 64 0 0 64 0 0 64 0 0 64 0 0 64 0 0 64 0 0 64 0 0 64 0 0 128 0 0 128 0 0 128 0 0 128 0 0 128 0 0 128 0 0 128 0 0 128 0 0 128 0 0 128 0 0 128 0 0 128 0 0 128 0 0 128 0 0 128 0 0 128 0 0 128 0 0 128 0 0 128 0 0 128 0 0 128 0 0 128 0 0 128 0 0 128 0 0 128 0 0 128 0 0 128 0 0 128 0 0 128 0 0 128 0 0 128 0 0 128 0 0 192 0 0 192 0 0 192 0 0 192 0 0 192 0 0 192 0 0 192 0 0 192 0 0 192 0 0 192 0 0 192 0 0 192 0 0 192 0 0 192 0 0 192 0 0 192 0 0 192 0 0 192 0 0 192 0 0 192 0 0 192 0 0 192 0 0 192 0 0 192 0 0 192 0 0 192 0 0 192 0 0 192 0 0 192 0 0 192 0 0 192 0 0 192 0 0
120 0 0 120 0 0 120 0 0 120 0 0 120 0 0 120 0 0 120 0 0 120 0 0 120 0 0 120 0 0 120 0 0 120 0 0 120 0 0 120 0 0 120 0 0 120 0 0 120 0 0 120 0 0 120 0 0 120 0 0 120 0 0 120 0 0 120 0 0 120 0 0 120 0 0 120 0 0 120 0 0 120 0 0 120 0 0 120 0 0 120 0 0 120 0 0 64 0 0 64 0 0 64 0 0 64 0 0 64 0 0 64 0 0 64 0 0 64 0 0 64 0 0 64 0 0 64 0 0 64 0 0 64 0 0 64 0 0 64 0 0 64 0 0 64 0 0 64 0 0 64 0 0 64 0 0 64 0 0 64 0 0 64 0 0 64 0 0 64 0 0 64 0 0 64 0 0 64 0 0 64 0 0 64 0 0 64 0 0 64 0 0 128 0 0 128 0 0 128 0 0 128 0 0 128 0 0 128 0 0 128 0 0 128 0 0 128 0 0 128 0 0 128 0 0 128 0 0 128 0 0 128 0 0 128 0 0 128 0 0 128 0 0 128 0 0 128 0 0 128 0 0 128 0 0 128 0 0 128 0 0 128 0 0 128 0 0 128 0 0 128 0 0 128 0 0 128 0 0 128 0 0 128 0 0 128 0 0 192 0 0 192 0 0 192 0 0 192 0 0 192 0 0 192 0 0 192 0 0 192 0 0 192 0 0 192 0 0 192 0 0 192 0 0 192 0 0 192 0 0 192 0 0 192 0 0 192 0 0 192 0 0 192 0 0 192 0 0 192 0 0 192 0 0 192 0 0 192 0 0 192 0 0 192 0 0 192 0 0 192 0 0 192 0 0 192 0 0 192 0 0 192 0 0
120 0 0 120 0 0 120 0 0 120 0 0 120 0 0 120 0 0 120 0 0 120 0 0 120 0 0 120 0 0 120 0 0 120 0 0 120 0 0 120 0 0 120 0 0 120 0 0 120 0 0 120 0 0 120 0 0 120 0 0 120 0 0 120 0 0 120 0 0 120 0 0 120 0 0 120 0 0 120 0 0 120 0 0 120 0 0 120 0 0 120 0 0 120 0 0 64 0 0 64 0 0 64 0 0 64 0 0 64 0 0 64 0 0 64 0 0 64 0 0 64 0 0 64 0 0 64 0 0 64 0 0 64 0 0 64 0 0 64 0 0 64 0 0 64 0 0 64 0 0 64 0 0 64 0 0 64 0 0 64 0 0 64 0 0 64 0 0 64 0 0 64 0 0 64 0 0 64 0 0 64 0 0 64 0 0 64 0 0 64 0 0 128 0 0 128 0 0 128 0 0 128 0 0 128 0 0 128 0 0 128 0 0 128 0 0 128 0 0 128 0 0 128 0 0 128 0 0 128 0 0 128 0 0 128 0 0 128 0 0 128 0 0 128 0 0 128 0 0 128 0 0 128 0 0 128 0 0 128 0 0 128 0 0 128 0 0 128 0 0 128 0 0 128 0 0 128 0 0 128 0 0 128 0 0 128 0 0 192 0 0 192 0 0 192 0 0 192 0 0 192 0 0 192 0 0 192 0 0 192 0 0 192 0 0 192 0 0 192 0 0 192 0 0 192 0 0 192 0 0 192 0 0 192 0 0 192 0 0 192 0 0 192 0 0 192 0 0 192 0 0 192 0 0 192 0 0 192 0 0 192 0 0 192 0 0 192 0 0 192 0 0 192 0 0 192 0 0 192 0 0 192 0 0
120 0 0 120 0 0 120 0 0 120 0 0 120 0 0 120 0 0 120 0 0 120 0 0 120 0 0 120 0 0 120 0 0 120 0 0 120 0 0 120 0 0 120 0 0 120 0 0 120 0 0 120 0 0 120 0 0 120 0 0 120 0 0 120 0 0 120 0 0 120 0 0 120 0 0 120 0 0 120 0 0 120 0 0 120 0 0 120 0 0 120 0 0 120 0 0 64 0 0 64 0 0 64 0 0 64 0 0 64 0 0 64 0 0 64 0 0 64 0 0 64 0 0 64 0 0 64 0 0 64 0 0 64 0 0 64 0 0 64 0 0 64 0 0 64 0 0 64 0 0 64 0 0 64 0 0 64 0 0 64 0 0 64 0 0 64 0 0 64 0 0 64 0 0 64 0 0 64 0 0 64 0 0 64 0 0 64 0 0 64 0 0 128 0 0 128 0 0 128 0 0 128 0 0 128 0 0 128 0 0 128 0 0 128 0 0 128 0 0 128 0 0 128 0 0 128 0 0 128 0 0 128 0 0 128 0 0 128 0 0 128 0 0 128 0 0 128 0 0 128 0 0 128 0 0 128 0 0 128 0 0 128 0 0 128 0 0 128 0 0 128 0 0 128 0 0 128 0 0 128 0 0 128 0 0 128 0 0 192 0 0 192 0 0 192 0 0 192 0 0 192 0 0 192 0 0 192 0 0 192 0 0 192 0 0 192 0 0 192 0 0 192 0 0 192 0 0 192 0 0 192 0 0 192 0 0 192 0 0 192 0 0 192 0 0 192 0 0 192 0 0 192 0 0 192 0 0 192 0 0 192 0 0 192 0 0 192 0 0 192 0 0 192 0 0 192 0 0 192 0 0 192 0 0
120 0 0 120 0 0 120 0 0 120 0 0 120 0 0 120 0 0 120 0 0 120 0 0 120 0 0 120 0 0 120 0 0 120 0 0 120 0 0 120 0 0 120 0 0 120 0 0 120 0 0 120 0 0 120 0 0 120 0 0 120 0 0 120 0 0 120 0 0 120 0 0 120 0 0 120 0 0 120 0 0 120 0 0 120 0 0 120 0 0 120 0 0 120 0 0 64 0 0 64 0 0 64 0 0 64 0 0 64 0 0 64 0 0 64 0 0 64 0 0 64 0 0 64 0 0 64 0 0 64 0 0 64 0 0 64 0 0 64 0 0 64 0 0 64 0 0 64 0 0 64 0 0 64 0 0 64 0 0 64 0 0 64 0 0 64 0 0 64 0 0 64 0 0 64 0 0 64 0 0 64 0 0 64 0 0 64 0 0 64 0 0 128 0 0 128 0 0 128 0 0 128 0 0 128 0 0 128 0 0 128 0 0 128 0 0 128 0 0 128 0 0 128 0 0 128 0 0 128 0 0 128 0 0 128 0 0 128 0 0 128 0 0 128 0 0 128 0 0 128 0 0 128 0 0 128 0 0 128 0 0 128 0 0 128 0 0 128 0 0 128 0 0 128 0 0 128 0 0 128 0 0 128 0 0 128 0 0 192 0 0 192 0 0 192 0 0 192 0 0 192 0 0 192 0 0 192 0 0 192 0 0 192 0 0 192 0 0 192 0 0 192 0 0 192 0 0 192 0 0 192 0 0 192 0 0 192 0 0 192 0 0 192 0 0 192 0 0 192 0 0 192 0 0 192 0 0 192 0 0 192 0 0 192 0 0 192 0 0 192 0 0 192 0 0 192 0 0 192 0 0 192 0 0
120 0 0 120 0 0 120 0 0 120 0 0 120 0 0 120 0 0 120 0 0 120 0 0 120 0 0 120 0 0 120 0 0 120 0 0 120 0 0 120 0 0 120 0 0 120 0 0 120 0 0 120 0 0 120 0 0 120 0 0 120 0 0 120 0 0 120 0 0 120 0 0 120 0 0 120 0 0 120 0 0 120 0 0 120 0 0 120 0 0 120 0 0 120 0 0 64 0 0 64 0 0 64 0 0 64 0 0 64 0 0 64 0 0 64 0 0 64 0 0 64 0 0 64 0 0 64 0 0 64 0 0 64 0 0 64 0 0 64 0 0 64 0 0 64 0 0 64 0 0 64 0 0 64 0 0 64 0 0 64 0 0 64 0 0 64 0 0 64 0 0 64 0 0 64 0 0 64 0 0 64 0 0 64 0 0 64 0 0 64 0 0 128 0 0 128 0 0 128 0 0 128 0 0 128 0 0 128 0 0 128 0 0 128 0 0 128 0 0 128 0 0 128 0 0 128 0 0 128 0 0 128 0 0 128 0 0 128 0 0 128 0 0 128 0 0 128 0 0 128 0 0 128 0 0 128 0 0 128 0 0 128 0 0 128 0 0 128 0 0 128 0 0 128 0 0 128 0 0 128 0 0 128 0 0 128 0 0 192 0 0 192 0 0 192 0 0 192 0 0 192 0 0 192 0 0 192 0 0 192 0 0 192 0 0 192 0 0 192 0 0 192 0 0 192 0 0 192 0 0 192 0 0 192 0 0 192 0 0 192 0 0 192 0 0 192 0 0 192 0 0 192 0 0 192 0 0 192 0 0 192 0 0 192 0 0 192 0 0 192 0 0 192 0 0 192 0 0 192 0 0 192 0 0
120 0 0 120 0 0 120 0 0 120 0 0 120 0 0 120 0 0 120 0 0 120 0 0 120 0 0 120 0 0 120 0 0 120 0 0 120 0 0 120 0 0 120 0 0 120 0 0 120 0 0 120 0 0 120 0 0 120 0 0 120 0 0 120 0 0 120 0 0 120 0 0 120 0 0 120 0 0 120 0 0 120 0 0 120 0 0 120 0 0 120 0 0 120 0 0 64 0 0 64 0 0 64 0 0 64 0 0 64 0 0 64 0 0 64 0 0 64 0 0 64 0 0 64 0 0 64 0 0 64 0 0 64 0 0 64 0 0 64 0 0 64 0 0 64 0 0 64 0 0 64 0 0 64 0 0 64 0 0 64 0 0 64 0 0 64 0 0 64 0 0 64 0 0 64 0 0 64 0 0 64 0 0 64 0 0 64 0 0 64 0 0 128 0 0 128 0 0 128 0 0 128 0 0 128 0 0 128 0 0 128 0 0 128 0 0 128 0 0 128 0 0 128 0 0 128 0 0 128 0 0 128 0 0 128 0 0 128 0 0 128 0 0 128 0 0 128 0 0 128 0 0 128 0 0 128 0 0 128 0 0 128 0 0 128 0 0 128 0 0 128 0 0 128 0 0 128 0 0 128 0 0 128 0 0 128 0 0 192 0 0 192 0 0 192 0 0 192 0 0 192 0 0 192 0 0 192 0 0 192 0 0 192 0 0 192 0 0 192 0 0 192 0 0 192 0 0 192 0 0 192 0 0 192 0 0 192 0 0 192 0 0 192 0 0 192 0 0 192 0 0 192 0 0 192 0 0 192 0 0 192 0 0 192 0 0 192 0 0 192 0 0 192 0 0 192 0 0 192 0 0 192 0 0
120 0 0 120 0 0 120 0 0 120 0 0 120 0 0 120 0 0 120 0 0 120 0 0 120 0 0 120 0 0 120 0 0 120 0 0 120 0 0 120 0 0 120 0 0 120 0 0 120 0 0 120 0 0 120 0 0 120 0 0 120 0 0 120 0 0 120 0 0 120 0 0 120 0 0 120 0 0 120 0 0 120 0 0 120 0 0 120 0 0 120 0 0 120 0 0 64 0 0 64 0 0 64 0 0 64 0 0 64 0 0 64 0 0 64 0 0 64 0 0 64 0 0 64 0 0 64 0 0 64 0 0 64 0 0 64 0 0 64 0 0 64 0 0 64 0 0 64 0 0 64 0 0 64 0 0 64 0 0 64 0 0 64 0 0 64 0 0 64 0 0 64 0 0 64 0 0 64 0 0 64 0 0 64 0 0 64 0 0 64 0 0 128 0 0 128 0 0 128 0 0 128 0 0 128 0 0 128 0 0 128 0 0 128 0 0 128 0 0 128 0 0 128 0 0 128 0 0 128 0 0 128 0 0 128 0 0 128 0 0 128 0 0 128 0 0 128 0 0 128 0 0 128 0 0 128 0 0 128 0 0 128 0 0 128 0 0 128 0 0 128 0 0 128 0 0 128 0 0 128 0 0 128 0 0 128 0 0 192 0 0 192 0 0 192 0 0 192 0 0 192 0 0 192 0 0 192 0 0 192 0 0 192 0 0 192 0 0 192 0 0 192 0 0 192 0 0 192 0 0 192 0 0 192 0 0 192 0 0 192 0 0 192 0 0 192 0 0 192 0 0 192 0 0 192 0 0 192 0 0 192 0 0 192 0 0 192 0 0 192 0 0 192 0 0 192 0 0 192 0 0 192 0 0
120 0 0 120 0 0 120 0 0 120 0 0 120 0 0 120 0 0 120 0 0 120 0 0 120 0 0 120 0 0 120 0 0 120 0 0 120 0 0 120 0 0 120 0 0 120 0 0 120 0 0 120 0 0 120 0 0 120 0 0 120 0 0 120 0 0 120 0 0 120 0 0 120 0 0 120 0 0 120 0 0 120 0 0 120 0 0 120 0 0 120 0 0 120 0 0 64 0 0 64 0 0 64 0 0 64 0 0 64 0 0 64 0 0 64 0 0 64 0 0 64 0 0 64 0 0 64 0 0 64 0 0 64 0 0 64 0 0 64 0 0 64 0 0 64 0 0 64 0 0 64 0 0 64 0 0 64 0 0 64 0 0 64 0 0 64 0 0 64 0 0 64 0 0 64 0 0 64 0 0 64 0 0 64 0 0 64 0 0 64 0 0 128 0 0 128 0 0 128 0 0 128 0 0 128 0 0 128 0 0 128 0 0 128 0 0 128 0 0 128 0 0 128 0 0 128 0 0 128 0 0 128 0 0 128 0 0 128 0 0 128 0 0 128 0 0 128 0 0 128 0 0 128 0 0 128 0 0 128 0 0 128 0 0 128 0 0 128 0 0 128 0 0 128 0 0 128 0 0 128 0 0 128 0 0 128 0 0 192 0 0 192 0 0 192 0 0 192 0 0 192 0 0 192 0 0 192 0 0 192 0 0 192 0 0 192 0 0 192 0 0 192 0 0 192 0 0 192 0 0 192 0 0 192 0 0 192 0 0 192 0 0 192 0 0 192 0 0 192 0 0 192 0 0 192 0 0 192 0 0 192 0 0 192 0 0 192 0 0 192 0 0 192 0 0 192 0 0 192 0 0 192 0 0
120 0 0 120 0 0 120 0 0 120 0 0 120 0 0 120 0 0 120 0 0 120 0 0 120 0 0 120 0 0 120 0 0 120 0 0 120 0 0 120 0 0 120 0 0 120 0 0 120 0 0 120 0 0 120 0 0 120 0 0 120 0 0 120 0 0 120 0 0 120 0 0 120 0 0 120 0 0 120 0 0 120 0 0 120 0 0 120 0 0 120 0 0 120 0 0 64 0 0 64 0 0 64 0 0 64 0 0 64 0 0 64 0 0 64 0 0 64 0 0 64 0 0 64 0 0 64 0 0 64 0 0 64 0 0 64 0 0 64 0 0 64 0 0 64 0 0 64 0 0 64 0 0 64 0 0 64 0 0 64 0 0 64 0 0 64 0 0 64 0 0 64 0 0 64 0 0 64 0 0 64 0 0 64 0 0 64 0 0 64 0 0 128 0 0 128 0 0 128 0 0 128 0 0 128 0 0 128 0 0 128 0 0 128 0 0 128 0 0 128 0 0 128 0 0 128 0 0 128 0 0 128 0 0 128 0 0 128 0 0 128 0 0 128 0 0 128 0 0 128 0 0 128 0 0 128 0 0 128 0 0 128 0 0 128 0 0 128 0 0 128 0 0 128 0 0 128 0 0 128 0 0 128 0 0 128 0 0 192 0 0 192 0 0 192 0 0 192 0 0 192 0 0 192 0 0 192 0 0 192 0 0 192 0 0 192 0 0 192 0 0 192 0 0 192 0 0 192 0 0 192 0 0 192 0 0 192 0 0 192 0 0 192 0 0 192 0 0 192 0 0 192 0 0 192 0 0 192 0 0 192 0 0 192 0 0 192 0 0 192 0 0 192 0 0 192 0 0 192 0 0 192 0 0
120 0 0 120 0 0 120 0 0 120 0 0 120 0 0 120 0 0 120 0 0 120 0 0 120 0 0 120 0 0 120 0 0 120 0 0 120 0 0 120 0 0 120 0 0 120 0 0 120 0 0 120 0 0 120 0 0 120 0 0 120 0 0 120 0 0 120 0 0 120 0 0 120 0 0 120 0 0 120 0 0 120 0 0 120 0 0 120 0 0 120 0 0 120 0 0 64 0 0 64 0 0 64 0 0 64 0 0 64 0 0 64 0 0 64 0 0 64 0 0 64 0 0 64 0 0 64 0 0 64 0 0 64 0 0 64 0 0 64 0 0 64 0 0 64 0 0 64 0 0 64 0 0 64 0 0 64 0 0 64 0 0 64 0 0 64 0 0 64 0 0 64 0 0 64 0 0 64 0 0 64 0 0 64 0 0 64 0 0 64 0 0 128 0 0 128 0 0 128 0 0 128 0 0 128 0 0 128 0 0 128 0 0 128 0 0 128 0 0 128 0 0 128 0 0 128 0 0 128 0 0 128 0 0 128 0 0 128 0 0 128 0 0 128 0 0 128 0 0 128 0 0 128 0 0 128 0 0 128 0 0 128 0 0 128 0 0 128 0 0 128 0 0 128 0 0 128 0 0 128 0 0 128 0 0 128 0 0 192 0 0 192 0 0 192 0 0 192 0 0 192 0 0 192 0 0 192 0 0 192 0 0 192 0 0 192 0 0 192 0 0 192 0 0 192 0 0 192 0 0 192 0 0 192 0 0 192 0 0 192 0 0 192 0 0 192 0 0 192 0 0 192 0 0 192 0 0 192 0 0 192 0 0 192 0 0 192 0 0 192 0 0 192 0 0 192 0 0 192 0 0 192 0 0
120 0 0 120 0 0 120 0 0 120 0 0 120 0 0 120 0 0 120 0 0 120 0 0 120 0 0 120 0 0 120 0 0 120 0 0 120 0 0 120 0 0 120 0 0 120 0 0 120 0 0 120 0 0 120 0 0 120 0 0 120 0 0 120 0 0 120 0 0 120 0 0 120 0 0 120 0 0 120 0 0 120 0 0 120 0 0 120 0 0 120 0 0 120 0 0 64 0 0 64 0 0 64 0 0 64 0 0 64 0 0 64 0 0 64 0 0 64 0 0 64 0 0 64 0 0 64 0 0 64 0 0 64 0 0 64 0 0 64 0 0 64 0 0 64 0 0 64 0 0 64 0 0 64 0 0 64 0 0 64 0 0 64 0 0 64 0 0 64 0 0 64 0 0 64 0 0 64 0 0 64 0 0 64 0 0 64 0 0 64 0 0 128 0 0 128 0 0 128 0 0 128 0 0 128 0 0 128 0 0 128 0 0 128 0 0 128 0 0 128 0 0 128 0 0 128 0 0 128 0 0 128 0 0 128 0 0 128 0 0 128 0 0 128 0 0 128 0 0 128 0 0 128 0 0 128 0 0 128 0 0 128 0 0 128 0 0 128 0 0 128 0 0 128 0 0 128 0 0 128 0 0 128 0 0 128 0 0 192 0 0 192 0 0 192 0 0 192 0 0 192 0 0 192 0 0 192 0 0 192 0 0 192 0 0 192 0 0 192 0 0 192 0 0 192 0 0 192 0 0 192 0 0 192 0 0 192 0 0 192 0 0 192 0 0 192 0 0 192 0 0 192 0 0 192 0 0 192 0 0 192 0 0 192 0 0 192 0 0 192 0 0 192 0 0 192 0 0 192 0 0 192 0 0
120 0 0 120 0 0 120 0 0 120 0 0 120 0 0 120 0 0 120 0 0 120 0 0 120 0 0 120 0 0 120 0 0 120 0 0 120 0 0 120 0 0 120 0 0 120 0 0 120 0 0 120 0 0 120 0 0 120 0 0 120 0 0 120 0 0 120 0 0 120 0 0 120 0 0 120 0 0 120 0 0 120 0 0 120 0 0 120 0 0 120 0 0 120 0 0 64 0 0 64 0 0 64 0 0 64 0 0 64 0 0 64 0 0 64 0 0 64 0 0 64 0 0 64 0 0 64 0 0 64 0 0 64 0 0 64 0 0 64 0 0 64 0 0 64 0 0 64 0 0 64 0 0 64 0 0 64 0 0 64 0 0 64 0 0 64 0 0 64 0 0 64 0 0 64 0 0 64 0 0 64 0 0 64 0 0 64 0 0 64 0 0 128 0 0 128 0 0 128 0 0 128 0 0 128 0 0 128 0 0 128 0 0 128 0 0 128 0 0 128 0 0 128 0 0 128 0 0 128 0 0 128 0 0 128 0 0 128 0 0 128 0 0 128 0 0 128 0 0 128 0 0 128 0 0 128 0 0 128 0 0 128 0 0 128 0 0 128 0 0 128 0 0 128 0 0 128 0 0 128 0 0 128 0 0 128 0 0 192 0 0 192 0 0 192 0 0 192 0 0 192 0 0 192 0 0 192 0 0 192 0 0 192 0 0 192 0 0 192 0 0 192 0 0 192 0 0 192 0 0 192 0 0 192 0 0 192 0 0 192 0 0 192 0 0 192 0 0 192 0 0 192 0 0 192 0 0 192 0 0 192 0 0 192 0 0 192 0 0 192 0 0 192 0 0 192 0 0 192 0 0 192 0 0
120 0 0 120 0 0 120 0 0 120 0 0 120 0 0 120 0 0 120 0 0 120 0 0 120 0 0 120 0 0 120 0 0 120 0 0 120 0 0 120 0 0 120 0 0 120 0 0 120 0 0 120 0 0 120 0 0 120 0 0 120 0 0 120 0 0 120 0 0 120 0 0 120 0 0 120 0 0 120 0 0 120 0 0 120 0 0 120 0 0 120 0 0 120 0 0 64 0 0 64 0 0 64 0 0 64 0 0 64 0 0 64 0 0 64 0 0 64 0 0 64 0 0 64 0 0 64 0 0 64 0 0 64 0 0 64 0 0 64 0 0 64 0 0 64 0 0 64 0 0 64 0 0 64 0 0 64 0 0 64 0 0 64 0 0 64 0 0 64 0 0 64 0 0 64 0 0 64 0 0 64 0 0 64 0 0 64 0 0 64 0 0 128 0 0 128 0 0 128 0 0 128 0 0 128 0 0 128 0 0 128 0 0 128 0 0 128 0 0 128 0 0 128 0 0 128 0 0 128 0 0 128 0 0 128 0 0 128 0 0 128 0 0 128 0 0 128 0 0 128 0 0 128 0 0 128 0 0 128 0 0 128 0 0 128 0 0 128 0 0 128 0 0 128 0 0 128 0 0 128 0 0 128 0 0 128 0 0 192 0 0 192 0 0 192 0 0 192 0 0 192 0 0 192 0 0 192 0 0 192 0 0 192 0 0 192 0 0 192 0 0 192 0 0 192 0 0 192 0 0 192 0 0 192 0 0 192 0 0 192 0 0 192 0 0 192 0 0 192 0 0 192 0 0 192 0 0 192 0 0 192 0 0 192 0 0 192 0 0 192 0 0 192 0 0 192 0 0 192 0 0 192 0 0
0 8 0 0 8 0 0 8 0 0 8 0 0 8 0 0 8 0 0 8 0 0 8 0 0 8 0 0 8 0 0 8 0 0 8 0 0 8 0 0 8 0 0 8 0 0 8 0 0 8 0 0 8 0 0 8 0 0 8 0 0 8 0 0 8 0 0 8 0 0 8 0 0 8 0 0 8 0 0 8 0 0 8 0 0 8 0 0 8 0 0 8 0 0 8 0 8 240 248 8 240 248 8 240 248 8 240 248 8 240 248 8 240 248 8 240 248 8 240 248 8 240 248 8 240 248 8 240 248 8 240 248 8 240 248 8 240 248 8 240 248 8 240 248 8 240 248 8 240 248 8 240 248 8 240 248 8 240 248 8 240 248 8 240 248 8 240 248 8 240 248 8 240 248 8 240 248 8 240 248 8 240 248 8 240 248 8 240 248 8 240 248 8 224 248 8 224 248 8 224 248 8 224 248 8 224 248 8 224 248 8 224 248 8 224 248 8 224 248 8 224 248 8 224 248 8 224 248 8 224 248 8 224 248 8 224 248 8 224 248 8 224 248 8 224 248 8 224 248 8 224 248 8 224 248 8 224 248 8 224 248 8 224 248 8 224 248 8 224 248 8 224 248 8 224 248 8 224 248 8 224 248 8 224 248 8 224 248 8 208 248 8 208 248 8 208 248 8 208 248 8 208 248 8 208 248 8 208 248 8 208 248 8 208 248 8 208 248 8 208 248 8 208 248 8 208 248 8 208 248 8 208 248 8 208 248 8 208 248 8 208 248 8 208 248 8 208 248 8 208 248 8 208 248 8 208 248 8 208 248 8 208 248 8 208 248 8 208 248 8 208 248 8 208 248 8 208 248 8 208 248 8 208 248
0 8 0 0 8 0 0 8 0 0 8 0 0 8 0 0 8 0 0 8 0 0 8 0 0 8 0 0 8 0 0 8 0 0 8 0 0 8 0 0 8 0 0 8 0 0 8 0 0 8 0 0 8 0 0 8 0 0 8 0 0 8 0 0 8 0 0 8 0 0 8 0 0 8 0 0 8 0 0 8 0 0 8 0 0 8 0 0 8 0 0 8 0 0 8 0 8 240 248 8 240 248 8 240 248 8 240 248 8 240 248 8 240 248 8 240 248 8 240 248 8 240 248 8 240 248 8 240 248 8 240 248 8 240 248 8 240 248 8 240 248 8 240 248 8 240 248 8 240 248 8 240 248 8 240 248 8 240 248 8 240 248 8 240 248 8 240 248 8 240 248 8 240 248 8 240 248 8 240 248 8 240 248 8 240 248 8 240 248 8 240 248 8 224 248 8 224 248 8 224 248 8 224 248 8 224 248 8 224 248 8 224 248 8 224 248 8 224 248 8 224 248 8 224 248 8 224 248 8 224 248 8 224 248 8 224 248 8 224 248 8 224 248 8 224 248 8 224 248 8 224 248 8 224 248 8 224 248 8 224 248 8 224 248 8 224 248 8 224 248 8 224 248 8 224 248 8 224 248 8 224 248 8 224 248 8 224 248 8 208 248 8 208 248 8 208 248 8 208 248 8 208 248 8 208 248 8 208 248 8 208 248 8 208 248 8 208 248 8 208 248 8 208 248 8 208 248 8 208 248 8 208 248 8 208 248 8 208 248 8 208 248 8 208 248 8 208 248 8 208 248 8 208 248 8 208 248 8 208 248 8 208 248 8 208 248 8 208 248 8 208 248 8 208 248 8 208 248 8 208 248 8 208 248
0 8 0 0 8 0 0 8 0 0 8 0 0 8 0 0 8 0 0 8 0 0 8 0 0 8 0 0 8 0 0 8 0 0 8 0 0 8 0 0 8 0 0 8 0 0 8 0 0 8 0 0 8 0 0 8 0 0 8 0 0 8 0 0 8 0 0 8 0 0 8 0 0 8 0 0 8 0 0 8 0 0 8 0 0 8 0 0 8 0 0 8 0 0 8 0 8 240 248 8 240 248 8 240 248 8 240 248 8 240 248 8 240 248 8 240 248 8 240 248 8 240 248 8 240 248 8 240 248 8 240 248 8 240 248 8 240 248 8 240 248 8 240 248 8 240 248 8 240 248 8 240 248 8 240 248 8 240 248 8 240 248 8 240 248 8 240 248 8 240 248 8 240 248 8 240 248 8 240 248 8 240 248 8 240 248 8 240 248 8 240 248 8 224 248 8 224 248 8 224 248 8 224 248 8 224 248 8 224 248 8 224 248 8 224 248 8 224 248 8 224 248 8 224 248 8 224 248 8 224 248 8 224 248 8 224 248 8 224 248 8 224 248 8 224 248 8 224 248 8 224 248 8 224 248 8 224 248 8 224 248 8 224 248 8 224 248 8 224 248 8 224 248 8 224 248 8 224 248 8 224 248 8 224 248 8 224 248 8 208 248 8 208 248 8 208 248 8 208 248 8 208 248 8 208 248 8 208 248 8 208 248 8 208 248 8 208 248 8 208 248 8 208 248 8 208 248 8 208 248 8 208 248 8 208 248 8 208 248 8 208 248 8 208 248 8 208 248 8 208 248 8 208 248 8 208 248 8 208 248 8 208 248 8 208 248 8 208 248 8 208 248 8 208 248 8 208 248 8 208 248 8 208 248
0 8 0 0 8 0 0 8 0 0 8 0 0 8 0 0 8 0 0 8 0 0 8 0 0 8 0 0 8 0 0 8 0 0 8 0 0 8 0 0 8 0 0 8 0 0 8 0 0 8 0 0 8 0 0 8 0 0 8 0 0 8 0 0 8 0 0 8 0 0 8 0 0 8 0 0 8 0 0 8 0 0 8 0 0 8 0 0 8 0 0 8 0 0 8 0 8 240 248 8 240 248 8 240 248 8 240 248 8 240 248 8 240 248 8 240 248 8 240 248 8 240 248 8 240 248 8 240 248 8 240 248 8 240 248 8 240 248 8 240 248 8 240 248 8 240 248 8 240 248 8 240 248 8 240 248 8 240 248 8 240 248 8 240 248 8 240 248 8 240 248 8 240 248 8 240 248 8 240 248 8 240 248 8 240 248 8 240 248 8 240 248 8 224 248 8 224 248 8 224 248 8 224 248 8 224 248 8 224 248 8 224 248 8 224 248 8 224 248 8 224 248 8 224 248 8 224 248 8 224 248 8 224 248 8 224 248 8 224 248 8 224 248 8 224 248 8 224 248 8 224 248 8 224 248 8 224 248 8 224 248 8 224 248 8 224 248 8 224 248 8 224 248 8 224 248 8 224 248 8 224 248 8 224 248 8 224 248 8 208 248 8 208 248 8 208 248 8 208 248 8 208 248 8 208 248 8 208 248 8 208 248 8 208 248 8 208 248 8 208 248 8 208 248 8 208 248 8 208 248 8 208 248 8 208 248 8 208 248 8 208 248 8 208 248 8 208 248 8 208 248 8 208 248 8 208 248 8 208 248 8 208 248 8 208 248 8 208 248 8 208 248 8 208 248 8 208 248 8 208 248 8 208 248
0 8 0 0 8 0 0 8 0 0 8 0 0 8 0 0 8 0 0 8 0 0 8 0 0 8 0 0 8 0 0 8 0 0 8 0 0 8 0 0 8 0 0 8 0 0 8 0 0 8 0 0 8 0 0 8 0 0 8 0 0 8 0 0 8 0 0 8 0 0 8 0 0 8 0 0 8 0 0 8 0 0 8 0 0 8 0 0 8 0 0 8 0 0 8 0 8 240 248 8 240 248 8 240 248 8 240 248 8 240 248 8 240 248 8 240 248 8 240 248 8 240 248 8 240 248 8 240 248 8 240 248 8 240 248 8 240 248 8 240 248 8 240 248 8 240 248 8 240 248 8 240 248 8 240 248 8 240 248 8 240 248 8 240 248 8 240 248 8 240 248 8 240 248 8 240 248 8 240 248 8 240 248 8 240 248 8 240 248 8 240 248 8 224 248 8 224 248 8 224 248 8 224 248 8 224 248 8 224 248 8 224 248 8 224 248 8 224 248 8 224 248 8 224 248 8 224 248 8 224 248 8 224 248 8 224 248 8 224 248 8 224 248 8 224 248 8 224 248 8 224 248 8 224 248 8 224 248 8 224 248 8 224 248 8 224 248 8 224 248 8 224 248 8 224 248 8 224 248 8 224 248 8 224 248 8 224 248 8 208 248 8 208 248 8 208 248 8 208 248 8 208 248 8 208 248 8 208 248 8 208 248 8 208 248 8 208 248 8 208 248 8 208 248 8 208 248 8 208 248 8 208 248 8 208 248 8 208 248 8 208 248 8 208 248 8 208 248 8 208 248 8 208 248 8 208 248 8 208 248 8 208 248 8 208 248 8 208 248 8 208 248 8 208 248 8 208 248 8 208 248 8 208 248
0 8 0 0 8 0 0 8 0 0 8 0 0 8 0 0 8 0 0 8 0 0 8 0 0 8 0 0 8 0 0 8 0 0 8 0 0 8 0 0 8 0 0 8 0 0 8 0 0 8 0 0 8 0 0 8 0 0 8 0 0 8 0 0 8 0 0 8 0 0 8 0 0 8 0 0 8 0 0 8 0 0 8 0 0 8 0 0 8 0 0 8 0 0 8 0 8 240 248 8 240 248 8 240 248 8 240 248 8 240 248 8 240 248 8 240 248 8 240 248 8 240 248 8 240 248 8 240 248 8 240 248 8 240 248 8 240 248 8 240 248 8 240 248 8 240 248 8 240 248 8 240 248 8 240 248 8 240 248 8 240 248 8 240 248 8 240 248 8 240 248 8 240 248 8 240 248 8 240 248 8 240 248 8 240 248 8 240 248 8 240 248 8 224 248 8 224 248 8 224 248 8 224 248 8 224 248 8 224 248 8 224 248 8 224 248 8 224 248 8 224 248 8 224 248 8 224 248 8 224 248 8 224 248 8 224 248 8 224 248 8 224 248 8 224 248 8 224 248 8 224 248 8 224 248 8 224 248 8 224 248 8 224 248 8 224 248 8 224 248 8 224 248 8 224 248 8 224 248 8 224 248 8 224 248 8 224 248 8 208 248 8 208 248 8 208 248 8 208 248 8 208 248 8 208 248 8 208 248 8 208 248 8 208 248 8 208 248 8 208 248 8 208 248 8 208 248 8 208 248 8 208 248 8 208 248 8 208 248 8 208 248 8 208 248 8 208 248 8 208 248 8 208 248 8 208 248 8 208 248 8 208 248 8 208 248 8 208 248 8 208 248 8 208 248 8 208 248 8 208 248 8 208 248
0 8 0 0 8 0 0 8 0 0 8 0 0 8 0 0 8 0 0 8 0 0 8 0 0 8 0 0 8 0 0 8 0 0 8 0 0 8 0 0 8 0 0 8 0 0 8 0 0 8 0 0 8 0 0 8 0 0 8 0 0 8 0 0 8 0 0 8 0 0 8 0 0 8 0 0 8 0 0 8 0 0 8 0 0 8 0 0 8 0 0 8 0 0 8 0 8 240 248 8 240 248 8 240 248 8 240 248 8 240 248 8 240 248 8 240 248 8 240 248 8 240 248 8 240 248 8 240 248 8 240 248 8 240 248 8 240 248 8 240 248 8 240 248 8 240 248 8 240 248 8 240 248 8 240 248 8 240 248 8 240 248 8 240 248 8 240 248 8 240 248 8 240 248 8 240 248 8 240 248 8 240 248 8 240 248 8 240 248 8 240 248 8 224 248 8 224 248 8 224 248 8 224 248 8 224 248 8 224 248 8 224 248 8 224 248 8 224 248 8 224 248 8 224 248 8 224 248 8 224 248 8 224 248 8 224 248 8 224 248 8 224 248 8 224 248 8 224 248 8 224 248 8 224 248 8 224 248 8 224 248 8 224 248 8 224 248 8 224 248 8 224 248 8 224 248 8 224 248 8 224 248 8 224 248 8 224 248 8 208 248 8 208 248 8 208 248 8 208 248 8 208 248 8 208 248 8 208 248 8 208 248 8 208 248 8 208 248 8 208 248 8 208 248 8 208 248 8 208 248 8 208 248 8 208 248 8 208 248 8 208 248 8 208 248 8 208 248 8 208 248 8 208 248 8 208 248 8 208 248 8 208 248 8 208 248 8 208 248 8 208 248 8 208 248 8 208 248 8 208 248 8 208 248
0 8 0 0 8 0 0 8 0 0 8 0 0 8 0 0 8 0 0 8 0 0 8 0 0 8 0 0 8 0 0 8 0 0 8 0 0 8 0 0 8 0 0 8 0 0 8 0 0 8 0 0 8 0 0 8 0 0 8 0 0 8 0 0 8 0 0 8 0 0 8 0 0 8 0 0 8 0 0 8 0 0 8 0 0 8 0 0 8 0 0 8 0 0 8 0 8 240 248 8 240 248 8 240 248 8 240 248 8 240 248 8 240 248 8 240 248 8 240 248 8 240 248 8 240 248 8 240 248 8 240 248 8 240 248 8 240 248 8 240 248 8 240 248 8 240 248 8 240 248 8 240 248 8 240 248 8 240 248 8 240 248 8 240 248 8 240 248 8 240 248 8 240 248 8 240 248 8 240 248 8 240 248 8 240 248 8 240 248 8 240 248 8 224 248 8 224 248 8 224 248 8 224 248 8 224 248 8 224 248 8 224 248 8 224 248 8 224 248 8 224 248 8 224 248 8 224 248 8 224 248 8 224 248 8 224 248 8 224 248 8 224 248 8 224 248 8 224 248 8 224 248 8 224 248 8 224 248 8 224 248 8 224 248 8 224 248 8 224 248 8 224 248 8 224 248 8 224 248 8 224 248 8 224 248 8 224 248 8 208 248 8 208 248 8 208 248 8 208 248 8 208 248 8 208 248 8 208 248 8 208 248 8 208 248 8 208 248 8 208 248 8 208 248 8 208 248 8 208 248 8 208 248 8 208 248 8 208 248 8 208 248 8 208 248 8 208 248 8 208 248 8 208 248 8 208 248 8 208 248 8 208 248 8 208 248 8 208 248 8 208 248 8 208 248 8 208 248 8 208 248 8 208 248
0 8 0 0 8 0 0 8 0 0 8 0 0 8 0 0 8 0 0 8 0 0 8 0 0 8 0 0 8 0 0 8 0 0 8 0 0 8 0 0 8 0 0 8 0 0 8 0 0 8 0 0 8 0 0 8 0 0 8 0 0 8 0 0 8 0 0 8 0 0 8 0 0 8 0 0 8 0 0 8 0 0 8 0 0 8 0 0 8 0 0 8 0 0 8 0 8 240 248 8 240 248 8 240 248 8 240 248 8 240 248 8 240 248 8 240 248 8 240 248 8 240 248 8 240 248 8 240 248 8 240 248 8 240 248 8 240 248 8 240 248 8 240 248 8 240 248 8 240 248 8 240 248 8 240 248 8 240 248 8 240 248 8 240 248 8 240 248 8 240 248 8 240 248 8 240 248 8 240 248 8 240 248 8 240 248 8 240 248 8 240 248 8 224 248 8 224 248 8 224 248 8 224 248 8 224 248 8 224 248 8 224 248 8 224 248 8 224 248 8 224 248 8 224 248 8 224 248 8 224 248 8 224 248 8 224 248 8 224 248 8 224 248 8 224 248 8 224 248 8 224 248 8 224 248 8 224 248 8 224 248 8 224 248 8 224 248 8 224 248 8 224 248 8 224 248 8 224 248 8 224 248 8 224 248 8 224 248 8 208 248 8 208 248 8 208 248 8 208 248 8 208 248 8 208 248 8 208 248 8 208 248 8 208 248 8 208 248 8 208 248 8 208 248 8 208 248 8 208 248 8 208 248 8 208 248 8 208 248 8 208 248 8 208 248 8 208 248 8 208 248 8 208 248 8 208 248 8 208 248 8 208 248 8 208 248 8 208 248 8 208 248 8 208 248 8 208 248 8 208 248 8 208 248
0 8 0 0 8 0 0 8 0 0 8 0 0 8 0 0 8 0 0 8 0 0 8 0 0 8 0 0 8 0 0 8 0 0 8 0 0 8 0 0 8 0 0 8 0 0 8 0 0 8 0 0 8 0 0 8 0 0 8 0 0 8 0 0 8 0 0 8 0 0 8 0 0 8 0 0 8 0 0 8 0 0 8 0 0 8 0 0 8 0 0 8 0 0 8 0 8 240 248 8 240 248 8 240 248 8 240 248 8 240 248 8 240 248 8 240 248 8 240 248 8 240 248 8 240 248 8 240 248 8 240 248 8 240 248 8 240 248 8 240 248 8 240 248 8 240 248 8 240 248 8 240 248 8 240 248 8 240 248 8 240 248 8 240 248 8 240 248 8 240 248 8 240 248 8 240 248 8 240 248 8 240 248 8 240 248 8 240 248 8 240 248 8 224 248 8 224 248 8 224 248 8 224 248 8 224 248 8 224 248 8 224 248 8 224 248 8 224 248 8 224 248 8 224 248 8 224 248 8 224 248 8 224 248 8 224 248 8 224 248 8 224 248 8 224 248 8 224 248 8 224 248 8 224 248 8 224 248 8 224 248 8 224 248 8 224 248 8 224 248 8 224 248 8 224 248 8 224 248 8 224 248 8 224 248 8 224 248 8 208 248 8 208 248 8 208 248 8 208 248 8 208 248 8 208 248 8 208 248 8 208 248 8 208 248 8 208 248 8 208 248 8 208 248 8 208 248 8 208 248 8 208 248 8 208 248 8 208 248 8 208 248 8 208 248 8 208 248 8 208 248 8 208 248 8 208 248 8 208 248 8 208 248 8 208 248 8 208 248 8 208 248 8 208 248 8 208 248 8 208 248 8 208 248
0 8 0 0 8 0 0 8 0 0 8 0 0 8 0 0 8 0 0 8 0 0 8 0 0 8 0 0 8 0 0 8 0 0 8 0 0 8 0 0 8 0 0 8 0 0 8 0 0 8 0 0 8 0 0 8 0 0 8 0 0 8 0 0 8 0 0 8 0 0 8 0 0 8 0 0 8 0 0 8 0 0 8 0 0 8 0 0 8 0 0 8 0 0 8 0 8 240 248 8 240 248 8 240 248 8 240 248 8 240 248 8 240 248 8 240 248 8 240 248 8 240 248 8 240 248 8 240 248 8 240 248 8 240 248 8 240 248 8 240 248 8 240 248 8 240 248 8 240 248 8 240 248 8 240 248 8 240 248 8 240 248 8 240 248 8 240 248 8 240 248 8 240 248 8 240 248 8 240 248 8 240 248 8 240 248 8 240 248 8 240 248 8 224 248 8 224 248 8 224 248 8 224 248 8 224 248 8 224 248 8 224 248 8 224 248 8 224 248 8 224 248 8 224 248 8 224 248 8 224 248 8 224 248 8 224 248 8 224 248 8 224 248 8 224 248 8 224 248 8 224 248 8 224 248 8 224 248 8 224 248 8 224 248 8 224 248 8 224 248 8 224 248 8 224 248 8 224 248 8 224 248 8 224 248 8 224 248 8 208 248 8 208 248 8 208 248 8 208 248 8 208 248 8 208 248 8 208 248 8 208 248 8 208 248 8 208 248 8 208 248 8 208 248 8 208 248 8 208 248 8 208 248 8 208 248 8 208 248 8 208 248 8 208 248 8 208 248 8 208 248 8 208 248 8 208 248 8 208 248 8 208 248 8 208 248 8 208 248 8 208 248 8 208 248 8 208 248 8 208 248 8 208 248
0 8 0 0 8 0 0 8 0 0 8 0 0 8 0 0 8 0 0 8 0 0 8 0 0 8 0 0 8 0 0 8 0 0 8 0 0 8 0 0 8 0 0 8 0 0 8 0 0 8 0 0 8 0 0 8 0 0 8 0 0 8 0 0 8 0 0 8 0 0 8 0 0 8 0 0 8 0 0 8 0 0 8 0 0 8 0 0 8 0 0 8 0 0 8 0 8 240 248 8 240 248 8 240 248 8 240 248 8 240 248 8 240 248 8 240 248 8 240 248 8 240 248 8 240 248 8 240 248 8 240 248 8 240 248 8 240 248 8 240 248 8 240 248 8 240 248 8 240 248 8 240 248 8 240 248 8 240 248 8 240 248 8 240 248 8 240 248 8 240 248 8 240 248 8 240 248 8 240 248 8 240 248 8 240 248 8 240 248 8 240 248 8 224 248 8 224 248 8 224 248 8 224 248 8 224 248 8 224 248 8 224 248 8 224 248 8 224 248 8 224 248 8 224 248 8 224 248 8 224 248 8 224 248 8 224 248 8 224 248 8 224 248 8 224 248 8 224 248 8 224 248 8 224 248 8 224 248 8 224 248 8 224 248 8 224 248 8 224 248 8 224 248 8 224 248 8 224 248 8 224 248 8 224 248 8 224 248 8 208 248 8 208 248 8 208 248 8 208 248 8 208 248 8 208 248 8 208 248 8 208 248 8 208 248 8 208 248 8 208 248 8 208 248 8 208 248 8 208 248 8 208 248 8 208 248 8 208 248 8 208 248 8 208 248 8 208 248 8 208 248 8 208 248 8 208 248 8 208 248 8 208 248 8 208 248 8 208 248 8 208 248 8 208 248 8 208 248 8 208 248 8 208 248
0 8 0 0 8 0 0 8 0 0 8 0 0 8 0 0 8 0 0 8 0 0 8 0 0 8 0 0 8 0 0 8 0 0 8 0 0 8 0 0 8 0 0 8 0 0 8 0 0 8 0 0 8 0 0 8 0 0 8 0 0 8 0 0 8 0 0 8 0 0 8 0 0 8 0 0 8 0 0 8 0 0 8 0 0 8 0 0 8 0 0 8 0 0 8 0 8 240 248 8 240 248 8 240 248 8 240 248 8 240 248 8 240 248 8 240 248 8 240 248 8 240 248 8 240 248 8 240 248 8 240 248 8 240 248 8 240 248 8 240 248 8 240 248 8 240 248 8 240 248 8 240 248 8 240 248 8 240 248 8 240 248 8 240 248 8 240 248 8 240 248 8 240 248 8 240 248 8 240 248 8 240 248 8 240 248 8 240 248 8 240 248 8 224 248 8 224 248 8 224 248 8 224 248 8 224 248 8 224 248 8 224 248 8 224 248 8 224 248 8 224 248 8 224 248 8 224 248 8 224 248 8 224 248 8 224 248 8 224 248 8 224 248 8 224 248 8 224 248 8 224 248 8 224 248 8 224 248 8 224 248 8 224 248 8 224 248 8 224 248 8 224 248 8 224 248 8 224 248 8 224 248 8 224 248 8 224 248 8 208 248 8 208 248 8 208 248 8 208 248 8 208 248 8 208 248 8 208 248 8 208 248 8 208 248 8 208 248 8 208 248 8 208 248 8 208 248 8 208 248 8 208 248 8 208 248 8 208 248 8 208 248 8 208 248 8 208 248 8 208 248 8 208 248 8 208 248 8 208 248 8 208 248 8 208 248 8 208 248 8 208 248 8 208 248 8 208 248 8 208 248 8 208 248
0 8 0 0 8 0 0 8 0 0 8 0 0 8 0 0 8 0 0 8 0 0 8 0 0 8 0 0 8 0 0 8 0 0 8 0 0 8 0 0 8 0 0 8 0 0 8 0 0 8 0 0 8 0 0 8 0 0 8 0 0 8 0 0 8 0 0 8 0 0 8 0 0 8 0 0 8 0 0 8 0 0 8 0 0 8 0 0 8 0 0 8 0 0 8 0 8 240 248 8 240 248 8 240 248 8 240 248 8 240 248 8 240 248 8 240 248 8 240 248 8 240 248 8 240 248 8 240 248 8 240 248 8 240 248 8 240 248 8 240 248 8 240 248 8 240 248 8 240 248 8 240 248 8 240 248 8 240 248 8 240 248 8 240 248 8 240 248 8 240 248 8 240 248 8 240 248 8 240 248 8 240 248 8 240 248 8 240 248 8 240 248 8 224 248 8 224 248 8 224 248 8 224 248 8 224 248 8 224 248 8 224 248 8 224 248 8 224 248 8 224 248 8 224 248 8 224 248 8 224 248 8 224 248 8 224 248 8 224 248 8 224 248 8 224 248 8 224 248 8 224 248 8 224 248 8 224 248 8 224 248 8 224 248 8 224 248 8 224 248 8 224 248 8 224 248 8 224 248 8 224 248 8 224 248 8 224 248 8 208 248 8 208 248 8 208 248 8 208 248 8 208 248 8 208 248 8 208 248 8 208 248 8 208 248 8 208 248 8 208 248 8 208 248 8 208 248 8 208 248 8 208 248 8 208 248 8 208 248 8 208 248 8 208 248 8 208 248 8 208 248 8 208 248 8 208 248 8 208 248 8 208 248 8 208 248 8 208 248 8 208 248 8 208 248 8 208 248 8 208 248 8 208 248
0 8 0 0 8 0 0 8 0 0 8 0 0 8 0 0 8 0 0 8 0 0 8 0 0 8 0 0 8 0 0 8 0 0 8 0 0 8 0 0 8 0 0 8 0 0 8 0 0 8 0 0 8 0 0 8 0 0 8 0 0 8 0 0 8 0 0 8 0 0 8 0 0 8 0 0 8 0 0 8 0 0 8 0 0 8 0 0 8 0 0 8 0 0 8 0 8 240 248 8 240 248 8 240 248 8 240 248 8 240 248 8 240 248 8 240 248 8 240 248 8 240 248 8 240 248 8 240 248 8 240 248 8 240 248 8 240 248 8 240 248 8 240 248 8 240 248 8 240 248 8 240 248 8 240 248 8 240 248 8 240 248 8 240 248 8 240 248 8 240 248 8 240 248 8 240 248 8 240 248 8 240 248 8 240 248 8 240 248 8 240 248 8 224 248 8 224 248 8 224 248 8 224 248 8 224 248 8 224 248 8 224 248 8 224 248 8 224 248 8 224 248 8 224 248 8 224 248 8 224 248 8 224 248 8 224 248 8 224 248 8 224 248 8 224 248 8 224 248 8 224 248 8 224 248 8 224 248 8 224 248 8 224 248 8 224 248 8 224 248 8 224 248 8 224 248 8 224 248 8 224 248 8 224 248 8 224 248 8 208 248 8 208 248 8 208 248 8 208 248 8 208 248 8 208 248 8 208 248 8 208 248 8 208 248 8 208 248 8 208 248 8 208 248 8 208 248 8 208 248 8 208 248 8 208 248 8 208 248 8 208 248 8 208 248 8 208 248 8 208 248 8 208 248 8 208 248 8 208 248 8 208 248 8 208 248 8 208 248 8 208 248 8 208 248 8 208 248 8 208 248 8 208 248
0 8 0 0 8 0 0 8 0 0 8 0 0 8 0 0 8 0 0 8 0 0 8 0 0 8 0 0 8 0 0 8 0 0 8 0 0 8 0 0 8 0 0 8 0 0 8 0 0 8 0 0 8 0 0 8 0 0 8 0 0 8 0 0 8 0 0 8 0 0 8 0 0 8 0 0 8 0 0 8 0 0 8 0 0 8 0 0 8 0 0 8 0 0 8 0 8 240 248 8 240 248 8 240 248 8 240 248 8 240 248 8 240 248 8 240 248 8 240 248 8 240 248 8 240 248 8 240 248 8 240 248 8 240 248 8 240 248 8 240 248 8 240 248 8 240 248 8 240 248 8 240 248 8 240 248 8 240 248 8 240 248 8 240 248 8 240 248 8 240 248 8 240 248 8 240 248 8 240 248 8 240 248 8 240 248 8 240 248 8 240 248 8 224 248 8 224 248 8 224 248 8 224 248 8 224 248 8 224 248 8 224 248 8 224 248 8 224 248 8 224 248 8 224 248 8 224 248 8 224 248 8 224 248 8 224 248 8 224 248 8 224 248 8 224 248 8 224 248 8 224 248 8 224 248 8 224 248 8 224 248 8 224 248 8 224 248 8 224 248 8 224 248 8 224 248 8 224 248 8 224 248 8 224 248 8 224 248 8 208 248 8 208 248 8 208 248 8 208 248 8 208 248 8 208 248 8 208 248 8 208 248 8 208 248 8 208 248 8 208 248 8 208 248 8 208 248 8 208 248 8 208 248 8 208 248 8 208 248 8 208 248 8 208 248 8 208 248 8 208 248 8 208 248 8 208 248 8 208 248 8 208 248 8 208 248 8 208 248 8 208 248 8 208 248 8 208 248 8 208 248 8 208 248
0 8 0 0 8 0 0 8 0 0 8 0 0 8 0 0 8 0 0 8 0 0 8 0 0 8 0 0 8 0 0 8 0 0 8 0 0 8 0 0 8 0 0 8 0 0 8 0 0 8 0 0 8 0 0 8 0 0 8 0 0 8 0 0 8 0 0 8 0 0 8 0 0 8 0 0 8 0 0 8 0 0 8 0 0 8 0 0 8 0 0 8 0 0 8 0 8 240 248 8 240 248 8 240 248 8 240 248 8 240 248 8 240 248 8 240 248 8 240 248 8 240 248 8 240 248 8 240 248 8 240 248 8 240 248 8 240 248 8 240 248 8 240 248 8 240 248 8 240 248 8 240 248 8 240 248 8 240 248 8 240 248 8 240 248 8 240 248 8 240 248 8 240 248 8 240 248 8 240 248 8 240 248 8 240 248 8 240 248 8 240 248 8 224 248 8 224 248 8 224 248 8 224 248 8 224 248 8 224 248 8 224 248 8 224 248 8 224 248 8 224 248 8 224 248 8 224 248 8 224 248 8 224 248 8 224 248 8 224 248 8 224 248 8 224 248 8 224 248 8 224 248 8 224 248 8 224 248 8 224 248 8 224 248 8 224 248 8 224 248 8 224 248 8 224 248 8 224 248 8 224 248 8 224 248 8 224 248 8 208 248 8 208 248 8 208 248 8 208 248 8 208 248 8 208 248 8 208 248 8 208 248 8 208 248 8 208 248 8 208 248 8 208 248 8 208 248 8 208 248 8 208 248 8 208 248 8 208 248 8 208 248 8 208 248 8 208 248 8 208 248 8 208 248 8 208 248 8 208 248 8 208 248 8 208 248 8 208 248 8 208 248 8 208 248 8 208 248 8 208 248 8 208 248
0 8 0 0 8 0 0 8 0 0 8 0 0 8 0 0 8 0 0 8 0 0 8 0 0 8 0 0 8 0 0 8 0 0 8 0 0 8 0 0 8 0 0 8 0 0 8 0 0 8 0 0 8 0 0 8 0 0 8 0 0 8 0 0 8 0 0 8 0 0 8 0 0 8 0 0 8 0 0 8 0 0 8 0 0 8 0 0 8 0 0 8 0 0 8 0 8 240 248 8 240 248 8 240 248 8 240 248 8 240 248 8 240 248 8 240 248 8 240 248 8 240 248 8 240 248 8 240 248 8 240 248 8 240 248 8 240 248 8 240 248 8 240 248 8 240 248 8 240 248 8 240 248 8 240 248 8 240 248 8 240 248 8 240 248 8 240 248 8 240 248 8 240 248 8 240 248 8 240 248 8 240 248 8 240 248 8 240 248 8 240 248 8 224 248 8 224 248 8 224 248 8 224 248 8 224 248 8 224 248 8 224 248 8 224 248 8 224 248 8 224 248 8 224 248 8 224 248 8 224 248 8 224 248 8 224 248 8 224 248 8 224 248 8 224 248 8 224 248 8 224 248 8 224 248 8 224 248 8 224 248 8 224 248 8 224 248 8 224 248 8 224 248 8 224 248 8 224 248 8 224 248 8 224 248 8 224 248 8 208 248 8 208 248 8 208 248 8 208 248 8 208 248 8 208 248 8 208 248 8 208 248 8 208 248 8 208 248 8 208 248 8 208 248 8 208 248 8 208 248 8 208 248 8 208 248 8 208 248 8 208 248 8 208 248 8 208 248 8 208 248 8 208 248 8 208 248 8 208 248 8 208 248 8 208 248 8 208 248 8 208 248 8 208 248 8 208 248 8 208 248 8 208 248
0 8 0 0 8 0 0 8 0 0 8 0 0 8 0 0 8 0 0 8 0 0 8 0 0 8 0 0 8 0 0 8 0 0 8 0 0 8 0 0 8 0 0 8 0 0 8 0 0 8 0 0 8 0 0 8 0 0 8 0 0 8 0 0 8 0 0 8 0 0 8 0 0 8 0 0 8 0 0 8 0 0 8 0 0 8 0 0 8 0 0 8 0 0 8 0 8 240 248 8 240 248 8 240 248 8 240 248 8 240 248 8 240 248 8 240 248 8 240 248 8 240 248 8 240 248 8 240 248 8 240 248 8 240 248 8 240 248 8 240 248 8 240 248 8 240 248 8 240 248 8 240 248 8 240 248 8 240 248 8 240 248 8 240 248 8 240 248 8 240 248 8 240 248 8 240 248 8 240 248 8 240 248 8 240 248 8 240 248 8 240 248 8 224 248 8 224 248 8 224 248 8 224 248 8 224 248 8 224 248 8 224 248 8 224 248 8 224 248 8 224 248 8 224 248 8 224 248 8 224 248 8 224 248 8 224 248 8 224 248 8 224 248 8 224 248 8 224 248 8 224 248 8 224 248 8 224 248 8 224 248 8 224 248 8 224 248 8 224 248 8 224 248 8 224 248 8 224 248 8 224 248 8 224 248 8 224 248 8 208 248 8 208 248 8 208 248 8 208 248 8 208 248 8 208 248 8 208 248 8 208 248 8 208 248 8 208 248 8 208 248 8 208 248 8 208 248 8 208 248 8 208 248 8 208 248 8 208 248 8 208 248 8 208 248 8 208 248 8 208 248 8 208 248 8 208 248 8 208 248 8 208 248 8 208 248 8 208 248 8 208 248 8 208 248 8 208 248 8 208 248 8 208 248
0 8 0 0 8 0 0 8 0 0 8 0 0 8 0 0 8 0 0 8 0 0 8 0 0 8 0 0 8 0 0 8 0 0 8 0 0 8 0 0 8 0 0 8 0 0 8 0 0 8 0 0 8 0 0 8 0 0 8 0 0 8 0 0 8 0 0 8 0 0 8 0 0 8 0 0 8 0 0 8 0 0 8 0 0 8 0 0 8 0 0 8 0 0 8 0 8 240 248 8 240 248 8 240 248 8 240 248 8 240 248 8 240 248 8 240 248 8 240 248 8 240 248 8 240 248 8 240 248 8 240 248 8 240 248 8 240 248 8 240 248 8 240 248 8 240 248 8 240 248 8 240 248 8 240 248 8 240 248 8 240 248 8 240 248 8 240 248 8 240 248 8 240 248 8 240 248 8 240 248 8 240 248 8 240 248 8 240 248 8 240 248 8 224 248 8 224 248 8 224 248 8 224 248 8 224 248 8 224 248 8 224 248 8 224 248 8 224 248 8 224 248 8 224 248 8 224 248 8 224 248 8 224 248 8 224 248 8 224 248 8 224 248 8 224 248 8 224 248 8 224 248 8 224 248 8 224 248 8 224 248 8 224 248 8 224 248 8 224 248 8 224 248 8 224 248 8 224 248 8 224 248 8 224 248 8 224 248 8 208 248 8 208 248 8 208 248 8 208 248 8 208 248 8 208 248 8 208 248 8 208 248 8 208 248 8 208 248 8 208 248 8 208 248 8 208 248 8 208 248 8 208 248 8 208 248 8 208 248 8 208 248 8 208 248 8 208 248 8 208 248 8 208 248 8 208 248 8 208 248 8 208 248 8 208 248 8 208 248 8 208 248 8 208 248 8 208 248 8 208 248 8 208 248
0 8 0 0 8 0 0 8 0 0 8 0 0 8 0 0 8 0 0 8 0 0 8 0 0 8 0 0 8 0 0 8 0 0 8 0 0 8 0 0 8 0 0 8 0 0 8 0 0 8 0 0 8 0 0 8 0 0 8 0 0 8 0 0 8 0 0 8 0 0 8 0 0 8 0 0 8 0 0 8 0 0 8 0 0 8 0 0 8 0 0 8 0 0 8 0 8 240 248 8 240 248 8 240 248 8 240 248 8 240 248 8 240 248 8 240 248 8 240 248 8 240 248 8 240 248 8 240 248 8 240 248 8 240 248 8 240 248 8 240 248 8 240 248 8 240 248 8 240 248 8 240 248 8 240 248 8 240 248 8 240 248 8 240 248 8 240 248 8 240 248 8 240 248 8 240 248 8 240 248 8 240 248 8 240 248 8 240 248 8 240 248 8 224 248 8 224 248 8 224 248 8 224 248 8 224 248 8 224 248 8 224 248 8 224 248 8 224 248 8 224 248 8 224 248 8 224 248 8 224 248 8 224 248 8 224 248 8 224 248 8 224 248 8 224 248 8 224 248 8 224 248 8 224 248 8 224 248 8 224 248 8 224 248 8 224 248 8 224 248 8 224 248 8 224 248 8 224 248 8 224 248 8 224 248 8 224 248 8 208 248 8 208 248 8 208 248 8 208 248 8 208 248 8 208 248 8 208 248 8 208 248 8 208 248 8 208 248 8 208 248 8 208 248 8 208 248 8 208 248 8 208 248 8 208 248 8 208 248 8 208 248 8 208 248 8 208 248 8 208 248 8 208 248 8 208 248 8 208 248 8 208 248 8 208 248 8 208 248 8 208 248 8 208 248 8 208 248 8 208 248 8 208 248
0 8 0 0 8 0 0 8 0 0 8 0 0 8 0 0 8 0 0 8 0 0 8 0 0 8 0 0 8 0 0 8 0 0 8 0 0 8 0 0 8 0 0 8 0 0 8 0 0 8 0 0 8 0 0 8 0 0 8 0 0 8 0 0 8 0 0 8 0 0 8 0 0 8 0 0 8 0 0 8 0 0 8 0 0 8 0 0 8 0 0 8 0 0 8 0 8 240 248 8 240 248 8 240 248 8 240 248 8 240 248 8 240 248 8 240 248 8 240 248 8 240 248 8 240 248 8 240 248 8 240 248 8 240 248 8 240 248 8 240 248 8 240 248 8 240 248 8 240 248 8 240 248 8 240 248 8 240 248 8 240 248 8 240 248 8 240 248 8 240 248 8 240 248 8 240 248 8 240 248 8 240 248 8 240 248 8 240 248 8 240 248 8 224 248 8 224 248 8 224 248 8 224 248 8 224 248 8 224 248 8 224 248 8 224 248 8 224 248 8 224 248 8 224 248 8 224 248 8 224 248 8 224 248 8 224 248 8 224 248 8 224 248 8 224 248 8 224 248 8 224 248 8 224 248 8 224 248 8 224 248 8 224 248 8 224 248 8 224 248 8 224 248 8 224 248 8 224 248 8 224 248 8 224 248 8 224 248 8 208 248 8 208 248 8 208 248 8 208 248 8 208 248 8 208 248 8 208 248 8 208 248 8 208 248 8 208 248 8 208 248 8 208 248 8 208 248 8 208 248 8 208 248 8 208 248 8 208 248 8 208 248 8 208 248 8 208 248 8 208 248 8 208 248 8 208 248 8 208 248 8 208 248 8 208 248 8 208 248 8 208 248 8 208 248 8 208 248 8 208 248 8 208 248
0 8 0 0 8 0 0 8 0 0 8 0 0 8 0 0 8 0 0 8 0 0 8 0 0 8 0 0 8 0 0 8 0 0 8 0 0 8 0 0 8 0 0 8 0 0 8 0 0 8 0 0 8 0 0 8 0 0 8 0 0 8 0 0 8 0 0 8 0 0 8 0 0 8 0 0 8 0 0 8 0 0 8 0 0 8 0 0 8 0 0 8 0 0 8 0 8 240 248 8 240 248 8 240 248 8 240 248 8 240 248 8 240 248 8 240 248 8 240 248 8 240 248 8 240 248 8 240 248 8 240 248 8 240 248 8 240 248 8 240 248 8 240 248 8 240 248 8 240 248 8 240 248 8 240 248 8 240 248 8 240 248 8 240 248 8 240 248 8 240 248 8 240 248 8 240 248 8 240 248 8 240 248 8 240 248 8 240 248 8 240 248 8 224 248 8 224 248 8 224 248 8 224 248 8 224 248 8 224 248 8 224 248 8 224 248 8 224 248 8 224 248 8 224 248 8 224 248 8 224 248 8 224 248 8 224 248 8 224 248 8 224 248 8 224 248 8 224 248 8 224 248 8 224 248 8 224 248 8 224 248 8 224 248 8 224 248 8 224 248 8 224 248 8 224 248 8 224 248 8 224 248 8 224 248 8 224 248 8 208 248 8 208 248 8 208 248 8 208 248 8 208 248 8 208 248 8 208 248 8 208 248 8 208 248 8 208 248 8 208 248 8 208 248 8 208 248 8 208 248 8 208 248 8 208 248 8 208 248 8 208 248 8 208 248 8 208 248 8 208 248 8 208 248 8 208 248 8 208 248 8 208 248 8 208 248 8 208 248 8 208 248 8 208 248 8 208 248 8 208 248 8 208 248
0 8 0 0 8 0 0 8 0 0 8 0 0 8 0 0 8 0 0 8 0 0 8 0 0 8 0 0 8 0 0 8 0 0 8 0 0 8 0 0 8 0 0 8 0 0 8 0 0 8 0 0 8 0 0 8 0 0 8 0 0 8 0 0 8 0 0 8 0 0 8 0 0 8 0 0 8 0 0 8 0 0 8 0 0 8 0 0 8 0 0 8 0 0 8 0 8 240 248 8 240 248 8 240 248 8 240 248 8 240 248 8 240 248 8 240 248 8 240 248 8 240 248 8 240 248 8 240 248 8 240 248 8 240 248 8 240 248 8 240 248 8 240 248 8 240 248 8 240 248 8 240 248 8 240 248 8 240 248 8 240 248 8 240 248 8 240 248 8 240 248 8 240 248 8 240 248 8 240 248 8 240 248 8 240 248 8 240 248 8 240 248 8 224 248 8 224 248 8 224 248 8 224 248 8 224 248 8 224 248 8 224 248 8 224 248 8 224 248 8 224 248 8 224 248 8 224 248 8 224 248 8 224 248 8 224 248 8 224 248 8 224 248 8 224 248 8 224 248 8 224 248 8 224 248 8 224 248 8 224 248 8 224 248 8 224 248 8 224 248 8 224 248 8 224 248 8 224 248 8 224 248 8 224 248 8 224 248 8 208 248 8 208 248 8 208 248 8 208 248 8 208 248 8 208 248 8 208 248 8 208 248 8 208 248 8 208 248 8 208 248 8 208 248 8 208 248 8 208 248 8 208 248 8 208 248 8 208 248 8 208 248 8 208 248 8 208 248 8 208 248 8 208 248 8 208 248 8 208 248 8 208 248 8 208 248 8 208 248 8 208 248 8 208 248 8 208 248 8 208 248 8 208 248
0 8 0 0 8 0 0 8 0 0 8 0 0 8 0 0 8 0 0 8 0 0 8 0 0 8 0 0 8 0 0 8 0 0 8 0 0 8 0 0 8 0 0 8 0 0 8 0 0 8 0 0 8 0 0 8 0 0 8 0 0 8 0 0 8 0 0 8 0 0 8 0 0 8 0 0 8 0 0 8 0 0 8 0 0 8 0 0 8 0 0 8 0 0 8 0 8 240 248 8 240 248 8 240 248 8 240 248 8 240 248 8 240 248 8 240 248 8 240 248 8 240 248 8 240 248 8 240 248 8 240 248 8 240 248 8 240 248 8 240 248 8 240 248 8 240 248 8 240 248 8 240 248 8 240 248 8 240 248 8 240 248 8 240 248 8 240 248 8 240 248 8 240 248 8 240 248 8 240 248 8 240 248 8 240 248 8 240 248 8 240 248 8 224 248 8 224 248 8 224 248 8 224 248 8 224 248 8 224 248 8 224 248 8 224 248 8 224 248 8 224 248 8 224 248 8 224 248 8 224 248 8 224 248 8 224 248 8 224 248 8 224 248 8 224 248 8 224 248 8 224 248 8 224 248 8 224 248 8 224 248 8 224 248 8 224 248 8 224 248 8 224 248 8 224 248 8 224 248 8 224 248 8 224 248 8 224 248 8 208 248 8 208 248 8 208 248 8 208 248 8 208 248 8 208 248 8 208 248 8 208 248 8 208 248 8 208 248 8 208 248 8 208 248 8 208 248 8 208 248 8 208 248 8 208 248 8 208 248 8 208 248 8 208 248 8 208 248 8 208 248 8 208 248 8 208 248 8 208 248 8 208 248 8 208 248 8 208 248 8 208 248 8 208 248 8 208 248 8 208 248 8 208 248
0 8 0 0 8 0 0 8 0 0 8 0 0 8 0 0 8 0 0 8 0 0 8 0 0 8 0 0 8 0 0 8 0 0 8 0 0 8 0 0 8 0 0 8 0 0 8 0 0 8 0 0 8 0 0 8 0 0 8 0 0 8 0 0 8 0 0 8 0 0 8 0 0 8 0 0 8 0 0 8 0 0 8 0 0 8 0 0 8 0 0 8 0 0 8 0 8 240 248 8 240 248 8 240 248 8 240 248 8 240 248 8 240 248 8 240 248 8 240 248 8 240 248 8 240 248 8 240 248 8 240 248 8 240 248 8 240 248 8 240 248 8 240 248 8 240 248 8 240 248 8 240 248 8 240 248 8 240 248 8 240 248 8 240 248 8 240 248 8 240 248 8 240 248 8 240 248 8 240 248 8 240 248 8 240 248 8 240 248 8 240 248 8 224 248 8 224 248 8 224 248 8 224 248 8 224 248 8 224 248 8 224 248 8 224 248 8 224 248 8 224 248 8 224 248 8 224 248 8 224 248 8 224 248 8 224 248 8 224 248 8 224 248 8 224 248 8 224 248 8 224 248 8 224 248 8 224 248 8 224 248 8 224 248 8 224 248 8 224 248 8 224 248 8 224 248 8 224 248 8 224 248 8 224 248 8 224 248 8 208 248 8 208 248 8 208 248 8 208 248 8 208 248 8 208 248 8 208 248 8 208 248 8 208 248 8 208 248 8 208 248 8 208 248 8 208 248 8 208 248 8 208 248 8 208 248 8 208 248 8 208 248 8 208 248 8 208 248 8 208 248 8 208 248 8 208 248 8 208 248 8 208 248 8 208 248 8 208 248 8 208 248 8 208 248 8 208 248 8 208 248 8 208 248
0 8 0 0 8 0 0 8 0 0 8 0 0 8 0 0 8 0 0 8 0 0 8 0 0 8 0 0 8 0 0 8 0 0 8 0 0 8 0 0 8 0 0 8 0 0 8 0 0 8 0 0 8 0 0 8 0 0 8 0 0 8 0 0 8 0 0 8 0 0 8 0 0 8 0 0 8 0 0 8 0 0 8 0 0 8 0 0 8 0 0 8 0 0 8 0 8 240 248 8 240 248 8 240 248 8 240 248 8 240 248 8 240 248 8 240 248 8 240 248 8 240 248 8 240 248 8 240 248 8 240 248 8 240 248 8 240 248 8 240 248 8 240 248 8 240 248 8 240 248 8 240 248 8 240 248 8 240 248 8 240 248 8 240 248 8 240 248 8 240 248 8 240 248 8 240 248 8 240 248 8 240 248 8 240 248 8 240 248 8 240 248 8 224 248 8 224 248 8 224 248 8 224 248 8 224 248 8 224 248 8 224 248 8 224 248 8 224 248 8 224 248 8 224 248 8 224 248 8 224 248 8 224 248 8 224 248 8 224 248 8 224 248 8 224 248 8 224 248 8 224 248 8 224 248 8 224 248 8 224 248 8 224 248 8 224 248 8 224 248 8 224 248 8 224 248 8 224 248 8 224 248 8 224 248 8 224 248 8 208 248 8 208 248 8 208 248 8 208 248 8 208 248 8 208 248 8 208 248 8 208 248 8 208 248 8 208 248 8 208 248 8 208 248 8 208 248 8 208 248 8 208 248 8 208 248 8 208 248 8 208 248 8 208 248 8 208 248 8 208 248 8 208 248 8 208 248 8 208 248 8 208 248 8 208 248 8 208 248 8 208 248 8 208 248 8 208 248 8 208 248 8 208 248
0 8 0 0 8 0 0 8 0 0 8 0 0 8 0 0 8 0 0 8 0 0 8 0 0 8 0 0 8 0 0 8 0 0 8 0 0 8 0 0 8 0 0 8 0 0 8 0 0 8 0 0 8 0 0 8 0 0 8 0 0 8 0 0 8 0 0 8 0 0 8 0 0 8 0 0 8 0 0 8 0 0 8 0 0 8 0 0 8 0 0 8 0 0 8 0 8 240 248 8 240 248 8 240 248 8 240 248 8 240 248 8 240 248 8 240 248 8 240 248 8 240 248 8 240 248 8 240 248 8 240 248 8 240 248 8 240 248 8 240 248 8 240 248 8 240 248 8 240 248 8 240 248 8 240 248 8 240 248 8 240 248 8 240 248 8 240 248 8 240 248 8 240 248 8 240 248 8 240 248 8 240 248 8 240 248 8 240 248 8 240 248 8 224 248 8 224 248 8 224 248 8 224 248 8 224 248 8 224 248 8 224 248 8 224 248 8 224 248 8 224 248 8 224 248 8 224 248 8 224 248 8 224 248 8 224 248 8 224 248 8 224 248 8 224 248 8 224 248 8 224 248 8 224 248 8 224 248 8 224 248 8 224 248 8 224 248 8 224 248 8 224 248 8 224 248 8 224 248 8 224 248 8 224 248 8 224 248 8 208 248 8 208 248 8 208 248 8 208 248 8 208 248 8 208 248 8 208 248 8 208 248 8 208 248 8 208 248 8 208 248 8 208 248 8 208 248 8 208 248 8 208 248 8 208 248 8 208 248 8 208 248 8 208 248 8 208 248 8 208 248 8 208 248 8 208 248 8 208 248 8 208 248 8 208 248 8 208 248 8 208 248 8 208 248 8 208 248 8 208 248 8 208 248
0 8 0 0 8 0 0 8 0 0 8 0 0 8 0 0 8 0 0 8 0 0 8 0 0 8 0 0 8 0 0 8 0 0 8 0 0 8 0 0 8 0 0 8 0 0 8 0 0 8 0 0 8 0 0 8 0 0 8 0 0 8 0 0 8 0 0 8 0 0 8 0 0 8 0 0 8 0 0 8 0 0 8 0 0 8 0 0 8 0 0 8 0 0 8 0 8 240 248 8 240 248 8 240 248 8 240 248 8 240 248 8 240 248 8 240 248 8 240 248 8 240 248 8 240 248 8 240 248 8 240 248 8 240 248 8 240 248 8 240 248 8 240 248 8 240 248 8 240 248 8 240 248 8 240 248 8 240 248 8 240 248 8 240 248 8 240 248 8 240 248 8 240 248 8 240 248 8 240 248 8 240 248 8 240 248 8 240 248 8 240 248 8 224 248 8 224 248 8 224 248 8 224 248 8 224 248 8 224 248 8 224 248 8 224 248 8 224 248 8 224 248 8 224 248 8 224 248 8 224 248 8 224 248 8 224 248 8 224 248 8 224 248 8 224 248 8 224 248 8 224 248 8 224 248 8 224 248 8 224 248 8 224 248 8 224 248 8 224 248 8 224 248 8 224 248 8 224 248 8 224 248 8 224 248 8 224 248 8 208 248 8 208 248 8 208 248 8 208 248 8 208 248 8 208 248 8 208 248 8 208 248 8 208 248 8 208 248 8 208 248 8 208 248 8 208 248 8 208 248 8 208 248 8 208 248 8 208 248 8 208 248 8 208 248 8 208 248 8 208 248 8 208 248 8 208 248 8 208 248 8 208 248 8 208 248 8 208 248 8 208 248 8 208 248 8 208 248 8 208 248 8 208 248
0 8 0 0 8 0 0 8 0 0 8 0 0 8 0 0 8 0 0 8 0 0 8 0 0 8 0 0 8 0 0 8 0 0 8 0 0 8 0 0 8 0 0 8 0 0 8 0 0 8 0 0 8 0 0 8 0 0 8 0 0 8 0 0 8 0 0 8 0 0 8 0 0 8 0 0 8 0 0 8 0 0 8 0 0 8 0 0 8 0 0 8 0 0 8 0 8 240 248 8 240 248 8 240 248 8 240 248 8 240 248 8 240 248 8 240 248 8 240 248 8 240 248 8 240 248 8 240 248 8 240 248 8 240 248 8 240 248 8 240 248 8 240 248 8 240 248 8 240 248 8 240 248 8 240 248 8 240 248 8 240 248 8 240 248 8 240 248 8 240 248 8 240 248 8 240 248 8 240 248 8 240 248 8 240 248 8 240 248 8 240 248 8 224 248 8 224 248 8 224 248 8 224 248 8 224 248 8 224 248 8 224 248 8 224 248 8 224 248 8 224 248 8 224 248 8 224 248 8 224 248 8 224 248 8 224 248 8 224 248 8 224 248 8 224 248 8 224 248 8 224 248 8 224 248 8 224 248 8 224 248 8 224 248 8 224 248 8 224 248 8 224 248 8 224 248 8 224 248 8 224 248 8 224 248 8 224 248 8 208 248 8 208 248 8 208 248 8 208 248 8 208 248 8 208 248 8 208 248 8 208 248 8 208 248 8 208 248 8 208 248 8 208 248 8 208 248 8 208 248 8 208 248 8 208 248 8 208 248 8 208 248 8 208 248 8 208 248 8 208 248 8 208 248 8 208 248 8 208 248 8 208 248 8 208 248 8 208 248 8 208 248 8 208 248 8 208 248 8 208 248 8 208 248
0 8 0 0 8 0 0 8 0 0 8 0 0 8 0 0 8 0 0 8 0 0 8 0 0 8 0 0 8 0 0 8 0 0 8 0 0 8 0 0 8 0 0 8 0 0 8 0 0 8 0 0 8 0 0 8 0 0 8 0 0 8 0 0 8 0 0 8 0 0 8 0 0 8 0 0 8 0 0 8 0 0 8 0 0 8 0 0 8 0 0 8 0 0 8 0 8 240 248 8 240 248 8 240 248 8 240 248 8 240 248 8 240 248 8 240 248 8 240 248 8 240 248 8 240 248 8 240 248 8 240 248 8 240 248 8 240 248 8 240 248 8 240 248 8 240 248 8 240 248 8 240 248 8 240 248 8 240 248 8 240 248 8 240 248 8 240 248 8 240 248 8 240 248 8 240 248 8 240 248 8 240 248 8 240 248 8 240 248 8 240 248 8 224 248 8 224 248 8 224 248 8 224 248 8 224 248 8 224 248 8 224 248 8 224 248 8 224 248 8 224 248 8 224 248 8 224 248 8 224 248 8 224 248 8 224 248 8 224 248 8 224 248 8 224 248 8 224 248 8 224 248 8 224 248 8 224 248 8 224 248 8 224 248 8 224 248 8 224 248 8 224 248 8 224 248 8 224 248 8 224 248 8 224 248 8 224 248 8 208 248 8 208 248 8 208 248 8 208 248 8 208 248 8 208 248 8 208 248 8 208 248 8 208 248 8 208 248 8 208 248 8 208 248 8 208 248 8 208 248 8 208 248 8 208 248 8 208 248 8 208 248 8 208 248 8 208 248 8 208 248 8 208 248 8 208 248 8 208 248 8 208 248 8 208 248 8 208 248 8 208 248 8 208 248 8 208 248 8 208 248 8 208 248
0 8 0 0 8 0 0 8 0 0 8 0 0 8 0 0 8 0 0 8 0 0 8 0 0 8 0 0 8 0 0 8 0 0 8 0 0 8 0 0 8 0 0 8 0 0 8 0 0 8 0 0 8 0 0 8 0 0 8 0 0 8 0 0 8 0 0 8 0 0 8 0 0 8 0 0 8 0 0 8 0 0 8 0 0 8 0 0 8 0 0 8 0 0 8 0 8 240 248 8 240 248 8 240 248 8 240 248 8 240 248 8 240 248 8 240 248 8 240 248 8 240 248 8 240 248 8 240 248 8 240 248 8 240 248 8 240 248 8 240 248 8 240 248 8 240 248 8 240 248 8 240 248 8 240 248 8 240 248 8 240 248 8 240 248 8 240 248 8 240 248 8 240 248 8 240 248 8 240 248 8 240 248 8 240 248 8 240 248 8 240 248 8 224 248 8 224 248 8 224 248 8 224 248 8 224 248 8 224 248 8 224 248 8 224 248 8 224 248 8 224 248 8 224 248 8 224 248 8 224 248 8 224 248 8 224 248 8 224 248 8 224 248 8 224 248 8 224 248 8 224 248 8 224 248 8 224 248 8 224 248 8 224 248 8 224 248 8 224 248 8 224 248 8 224 248 8 224 248 8 224 248 8 224 248 8 224 248 8 208 248 8 208 248 8 208 248 8 208 248 8 208 248 8 208 248 8 208 248 8 208 248 8 208 248 8 208 248 8 208 248 8 208 248 8 208 248 8 208 248 8 208 248 8 208 248 8 208 248 8 208 248 8 208 248 8 208 248 8 208 248 8 208 248 8 208 248 8 208 248 8 208 248 8 208 248 8 208 248 8 208 248 8 208 248 8 208 248 8 208 248 8 208 248