P3
128 128
255
168 80 32 168 80 32 168 80 32 168 80 32 168 80 32 168 80 32 168 80 32 168 80 32 168 80 32 168 80 32 168 80 32 168 80 32 168 80 32 168 80 32 168 80 32 168 80 32 168 80 32 168 80 32 168 80 32 168 80 32 168 80 32 168 80 32 168 80 32 168 80 32 168 80 32 168 80 32 168 80 32 168 80 32 168 80 32 168 80 32 168 80 32 168 80 32 40 80 32 40 80 32 40 80 32 40 80 32 40 80 32 40 80 32 40 80 32 40 80 32 40 80 32 40 80 32 40 80 32 40 80 32 40 80 32 40 80 32 40 80 32 40 80 32 40 80 32 40 80 32 40 80 32 40 80 32 40 80 32 40 80 32 40 80 32 40 80 32 40 80 32 40 80 32 40 80 32 40 80 32 40 80 32 40 80 32 40 80 32 40 80 32 40 80 160 40 80 160 40 80 160 40 80 160 40 80 160 40 80 160 40 80 160 40 80 160 40 80 160 40 80 160 40 80 160 40 80 160 40 80 160 40 80 160 40 80 160 40 80 160 40 80 160 40 80 160 40 80 160 40 80 160 40 80 160 40 80 160 40 80 160 40 80 160 40 80 160 40 80 160 40 80 160 40 80 160 40 80 160 40 80 160 40 80 160 40 80 160 168 80 160 168 80 160 168 80 160 168 80 160 168 80 160 168 80 160 168 80 160 168 80 160 168 80 160 168 80 160 168 80 160 168 80 160 168 80 160 168 80 160 168 80 160 168 80 160 168 80 160 168 80 160 168 80 160 168 80 160 168 80 160 168 80 160 168 80 160 168 80 160 168 80 160 168 80 160 168 80 160 168 80 160 168 80 160 168 80 160 168 80 160 168 80 160
168 80 32 168 80 32 168 80 32 168 80 32 168 80 32 168 80 32 168 80 32 168 80 32 168 80 32 168 80 32 168 80 32 168 80 32 168 80 32 168 80 32 168 80 32 168 80 32 168 80 32 168 80 32 168 80 32 168 80 32 168 80 32 168 80 32 168 80 32 168 80 32 168 80 32 168 80 32 168 80 32 168 80 32 168 80 32 168 80 32 168 80 32 168 80 32 40 80 32 40 80 32 40 80 32 40 80 32 40 80 32 40 80 32 40 80 32 40 80 32 40 80 32 40 80 32 40 80 32 40 80 32 40 80 32 40 80 32 40 80 32 40 80 32 40 80 32 40 80 32 40 80 32 40 80 32 40 80 32 40 80 32 40 80 32 40 80 32 40 80 32 40 80 32 40 80 32 40 80 32 40 80 32 40 80 32 40 80 32 40 80 32 40 80 160 40 80 160 40 80 160 40 80 160 40 80 160 40 80 160 40 80 160 40 80 160 40 80 160 40 80 160 40 80 160 40 80 160 40 80 160 40 80 160 40 80 160 40 80 160 40 80 160 40 80 160 40 80 160 40 80 160 40 80 160 40 80 160 40 80 160 40 80 160 40 80 160 40 80 160 40 80 160 40 80 160 40 80 160 40 80 160 40 80 160 40 80 160 168 80 160 168 80 160 168 80 160 168 80 160 168 80 160 168 80 160 168 80 160 168 80 160 168 80 160 168 80 160 168 80 160 168 80 160 168 80 160 168 80 160 168 80 160 168 80 160 168 80 160 168 80 160 168 80 160 168 80 160 168 80 160 168 80 160 168 80 160 168 80 160 168 80 160 168 80 160 168 80 160 168 80 160 168 80 160 168 80 160 168 80 160 168 80 160
168 80 32 168 80 32 168 80 32 168 80 32 168 80 32 168 80 32 168 80 32 168 80 32 168 80 32 168 80 32 168 80 32 168 80 32 168 80 32 168 80 32 168 80 32 168 80 32 168 80 32 168 80 32 168 80 32 168 80 32 168 80 32 168 80 32 168 80 32 168 80 32 168 80 32 168 80 32 168 80 32 168 80 32 168 80 32 168 80 32 168 80 32 168 80 32 40 80 32 40 80 32 40 80 32 40 80 32 40 80 32 40 80 32 40 80 32 40 80 32 40 80 32 40 80 32 40 80 32 40 80 32 40 80 32 40 80 32 40 80 32 40 80 32 40 80 32 40 80 32 40 80 32 40 80 32 40 80 32 40 80 32 40 80 32 40 80 32 40 80 32 40 80 32 40 80 32 40 80 32 40 80 32 40 80 32 40 80 32 40 80 32 40 80 160 40 80 160 40 80 160 40 80 160 40 80 160 40 80 160 40 80 160 40 80 160 40 80 160 40 80 160 40 80 160 40 80 160 40 80 160 40 80 160 40 80 160 40 80 160 40 80 160 40 80 160 40 80 160 40 80 160 40 80 160 40 80 160 40 80 160 40 80 160 40 80 160 40 80 160 40 80 160 40 80 160 40 80 160 40 80 160 40 80 160 40 80 160 168 80 160 168 80 160 168 80 160 168 80 160 168 80 160 168 80 160 168 80 160 168 80 160 168 80 160 168 80 160 168 80 160 168 80 160 168 80 160 168 80 160 168 80 160 168 80 160 168 80 160 168 80 160 168 80 160 168 80 160 168 80 160 168 80 160 168 80 160 168 80 160 168 80 160 168 80 160 168 80 160 168 80 160 168 80 160 168 80 160 168 80 160 168 80 160
168 80 32 168 80 32 168 80 32 168 80 32 168 80 32 168 80 32 168 80 32 168 80 32 168 80 32 168 80 32 168 80 32 168 80 32 168 80 32 168 80 32 168 80 32 168 80 32 168 80 32 168 80 32 168 80 32 168 80 32 168 80 32 168 80 32 168 80 32 168 80 32 168 80 32 168 80 32 168 80 32 168 80 32 168 80 32 168 80 32 168 80 32 168 80 32 40 80 32 40 80 32 40 80 32 40 80 32 40 80 32 40 80 32 40 80 32 40 80 32 40 80 32 40 80 32 40 80 32 40 80 32 40 80 32 40 80 32 40 80 32 40 80 32 40 80 32 40 80 32 40 80 32 40 80 32 40 80 32 40 80 32 40 80 32 40 80 32 40 80 32 40 80 32 40 80 32 40 80 32 40 80 32 40 80 32 40 80 32 40 80 32 40 80 160 40 80 160 40 80 160 40 80 160 40 80 160 40 80 160 40 80 160 40 80 160 40 80 160 40 80 160 40 80 160 40 80 160 40 80 160 40 80 160 40 80 160 40 80 160 40 80 160 40 80 160 40 80 160 40 80 160 40 80 160 40 80 160 40 80 160 40 80 160 40 80 160 40 80 160 40 80 160 40 80 160 40 80 160 40 80 160 40 80 160 40 80 160 168 80 160 168 80 160 168 80 160 168 80 160 168 80 160 168 80 160 168 80 160 168 80 160 168 80 160 168 80 160 168 80 160 168 80 160 168 80 160 168 80 160 168 80 160 168 80 160 168 80 160 168 80 160 168 80 160 168 80 160 168 80 160 168 80 160 168 80 160 168 80 160 168 80 160 168 80 160 168 80 160 168 80 160 168 80 160 168 80 160 168 80 160 168 80 160
168 80 32 168 80 32 168 80 32 168 80 32 168 80 32 168 80 32 168 80 32 168 80 32 168 80 32 168 80 32 168 80 32 168 80 32 168 80 32 168 80 32 168 80 32 168 80 32 168 80 32 168 80 32 168 80 32 168 80 32 168 80 32 168 80 32 168 80 32 168 80 32 168 80 32 168 80 32 168 80 32 168 80 32 168 80 32 168 80 32 168 80 32 168 80 32 40 80 32 40 80 32 40 80 32 40 80 32 40 80 32 40 80 32 40 80 32 40 80 32 40 80 32 40 80 32 40 80 32 40 80 32 40 80 32 40 80 32 40 80 32 40 80 32 40 80 32 40 80 32 40 80 32 40 80 32 40 80 32 40 80 32 40 80 32 40 80 32 40 80 32 40 80 32 40 80 32 40 80 32 40 80 32 40 80 32 40 80 32 40 80 32 40 80 160 40 80 160 40 80 160 40 80 160 40 80 160 40 80 160 40 80 160 40 80 160 40 80 160 40 80 160 40 80 160 40 80 160 40 80 160 40 80 160 40 80 160 40 80 160 40 80 160 40 80 160 40 80 160 40 80 160 40 80 160 40 80 160 40 80 160 40 80 160 40 80 160 40 80 160 40 80 160 40 80 160 40 80 160 40 80 160 40 80 160 40 80 160 168 80 160 168 80 160 168 80 160 168 80 160 168 80 160 168 80 160 168 80 160 168 80 160 168 80 160 168 80 160 168 80 160 168 80 160 168 80 160 168 80 160 168 80 160 168 80 160 168 80 160 168 80 160 168 80 160 168 80 160 168 80 160 168 80 160 168 80 160 168 80 160 168 80 160 168 80 160 168 80 160 168 80 160 168 80 160 168 80 160 168 80 160 168 80 160
168 80 32 168 80 32 168 80 32 168 80 32 168 80 32 168 80 32 168 80 32 168 80 32 168 80 32 168 80 32 168 80 32 168 80 32 168 80 32 168 80 32 168 80 32 168 80 32 168 80 32 168 80 32 168 80 32 168 80 32 168 80 32 168 80 32 168 80 32 168 80 32 168 80 32 168 80 32 168 80 32 168 80 32 168 80 32 168 80 32 168 80 32 168 80 32 40 80 32 40 80 32 40 80 32 40 80 32 40 80 32 40 80 32 40 80 32 40 80 32 40 80 32 40 80 32 40 80 32 40 80 32 40 80 32 40 80 32 40 80 32 40 80 32 40 80 32 40 80 32 40 80 32 40 80 32 40 80 32 40 80 32 40 80 32 40 80 32 40 80 32 40 80 32 40 80 32 40 80 32 40 80 32 40 80 32 40 80 32 40 80 32 40 80 160 40 80 160 40 80 160 40 80 160 40 80 160 40 80 160 40 80 160 40 80 160 40 80 160 40 80 160 40 80 160 40 80 160 40 80 160 40 80 160 40 80 160 40 80 160 40 80 160 40 80 160 40 80 160 40 80 160 40 80 160 40 80 160 40 80 160 40 80 160 40 80 160 40 80 160 40 80 160 40 80 160 40 80 160 40 80 160 40 80 160 40 80 160 168 80 160 168 80 160 168 80 160 168 80 160 168 80 160 168 80 160 168 80 160 168 80 160 168 80 160 168 80 160 168 80 160 168 80 160 168 80 160 168 80 160 168 80 160 168 80 160 168 80 160 168 80 160 168 80 160 168 80 160 168 80 160 168 80 160 168 80 160 168 80 160 168 80 160 168 80 160 168 80 160 168 80 160 168 80 160 168 80 160 168 80 160 168 80 160
168 80 32 168 80 32 168 80 32 168 80 32 168 80 32 168 80 32 168 80 32 168 80 32 168 80 32 168 80 32 168 80 32 168 80 32 168 80 32 168 80 32 168 80 32 168 80 32 168 80 32 168 80 32 168 80 32 168 80 32 168 80 32 168 80 32 168 80 32 168 80 32 168 80 32 168 80 32 168 80 32 168 80 32 168 80 32 168 80 32 168 80 32 168 80 32 40 80 32 40 80 32 40 80 32 40 80 32 40 80 32 40 80 32 40 80 32 40 80 32 40 80 32 40 80 32 40 80 32 40 80 32 40 80 32 40 80 32 40 80 32 40 80 32 40 80 32 40 80 32 40 80 32 40 80 32 40 80 32 40 80 32 40 80 32 40 80 32 40 80 32 40 80 32 40 80 32 40 80 32 40 80 32 40 80 32 40 80 32 40 80 32 40 80 160 40 80 160 40 80 160 40 80 160 40 80 160 40 80 160 40 80 160 40 80 160 40 80 160 40 80 160 40 80 160 40 80 160 40 80 160 40 80 160 40 80 160 40 80 160 40 80 160 40 80 160 40 80 160 40 80 160 40 80 160 40 80 160 40 80 160 40 80 160 40 80 160 40 80 160 40 80 160 40 80 160 40 80 160 40 80 160 40 80 160 40 80 160 168 80 160 168 80 160 168 80 160 168 80 160 168 80 160 168 80 160 168 80 160 168 80 160 168 80 160 168 80 160 168 80 160 168 80 160 168 80 160 168 80 160 168 80 160 168 80 160 168 80 160 168 80 160 168 80 160 168 80 160 168 80 160 168 80 160 168 80 160 168 80 160 168 80 160 168 80 160 168 80 160 168 80 160 168 80 160 168 80 160 168 80 160 168 80 160
168 80 32 168 80 32 168 80 32 168 80 32 168 80 32 168 80 32 168 80 32 168 80 32 168 80 32 168 80 32 168 80 32 168 80 32 168 80 32 168 80 32 168 80 32 168 80 32 168 80 32 168 80 32 168 80 32 168 80 32 168 80 32 168 80 32 168 80 32 168 80 32 168 80 32 168 80 32 168 80 32 168 80 32 168 80 32 168 80 32 168 80 32 168 80 32 40 80 32 40 80 32 40 80 32 40 80 32 40 80 32 40 80 32 40 80 32 40 80 32 40 80 32 40 80 32 40 80 32 40 80 32 40 80 32 40 80 32 40 80 32 40 80 32 40 80 32 40 80 32 40 80 32 40 80 32 40 80 32 40 80 32 40 80 32 40 80 32 40 80 32 40 80 32 40 80 32 40 80 32 40 80 32 40 80 32 40 80 32 40 80 32 40 80 160 40 80 160 40 80 160 40 80 160 40 80 160 40 80 160 40 80 160 40 80 160 40 80 160 40 80 160 40 80 160 40 80 160 40 80 160 40 80 160 40 80 160 40 80 160 40 80 160 40 80 160 40 80 160 40 80 160 40 80 160 40 80 160 40 80 160 40 80 160 40 80 160 40 80 160 40 80 160 40 80 160 40 80 160 40 80 160 40 80 160 40 80 160 168 80 160 168 80 160 168 80 160 168 80 160 168 80 160 168 80 160 168 80 160 168 80 160 168 80 160 168 80 160 168 80 160 168 80 160 168 80 160 168 80 160 168 80 160 168 80 160 168 80 160 168 80 160 168 80 160 168 80 160 168 80 160 168 80 160 168 80 160 168 80 160 168 80 160 168 80 160 168 80 160 168 80 160 168 80 160 168 80 160 168 80 160 168 80 160
168 80 32 168 80 32 168 80 32 168 80 32 168 80 32 168 80 32 168 80 32 168 80 32 168 80 32 168 80 32 168 80 32 168 80 32 168 80 32 168 80 32 168 80 32 168 80 32 168 80 32 168 80 32 168 80 32 168 80 32 168 80 32 168 80 32 168 80 32 168 80 32 168 80 32 168 80 32 168 80 32 168 80 32 168 80 32 168 80 32 168 80 32 168 80 32 40 80 32 40 80 32 40 80 32 40 80 32 40 80 32 40 80 32 40 80 32 40 80 32 40 80 32 40 80 32 40 80 32 40 80 32 40 80 32 40 80 32 40 80 32 40 80 32 40 80 32 40 80 32 40 80 32 40 80 32 40 80 32 40 80 32 40 80 32 40 80 32 40 80 32 40 80 32 40 80 32 40 80 32 40 80 32 40 80 32 40 80 32 40 80 32 40 80 160 40 80 160 40 80 160 40 80 160 40 80 160 40 80 160 40 80 160 40 80 160 40 80 160 40 80 160 40 80 160 40 80 160 40 80 160 40 80 160 40 80 160 40 80 160 40 80 160 40 80 160 40 80 160 40 80 160 40 80 160 40 80 160 40 80 160 40 80 160 40 80 160 40 80 160 40 80 160 40 80 160 40 80 160 40 80 160 40 80 160 40 80 160 168 80 160 168 80 160 168 80 160 168 80 160 168 80 160 168 80 160 168 80 160 168 80 160 168 80 160 168 80 160 168 80 160 168 80 160 168 80 160 168 80 160 168 80 160 168 80 160 168 80 160 168 80 160 168 80 160 168 80 160 168 80 160 168 80 160 168 80 160 168 80 160 168 80 160 168 80 160 168 80 160 168 80 160 168 80 160 168 80 160 168 80 160 168 80 160
168 80 32 168 80 32 168 80 32 168 80 32 168 80 32 168 80 32 168 80 32 168 80 32 168 80 32 168 80 32 168 80 32 168 80 32 168 80 32 168 80 32 168 80 32 168 80 32 168 80 32 168 80 32 168 80 32 168 80 32 168 80 32 168 80 32 168 80 32 168 80 32 168 80 32 168 80 32 168 80 32 168 80 32 168 80 32 168 80 32 168 80 32 168 80 32 40 80 32 40 80 32 40 80 32 40 80 32 40 80 32 40 80 32 40 80 32 40 80 32 40 80 32 40 80 32 40 80 32 40 80 32 40 80 32 40 80 32 40 80 32 40 80 32 40 80 32 40 80 32 40 80 32 40 80 32 40 80 32 40 80 32 40 80 32 40 80 32 40 80 32 40 80 32 40 80 32 40 80 32 40 80 32 40 80 32 40 80 32 40 80 32 40 80 160 40 80 160 40 80 160 40 80 160 40 80 160 40 80 160 40 80 160 40 80 160 40 80 160 40 80 160 40 80 160 40 80 160 40 80 160 40 80 160 40 80 160 40 80 160 40 80 160 40 80 160 40 80 160 40 80 160 40 80 160 40 80 160 40 80 160 40 80 160 40 80 160 40 80 160 40 80 160 40 80 160 40 80 160 40 80 160 40 80 160 40 80 160 168 80 160 168 80 160 168 80 160 168 80 160 168 80 160 168 80 160 168 80 160 168 80 160 168 80 160 168 80 160 168 80 160 168 80 160 168 80 160 168 80 160 168 80 160 168 80 160 168 80 160 168 80 160 168 80 160 168 80 160 168 80 160 168 80 160 168 80 160 168 80 160 168 80 160 168 80 160 168 80 160 168 80 160 168 80 160 168 80 160 168 80 160 168 80 160
168 80 32 168 80 32 168 80 32 168 80 32 168 80 32 168 80 32 168 80 32 168 80 32 168 80 32 168 80 32 168 80 32 168 80 32 168 80 32 168 80 32 168 80 32 168 80 32 168 80 32 168 80 32 168 80 32 168 80 32 168 80 32 168 80 32 168 80 32 168 80 32 168 80 32 168 80 32 168 80 32 168 80 32 168 80 32 168 80 32 168 80 32 168 80 32 40 80 32 40 80 32 40 80 32 40 80 32 40 80 32 40 80 32 40 80 32 40 80 32 40 80 32 40 80 32 40 80 32 40 80 32 40 80 32 40 80 32 40 80 32 40 80 32 40 80 32 40 80 32 40 80 32 40 80 32 40 80 32 40 80 32 40 80 32 40 80 32 40 80 32 40 80 32 40 80 32 40 80 32 40 80 32 40 80 32 40 80 32 40 80 32 40 80 160 40 80 160 40 80 160 40 80 160 40 80 160 40 80 160 40 80 160 40 80 160 40 80 160 40 80 160 40 80 160 40 80 160 40 80 160 40 80 160 40 80 160 40 80 160 40 80 160 40 80 160 40 80 160 40 80 160 40 80 160 40 80 160 40 80 160 40 80 160 40 80 160 40 80 160 40 80 160 40 80 160 40 80 160 40 80 160 40 80 160 40 80 160 168 80 160 168 80 160 168 80 160 168 80 160 168 80 160 168 80 160 168 80 160 168 80 160 168 80 160 168 80 160 168 80 160 168 80 160 168 80 160 168 80 160 168 80 160 168 80 160 168 80 160 168 80 160 168 80 160 168 80 160 168 80 160 168 80 160 168 80 160 168 80 160 168 80 160 168 80 160 168 80 160 168 80 160 168 80 160 168 80 160 168 80 160 168 80 160
168 80 32 168 80 32 168 80 32 168 80 32 168 80 32 168 80 32 168 80 32 168 80 32 168 80 32 168 80 32 168 80 32 168 80 32 168 80 32 168 80 32 168 80 32 168 80 32 168 80 32 168 80 32 168 80 32 168 80 32 168 80 32 168 80 32 168 80 32 168 80 32 168 80 32 168 80 32 168 80 32 168 80 32 168 80 32 168 80 32 168 80 32 168 80 32 40 80 32 40 80 32 40 80 32 40 80 32 40 80 32 40 80 32 40 80 32 40 80 32 40 80 32 40 80 32 40 80 32 40 80 32 40 80 32 40 80 32 40 80 32 40 80 32 40 80 32 40 80 32 40 80 32 40 80 32 40 80 32 40 80 32 40 80 32 40 80 32 40 80 32 40 80 32 40 80 32 40 80 32 40 80 32 40 80 32 40 80 32 40 80 32 40 80 160 40 80 160 40 80 160 40 80 160 40 80 160 40 80 160 40 80 160 40 80 160 40 80 160 40 80 160 40 80 160 40 80 160 40 80 160 40 80 160 40 80 160 40 80 160 40 80 160 40 80 160 40 80 160 40 80 160 40 80 160 40 80 160 40 80 160 40 80 160 40 80 160 40 80 160 40 80 160 40 80 160 40 80 160 40 80 160 40 80 160 40 80 160 168 80 160 168 80 160 168 80 160 168 80 160 168 80 160 168 80 160 168 80 160 168 80 160 168 80 160 168 80 160 168 80 160 168 80 160 168 80 160 168 80 160 168 80 160 168 80 160 168 80 160 168 80 160 168 80 160 168 80 160 168 80 160 168 80 160 168 80 160 168 80 160 168 80 160 168 80 160 168 80 160 168 80 160 168 80 160 168 80 160 168 80 160 168 80 160
168 80 32 168 80 32 168 80 32 168 80 32 168 80 32 168 80 32 168 80 32 168 80 32 168 80 32 168 80 32 168 80 32 168 80 32 168 80 32 168 80 32 168 80 32 168 80 32 168 80 32 168 80 32 168 80 32 168 80 32 168 80 32 168 80 32 168 80 32 168 80 32 168 80 32 168 80 32 168 80 32 168 80 32 168 80 32 168 80 32 168 80 32 168 80 32 40 80 32 40 80 32 40 80 32 40 80 32 40 80 32 40 80 32 40 80 32 40 80 32 40 80 32 40 80 32 40 80 32 40 80 32 40 80 32 40 80 32 40 80 32 40 80 32 40 80 32 40 80 32 40 80 32 40 80 32 40 80 32 40 80 32 40 80 32 40 80 32 40 80 32 40 80 32 40 80 32 40 80 32 40 80 32 40 80 32 40 80 32 40 80 32 40 80 160 40 80 160 40 80 160 40 80 160 40 80 160 40 80 160 40 80 160 40 80 160 40 80 160 40 80 160 40 80 160 40 80 160 40 80 160 40 80 160 40 80 160 40 80 160 40 80 160 40 80 160 40 80 160 40 80 160 40 80 160 40 80 160 40 80 160 40 80 160 40 80 160 40 80 160 40 80 160 40 80 160 40 80 160 40 80 160 40 80 160 40 80 160 168 80 160 168 80 160 168 80 160 168 80 160 168 80 160 168 80 160 168 80 160 168 80 160 168 80 160 168 80 160 168 80 160 168 80 160 168 80 160 168 80 160 168 80 160 168 80 160 168 80 160 168 80 160 168 80 160 168 80 160 168 80 160 168 80 160 168 80 160 168 80 160 168 80 160 168 80 160 168 80 160 168 80 160 168 80 160 168 80 160 168 80 160 168 80 160
168 80 32 168 80 32 168 80 32 168 80 32 168 80 32 168 80 32 168 80 32 168 80 32 168 80 32 168 80 32 168 80 32 168 80 32 168 80 32 168 80 32 168 80 32 168 80 32 168 80 32 168 80 32 168 80 32 168 80 32 168 80 32 168 80 32 168 80 32 168 80 32 168 80 32 168 80 32 168 80 32 168 80 32 168 80 32 168 80 32 168 80 32 168 80 32 40 80 32 40 80 32 40 80 32 40 80 32 40 80 32 40 80 32 40 80 32 40 80 32 40 80 32 40 80 32 40 80 32 40 80 32 40 80 32 40 80 32 40 80 32 40 80 32 40 80 32 40 80 32 40 80 32 40 80 32 40 80 32 40 80 32 40 80 32 40 80 32 40 80 32 40 80 32 40 80 32 40 80 32 40 80 32 40 80 32 40 80 32 40 80 32 40 80 160 40 80 160 40 80 160 40 80 160 40 80 160 40 80 160 40 80 160 40 80 160 40 80 160 40 80 160 40 80 160 40 80 160 40 80 160 40 80 160 40 80 160 40 80 160 40 80 160 40 80 160 40 80 160 40 80 160 40 80 160 40 80 160 40 80 160 40 80 160 40 80 160 40 80 160 40 80 160 40 80 160 40 80 160 40 80 160 40 80 160 40 80 160 168 80 160 168 80 160 168 80 160 168 80 160 168 80 160 168 80 160 168 80 160 168 80 160 168 80 160 168 80 160 168 80 160 168 80 160 168 80 160 168 80 160 168 80 160 168 80 160 168 80 160 168 80 160 168 80 160 168 80 160 168 80 160 168 80 160 168 80 160 168 80 160 168 80 160 168 80 160 168 80 160 168 80 160 168 80 160 168 80 160 168 80 160 168 80 160
168 80 32 168 80 32 168 80 32 168 80 32 168 80 32 168 80 32 168 80 32 168 80 32 168 80 32 168 80 32 168 80 32 168 80 32 168 80 32 168 80 32 168 80 32 168 80 32 168 80 32 168 80 32 168 80 32 168 80 32 168 80 32 168 80 32 168 80 32 168 80 32 168 80 32 168 80 32 168 80 32 168 80 32 168 80 32 168 80 32 168 80 32 168 80 32 40 80 32 40 80 32 40 80 32 40 80 32 40 80 32 40 80 32 40 80 32 40 80 32 40 80 32 40 80 32 40 80 32 40 80 32 40 80 32 40 80 32 40 80 32 40 80 32 40 80 32 40 80 32 40 80 32 40 80 32 40 80 32 40 80 32 40 80 32 40 80 32 40 80 32 40 80 32 40 80 32 40 80 32 40 80 32 40 80 32 40 80 32 40 80 32 40 80 160 40 80 160 40 80 160 40 80 160 40 80 160 40 80 160 40 80 160 40 80 160 40 80 160 40 80 160 40 80 160 40 80 160 40 80 160 40 80 160 40 80 160 40 80 160 40 80 160 40 80 160 40 80 160 40 80 160 40 80 160 40 80 160 40 80 160 40 80 160 40 80 160 40 80 160 40 80 160 40 80 160 40 80 160 40 80 160 40 80 160 40 80 160 168 80 160 168 80 160 168 80 160 168 80 160 168 80 160 168 80 160 168 80 160 168 80 160 168 80 160 168 80 160 168 80 160 168 80 160 168 80 160 168 80 160 168 80 160 168 80 160 168 80 160 168 80 160 168 80 160 168 80 160 168 80 160 168 80 160 168 80 160 168 80 160 168 80 160 168 80 160 168 80 160 168 80 160 168 80 160 168 80 160 168 80 160 168 80 160
168 80 32 168 80 32 168 80 32 168 80 32 168 80 32 168 80 32 168 80 32 168 80 32 168 80 32 168 80 32 168 80 32 168 80 32 168 80 32 168 80 32 168 80 32 168 80 32 168 80 32 168 80 32 168 80 32 168 80 32 168 80 32 168 80 32 168 80 32 168 80 32 168 80 32 168 80 32 168 80 32 168 80 32 168 80 32 168 80 32 168 80 32 168 80 32 40 80 32 40 80 32 40 80 32 40 80 32 40 80 32 40 80 32 40 80 32 40 80 32 40 80 32 40 80 32 40 80 32 40 80 32 40 80 32 40 80 32 40 80 32 40 80 32 40 80 32 40 80 32 40 80 32 40 80 32 40 80 32 40 80 32 40 80 32 40 80 32 40 80 32 40 80 32 40 80 32 40 80 32 40 80 32 40 80 32 40 80 32 40 80 32 40 80 160 40 80 160 40 80 160 40 80 160 40 80 160 40 80 160 40 80 160 40 80 160 40 80 160 40 80 160 40 80 160 40 80 160 40 80 160 40 80 160 40 80 160 40 80 160 40 80 160 40 80 160 40 80 160 40 80 160 40 80 160 40 80 160 40 80 160 40 80 160 40 80 160 40 80 160 40 80 160 40 80 160 40 80 160 40 80 160 40 80 160 40 80 160 168 80 160 168 80 160 168 80 160 168 80 160 168 80 160 168 80 160 168 80 160 168 80 160 168 80 160 168 80 160 168 80 160 168 80 160 168 80 160 168 80 160 168 80 160 168 80 160 168 80 160 168 80 160 168 80 160 168 80 160 168 80 160 168 80 160 168 80 160 168 80 160 168 80 160 168 80 160 168 80 160 168 80 160 168 80 160 168 80 160 168 80 160 168 80 160
168 80 32 168 80 32 168 80 32 168 80 32 168 80 32 168 80 32 168 80 32 168 80 32 168 80 32 168 80 32 168 80 32 168 80 32 168 80 32 168 80 32 168 80 32 168 80 32 168 80 32 168 80 32 168 80 32 168 80 32 168 80 32 168 80 32 168 80 32 168 80 32 168 80 32 168 80 32 168 80 32 168 80 32 168 80 32 168 80 32 168 80 32 168 80 32 40 80 32 40 80 32 40 80 32 40 80 32 40 80 32 40 80 32 40 80 32 40 80 32 40 80 32 40 80 32 40 80 32 40 80 32 40 80 32 40 80 32 40 80 32 40 80 32 40 80 32 40 80 32 40 80 32 40 80 32 40 80 32 40 80 32 40 80 32 40 80 32 40 80 32 40 80 32 40 80 32 40 80 32 40 80 32 40 80 32 40 80 32 40 80 32 40 80 160 40 80 160 40 80 160 40 80 160 40 80 160 40 80 160 40 80 160 40 80 160 40 80 160 40 80 160 40 80 160 40 80 160 40 80 160 40 80 160 40 80 160 40 80 160 40 80 160 40 80 160 40 80 160 40 80 160 40 80 160 40 80 160 40 80 160 40 80 160 40 80 160 40 80 160 40 80 160 40 80 160 40 80 160 40 80 160 40 80 160 40 80 160 168 80 160 168 80 160 168 80 160 168 80 160 168 80 160 168 80 160 168 80 160 168 80 160 168 80 160 168 80 160 168 80 160 168 80 160 168 80 160 168 80 160 168 80 160 168 80 160 168 80 160 168 80 160 168 80 160 168 80 160 168 80 160 168 80 160 168 80 160 168 80 160 168 80 160 168 80 160 168 80 160 168 80 160 168 80 160 168 80 160 168 80 160 168 80 160
168 80 32 168 80 32 168 80 32 168 80 32 168 80 32 168 80 32 168 80 32 168 80 32 168 80 32 168 80 32 168 80 32 168 80 32 168 80 32 168 80 32 168 80 32 168 80 32 168 80 32 168 80 32 168 80 32 168 80 32 168 80 32 168 80 32 168 80 32 168 80 32 168 80 32 168 80 32 168 80 32 168 80 32 168 80 32 168 80 32 168 80 32 168 80 32 40 80 32 40 80 32 40 80 32 40 80 32 40 80 32 40 80 32 40 80 32 40 80 32 40 80 32 40 80 32 40 80 32 40 80 32 40 80 32 40 80 32 40 80 32 40 80 32 40 80 32 40 80 32 40 80 32 40 80 32 40 80 32 40 80 32 40 80 32 40 80 32 40 80 32 40 80 32 40 80 32 40 80 32 40 80 32 40 80 32 40 80 32 40 80 32 40 80 160 40 80 160 40 80 160 40 80 160 40 80 160 40 80 160 40 80 160 40 80 160 40 80 160 40 80 160 40 80 160 40 80 160 40 80 160 40 80 160 40 80 160 40 80 160 40 80 160 40 80 160 40 80 160 40 80 160 40 80 160 40 80 160 40 80 160 40 80 160 40 80 160 40 80 160 40 80 160 40 80 160 40 80 160 40 80 160 40 80 160 40 80 160 168 80 160 168 80 160 168 80 160 168 80 160 168 80 160 168 80 160 168 80 160 168 80 160 168 80 160 168 80 160 168 80 160 168 80 160 168 80 160 168 80 160 168 80 160 168 80 160 168 80 160 168 80 160 168 80 160 168 80 160 168 80 160 168 80 160 168 80 160 168 80 160 168 80 160 168 80 160 168 80 160 168 80 160 168 80 160 168 80 160 168 80 160 168 80 160
168 80 32 168 80 32 168 80 32 168 80 32 168 80 32 168 80 32 168 80 32 168 80 32 168 80 32 168 80 32 168 80 32 168 80 32 168 80 32 168 80 32 168 80 32 168 80 32 168 80 32 168 80 32 168 80 32 168 80 32 168 80 32 168 80 32 168 80 32 168 80 32 168 80 32 168 80 32 168 80 32 168 80 32 168 80 32 168 80 32 168 80 32 168 80 32 40 80 32 40 80 32 40 80 32 40 80 32 40 80 32 40 80 32 40 80 32 40 80 32 40 80 32 40 80 32 40 80 32 40 80 32 40 80 32 40 80 32 40 80 32 40 80 32 40 80 32 40 80 32 40 80 32 40 80 32 40 80 32 40 80 32 40 80 32 40 80 32 40 80 32 40 80 32 40 80 32 40 80 32 40 80 32 40 80 32 40 80 32 40 80 32 40 80 160 40 80 160 40 80 160 40 80 160 40 80 160 40 80 160 40 80 160 40 80 160 40 80 160 40 80 160 40 80 160 40 80 160 40 80 160 40 80 160 40 80 160 40 80 160 40 80 160 40 80 160 40 80 160 40 80 160 40 80 160 40 80 160 40 80 160 40 80 160 40 80 160 40 80 160 40 80 160 40 80 160 40 80 160 40 80 160 40 80 160 40 80 160 168 80 160 168 80 160 168 80 160 168 80 160 168 80 160 168 80 160 168 80 160 168 80 160 168 80 160 168 80 160 168 80 160 168 80 160 168 80 160 168 80 160 168 80 160 168 80 160 168 80 160 168 80 160 168 80 160 168 80 160 168 80 160 168 80 160 168 80 160 168 80 160 168 80 160 168 80 160 168 80 160 168 80 160 168 80 160 168 80 160 168 80 160 168 80 160
168 80 32 168 80 32 168 80 32 168 80 32 168 80 32 168 80 32 168 80 32 168 80 32 168 80 32 168 80 32 168 80 32 168 80 32 168 80 32 168 80 32 168 80 32 168 80 32 168 80 32 168 80 32 168 80 32 168 80 32 168 80 32 168 80 32 168 80 32 168 80 32 168 80 32 168 80 32 168 80 32 168 80 32 168 80 32 168 80 32 168 80 32 168 80 32 40 80 32 40 80 32 40 80 32 40 80 32 40 80 32 40 80 32 40 80 32 40 80 32 40 80 32 40 80 32 40 80 32 40 80 32 40 80 32 40 80 32 40 80 32 40 80 32 40 80 32 40 80 32 40 80 32 40 80 32 40 80 32 40 80 32 40 80 32 40 80 32 40 80 32 40 80 32 40 80 32 40 80 32 40 80 32 40 80 32 40 80 32 40 80 32 40 80 160 40 80 160 40 80 160 40 80 160 40 80 160 40 80 160 40 80 160 40 80 160 40 80 160 40 80 160 40 80 160 40 80 160 40 80 160 40 80 160 40 80 160 40 80 160 40 80 160 40 80 160 40 80 160 40 80 160 40 80 160 40 80 160 40 80 160 40 80 160 40 80 160 40 80 160 40 80 160 40 80 160 40 80 160 40 80 160 40 80 160 40 80 160 168 80 160 168 80 160 168 80 160 168 80 160 168 80 160 168 80 160 168 80 160 168 80 160 168 80 160 168 80 160 168 80 160 168 80 160 168 80 160 168 80 160 168 80 160 168 80 160 168 80 160 168 80 160 168 80 160 168 80 160 168 80 160 168 80 160 168 80 160 168 80 160 168 80 160 168 80 160 168 80 160 168 80 160 168 80 160 168 80 160 168 80 160 168 80 160
168 80 32 168 80 32 168 80 32 168 80 32 168 80 32 168 80 32 168 80 32 168 80 32 168 80 32 168 80 32 168 80 32 168 80 32 168 80 32 168 80 32 168 80 32 168 80 32 168 80 32 168 80 32 168 80 32 168 80 32 168 80 32 168 80 32 168 80 32 168 80 32 168 80 32 168 80 32 168 80 32 168 80 32 168 80 32 168 80 32 168 80 32 168 80 32 40 80 32 40 80 32 40 80 32 40 80 32 40 80 32 40 80 32 40 80 32 40 80 32 40 80 32 40 80 32 40 80 32 40 80 32 40 80 32 40 80 32 40 80 32 40 80 32 40 80 32 40 80 32 40 80 32 40 80 32 40 80 32 40 80 32 40 80 32 40 80 32 40 80 32 40 80 32 40 80 32 40 80 32 40 80 32 40 80 32 40 80 32 40 80 32 40 80 160 40 80 160 40 80 160 40 80 160 40 80 160 40 80 160 40 80 160 40 80 160 40 80 160 40 80 160 40 80 160 40 80 160 40 80 160 40 80 160 40 80 160 40 80 160 40 80 160 40 80 160 40 80 160 40 80 160 40 80 160 40 80 160 40 80 160 40 80 160 40 80 160 40 80 160 40 80 160 40 80 160 40 80 160 40 80 160 40 80 160 40 80 160 168 80 160 168 80 160 168 80 160 168 80 160 168 80 160 168 80 160 168 80 160 168 80 160 168 80 160 168 80 160 168 80 160 168 80 160 168 80 160 168 80 160 168 80 160 168 80 160 168 80 160 168 80 160 168 80 160 168 80 160 168 80 160 168 80 160 168 80 160 168 80 160 168 80 160 168 80 160 168 80 160 168 80 160 168 80 160 168 80 160 168 80 160 168 80 160
168 80 32 168 80 32 168 80 32 168 80 32 168 80 32 168 80 32 168 80 32 168 80 32 168 80 32 168 80 32 168 80 32 168 80 32 168 80 32 168 80 32 168 80 32 168 80 32 168 80 32 168 80 32 168 80 32 168 80 32 168 80 32 168 80 32 168 80 32 168 80 32 168 80 32 168 80 32 168 80 32 168 80 32 168 80 32 168 80 32 168 80 32 168 80 32 40 80 32 40 80 32 40 80 32 40 80 32 40 80 32 40 80 32 40 80 32 40 80 32 40 80 32 40 80 32 40 80 32 40 80 32 40 80 32 40 80 32 40 80 32 40 80 32 40 80 32 40 80 32 40 80 32 40 80 32 40 80 32 40 80 32 40 80 32 40 80 32 40 80 32 40 80 32 40 80 32 40 80 32 40 80 32 40 80 32 40 80 32 40 80 32 40 80 160 40 80 160 40 80 160 40 80 160 40 80 160 40 80 160 40 80 160 40 80 160 40 80 160 40 80 160 40 80 160 40 80 160 40 80 160 40 80 160 40 80 160 40 80 160 40 80 160 40 80 160 40 80 160 40 80 160 40 80 160 40 80 160 40 80 160 40 80 160 40 80 160 40 80 160 40 80 160 40 80 160 40 80 160 40 80 160 40 80 160 40 80 160 168 80 160 168 80 160 168 80 160 168 80 160 168 80 160 168 80 160 168 80 160 168 80 160 168 80 160 168 80 160 168 80 160 168 80 160 168 80 160 168 80 160 168 80 160 168 80 160 168 80 160 168 80 160 168 80 160 168 80 160 168 80 160 168 80 160 168 80 160 168 80 160 168 80 160 168 80 160 168 80 160 168 80 160 168 80 160 168 80 160 168 80 160 168 80 160
168 80 32 168 80 32 168 80 32 168 80 32 168 80 32 168 80 32 168 80 32 168 80 32 168 80 32 168 80 32 168 80 32 168 80 32 168 80 32 168 80 32 168 80 32 168 80 32 168 80 32 168 80 32 168 80 32 168 80 32 168 80 32 168 80 32 168 80 32 168 80 32 168 80 32 168 80 32 168 80 32 168 80 32 168 80 32 168 80 32 168 80 32 168 80 32 40 80 32 40 80 32 40 80 32 40 80 32 40 80 32 40 80 32 40 80 32 40 80 32 40 80 32 40 80 32 40 80 32 40 80 32 40 80 32 40 80 32 40 80 32 40 80 32 40 80 32 40 80 32 40 80 32 40 80 32 40 80 32 40 80 32 40 80 32 40 80 32 40 80 32 40 80 32 40 80 32 40 80 32 40 80 32 40 80 32 40 80 32 40 80 32 40 80 160 40 80 160 40 80 160 40 80 160 40 80 160 40 80 160 40 80 160 40 80 160 40 80 160 40 80 160 40 80 160 40 80 160 40 80 160 40 80 160 40 80 160 40 80 160 40 80 160 40 80 160 40 80 160 40 80 160 40 80 160 40 80 160 40 80 160 40 80 160 40 80 160 40 80 160 40 80 160 40 80 160 40 80 160 40 80 160 40 80 160 40 80 160 168 80 160 168 80 160 168 80 160 168 80 160 168 80 160 168 80 160 168 80 160 168 80 160 168 80 160 168 80 160 168 80 160 168 80 160 168 80 160 168 80 160 168 80 160 168 80 160 168 80 160 168 80 160 168 80 160 168 80 160 168 80 160 168 80 160 168 80 160 168 80 160 168 80 160 168 80 160 168 80 160 168 80 160 168 80 160 168 80 160 168 80 160 168 80 160
168 80 32 168 80 32 168 80 32 168 80 32 168 80 32 168 80 32 168 80 32 168 80 32 168 80 32 168 80 32 168 80 32 168 80 32 168 80 32 168 80 32 168 80 32 168 80 32 168 80 32 168 80 32 168 80 32 168 80 32 168 80 32 168 80 32 168 80 32 168 80 32 168 80 32 168 80 32 168 80 32 168 80 32 168 80 32 168 80 32 168 80 32 168 80 32 40 80 32 40 80 32 40 80 32 40 80 32 40 80 32 40 80 32 40 80 32 40 80 32 40 80 32 40 80 32 40 80 32 40 80 32 40 80 32 40 80 32 40 80 32 40 80 32 40 80 32 40 80 32 40 80 32 40 80 32 40 80 32 40 80 32 40 80 32 40 80 32 40 80 32 40 80 32 40 80 32 40 80 32 40 80 32 40 80 32 40 80 32 40 80 32 40 80 160 40 80 160 40 80 160 40 80 160 40 80 160 40 80 160 40 80 160 40 80 160 40 80 160 40 80 160 40 80 160 40 80 160 40 80 160 40 80 160 40 80 160 40 80 160 40 80 160 40 80 160 40 80 160 40 80 160 40 80 160 40 80 160 40 80 160 40 80 160 40 80 160 40 80 160 40 80 160 40 80 160 40 80 160 40 80 160 40 80 160 40 80 160 168 80 160 168 80 160 168 80 160 168 80 160 168 80 160 168 80 160 168 80 160 168 80 160 168 80 160 168 80 160 168 80 160 168 80 160 168 80 160 168 80 160 168 80 160 168 80 160 168 80 160 168 80 160 168 80 160 168 80 160 168 80 160 168 80 160 168 80 160 168 80 160 168 80 160 168 80 160 168 80 160 168 80 160 168 80 160 168 80 160 168 80 160 168 80 160
168 80 32 168 80 32 168 80 32 168 80 32 168 80 32 168 80 32 168 80 32 168 80 32 168 80 32 168 80 32 168 80 32 168 80 32 168 80 32 168 80 32 168 80 32 168 80 32 168 80 32 168 80 32 168 80 32 168 80 32 168 80 32 168 80 32 168 80 32 168 80 32 168 80 32 168 80 32 168 80 32 168 80 32 168 80 32 168 80 32 168 80 32 168 80 32 40 80 32 40 80 32 40 80 32 40 80 32 40 80 32 40 80 32 40 80 32 40 80 32 40 80 32 40 80 32 40 80 32 40 80 32 40 80 32 40 80 32 40 80 32 40 80 32 40 80 32 40 80 32 40 80 32 40 80 32 40 80 32 40 80 32 40 80 32 40 80 32 40 80 32 40 80 32 40 80 32 40 80 32 40 80 32 40 80 32 40 80 32 40 80 32 40 80 160 40 80 160 40 80 160 40 80 160 40 80 160 40 80 160 40 80 160 40 80 160 40 80 160 40 80 160 40 80 160 40 80 160 40 80 160 40 80 160 40 80 160 40 80 160 40 80 160 40 80 160 40 80 160 40 80 160 40 80 160 40 80 160 40 80 160 40 80 160 40 80 160 40 80 160 40 80 160 40 80 160 40 80 160 40 80 160 40 80 160 40 80 160 168 80 160 168 80 160 168 80 160 168 80 160 168 80 160 168 80 160 168 80 160 168 80 160 168 80 160 168 80 160 168 80 160 168 80 160 168 80 160 168 80 160 168 80 160 168 80 160 168 80 160 168 80 160 168 80 160 168 80 160 168 80 160 168 80 160 168 80 160 168 80 160 168 80 160 168 80 160 168 80 160 168 80 160 168 80 160 168 80 160 168 80 160 168 80 160
168 80 32 168 80 32 168 80 32 168 80 32 168 80 32 168 80 32 168 80 32 168 80 32 168 80 32 168 80 32 168 80 32 168 80 32 168 80 32 168 80 32 168 80 32 168 80 32 168 80 32 168 80 32 168 80 32 168 80 32 168 80 32 168 80 32 168 80 32 168 80 32 168 80 32 168 80 32 168 80 32 168 80 32 168 80 32 168 80 32 168 80 32 168 80 32 40 80 32 40 80 32 40 80 32 40 80 32 40 80 32 40 80 32 40 80 32 40 80 32 40 80 32 40 80 32 40 80 32 40 80 32 40 80 32 40 80 32 40 80 32 40 80 32 40 80 32 40 80 32 40 80 32 40 80 32 40 80 32 40 80 32 40 80 32 40 80 32 40 80 32 40 80 32 40 80 32 40 80 32 40 80 32 40 80 32 40 80 32 40 80 32 40 80 160 40 80 160 40 80 160 40 80 160 40 80 160 40 80 160 40 80 160 40 80 160 40 80 160 40 80 160 40 80 160 40 80 160 40 80 160 40 80 160 40 80 160 40 80 160 40 80 160 40 80 160 40 80 160 40 80 160 40 80 160 40 80 160 40 80 160 40 80 160 40 80 160 40 80 160 40 80 160 40 80 160 40 80 160 40 80 160 40 80 160 40 80 160 168 80 160 168 80 160 168 80 160 168 80 160 168 80 160 168 80 160 168 80 160 168 80 160 168 80 160 168 80 160 168 80 160 168 80 160 168 80 160 168 80 160 168 80 160 168 80 160 168 80 160 168 80 160 168 80 160 168 80 160 168 80 160 168 80 160 168 80 160 168 80 160 168 80 160 168 80 160 168 80 160 168 80 160 168 80 160 168 80 160 168 80 160 168 80 160
168 80 32 168 80 32 168 80 32 168 80 32 168 80 32 168 80 32 168 80 32 168 80 32 168 80 32 168 80 32 168 80 32 168 80 32 168 80 32 168 80 32 168 80 32 168 80 32 168 80 32 168 80 32 168 80 32 168 80 32 168 80 32 168 80 32 168 80 32 168 80 32 168 80 32 168 80 32 168 80 32 168 80 32 168 80 32 168 80 32 168 80 32 168 80 32 40 80 32 40 80 32 40 80 32 40 80 32 40 80 32 40 80 32 40 80 32 40 80 32 40 80 32 40 80 32 40 80 32 40 80 32 40 80 32 40 80 32 40 80 32 40 80 32 40 80 32 40 80 32 40 80 32 40 80 32 40 80 32 40 80 32 40 80 32 40 80 32 40 80 32 40 80 32 40 80 32 40 80 32 40 80 32 40 80 32 40 80 32 40 80 32 40 80 160 40 80 160 40 80 160 40 80 160 40 80 160 40 80 160 40 80 160 40 80 160 40 80 160 40 80 160 40 80 160 40 80 160 40 80 160 40 80 160 40 80 160 40 80 160 40 80 160 40 80 160 40 80 160 40 80 160 40 80 160 40 80 160 40 80 160 40 80 160 40 80 160 40 80 160 40 80 160 40 80 160 40 80 160 40 80 160 40 80 160 40 80 160 168 80 160 168 80 160 168 80 160 168 80 160 168 80 160 168 80 160 168 80 160 168 80 160 168 80 160 168 80 160 168 80 160 168 80 160 168 80 160 168 80 160 168 80 160 168 80 160 168 80 160 168 80 160 168 80 160 168 80 160 168 80 160 168 80 160 168 80 160 168 80 160 168 80 160 168 80 160 168 80 160 168 80 160 168 80 160 168 80 160 168 80 160 168 80 160
168 80 32 168 80 32 168 80 32 168 80 32 168 80 32 168 80 32 168 80 32 168 80 32 168 80 32 168 80 32 168 80 32 168 80 32 168 80 32 168 80 32 168 80 32 168 80 32 168 80 32 168 80 32 168 80 32 168 80 32 168 80 32 168 80 32 168 80 32 168 80 32 168 80 32 168 80 32 168 80 32 168 80 32 168 80 32 168 80 32 168 80 32 168 80 32 40 80 32 40 80 32 40 80 32 40 80 32 40 80 32 40 80 32 40 80 32 40 80 32 40 80 32 40 80 32 40 80 32 40 80 32 40 80 32 40 80 32 40 80 32 40 80 32 40 80 32 40 80 32 40 80 32 40 80 32 40 80 32 40 80 32 40 80 32 40 80 32 40 80 32 40 80 32 40 80 32 40 80 32 40 80 32 40 80 32 40 80 32 40 80 32 40 80 160 40 80 160 40 80 160 40 80 160 40 80 160 40 80 160 40 80 160 40 80 160 40 80 160 40 80 160 40 80 160 40 80 160 40 80 160 40 80 160 40 80 160 40 80 160 40 80 160 40 80 160 40 80 160 40 80 160 40 80 160 40 80 160 40 80 160 40 80 160 40 80 160 40 80 160 40 80 160 40 80 160 40 80 160 40 80 160 40 80 160 40 80 160 168 80 160 168 80 160 168 80 160 168 80 160 168 80 160 168 80 160 168 80 160 168 80 160 168 80 160 168 80 160 168 80 160 168 80 160 168 80 160 168 80 160 168 80 160 168 80 160 168 80 160 168 80 160 168 80 160 168 80 160 168 80 160 168 80 160 168 80 160 168 80 160 168 80 160 168 80 160 168 80 160 168 80 160 168 80 160 168 80 160 168 80 160 168 80 160
168 80 32 168 80 32 168 80 32 168 80 32 168 80 32 168 80 32 168 80 32 168 80 32 168 80 32 168 80 32 168 80 32 168 80 32 168 80 32 168 80 32 168 80 32 168 80 32 168 80 32 168 80 32 168 80 32 168 80 32 168 80 32 168 80 32 168 80 32 168 80 32 168 80 32 168 80 32 168 80 32 168 80 32 168 80 32 168 80 32 168 80 32 168 80 32 40 80 32 40 80 32 40 80 32 40 80 32 40 80 32 40 80 32 40 80 32 40 80 32 40 80 32 40 80 32 40 80 32 40 80 32 40 80 32 40 80 32 40 80 32 40 80 32 40 80 32 40 80 32 40 80 32 40 80 32 40 80 32 40 80 32 40 80 32 40 80 32 40 80 32 40 80 32 40 80 32 40 80 32 40 80 32 40 80 32 40 80 32 40 80 32 40 80 160 40 80 160 40 80 160 40 80 160 40 80 160 40 80 160 40 80 160 40 80 160 40 80 160 40 80 160 40 80 160 40 80 160 40 80 160 40 80 160 40 80 160 40 80 160 40 80 160 40 80 160 40 80 160 40 80 160 40 80 160 40 80 160 40 80 160 40 80 160 40 80 160 40 80 160 40 80 160 40 80 160 40 80 160 40 80 160 40 80 160 40 80 160 168 80 160 168 80 160 168 80 160 168 80 160 168 80 160 168 80 160 168 80 160 168 80 160 168 80 160 168 80 160 168 80 160 168 80 160 168 80 160 168 80 160 168 80 160 168 80 160 168 80 160 168 80 160 168 80 160 168 80 160 168 80 160 168 80 160 168 80 160 168 80 160 168 80 160 168 80 160 168 80 160 168 80 160 168 80 160 168 80 160 168 80 160 168 80 160
168 80 32 168 80 32 168 80 32 168 80 32 168 80 32 168 80 32 168 80 32 168 80 32 168 80 32 168 80 32 168 80 32 168 80 32 168 80 32 168 80 32 168 80 32 168 80 32 168 80 32 168 80 32 168 80 32 168 80 32 168 80 32 168 80 32 168 80 32 168 80 32 168 80 32 168 80 32 168 80 32 168 80 32 168 80 32 168 80 32 168 80 32 168 80 32 40 80 32 40 80 32 40 80 32 40 80 32 40 80 32 40 80 32 40 80 32 40 80 32 40 80 32 40 80 32 40 80 32 40 80 32 40 80 32 40 80 32 40 80 32 40 80 32 40 80 32 40 80 32 40 80 32 40 80 32 40 80 32 40 80 32 40 80 32 40 80 32 40 80 32 40 80 32 40 80 32 40 80 32 40 80 32 40 80 32 40 80 32 40 80 32 40 80 160 40 80 160 40 80 160 40 80 160 40 80 160 40 80 160 40 80 160 40 80 160 40 80 160 40 80 160 40 80 160 40 80 160 40 80 160 40 80 160 40 80 160 40 80 160 40 80 160 40 80 160 40 80 160 40 80 160 40 80 160 40 80 160 40 80 160 40 80 160 40 80 160 40 80 160 40 80 160 40 80 160 40 80 160 40 80 160 40 80 160 40 80 160 168 80 160 168 80 160 168 80 160 168 80 160 168 80 160 168 80 160 168 80 160 168 80 160 168 80 160 168 80 160 168 80 160 168 80 160 168 80 160 168 80 160 168 80 160 168 80 160 168 80 160 168 80 160 168 80 160 168 80 160 168 80 160 168 80 160 168 80 160 168 80 160 168 80 160 168 80 160 168 80 160 168 80 160 168 80 160 168 80 160 168 80 160 168 80 160
168 80 32 168 80 32 168 80 32 168 80 32 168 80 32 168 80 32 168 80 32 168 80 32 168 80 32 168 80 32 168 80 32 168 80 32 168 80 32 168 80 32 168 80 32 168 80 32 168 80 32 168 80 32 168 80 32 168 80 32 168 80 32 168 80 32 168 80 32 168 80 32 168 80 32 168 80 32 168 80 32 168 80 32 168 80 32 168 80 32 168 80 32 168 80 32 40 80 32 40 80 32 40 80 32 40 80 32 40 80 32 40 80 32 40 80 32 40 80 32 40 80 32 40 80 32 40 80 32 40 80 32 40 80 32 40 80 32 40 80 32 40 80 32 40 80 32 40 80 32 40 80 32 40 80 32 40 80 32 40 80 32 40 80 32 40 80 32 40 80 32 40 80 32 40 80 32 40 80 32 40 80 32 40 80 32 40 80 32 40 80 32 40 80 160 40 80 160 40 80 160 40 80 160 40 80 160 40 80 160 40 80 160 40 80 160 40 80 160 40 80 160 40 80 160 40 80 160 40 80 160 40 80 160 40 80 160 40 80 160 40 80 160 40 80 160 40 80 160 40 80 160 40 80 160 40 80 160 40 80 160 40 80 160 40 80 160 40 80 160 40 80 160 40 80 160 40 80 160 40 80 160 40 80 160 40 80 160 168 80 160 168 80 160 168 80 160 168 80 160 168 80 160 168 80 160 168 80 160 168 80 160 168 80 160 168 80 160 168 80 160 168 80 160 168 80 160 168 80 160 168 80 160 168 80 160 168 80 160 168 80 160 168 80 160 168 80 160 168 80 160 168 80 160 168 80 160 168 80 160 168 80 160 168 80 160 168 80 160 168 80 160 168 80 160 168 80 160 168 80 160 168 80 160
168 80 32 168 80 32 168 80 32 168 80 32 168 80 32 168 80 32 168 80 32 168 80 32 168 80 32 168 80 32 168 80 32 168 80 32 168 80 32 168 80 32 168 80 32 168 80 32 168 80 32 168 80 32 168 80 32 168 80 32 168 80 32 168 80 32 168 80 32 168 80 32 168 80 32 168 80 32 168 80 32 168 80 32 168 80 32 168 80 32 168 80 32 168 80 32 40 80 32 40 80 32 40 80 32 40 80 32 40 80 32 40 80 32 40 80 32 40 80 32 40 80 32 40 80 32 40 80 32 40 80 32 40 80 32 40 80 32 40 80 32 40 80 32 40 80 32 40 80 32 40 80 32 40 80 32 40 80 32 40 80 32 40 80 32 40 80 32 40 80 32 40 80 32 40 80 32 40 80 32 40 80 32 40 80 32 40 80 32 40 80 32 40 80 160 40 80 160 40 80 160 40 80 160 40 80 160 40 80 160 40 80 160 40 80 160 40 80 160 40 80 160 40 80 160 40 80 160 40 80 160 40 80 160 40 80 160 40 80 160 40 80 160 40 80 160 40 80 160 40 80 160 40 80 160 40 80 160 40 80 160 40 80 160 40 80 160 40 80 160 40 80 160 40 80 160 40 80 160 40 80 160 40 80 160 40 80 160 168 80 160 168 80 160 168 80 160 168 80 160 168 80 160 168 80 160 168 80 160 168 80 160 168 80 160 168 80 160 168 80 160 168 80 160 168 80 160 168 80 160 168 80 160 168 80 160 168 80 160 168 80 160 168 80 160 168 80 160 168 80 160 168 80 160 168 80 160 168 80 160 168 80 160 168 80 160 168 80 160 168 80 160 168 80 160 168 80 160 168 80 160 168 80 160
168 80 160 168 80 160 168 80 160 168 80 160 168 80 160 168 80 160 168 80 160 168 80 160 168 80 160 168 80 160 168 80 160 168 80 160 168 80 160 168 80 160 168 80 160 168 80 160 168 80 160 168 80 160 168 80 160 168 80 160 168 80 160 168 80 160 168 80 160 168 80 160 168 80 160 168 80 160 168 80 160 168 80 160 168 80 160 168 80 160 168 80 160 168 80 160 40 80 160 40 80 160 40 80 160 40 80 160 40 80 160 40 80 160 40 80 160 40 80 160 40 80 160 40 80 160 40 80 160 40 80 160 40 80 160 40 80 160 40 80 160 40 80 160 40 80 160 40 80 160 40 80 160 40 80 160 40 80 160 40 80 160 40 80 160 40 80 160 40 80 160 40 80 160 40 80 160 40 80 160 40 80 160 40 80 160 40 80 160 40 80 160 32 88 160 32 88 160 32 88 160 32 88 160 32 88 160 32 88 160 32 88 160 32 88 160 32 88 160 32 88 160 32 88 160 32 88 160 32 88 160 32 88 160 32 88 160 32 88 160 32 88 160 32 88 160 32 88 160 32 88 160 32 88 160 32 88 160 32 88 160 32 88 160 32 88 160 32 88 160 32 88 160 32 88 160 32 88 160 32 88 160 32 88 160 32 88 160 40 88 160 40 88 160 40 88 160 40 88 160 40 88 160 40 88 160 40 88 160 40 88 160 40 88 160 40 88 160 40 88 160 40 88 160 40 88 160 40 88 160 40 88 160 40 88 160 40 88 160 40 88 160 40 88 160 40 88 160 40 88 160 40 88 160 40 88 160 40 88 160 40 88 160 40 88 160 40 88 160 40 88 160 40 88 160 40 88 160 40 88 160 40 88 160
168 80 160 168 80 160 168 80 160 168 80 160 168 80 160 168 80 160 168 80 160 168 80 160 168 80 160 168 80 160 168 80 160 168 80 160 168 80 160 168 80 160 168 80 160 168 80 160 168 80 160 168 80 160 168 80 160 168 80 160 168 80 160 168 80 160 168 80 160 168 80 160 168 80 160 168 80 160 168 80 160 168 80 160 168 80 160 168 80 160 168 80 160 168 80 160 40 80 160 40 80 160 40 80 160 40 80 160 40 80 160 40 80 160 40 80 160 40 80 160 40 80 160 40 80 160 40 80 160 40 80 160 40 80 160 40 80 160 40 80 160 40 80 160 40 80 160 40 80 160 40 80 160 40 80 160 40 80 160 40 80 160 40 80 160 40 80 160 40 80 160 40 80 160 40 80 160 40 80 160 40 80 160 40 80 160 40 80 160 40 80 160 32 88 160 32 88 160 32 88 160 32 88 160 32 88 160 32 88 160 32 88 160 32 88 160 32 88 160 32 88 160 32 88 160 32 88 160 32 88 160 32 88 160 32 88 160 32 88 160 32 88 160 32 88 160 32 88 160 32 88 160 32 88 160 32 88 160 32 88 160 32 88 160 32 88 160 32 88 160 32 88 160 32 88 160 32 88 160 32 88 160 32 88 160 32 88 160 40 88 160 40 88 160 40 88 160 40 88 160 40 88 160 40 88 160 40 88 160 40 88 160 40 88 160 40 88 160 40 88 160 40 88 160 40 88 160 40 88 160 40 88 160 40 88 160 40 88 160 40 88 160 40 88 160 40 88 160 40 88 160 40 88 160 40 88 160 40 88 160 40 88 160 40 88 160 40 88 160 40 88 160 40 88 160 40 88 160 40 88 160 40 88 160
168 80 160 168 80 160 168 80 160 168 80 160 168 80 160 168 80 160 168 80 160 168 80 160 168 80 160 168 80 160 168 80 160 168 80 160 168 80 160 168 80 160 168 80 160 168 80 160 168 80 160 168 80 160 168 80 160 168 80 160 168 80 160 168 80 160 168 80 160 168 80 160 168 80 160 168 80 160 168 80 160 168 80 160 168 80 160 168 80 160 168 80 160 168 80 160 40 80 160 40 80 160 40 80 160 40 80 160 40 80 160 40 80 160 40 80 160 40 80 160 40 80 160 40 80 160 40 80 160 40 80 160 40 80 160 40 80 160 40 80 160 40 80 160 40 80 160 40 80 160 40 80 160 40 80 160 40 80 160 40 80 160 40 80 160 40 80 160 40 80 160 40 80 160 40 80 160 40 80 160 40 80 160 40 80 160 40 80 160 40 80 160 32 88 160 32 88 160 32 88 160 32 88 160 32 88 160 32 88 160 32 88 160 32 88 160 32 88 160 32 88 160 32 88 160 32 88 160 32 88 160 32 88 160 32 88 160 32 88 160 32 88 160 32 88 160 32 88 160 32 88 160 32 88 160 32 88 160 32 88 160 32 88 160 32 88 160 32 88 160 32 88 160 32 88 160 32 88 160 32 88 160 32 88 160 32 88 160 40 88 160 40 88 160 40 88 160 40 88 160 40 88 160 40 88 160 40 88 160 40 88 160 40 88 160 40 88 160 40 88 160 40 88 160 40 88 160 40 88 160 40 88 160 40 88 160 40 88 160 40 88 160 40 88 160 40 88 160 40 88 160 40 88 160 40 88 160 40 88 160 40 88 160 40 88 160 40 88 160 40 88 160 40 88 160 40 88 160 40 88 160 40 88 160
168 80 160 168 80 160 168 80 160 168 80 160 168 80 160 168 80 160 168 80 160 168 80 160 168 80 160 168 80 160 168 80 160 168 80 160 168 80 160 168 80 160 168 80 160 168 80 160 168 80 160 168 80 160 168 80 160 168 80 160 168 80 160 168 80 160 168 80 160 168 80 160 168 80 160 168 80 160 168 80 160 168 80 160 168 80 160 168 80 160 168 80 160 168 80 160 40 80 160 40 80 160 40 80 160 40 80 160 40 80 160 40 80 160 40 80 160 40 80 160 40 80 160 40 80 160 40 80 160 40 80 160 40 80 160 40 80 160 40 80 160 40 80 160 40 80 160 40 80 160 40 80 160 40 80 160 40 80 160 40 80 160 40 80 160 40 80 160 40 80 160 40 80 160 40 80 160 40 80 160 40 80 160 40 80 160 40 80 160 40 80 160 32 88 160 32 88 160 32 88 160 32 88 160 32 88 160 32 88 160 32 88 160 32 88 160 32 88 160 32 88 160 32 88 160 32 88 160 32 88 160 32 88 160 32 88 160 32 88 160 32 88 160 32 88 160 32 88 160 32 88 160 32 88 160 32 88 160 32 88 160 32 88 160 32 88 160 32 88 160 32 88 160 32 88 160 32 88 160 32 88 160 32 88 160 32 88 160 40 88 160 40 88 160 40 88 160 40 88 160 40 88 160 40 88 160 40 88 160 40 88 160 40 88 160 40 88 160 40 88 160 40 88 160 40 88 160 40 88 160 40 88 160 40 88 160 40 88 160 40 88 160 40 88 160 40 88 160 40 88 160 40 88 160 40 88 160 40 88 160 40 88 160 40 88 160 40 88 160 40 88 160 40 88 160 40 88 160 40 88 160 40 88 160
168 80 160 168 80 160 168 80 160 168 80 160 168 80 160 168 80 160 168 80 160 168 80 160 168 80 160 168 80 160 168 80 160 168 80 160 168 80 160 168 80 160 168 80 160 168 80 160 168 80 160 168 80 160 168 80 160 168 80 160 168 80 160 168 80 160 168 80 160 168 80 160 168 80 160 168 80 160 168 80 160 168 80 160 168 80 160 168 80 160 168 80 160 168 80 160 40 80 160 40 80 160 40 80 160 40 80 160 40 80 160 40 80 160 40 80 160 40 80 160 40 80 160 40 80 160 40 80 160 40 80 160 40 80 160 40 80 160 40 80 160 40 80 160 40 80 160 40 80 160 40 80 160 40 80 160 40 80 160 40 80 160 40 80 160 40 80 160 40 80 160 40 80 160 40 80 160 40 80 160 40 80 160 40 80 160 40 80 160 40 80 160 32 88 160 32 88 160 32 88 160 32 88 160 32 88 160 32 88 160 32 88 160 32 88 160 32 88 160 32 88 160 32 88 160 32 88 160 32 88 160 32 88 160 32 88 160 32 88 160 32 88 160 32 88 160 32 88 160 32 88 160 32 88 160 32 88 160 32 88 160 32 88 160 32 88 160 32 88 160 32 88 160 32 88 160 32 88 160 32 88 160 32 88 160 32 88 160 40 88 160 40 88 160 40 88 160 40 88 160 40 88 160 40 88 160 40 88 160 40 88 160 40 88 160 40 88 160 40 88 160 40 88 160 40 88 160 40 88 160 40 88 160 40 88 160 40 88 160 40 88 160 40 88 160 40 88 160 40 88 160 40 88 160 40 88 160 40 88 160 40 88 160 40 88 160 40 88 160 40 88 160 40 88 160 40 88 160 40 88 160 40 88 160
168 80 160 168 80 160 168 80 160 168 80 160 168 80 160 168 80 160 168 80 160 168 80 160 168 80 160 168 80 160 168 80 160 168 80 160 168 80 160 168 80 160 168 80 160 168 80 160 168 80 160 168 80 160 168 80 160 168 80 160 168 80 160 168 80 160 168 80 160 168 80 160 168 80 160 168 80 160 168 80 160 168 80 160 168 80 160 168 80 160 168 80 160 168 80 160 40 80 160 40 80 160 40 80 160 40 80 160 40 80 160 40 80 160 40 80 160 40 80 160 40 80 160 40 80 160 40 80 160 40 80 160 40 80 160 40 80 160 40 80 160 40 80 160 40 80 160 40 80 160 40 80 160 40 80 160 40 80 160 40 80 160 40 80 160 40 80 160 40 80 160 40 80 160 40 80 160 40 80 160 40 80 160 40 80 160 40 80 160 40 80 160 32 88 160 32 88 160 32 88 160 32 88 160 32 88 160 32 88 160 32 88 160 32 88 160 32 88 160 32 88 160 32 88 160 32 88 160 32 88 160 32 88 160 32 88 160 32 88 160 32 88 160 32 88 160 32 88 160 32 88 160 32 88 160 32 88 160 32 88 160 32 88 160 32 88 160 32 88 160 32 88 160 32 88 160 32 88 160 32 88 160 32 88 160 32 88 160 40 88 160 40 88 160 40 88 160 40 88 160 40 88 160 40 88 160 40 88 160 40 88 160 40 88 160 40 88 160 40 88 160 40 88 160 40 88 160 40 88 160 40 88 160 40 88 160 40 88 160 40 88 160 40 88 160 40 88 160 40 88 160 40 88 160 40 88 160 40 88 160 40 88 160 40 88 160 40 88 160 40 88 160 40 88 160 40 88 160 40 88 160 40 88 160
168 80 160 168 80 160 168 80 160 168 80 160 168 80 160 168 80 160 168 80 160 168 80 160 168 80 160 168 80 160 168 80 160 168 80 160 168 80 160 168 80 160 168 80 160 168 80 160 168 80 160 168 80 160 168 80 160 168 80 160 168 80 160 168 80 160 168 80 160 168 80 160 168 80 160 168 80 160 168 80 160 168 80 160 168 80 160 168 80 160 168 80 160 168 80 160 40 80 160 40 80 160 40 80 160 40 80 160 40 80 160 40 80 160 40 80 160 40 80 160 40 80 160 40 80 160 40 80 160 40 80 160 40 80 160 40 80 160 40 80 160 40 80 160 40 80 160 40 80 160 40 80 160 40 80 160 40 80 160 40 80 160 40 80 160 40 80 160 40 80 160 40 80 160 40 80 160 40 80 160 40 80 160 40 80 160 40 80 160 40 80 160 32 88 160 32 88 160 32 88 160 32 88 160 32 88 160 32 88 160 32 88 160 32 88 160 32 88 160 32 88 160 32 88 160 32 88 160 32 88 160 32 88 160 32 88 160 32 88 160 32 88 160 32 88 160 32 88 160 32 88 160 32 88 160 32 88 160 32 88 160 32 88 160 32 88 160 32 88 160 32 88 160 32 88 160 32 88 160 32 88 160 32 88 160 32 88 160 40 88 160 40 88 160 40 88 160 40 88 160 40 88 160 40 88 160 40 88 160 40 88 160 40 88 160 40 88 160 40 88 160 40 88 160 40 88 160 40 88 160 40 88 160 40 88 160 40 88 160 40 88 160 40 88 160 40 88 160 40 88 160 40 88 160 40 88 160 40 88 160 40 88 160 40 88 160 40 88 160 40 88 160 40 88 160 40 88 160 40 88 160 40 88 160
168 80 160 168 80 160 168 80 160 168 80 160 168 80 160 168 80 160 168 80 160 168 80 160 168 80 160 168 80 160 168 80 160 168 80 160 168 80 160 168 80 160 168 80 160 168 80 160 168 80 160 168 80 160 168 80 160 168 80 160 168 80 160 168 80 160 168 80 160 168 80 160 168 80 160 168 80 160 168 80 160 168 80 160 168 80 160 168 80 160 168 80 160 168 80 160 40 80 160 40 80 160 40 80 160 40 80 160 40 80 160 40 80 160 40 80 160 40 80 160 40 80 160 40 80 160 40 80 160 40 80 160 40 80 160 40 80 160 40 80 160 40 80 160 40 80 160 40 80 160 40 80 160 40 80 160 40 80 160 40 80 160 40 80 160 40 80 160 40 80 160 40 80 160 40 80 160 40 80 160 40 80 160 40 80 160 40 80 160 40 80 160 32 88 160 32 88 160 32 88 160 32 88 160 32 88 160 32 88 160 32 88 160 32 88 160 32 88 160 32 88 160 32 88 160 32 88 160 32 88 160 32 88 160 32 88 160 32 88 160 32 88 160 32 88 160 32 88 160 32 88 160 32 88 160 32 88 160 32 88 160 32 88 160 32 88 160 32 88 160 32 88 160 32 88 160 32 88 160 32 88 160 32 88 160 32 88 160 40 88 160 40 88 160 40 88 160 40 88 160 40 88 160 40 88 160 40 88 160 40 88 160 40 88 160 40 88 160 40 88 160 40 88 160 40 88 160 40 88 160 40 88 160 40 88 160 40 88 160 40 88 160 40 88 160 40 88 160 40 88 160 40 88 160 40 88 160 40 88 160 40 88 160 40 88 160 40 88 160 40 88 160 40 88 160 40 88 160 40 88 160 40 88 160
168 80 160 168 80 160 168 80 160 168 80 160 168 80 160 168 80 160 168 80 160 168 80 160 168 80 160 168 80 160 168 80 160 168 80 160 168 80 160 168 80 160 168 80 160 168 80 160 168 80 160 168 80 160 168 80 160 168 80 160 168 80 160 168 80 160 168 80 160 168 80 160 168 80 160 168 80 160 168 80 160 168 80 160 168 80 160 168 80 160 168 80 160 168 80 160 40 80 160 40 80 160 40 80 160 40 80 160 40 80 160 40 80 160 40 80 160 40 80 160 40 80 160 40 80 160 40 80 160 40 80 160 40 80 160 40 80 160 40 80 160 40 80 160 40 80 160 40 80 160 40 80 160 40 80 160 40 80 160 40 80 160 40 80 160 40 80 160 40 80 160 40 80 160 40 80 160 40 80 160 40 80 160 40 80 160 40 80 160 40 80 160 32 88 160 32 88 160 32 88 160 32 88 160 32 88 160 32 88 160 32 88 160 32 88 160 32 88 160 32 88 160 32 88 160 32 88 160 32 88 160 32 88 160 32 88 160 32 88 160 32 88 160 32 88 160 32 88 160 32 88 160 32 88 160 32 88 160 32 88 160 32 88 160 32 88 160 32 88 160 32 88 160 32 88 160 32 88 160 32 88 160 32 88 160 32 88 160 40 88 160 40 88 160 40 88 160 40 88 160 40 88 160 40 88 160 40 88 160 40 88 160 40 88 160 40 88 160 40 88 160 40 88 160 40 88 160 40 88 160 40 88 160 40 88 160 40 88 160 40 88 160 40 88 160 40 88 160 40 88 160 40 88 160 40 88 160 40 88 160 40 88 160 40 88 160 40 88 160 40 88 160 40 88 160 40 88 160 40 88 160 40 88 160
168 80 160 168 80 160 168 80 160 168 80 160 168 80 160 168 80 160 168 80 160 168 80 160 168 80 160 168 80 160 168 80 160 168 80 160 168 80 160 168 80 160 168 80 160 168 80 160 168 80 160 168 80 160 168 80 160 168 80 160 168 80 160 168 80 160 168 80 160 168 80 160 168 80 160 168 80 160 168 80 160 168 80 160 168 80 160 168 80 160 168 80 160 168 80 160 40 80 160 40 80 160 40 80 160 40 80 160 40 80 160 40 80 160 40 80 160 40 80 160 40 80 160 40 80 160 40 80 160 40 80 160 40 80 160 40 80 160 40 80 160 40 80 160 40 80 160 40 80 160 40 80 160 40 80 160 40 80 160 40 80 160 40 80 160 40 80 160 40 80 160 40 80 160 40 80 160 40 80 160 40 80 160 40 80 160 40 80 160 40 80 160 32 88 160 32 88 160 32 88 160 32 88 160 32 88 160 32 88 160 32 88 160 32 88 160 32 88 160 32 88 160 32 88 160 32 88 160 32 88 160 32 88 160 32 88 160 32 88 160 32 88 160 32 88 160 32 88 160 32 88 160 32 88 160 32 88 160 32 88 160 32 88 160 32 88 160 32 88 160 32 88 160 32 88 160 32 88 160 32 88 160 32 88 160 32 88 160 40 88 160 40 88 160 40 88 160 40 88 160 40 88 160 40 88 160 40 88 160 40 88 160 40 88 160 40 88 160 40 88 160 40 88 160 40 88 160 40 88 160 40 88 160 40 88 160 40 88 160 40 88 160 40 88 160 40 88 160 40 88 160 40 88 160 40 88 160 40 88 160 40 88 160 40 88 160 40 88 160 40 88 160 40 88 160 40 88 160 40 88 160 40 88 160
168 80 160 168 80 160 168 80 160 168 80 160 168 80 160 168 80 160 168 80 160 168 80 160 168 80 160 168 80 160 168 80 160 168 80 160 168 80 160 168 80 160 168 80 160 168 80 160 168 80 160 168 80 160 168 80 160 168 80 160 168 80 160 168 80 160 168 80 160 168 80 160 168 80 160 168 80 160 168 80 160 168 80 160 168 80 160 168 80 160 168 80 160 168 80 160 40 80 160 40 80 160 40 80 160 40 80 160 40 80 160 40 80 160 40 80 160 40 80 160 40 80 160 40 80 160 40 80 160 40 80 160 40 80 160 40 80 160 40 80 160 40 80 160 40 80 160 40 80 160 40 80 160 40 80 160 40 80 160 40 80 160 40 80 160 40 80 160 40 80 160 40 80 160 40 80 160 40 80 160 40 80 160 40 80 160 40 80 160 40 80 160 32 88 160 32 88 160 32 88 160 32 88 160 32 88 160 32 88 160 32 88 160 32 88 160 32 88 160 32 88 160 32 88 160 32 88 160 32 88 160 32 88 160 32 88 160 32 88 160 32 88 160 32 88 160 32 88 160 32 88 160 32 88 160 32 88 160 32 88 160 32 88 160 32 88 160 32 88 160 32 88 160 32 88 160 32 88 160 32 88 160 32 88 160 32 88 160 40 88 160 40 88 160 40 88 160 40 88 160 40 88 160 40 88 160 40 88 160 40 88 160 40 88 160 40 88 160 40 88 160 40 88 160 40 88 160 40 88 160 40 88 160 40 88 160 40 88 160 40 88 160 40 88 160 40 88 160 40 88 160 40 88 160 40 88 160 40 88 160 40 88 160 40 88 160 40 88 160 40 88 160 40 88 160 40 88 160 40 88 160 40 88 160
168 80 160 168 80 160 168 80 160 168 80 160 168 80 160 168 80 160 168 80 160 168 80 160 168 80 160 168 80 160 168 80 160 168 80 160 168 80 160 168 80 160 168 80 160 168 80 160 168 80 160 168 80 160 168 80 160 168 80 160 168 80 160 168 80 160 168 80 160 168 80 160 168 80 160 168 80 160 168 80 160 168 80 160 168 80 160 168 80 160 168 80 160 168 80 160 40 80 160 40 80 160 40 80 160 40 80 160 40 80 160 40 80 160 40 80 160 40 80 160 40 80 160 40 80 160 40 80 160 40 80 160 40 80 160 40 80 160 40 80 160 40 80 160 40 80 160 40 80 160 40 80 160 40 80 160 40 80 160 40 80 160 40 80 160 40 80 160 40 80 160 40 80 160 40 80 160 40 80 160 40 80 160 40 80 160 40 80 160 40 80 160 32 88 160 32 88 160 32 88 160 32 88 160 32 88 160 32 88 160 32 88 160 32 88 160 32 88 160 32 88 160 32 88 160 32 88 160 32 88 160 32 88 160 32 88 160 32 88 160 32 88 160 32 88 160 32 88 160 32 88 160 32 88 160 32 88 160 32 88 160 32 88 160 32 88 160 32 88 160 32 88 160 32 88 160 32 88 160 32 88 160 32 88 160 32 88 160 40 88 160 40 88 160 40 88 160 40 88 160 40 88 160 40 88 160 40 88 160 40 88 160 40 88 160 40 88 160 40 88 160 40 88 160 40 88 160 40 88 160 40 88 160 40 88 160 40 88 160 40 88 160 40 88 160 40 88 160 40 88 160 40 88 160 40 88 160 40 88 160 40 88 160 40 88 160 40 88 160 40 88 160 40 88 160 40 88 160 40 88 160 40 88 160
168 80 160 168 80 160 168 80 160 168 80 160 168 80 160 168 80 160 168 80 160 168 80 160 168 80 160 168 80 160 168 80 160 168 80 160 168 80 160 168 80 160 168 80 160 168 80 160 168 80 160 168 80 160 168 80 160 168 80 160 168 80 160 168 80 160 168 80 160 168 80 160 168 80 160 168 80 160 168 80 160 168 80 160 168 80 160 168 80 160 168 80 160 168 80 160 40 80 160 40 80 160 40 80 160 40 80 160 40 80 160 40 80 160 40 80 160 40 80 160 40 80 160 40 80 160 40 80 160 40 80 160 40 80 160 40 80 160 40 80 160 40 80 160 40 80 160 40 80 160 40 80 160 40 80 160 40 80 160 40 80 160 40 80 160 40 80 160 40 80 160 40 80 160 40 80 160 40 80 160 40 80 160 40 80 160 40 80 160 40 80 160 32 88 160 32 88 160 32 88 160 32 88 160 32 88 160 32 88 160 32 88 160 32 88 160 32 88 160 32 88 160 32 88 160 32 88 160 32 88 160 32 88 160 32 88 160 32 88 160 32 88 160 32 88 160 32 88 160 32 88 160 32 88 160 32 88 160 32 88 160 32 88 160 32 88 160 32 88 160 32 88 160 32 88 160 32 88 160 32 88 160 32 88 160 32 88 160 40 88 160 40 88 160 40 88 160 40 88 160 40 88 160 40 88 160 40 88 160 40 88 160 40 88 160 40 88 160 40 88 160 40 88 160 40 88 160 40 88 160 40 88 160 40 88 160 40 88 160 40 88 160 40 88 160 40 88 160 40 88 160 40 88 160 40 88 160 40 88 160 40 88 160 40 88 160 40 88 160 40 88 160 40 88 160 40 88 160 40 88 160 40 88 160
168 80 160 168 80 160 168 80 160 168 80 160 168 80 160 168 80 160 168 80 160 168 80 160 168 80 160 168 80 160 168 80 160 168 80 160 168 80 160 168 80 160 168 80 160 168 80 160 168 80 160 168 80 160 168 80 160 168 80 160 168 80 160 168 80 160 168 80 160 168 80 160 168 80 160 168 80 160 168 80 160 168 80 160 168 80 160 168 80 160 168 80 160 168 80 160 40 80 160 40 80 160 40 80 160 40 80 160 40 80 160 40 80 160 40 80 160 40 80 160 40 80 160 40 80 160 40 80 160 40 80 160 40 80 160 40 80 160 40 80 160 40 80 160 40 80 160 40 80 160 40 80 160 40 80 160 40 80 160 40 80 160 40 80 160 40 80 160 40 80 160 40 80 160 40 80 160 40 80 160 40 80 160 40 80 160 40 80 160 40 80 160 32 88 160 32 88 160 32 88 160 32 88 160 32 88 160 32 88 160 32 88 160 32 88 160 32 88 160 32 88 160 32 88 160 32 88 160 32 88 160 32 88 160 32 88 160 32 88 160 32 88 160 32 88 160 32 88 160 32 88 160 32 88 160 32 88 160 32 88 160 32 88 160 32 88 160 32 88 160 32 88 160 32 88 160 32 88 160 32 88 160 32 88 160 32 88 160 40 88 160 40 88 160 40 88 160 40 88 160 40 88 160 40 88 160 40 88 160 40 88 160 40 88 160 40 88 160 40 88 160 40 88 160 40 88 160 40 88 160 40 88 160 40 88 160 40 88 160 40 88 160 40 88 160 40 88 160 40 88 160 40 88 160 40 88 160 40 88 160 40 88 160 40 88 160 40 88 160 40 88 160 40 88 160 40 88 160 40 88 160 40 88 160
168 80 160 168 80 160 168 80 160 168 80 160 168 80 160 168 80 160 168 80 160 168 80 160 168 80 160 168 80 160 168 80 160 168 80 160 168 80 160 168 80 160 168 80 160 168 80 160 168 80 160 168 80 160 168 80 160 168 80 160 168 80 160 168 80 160 168 80 160 168 80 160 168 80 160 168 80 160 168 80 160 168 80 160 168 80 160 168 80 160 168 80 160 168 80 160 40 80 160 40 80 160 40 80 160 40 80 160 40 80 160 40 80 160 40 80 160 40 80 160 40 80 160 40 80 160 40 80 160 40 80 160 40 80 160 40 80 160 40 80 160 40 80 160 40 80 160 40 80 160 40 80 160 40 80 160 40 80 160 40 80 160 40 80 160 40 80 160 40 80 160 40 80 160 40 80 160 40 80 160 40 80 160 40 80 160 40 80 160 40 80 160 32 88 160 32 88 160 32 88 160 32 88 160 32 88 160 32 88 160 32 88 160 32 88 160 32 88 160 32 88 160 32 88 160 32 88 160 32 88 160 32 88 160 32 88 160 32 88 160 32 88 160 32 88 160 32 88 160 32 88 160 32 88 160 32 88 160 32 88 160 32 88 160 32 88 160 32 88 160 32 88 160 32 88 160 32 88 160 32 88 160 32 88 160 32 88 160 40 88 160 40 88 160 40 88 160 40 88 160 40 88 160 40 88 160 40 88 160 40 88 160 40 88 160 40 88 160 40 88 160 40 88 160 40 88 160 40 88 160 40 88 160 40 88 160 40 88 160 40 88 160 40 88 160 40 88 160 40 88 160 40 88 160 40 88 160 40 88 160 40 88 160 40 88 160 40 88 160 40 88 160 40 88 160 40 88 160 40 88 160 40 88 160
168 80 160 168 80 160 168 80 160 168 80 160 168 80 160 168 80 160 168 80 160 168 80 160 168 80 160 168 80 160 168 80 160 168 80 160 168 80 160 168 80 160 168 80 160 168 80 160 168 80 160 168 80 160 168 80 160 168 80 160 168 80 160 168 80 160 168 80 160 168 80 160 168 80 160 168 80 160 168 80 160 168 80 160 168 80 160 168 80 160 168 80 160 168 80 160 40 80 160 40 80 160 40 80 160 40 80 160 40 80 160 40 80 160 40 80 160 40 80 160 40 80 160 40 80 160 40 80 160 40 80 160 40 80 160 40 80 160 40 80 160 40 80 160 40 80 160 40 80 160 40 80 160 40 80 160 40 80 160 40 80 160 40 80 160 40 80 160 40 80 160 40 80 160 40 80 160 40 80 160 40 80 160 40 80 160 40 80 160 40 80 160 32 88 160 32 88 160 32 88 160 32 88 160 32 88 160 32 88 160 32 88 160 32 88 160 32 88 160 32 88 160 32 88 160 32 88 160 32 88 160 32 88 160 32 88 160 32 88 160 32 88 160 32 88 160 32 88 160 32 88 160 32 88 160 32 88 160 32 88 160 32 88 160 32 88 160 32 88 160 32 88 160 32 88 160 32 88 160 32 88 160 32 88 160 32 88 160 40 88 160 40 88 160 40 88 160 40 88 160 40 88 160 40 88 160 40 88 160 40 88 160 40 88 160 40 88 160 40 88 160 40 88 160 40 88 160 40 88 160 40 88 160 40 88 160 40 88 160 40 88 160 40 88 160 40 88 160 40 88 160 40 88 160 40 88 160 40 88 160 40 88 160 40 88 160 40 88 160 40 88 160 40 88 160 40 88 160 40 88 160 40 88 160
168 80 160 168 80 160 168 80 160 168 80 160 168 80 160 168 80 160 168 80 160 168 80 160 168 80 160 168 80 160 168 80 160 168 80 160 168 80 160 168 80 160 168 80 160 168 80 160 168 80 160 168 80 160 168 80 160 168 80 160 168 80 160 168 80 160 168 80 160 168 80 160 168 80 160 168 80 160 168 80 160 168 80 160 168 80 160 168 80 160 168 80 160 168 80 160 40 80 160 40 80 160 40 80 160 40 80 160 40 80 160 40 80 160 40 80 160 40 80 160 40 80 160 40 80 160 40 80 160 40 80 160 40 80 160 40 80 160 40 80 160 40 80 160 40 80 160 40 80 160 40 80 160 40 80 160 40 80 160 40 80 160 40 80 160 40 80 160 40 80 160 40 80 160 40 80 160 40 80 160 40 80 160 40 80 160 40 80 160 40 80 160 32 88 160 32 88 160 32 88 160 32 88 160 32 88 160 32 88 160 32 88 160 32 88 160 32 88 160 32 88 160 32 88 160 32 88 160 32 88 160 32 88 160 32 88 160 32 88 160 32 88 160 32 88 160 32 88 160 32 88 160 32 88 160 32 88 160 32 88 160 32 88 160 32 88 160 32 88 160 32 88 160 32 88 160 32 88 160 32 88 160 32 88 160 32 88 160 40 88 160 40 88 160 40 88 160 40 88 160 40 88 160 40 88 160 40 88 160 40 88 160 40 88 160 40 88 160 40 88 160 40 88 160 40 88 160 40 88 160 40 88 160 40 88 160 40 88 160 40 88 160 40 88 160 40 88 160 40 88 160 40 88 160 40 88 160 40 88 160 40 88 160 40 88 160 40 88 160 40 88 160 40 88 160 40 88 160 40 88 160 40 88 160
168 80 160 168 80 160 168 80 160 168 80 160 168 80 160 168 80 160 168 80 160 168 80 160 168 80 160 168 80 160 168 80 160 168 80 160 168 80 160 168 80 160 168 80 160 168 80 160 168 80 160 168 80 160 168 80 160 168 80 160 168 80 160 168 80 160 168 80 160 168 80 160 168 80 160 168 80 160 168 80 160 168 80 160 168 80 160 168 80 160 168 80 160 168 80 160 40 80 160 40 80 160 40 80 160 40 80 160 40 80 160 40 80 160 40 80 160 40 80 160 40 80 160 40 80 160 40 80 160 40 80 160 40 80 160 40 80 160 40 80 160 40 80 160 40 80 160 40 80 160 40 80 160 40 80 160 40 80 160 40 80 160 40 80 160 40 80 160 40 80 160 40 80 160 40 80 160 40 80 160 40 80 160 40 80 160 40 80 160 40 80 160 32 88 160 32 88 160 32 88 160 32 88 160 32 88 160 32 88 160 32 88 160 32 88 160 32 88 160 32 88 160 32 88 160 32 88 160 32 88 160 32 88 160 32 88 160 32 88 160 32 88 160 32 88 160 32 88 160 32 88 160 32 88 160 32 88 160 32 88 160 32 88 160 32 88 160 32 88 160 32 88 160 32 88 160 32 88 160 32 88 160 32 88 160 32 88 160 40 88 160 40 88 160 40 88 160 40 88 160 40 88 160 40 88 160 40 88 160 40 88 160 40 88 160 40 88 160 40 88 160 40 88 160 40 88 160 40 88 160 40 88 160 40 88 160 40 88 160 40 88 160 40 88 160 40 88 160 40 88 160 40 88 160 40 88 160 40 88 160 40 88 160 40 88 160 40 88 160 40 88 160 40 88 160 40 88 160 40 88 160 40 88 160
168 80 160 168 80 160 168 80 160 168 80 160 168 80 160 168 80 160 168 80 160 168 80 160 168 80 160 168 80 160 168 80 160 168 80 160 168 80 160 168 80 160 168 80 160 168 80 160 168 80 160 168 80 160 168 80 160 168 80 160 168 80 160 168 80 160 168 80 160 168 80 160 168 80 160 168 80 160 168 80 160 168 80 160 168 80 160 168 80 160 168 80 160 168 80 160 40 80 160 40 80 160 40 80 160 40 80 160 40 80 160 40 80 160 40 80 160 40 80 160 40 80 160 40 80 160 40 80 160 40 80 160 40 80 160 40 80 160 40 80 160 40 80 160 40 80 160 40 80 160 40 80 160 40 80 160 40 80 160 40 80 160 40 80 160 40 80 160 40 80 160 40 80 160 40 80 160 40 80 160 40 80 160 40 80 160 40 80 160 40 80 160 32 88 160 32 88 160 32 88 160 32 88 160 32 88 160 32 88 160 32 88 160 32 88 160 32 88 160 32 88 160 32 88 160 32 88 160 32 88 160 32 88 160 32 88 160 32 88 160 32 88 160 32 88 160 32 88 160 32 88 160 32 88 160 32 88 160 32 88 160 32 88 160 32 88 160 32 88 160 32 88 160 32 88 160 32 88 160 32 88 160 32 88 160 32 88 160 40 88 160 40 88 160 40 88 160 40 88 160 40 88 160 40 88 160 40 88 160 40 88 160 40 88 160 40 88 160 40 88 160 40 88 160 40 88 160 40 88 160 40 88 160 40 88 160 40 88 160 40 88 160 40 88 160 40 88 160 40 88 160 40 88 160 40 88 160 40 88 160 40 88 160 40 88 160 40 88 160 40 88 160 40 88 160 40 88 160 40 88 160 40 88 160
168 80 160 168 80 160 168 80 160 168 80 160 168 80 160 168 80 160 168 80 160 168 80 160 168 80 160 168 80 160 168 80 160 168 80 160 168 80 160 168 80 160 168 80 160 168 80 160 168 80 160 168 80 160 168 80 160 168 80 160 168 80 160 168 80 160 168 80 160 168 80 160 168 80 160 168 80 160 168 80 160 168 80 160 168 80 160 168 80 160 168 80 160 168 80 160 40 80 160 40 80 160 40 80 160 40 80 160 40 80 160 40 80 160 40 80 160 40 80 160 40 80 160 40 80 160 40 80 160 40 80 160 40 80 160 40 80 160 40 80 160 40 80 160 40 80 160 40 80 160 40 80 160 40 80 160 40 80 160 40 80 160 40 80 160 40 80 160 40 80 160 40 80 160 40 80 160 40 80 160 40 80 160 40 80 160 40 80 160 40 80 160 32 88 160 32 88 160 32 88 160 32 88 160 32 88 160 32 88 160 32 88 160 32 88 160 32 88 160 32 88 160 32 88 160 32 88 160 32 88 160 32 88 160 32 88 160 32 88 160 32 88 160 32 88 160 32 88 160 32 88 160 32 88 160 32 88 160 32 88 160 32 88 160 32 88 160 32 88 160 32 88 160 32 88 160 32 88 160 32 88 160 32 88 160 32 88 160 40 88 160 40 88 160 40 88 160 40 88 160 40 88 160 40 88 160 40 88 160 40 88 160 40 88 160 40 88 160 40 88 160 40 88 160 40 88 160 40 88 160 40 88 160 40 88 160 40 88 160 40 88 160 40 88 160 40 88 160 40 88 160 40 88 160 40 88 160 40 88 160 40 88 160 40 88 160 40 88 160 40 88 160 40 88 160 40 88 160 40 88 160 40 88 160
168 80 160 168 80 160 168 80 160 168 80 160 168 80 160 168 80 160 168 80 160 168 80 160 168 80 160 168 80 160 168 80 160 168 80 160 168 80 160 168 80 160 168 80 160 168 80 160 168 80 160 168 80 160 168 80 160 168 80 160 168 80 160 168 80 160 168 80 160 168 80 160 168 80 160 168 80 160 168 80 160 168 80 160 168 80 160 168 80 160 168 80 160 168 80 160 40 80 160 40 80 160 40 80 160 40 80 160 40 80 160 40 80 160 40 80 160 40 80 160 40 80 160 40 80 160 40 80 160 40 80 160 40 80 160 40 80 160 40 80 160 40 80 160 40 80 160 40 80 160 40 80 160 40 80 160 40 80 160 40 80 160 40 80 160 40 80 160 40 80 160 40 80 160 40 80 160 40 80 160 40 80 160 40 80 160 40 80 160 40 80 160 32 88 160 32 88 160 32 88 160 32 88 160 32 88 160 32 88 160 32 88 160 32 88 160 32 88 160 32 88 160 32 88 160 32 88 160 32 88 160 32 88 160 32 88 160 32 88 160 32 88 160 32 88 160 32 88 160 32 88 160 32 88 160 32 88 160 32 88 160 32 88 160 32 88 160 32 88 160 32 88 160 32 88 160 32 88 160 32 88 160 32 88 160 32 88 160 40 88 160 40 88 160 40 88 160 40 88 160 40 88 160 40 88 160 40 88 160 40 88 160 40 88 160 40 88 160 40 88 160 40 88 160 40 88 160 40 88 160 40 88 160 40 88 160 40 88 160 40 88 160 40 88 160 40 88 160 40 88 160 40 88 160 40 88 160 40 88 160 40 88 160 40 88 160 40 88 160 40 88 160 40 88 160 40 88 160 40 88 160 40 88 160
168 80 160 168 80 160 168 80 160 168 80 160 168 80 160 168 80 160 168 80 160 168 80 160 168 80 160 168 80 160 168 80 160 168 80 160 168 80 160 168 80 160 168 80 160 168 80 160 168 80 160 168 80 160 168 80 160 168 80 160 168 80 160 168 80 160 168 80 160 168 80 160 168 80 160 168 80 160 168 80 160 168 80 160 168 80 160 168 80 160 168 80 160 168 80 160 40 80 160 40 80 160 40 80 160 40 80 160 40 80 160 40 80 160 40 80 160 40 80 160 40 80 160 40 80 160 40 80 160 40 80 160 40 80 160 40 80 160 40 80 160 40 80 160 40 80 160 40 80 160 40 80 160 40 80 160 40 80 160 40 80 160 40 80 160 40 80 160 40 80 160 40 80 160 40 80 160 40 80 160 40 80 160 40 80 160 40 80 160 40 80 160 32 88 160 32 88 160 32 88 160 32 88 160 32 88 160 32 88 160 32 88 160 32 88 160 32 88 160 32 88 160 32 88 160 32 88 160 32 88 160 32 88 160 32 88 160 32 88 160 32 88 160 32 88 160 32 88 160 32 88 160 32 88 160 32 88 160 32 88 160 32 88 160 32 88 160 32 88 160 32 88 160 32 88 160 32 88 160 32 88 160 32 88 160 32 88 160 40 88 160 40 88 160 40 88 160 40 88 160 40 88 160 40 88 160 40 88 160 40 88 160 40 88 160 40 88 160 40 88 160 40 88 160 40 88 160 40 88 160 40 88 160 40 88 160 40 88 160 40 88 160 40 88 160 40 88 160 40 88 160 40 88 160 40 88 160 40 88 160 40 88 160 40 88 160 40 88 160 40 88 160 40 88 160 40 88 160 40 88 160 40 88 160
168 80 160 168 80 160 168 80 160 168 80 160 168 80 160 168 80 160 168 80 160 168 80 160 168 80 160 168 80 160 168 80 160 168 80 160 168 80 160 168 80 160 168 80 160 168 80 160 168 80 160 168 80 160 168 80 160 168 80 160 168 80 160 168 80 160 168 80 160 168 80 160 168 80 160 168 80 160 168 80 160 168 80 160 168 80 160 168 80 160 168 80 160 168 80 160 40 80 160 40 80 160 40 80 160 40 80 160 40 80 160 40 80 160 40 80 160 40 80 160 40 80 160 40 80 160 40 80 160 40 80 160 40 80 160 40 80 160 40 80 160 40 80 160 40 80 160 40 80 160 40 80 160 40 80 160 40 80 160 40 80 160 40 80 160 40 80 160 40 80 160 40 80 160 40 80 160 40 80 160 40 80 160 40 80 160 40 80 160 40 80 160 32 88 160 32 88 160 32 88 160 32 88 160 32 88 160 32 88 160 32 88 160 32 88 160 32 88 160 32 88 160 32 88 160 32 88 160 32 88 160 32 88 160 32 88 160 32 88 160 32 88 160 32 88 160 32 88 160 32 88 160 32 88 160 32 88 160 32 88 160 32 88 160 32 88 160 32 88 160 32 88 160 32 88 160 32 88 160 32 88 160 32 88 160 32 88 160 40 88 160 40 88 160 40 88 160 40 88 160 40 88 160 40 88 160 40 88 160 40 88 160 40 88 160 40 88 160 40 88 160 40 88 160 40 88 160 40 88 160 40 88 160 40 88 160 40 88 160 40 88 160 40 88 160 40 88 160 40 88 160 40 88 160 40 88 160 40 88 160 40 88 160 40 88 160 40 88 160 40 88 160 40 88 160 40 88 160 40 88 160 40 88 160
168 80 160 168 80 160 168 80 160 168 80 160 168 80 160 168 80 160 168 80 160 168 80 160 168 80 160 168 80 160 168 80 160 168 80 160 168 80 160 168 80 160 168 80 160 168 80 160 168 80 160 168 80 160 168 80 160 168 80 160 168 80 160 168 80 160 168 80 160 168 80 160 168 80 160 168 80 160 168 80 160 168 80 160 168 80 160 168 80 160 168 80 160 168 80 160 40 80 160 40 80 160 40 80 160 40 80 160 40 80 160 40 80 160 40 80 160 40 80 160 40 80 160 40 80 160 40 80 160 40 80 160 40 80 160 40 80 160 40 80 160 40 80 160 40 80 160 40 80 160 40 80 160 40 80 160 40 80 160 40 80 160 40 80 160 40 80 160 40 80 160 40 80 160 40 80 160 40 80 160 40 80 160 40 80 160 40 80 160 40 80 160 32 88 160 32 88 160 32 88 160 32 88 160 32 88 160 32 88 160 32 88 160 32 88 160 32 88 160 32 88 160 32 88 160 32 88 160 32 88 160 32 88 160 32 88 160 32 88 160 32 88 160 32 88 160 32 88 160 32 88 160 32 88 160 32 88 160 32 88 160 32 88 160 32 88 160 32 88 160 32 88 160 32 88 160 32 88 160 32 88 160 32 88 160 32 88 160 40 88 160 40 88 160 40 88 160 40 88 160 40 88 160 40 88 160 40 88 160 40 88 160 40 88 160 40 88 160 40 88 160 40 88 160 40 88 160 40 88 160 40 88 160 40 88 160 40 88 160 40 88 160 40 88 160 40 88 160 40 88 160 40 88 160 40 88 160 40 88 160 40 88 160 40 88 160 40 88 160 40 88 160 40 88 160 40 88 160 40 88 160 40 88 160
168 80 160 168 80 160 168 80 160 168 80 160 168 80 160 168 80 160 168 80 160 168 80 160 168 80 160 168 80 160 168 80 160 168 80 160 168 80 160 168 80 160 168 80 160 168 80 160 168 80 160 168 80 160 168 80 160 168 80 160 168 80 160 168 80 160 168 80 160 168 80 160 168 80 160 168 80 160 168 80 160 168 80 160 168 80 160 168 80 160 168 80 160 168 80 160 40 80 160 40 80 160 40 80 160 40 80 160 40 80 160 40 80 160 40 80 160 40 80 160 40 80 160 40 80 160 40 80 160 40 80 160 40 80 160 40 80 160 40 80 160 40 80 160 40 80 160 40 80 160 40 80 160 40 80 160 40 80 160 40 80 160 40 80 160 40 80 160 40 80 160 40 80 160 40 80 160 40 80 160 40 80 160 40 80 160 40 80 160 40 80 160 32 88 160 32 88 160 32 88 160 32 88 160 32 88 160 32 88 160 32 88 160 32 88 160 32 88 160 32 88 160 32 88 160 32 88 160 32 88 160 32 88 160 32 88 160 32 88 160 32 88 160 32 88 160 32 88 160 32 88 160 32 88 160 32 88 160 32 88 160 32 88 160 32 88 160 32 88 160 32 88 160 32 88 160 32 88 160 32 88 160 32 88 160 32 88 160 40 88 160 40 88 160 40 88 160 40 88 160 40 88 160 40 88 160 40 88 160 40 88 160 40 88 160 40 88 160 40 88 160 40 88 160 40 88 160 40 88 160 40 88 160 40 88 160 40 88 160 40 88 160 40 88 160 40 88 160 40 88 160 40 88 160 40 88 160 40 88 160 40 88 160 40 88 160 40 88 160 40 88 160 40 88 160 40 88 160 40 88 160 40 88 160
168 80 160 168 80 160 168 80 160 168 80 160 168 80 160 168 80 160 168 80 160 168 80 160 168 80 160 168 80 160 168 80 160 168 80 160 168 80 160 168 80 160 168 80 160 168 80 160 168 80 160 168 80 160 168 80 160 168 80 160 168 80 160 168 80 160 168 80 160 168 80 160 168 80 160 168 80 160 168 80 160 168 80 160 168 80 160 168 80 160 168 80 160 168 80 160 40 80 160 40 80 160 40 80 160 40 80 160 40 80 160 40 80 160 40 80 160 40 80 160 40 80 160 40 80 160 40 80 160 40 80 160 40 80 160 40 80 160 40 80 160 40 80 160 40 80 160 40 80 160 40 80 160 40 80 160 40 80 160 40 80 160 40 80 160 40 80 160 40 80 160 40 80 160 40 80 160 40 80 160 40 80 160 40 80 160 40 80 160 40 80 160 32 88 160 32 88 160 32 88 160 32 88 160 32 88 160 32 88 160 32 88 160 32 88 160 32 88 160 32 88 160 32 88 160 32 88 160 32 88 160 32 88 160 32 88 160 32 88 160 32 88 160 32 88 160 32 88 160 32 88 160 32 88 160 32 88 160 32 88 160 32 88 160 32 88 160 32 88 160 32 88 160 32 88 160 32 88 160 32 88 160 32 88 160 32 88 160 40 88 160 40 88 160 40 88 160 40 88 160 40 88 160 40 88 160 40 88 160 40 88 160 40 88 160 40 88 160 40 88 160 40 88 160 40 88 160 40 88 160 40 88 160 40 88 160 40 88 160 40 88 160 40 88 160 40 88 160 40 88 160 40 88 160 40 88 160 40 88 160 40 88 160 40 88 160 40 88 160 40 88 160 40 88 160 40 88 160 40 88 160 40 88 160
168 80 160 168 80 160 168 80 160 168 80 160 168 80 160 168 80 160 168 80 160 168 80 160 168 80 160 168 80 160 168 80 160 168 80 160 168 80 160 168 80 160 168 80 160 168 80 160 168 80 160 168 80 160 168 80 160 168 80 160 168 80 160 168 80 160 168 80 160 168 80 160 168 80 160 168 80 160 168 80 160 168 80 160 168 80 160 168 80 160 168 80 160 168 80 160 40 80 160 40 80 160 40 80 160 40 80 160 40 80 160 40 80 160 40 80 160 40 80 160 40 80 160 40 80 160 40 80 160 40 80 160 40 80 160 40 80 160 40 80 160 40 80 160 40 80 160 40 80 160 40 80 160 40 80 160 40 80 160 40 80 160 40 80 160 40 80 160 40 80 160 40 80 160 40 80 160 40 80 160 40 80 160 40 80 160 40 80 160 40 80 160 32 88 160 32 88 160 32 88 160 32 88 160 32 88 160 32 88 160 32 88 160 32 88 160 32 88 160 32 88 160 32 88 160 32 88 160 32 88 160 32 88 160 32 88 160 32 88 160 32 88 160 32 88 160 32 88 160 32 88 160 32 88 160 32 88 160 32 88 160 32 88 160 32 88 160 32 88 160 32 88 160 32 88 160 32 88 160 32 88 160 32 88 160 32 88 160 40 88 160 40 88 160 40 88 160 40 88 160 40 88 160 40 88 160 40 88 160 40 88 160 40 88 160 40 88 160 40 88 160 40 88 160 40 88 160 40 88 160 40 88 160 40 88 160 40 88 160 40 88 160 40 88 160 40 88 160 40 88 160 40 88 160 40 88 160 40 88 160 40 88 160 40 88 160 40 88 160 40 88 160 40 88 160 40 88 160 40 88 160 40 88 160
168 80 160 168 80 160 168 80 160 168 80 160 168 80 160 168 80 160 168 80 160 168 80 160 168 80 160 168 80 160 168 80 160 168 80 160 168 80 160 168 80 160 168 80 160 168 80 160 168 80 160 168 80 160 168 80 160 168 80 160 168 80 160 168 80 160 168 80 160 168 80 160 168 80 160 168 80 160 168 80 160 168 80 160 168 80 160 168 80 160 168 80 160 168 80 160 40 80 160 40 80 160 40 80 160 40 80 160 40 80 160 40 80 160 40 80 160 40 80 160 40 80 160 40 80 160 40 80 160 40 80 160 40 80 160 40 80 160 40 80 160 40 80 160 40 80 160 40 80 160 40 80 160 40 80 160 40 80 160 40 80 160 40 80 160 40 80 160 40 80 160 40 80 160 40 80 160 40 80 160 40 80 160 40 80 160 40 80 160 40 80 160 32 88 160 32 88 160 32 88 160 32 88 160 32 88 160 32 88 160 32 88 160 32 88 160 32 88 160 32 88 160 32 88 160 32 88 160 32 88 160 32 88 160 32 88 160 32 88 160 32 88 160 32 88 160 32 88 160 32 88 160 32 88 160 32 88 160 32 88 160 32 88 160 32 88 160 32 88 160 32 88 160 32 88 160 32 88 160 32 88 160 32 88 160 32 88 160 40 88 160 40 88 160 40 88 160 40 88 160 40 88 160 40 88 160 40 88 160 40 88 160 40 88 160 40 88 160 40 88 160 40 88 160 40 88 160 40 88 160 40 88 160 40 88 160 40 88 160 40 88 160 40 88 160 40 88 160 40 88 160 40 88 160 40 88 160 40 88 160 40 88 160 40 88 160 40 88 160 40 88 160 40 88 160 40 88 160 40 88 160 40 88 160
168 80 160 168 80 160 168 80 160 168 80 160 168 80 160 168 80 160 168 80 160 168 80 160 168 80 160 168 80 160 168 80 160 168 80 160 168 80 160 168 80 160 168 80 160 168 80 160 168 80 160 168 80 160 168 80 160 168 80 160 168 80 160 168 80 160 168 80 160 168 80 160 168 80 160 168 80 160 168 80 160 168 80 160 168 80 160 168 80 160 168 80 160 168 80 160 40 80 160 40 80 160 40 80 160 40 80 160 40 80 160 40 80 160 40 80 160 40 80 160 40 80 160 40 80 160 40 80 160 40 80 160 40 80 160 40 80 160 40 80 160 40 80 160 40 80 160 40 80 160 40 80 160 40 80 160 40 80 160 40 80 160 40 80 160 40 80 160 40 80 160 40 80 160 40 80 160 40 80 160 40 80 160 40 80 160 40 80 160 40 80 160 32 88 160 32 88 160 32 88 160 32 88 160 32 88 160 32 88 160 32 88 160 32 88 160 32 88 160 32 88 160 32 88 160 32 88 160 32 88 160 32 88 160 32 88 160 32 88 160 32 88 160 32 88 160 32 88 160 32 88 160 32 88 160 32 88 160 32 88 160 32 88 160 32 88 160 32 88 160 32 88 160 32 88 160 32 88 160 32 88 160 32 88 160 32 88 160 40 88 160 40 88 160 40 88 160 40 88 160 40 88 160 40 88 160 40 88 160 40 88 160 40 88 160 40 88 160 40 88 160 40 88 160 40 88 160 40 88 160 40 88 160 40 88 160 40 88 160 40 88 160 40 88 160 40 88 160 40 88 160 40 88 160 40 88 160 40 88 160 40 88 160 40 88 160 40 88 160 40 88 160 40 88 160 40 88 160 40 88 160 40 88 160
168 80 160 168 80 160 168 80 160 168 80 160 168 80 160 168 80 160 168 80 160 168 80 160 168 80 160 168 80 160 168 80 160 168 80 160 168 80 160 168 80 160 168 80 160 168 80 160 168 80 160 168 80 160 168 80 160 168 80 160 168 80 160 168 80 160 168 80 160 168 80 160 168 80 160 168 80 160 168 80 160 168 80 160 168 80 160 168 80 160 168 80 160 168 80 160 40 80 160 40 80 160 40 80 160 40 80 160 40 80 160 40 80 160 40 80 160 40 80 160 40 80 160 40 80 160 40 80 160 40 80 160 40 80 160 40 80 160 40 80 160 40 80 160 40 80 160 40 80 160 40 80 160 40 80 160 40 80 160 40 80 160 40 80 160 40 80 160 40 80 160 40 80 160 40 80 160 40 80 160 40 80 160 40 80 160 40 80 160 40 80 160 32 88 160 32 88 160 32 88 160 32 88 160 32 88 160 32 88 160 32 88 160 32 88 160 32 88 160 32 88 160 32 88 160 32 88 160 32 88 160 32 88 160 32 88 160 32 88 160 32 88 160 32 88 160 32 88 160 32 88 160 32 88 160 32 88 160 32 88 160 32 88 160 32 88 160 32 88 160 32 88 160 32 88 160 32 88 160 32 88 160 32 88 160 32 88 160 40 88 160 40 88 160 40 88 160 40 88 160 40 88 160 40 88 160 40 88 160 40 88 160 40 88 160 40 88 160 40 88 160 40 88 160 40 88 160 40 88 160 40 88 160 40 88 160 40 88 160 40 88 160 40 88 160 40 88 160 40 88 160 40 88 160 40 88 160 40 88 160 40 88 160 40 88 160 40 88 160 40 88 160 40 88 160 40 88 160 40 88 160 40 88 160
168 80 160 168 80 160 168 80 160 168 80 160 168 80 160 168 80 160 168 80 160 168 80 160 168 80 160 168 80 160 168 80 160 168 80 160 168 80 160 168 80 160 168 80 160 168 80 160 168 80 160 168 80 160 168 80 160 168 80 160 168 80 160 168 80 160 168 80 160 168 80 160 168 80 160 168 80 160 168 80 160 168 80 160 168 80 160 168 80 160 168 80 160 168 80 160 40 80 160 40 80 160 40 80 160 40 80 160 40 80 160 40 80 160 40 80 160 40 80 160 40 80 160 40 80 160 40 80 160 40 80 160 40 80 160 40 80 160 40 80 160 40 80 160 40 80 160 40 80 160 40 80 160 40 80 160 40 80 160 40 80 160 40 80 160 40 80 160 40 80 160 40 80 160 40 80 160 40 80 160 40 80 160 40 80 160 40 80 160 40 80 160 32 88 160 32 88 160 32 88 160 32 88 160 32 88 160 32 88 160 32 88 160 32 88 160 32 88 160 32 88 160 32 88 160 32 88 160 32 88 160 32 88 160 32 88 160 32 88 160 32 88 160 32 88 160 32 88 160 32 88 160 32 88 160 32 88 160 32 88 160 32 88 160 32 88 160 32 88 160 32 88 160 32 88 160 32 88 160 32 88 160 32 88 160 32 88 160 40 88 160 40 88 160 40 88 160 40 88 160 40 88 160 40 88 160 40 88 160 40 88 160 40 88 160 40 88 160 40 88 160 40 88 160 40 88 160 40 88 160 40 88 160 40 88 160 40 88 160 40 88 160 40 88 160 40 88 160 40 88 160 40 88 160 40 88 160 40 88 160 40 88 160 40 88 160 40 88 160 40 88 160 40 88 160 40 88 160 40 88 160 40 88 160
168 80 160 168 80 160 168 80 160 168 80 160 168 80 160 168 80 160 168 80 160 168 80 160 168 80 160 168 80 160 168 80 160 168 80 160 168 80 160 168 80 160 168 80 160 168 80 160 168 80 160 168 80 160 168 80 160 168 80 160 168 80 160 168 80 160 168 80 160 168 80 160 168 80 160 168 80 160 168 80 160 168 80 160 168 80 160 168 80 160 168 80 160 168 80 160 40 80 160 40 80 160 40 80 160 40 80 160 40 80 160 40 80 160 40 80 160 40 80 160 40 80 160 40 80 160 40 80 160 40 80 160 40 80 160 40 80 160 40 80 160 40 80 160 40 80 160 40 80 160 40 80 160 40 80 160 40 80 160 40 80 160 40 80 160 40 80 160 40 80 160 40 80 160 40 80 160 40 80 160 40 80 160 40 80 160 40 80 160 40 80 160 32 88 160 32 88 160 32 88 160 32 88 160 32 88 160 32 88 160 32 88 160 32 88 160 32 88 160 32 88 160 32 88 160 32 88 160 32 88 160 32 88 160 32 88 160 32 88 160 32 88 160 32 88 160 32 88 160 32 88 160 32 88 160 32 88 160 32 88 160 32 88 160 32 88 160 32 88 160 32 88 160 32 88 160 32 88 160 32 88 160 32 88 160 32 88 160 40 88 160 40 88 160 40 88 160 40 88 160 40 88 160 40 88 160 40 88 160 40 88 160 40 88 160 40 88 160 40 88 160 40 88 160 40 88 160 40 88 160 40 88 160 40 88 160 40 88 160 40 88 160 40 88 160 40 88 160 40 88 160 40 88 160 40 88 160 40 88 160 40 88 160 40 88 160 40 88 160 40 88 160 40 88 160 40 88 160 40 88 160 40 88 160
40 88 160 40 88 160 40 88 160 40 88 160 40 88 160 40 88 160 40 88 160 40 88 160 40 88 160 40 88 160 40 88 160 40 88 160 40 88 160 40 88 160 40 88 160 40 88 160 40 88 160 40 88 160 40 88 160 40 88 160 40 88 160 40 88 160 40 88 160 40 88 160 40 88 160 40 88 160 40 88 160 40 88 160 40 88 160 40 88 160 40 88 160 40 88 160 32 88 160 32 88 160 32 88 160 32 88 160 32 88 160 32 88 160 32 88 160 32 88 160 32 88 160 32 88 160 32 88 160 32 88 160 32 88 160 32 88 160 32 88 160 32 88 160 32 88 160 32 88 160 32 88 160 32 88 160 32 88 160 32 88 160 32 88 160 32 88 160 32 88 160 32 88 160 32 88 160 32 88 160 32 88 160 32 88 160 32 88 160 32 88 160 32 80 144 32 80 144 32 80 144 32 80 144 32 80 144 32 80 144 32 80 144 32 80 144 32 80 144 32 80 144 32 80 144 32 80 144 32 80 144 32 80 144 32 80 144 32 80 144 32 80 144 32 80 144 32 80 144 32 80 144 32 80 144 32 80 144 32 80 144 32 80 144 32 80 144 32 80 144 32 80 144 32 80 144 32 80 144 32 80 144 32 80 144 32 80 144 160 80 144 160 80 144 160 80 144 160 80 144 160 80 144 160 80 144 160 80 144 160 80 144 160 80 144 160 80 144 160 80 144 160 80 144 160 80 144 160 80 144 160 80 144 160 80 144 160 80 144 160 80 144 160 80 144 160 80 144 160 80 144 160 80 144 160 80 144 160 80 144 160 80 144 160 80 144 160 80 144 160 80 144 160 80 144 160 80 144 160 80 144 160 80 144
40 88 160 40 88 160 40 88 160 40 88 160 40 88 160 40 88 160 40 88 160 40 88 160 40 88 160 40 88 160 40 88 160 40 88 160 40 88 160 40 88 160 40 88 160 40 88 160 40 88 160 40 88 160 40 88 160 40 88 160 40 88 160 40 88 160 40 88 160 40 88 160 40 88 160 40 88 160 40 88 160 40 88 160 40 88 160 40 88 160 40 88 160 40 88 160 32 88 160 32 88 160 32 88 160 32 88 160 32 88 160 32 88 160 32 88 160 32 88 160 32 88 160 32 88 160 32 88 160 32 88 160 32 88 160 32 88 160 32 88 160 32 88 160 32 88 160 32 88 160 32 88 160 32 88 160 32 88 160 32 88 160 32 88 160 32 88 160 32 88 160 32 88 160 32 88 160 32 88 160 32 88 160 32 88 160 32 88 160 32 88 160 32 80 144 32 80 144 32 80 144 32 80 144 32 80 144 32 80 144 32 80 144 32 80 144 32 80 144 32 80 144 32 80 144 32 80 144 32 80 144 32 80 144 32 80 144 32 80 144 32 80 144 32 80 144 32 80 144 32 80 144 32 80 144 32 80 144 32 80 144 32 80 144 32 80 144 32 80 144 32 80 144 32 80 144 32 80 144 32 80 144 32 80 144 32 80 144 160 80 144 160 80 144 160 80 144 160 80 144 160 80 144 160 80 144 160 80 144 160 80 144 160 80 144 160 80 144 160 80 144 160 80 144 160 80 144 160 80 144 160 80 144 160 80 144 160 80 144 160 80 144 160 80 144 160 80 144 160 80 144 160 80 144 160 80 144 160 80 144 160 80 144 160 80 144 160 80 144 160 80 144 160 80 144 160 80 144 160 80 144 160 80 144
40 88 160 40 88 160 40 88 160 40 88 160 40 88 160 40 88 160 40 88 160 40 88 160 40 88 160 40 88 160 40 88 160 40 88 160 40 88 160 40 88 160 40 88 160 40 88 160 40 88 160 40 88 160 40 88 160 40 88 160 40 88 160 40 88 160 40 88 160 40 88 160 40 88 160 40 88 160 40 88 160 40 88 160 40 88 160 40 88 160 40 88 160 40 88 160 32 88 160 32 88 160 32 88 160 32 88 160 32 88 160 32 88 160 32 88 160 32 88 160 32 88 160 32 88 160 32 88 160 32 88 160 32 88 160 32 88 160 32 88 160 32 88 160 32 88 160 32 88 160 32 88 160 32 88 160 32 88 160 32 88 160 32 88 160 32 88 160 32 88 160 32 88 160 32 88 160 32 88 160 32 88 160 32 88 160 32 88 160 32 88 160 32 80 144 32 80 144 32 80 144 32 80 144 32 80 144 32 80 144 32 80 144 32 80 144 32 80 144 32 80 144 32 80 144 32 80 144 32 80 144 32 80 144 32 80 144 32 80 144 32 80 144 32 80 144 32 80 144 32 80 144 32 80 144 32 80 144 32 80 144 32 80 144 32 80 144 32 80 144 32 80 144 32 80 144 32 80 144 32 80 144 32 80 144 32 80 144 160 80 144 160 80 144 160 80 144 160 80 144 160 80 144 160 80 144 160 80 144 160 80 144 160 80 144 160 80 144 160 80 144 160 80 144 160 80 144 160 80 144 160 80 144 160 80 144 160 80 144 160 80 144 160 80 144 160 80 144 160 80 144 160 80 144 160 80 144 160 80 144 160 80 144 160 80 144 160 80 144 160 80 144 160 80 144 160 80 144 160 80 144 160 80 144
40 88 160 40 88 160 40 88 160 40 88 160 40 88 160 40 88 160 40 88 160 40 88 160 40 88 160 40 88 160 40 88 160 40 88 160 40 88 160 40 88 160 40 88 160 40 88 160 40 88 160 40 88 160 40 88 160 40 88 160 40 88 160 40 88 160 40 88 160 40 88 160 40 88 160 40 88 160 40 88 160 40 88 160 40 88 160 40 88 160 40 88 160 40 88 160 32 88 160 32 88 160 32 88 160 32 88 160 32 88 160 32 88 160 32 88 160 32 88 160 32 88 160 32 88 160 32 88 160 32 88 160 32 88 160 32 88 160 32 88 160 32 88 160 32 88 160 32 88 160 32 88 160 32 88 160 32 88 160 32 88 160 32 88 160 32 88 160 32 88 160 32 88 160 32 88 160 32 88 160 32 88 160 32 88 160 32 88 160 32 88 160 32 80 144 32 80 144 32 80 144 32 80 144 32 80 144 32 80 144 32 80 144 32 80 144 32 80 144 32 80 144 32 80 144 32 80 144 32 80 144 32 80 144 32 80 144 32 80 144 32 80 144 32 80 144 32 80 144 32 80 144 32 80 144 32 80 144 32 80 144 32 80 144 32 80 144 32 80 144 32 80 144 32 80 144 32 80 144 32 80 144 32 80 144 32 80 144 160 80 144 160 80 144 160 80 144 160 80 144 160 80 144 160 80 144 160 80 144 160 80 144 160 80 144 160 80 144 160 80 144 160 80 144 160 80 144 160 80 144 160 80 144 160 80 144 160 80 144 160 80 144 160 80 144 160 80 144 160 80 144 160 80 144 160 80 144 160 80 144 160 80 144 160 80 144 160 80 144 160 80 144 160 80 144 160 80 144 160 80 144 160 80 144
40 88 160 40 88 160 40 88 160 40 88 160 40 88 160 40 88 160 40 88 160 40 88 160 40 88 160 40 88 160 40 88 160 40 88 160 40 88 160 40 88 160 40 88 160 40 88 160 40 88 160 40 88 160 40 88 160 40 88 160 40 88 160 40 88 160 40 88 160 40 88 160 40 88 160 40 88 160 40 88 160 40 88 160 40 88 160 40 88 160 40 88 160 40 88 160 32 88 160 32 88 160 32 88 160 32 88 160 32 88 160 32 88 160 32 88 160 32 88 160 32 88 160 32 88 160 32 88 160 32 88 160 32 88 160 32 88 160 32 88 160 32 88 160 32 88 160 32 88 160 32 88 160 32 88 160 32 88 160 32 88 160 32 88 160 32 88 160 32 88 160 32 88 160 32 88 160 32 88 160 32 88 160 32 88 160 32 88 160 32 88 160 32 80 144 32 80 144 32 80 144 32 80 144 32 80 144 32 80 144 32 80 144 32 80 144 32 80 144 32 80 144 32 80 144 32 80 144 32 80 144 32 80 144 32 80 144 32 80 144 32 80 144 32 80 144 32 80 144 32 80 144 32 80 144 32 80 144 32 80 144 32 80 144 32 80 144 32 80 144 32 80 144 32 80 144 32 80 144 32 80 144 32 80 144 32 80 144 160 80 144 160 80 144 160 80 144 160 80 144 160 80 144 160 80 144 160 80 144 160 80 144 160 80 144 160 80 144 160 80 144 160 80 144 160 80 144 160 80 144 160 80 144 160 80 144 160 80 144 160 80 144 160 80 144 160 80 144 160 80 144 160 80 144 160 80 144 160 80 144 160 80 144 160 80 144 160 80 144 160 80 144 160 80 144 160 80 144 160 80 144 160 80 144
40 88 160 40 88 160 40 88 160 40 88 160 40 88 160 40 88 160 40 88 160 40 88 160 40 88 160 40 88 160 40 88 160 40 88 160 40 88 160 40 88 160 40 88 160 40 88 160 40 88 160 40 88 160 40 88 160 40 88 160 40 88 160 40 88 160 40 88 160 40 88 160 40 88 160 40 88 160 40 88 160 40 88 160 40 88 160 40 88 160 40 88 160 40 88 160 32 88 160 32 88 160 32 88 160 32 88 160 32 88 160 32 88 160 32 88 160 32 88 160 32 88 160 32 88 160 32 88 160 32 88 160 32 88 160 32 88 160 32 88 160 32 88 160 32 88 160 32 88 160 32 88 160 32 88 160 32 88 160 32 88 160 32 88 160 32 88 160 32 88 160 32 88 160 32 88 160 32 88 160 32 88 160 32 88 160 32 88 160 32 88 160 32 80 144 32 80 144 32 80 144 32 80 144 32 80 144 32 80 144 32 80 144 32 80 144 32 80 144 32 80 144 32 80 144 32 80 144 32 80 144 32 80 144 32 80 144 32 80 144 32 80 144 32 80 144 32 80 144 32 80 144 32 80 144 32 80 144 32 80 144 32 80 144 32 80 144 32 80 144 32 80 144 32 80 144 32 80 144 32 80 144 32 80 144 32 80 144 160 80 144 160 80 144 160 80 144 160 80 144 160 80 144 160 80 144 160 80 144 160 80 144 160 80 144 160 80 144 160 80 144 160 80 144 160 80 144 160 80 144 160 80 144 160 80 144 160 80 144 160 80 144 160 80 144 160 80 144 160 80 144 160 80 144 160 80 144 160 80 144 160 80 144 160 80 144 160 80 144 160 80 144 160 80 144 160 80 144 160 80 144 160 80 144
40 88 160 40 88 160 40 88 160 40 88 160 40 88 160 40 88 160 40 88 160 40 88 160 40 88 160 40 88 160 40 88 160 40 88 160 40 88 160 40 88 160 40 88 160 40 88 160 40 88 160 40 88 160 40 88 160 40 88 160 40 88 160 40 88 160 40 88 160 40 88 160 40 88 160 40 88 160 40 88 160 40 88 160 40 88 160 40 88 160 40 88 160 40 88 160 32 88 160 32 88 160 32 88 160 32 88 160 32 88 160 32 88 160 32 88 160 32 88 160 32 88 160 32 88 160 32 88 160 32 88 160 32 88 160 32 88 160 32 88 160 32 88 160 32 88 160 32 88 160 32 88 160 32 88 160 32 88 160 32 88 160 32 88 160 32 88 160 32 88 160 32 88 160 32 88 160 32 88 160 32 88 160 32 88 160 32 88 160 32 88 160 32 80 144 32 80 144 32 80 144 32 80 144 32 80 144 32 80 144 32 80 144 32 80 144 32 80 144 32 80 144 32 80 144 32 80 144 32 80 144 32 80 144 32 80 144 32 80 144 32 80 144 32 80 144 32 80 144 32 80 144 32 80 144 32 80 144 32 80 144 32 80 144 32 80 144 32 80 144 32 80 144 32 80 144 32 80 144 32 80 144 32 80 144 32 80 144 160 80 144 160 80 144 160 80 144 160 80 144 160 80 144 160 80 144 160 80 144 160 80 144 160 80 144 160 80 144 160 80 144 160 80 144 160 80 144 160 80 144 160 80 144 160 80 144 160 80 144 160 80 144 160 80 144 160 80 144 160 80 144 160 80 144 160 80 144 160 80 144 160 80 144 160 80 144 160 80 144 160 80 144 160 80 144 160 80 144 160 80 144 160 80 144
40 88 160 40 88 160 40 88 160 40 88 160 40 88 160 40 88 160 40 88 160 40 88 160 40 88 160 40 88 160 40 88 160 40 88 160 40 88 160 40 88 160 40 88 160 40 88 160 40 88 160 40 88 160 40 88 160 40 88 160 40 88 160 40 88 160 40 88 160 40 88 160 40 88 160 40 88 160 40 88 160 40 88 160 40 88 160 40 88 160 40 88 160 40 88 160 32 88 160 32 88 160 32 88 160 32 88 160 32 88 160 32 88 160 32 88 160 32 88 160 32 88 160 32 88 160 32 88 160 32 88 160 32 88 160 32 88 160 32 88 160 32 88 160 32 88 160 32 88 160 32 88 160 32 88 160 32 88 160 32 88 160 32 88 160 32 88 160 32 88 160 32 88 160 32 88 160 32 88 160 32 88 160 32 88 160 32 88 160 32 88 160 32 80 144 32 80 144 32 80 144 32 80 144 32 80 144 32 80 144 32 80 144 32 80 144 32 80 144 32 80 144 32 80 144 32 80 144 32 80 144 32 80 144 32 80 144 32 80 144 32 80 144 32 80 144 32 80 144 32 80 144 32 80 144 32 80 144 32 80 144 32 80 144 32 80 144 32 80 144 32 80 144 32 80 144 32 80 144 32 80 144 32 80 144 32 80 144 160 80 144 160 80 144 160 80 144 160 80 144 160 80 144 160 80 144 160 80 144 160 80 144 160 80 144 160 80 144 160 80 144 160 80 144 160 80 144 160 80 144 160 80 144 160 80 144 160 80 144 160 80 144 160 80 144 160 80 144 160 80 144 160 80 144 160 80 144 160 80 144 160 80 144 160 80 144 160 80 144 160 80 144 160 80 144 160 80 144 160 80 144 160 80 144
40 88 160 40 88 160 40 88 160 40 88 160 40 88 160 40 88 160 40 88 160 40 88 160 40 88 160 40 88 160 40 88 160 40 88 160 40 88 160 40 88 160 40 88 160 40 88 160 40 88 160 40 88 160 40 88 160 40 88 160 40 88 160 40 88 160 40 88 160 40 88 160 40 88 160 40 88 160 40 88 160 40 88 160 40 88 160 40 88 160 40 88 160 40 88 160 32 88 160 32 88 160 32 88 160 32 88 160 32 88 160 32 88 160 32 88 160 32 88 160 32 88 160 32 88 160 32 88 160 32 88 160 32 88 160 32 88 160 32 88 160 32 88 160 32 88 160 32 88 160 32 88 160 32 88 160 32 88 160 32 88 160 32 88 160 32 88 160 32 88 160 32 88 160 32 88 160 32 88 160 32 88 160 32 88 160 32 88 160 32 88 160 32 80 144 32 80 144 32 80 144 32 80 144 32 80 144 32 80 144 32 80 144 32 80 144 32 80 144 32 80 144 32 80 144 32 80 144 32 80 144 32 80 144 32 80 144 32 80 144 32 80 144 32 80 144 32 80 144 32 80 144 32 80 144 32 80 144 32 80 144 32 80 144 32 80 144 32 80 144 32 80 144 32 80 144 32 80 144 32 80 144 32 80 144 32 80 144 160 80 144 160 80 144 160 80 144 160 80 144 160 80 144 160 80 144 160 80 144 160 80 144 160 80 144 160 80 144 160 80 144 160 80 144 160 80 144 160 80 144 160 80 144 160 80 144 160 80 144 160 80 144 160 80 144 160 80 144 160 80 144 160 80 144 160 80 144 160 80 144 160 80 144 160 80 144 160 80 144 160 80 144 160 80 144 160 80 144 160 80 144 160 80 144
40 88 160 40 88 160 40 88 160 40 88 160 40 88 160 40 88 160 40 88 160 40 88 160 40 88 160 40 88 160 40 88 160 40 88 160 40 88 160 40 88 160 40 88 160 40 88 160 40 88 160 40 88 160 40 88 160 40 88 160 40 88 160 40 88 160 40 88 160 40 88 160 40 88 160 40 88 160 40 88 160 40 88 160 40 88 160 40 88 160 40 88 160 40 88 160 32 88 160 32 88 160 32 88 160 32 88 160 32 88 160 32 88 160 32 88 160 32 88 160 32 88 160 32 88 160 32 88 160 32 88 160 32 88 160 32 88 160 32 88 160 32 88 160 32 88 160 32 88 160 32 88 160 32 88 160 32 88 160 32 88 160 32 88 160 32 88 160 32 88 160 32 88 160 32 88 160 32 88 160 32 88 160 32 88 160 32 88 160 32 88 160 32 80 144 32 80 144 32 80 144 32 80 144 32 80 144 32 80 144 32 80 144 32 80 144 32 80 144 32 80 144 32 80 144 32 80 144 32 80 144 32 80 144 32 80 144 32 80 144 32 80 144 32 80 144 32 80 144 32 80 144 32 80 144 32 80 144 32 80 144 32 80 144 32 80 144 32 80 144 32 80 144 32 80 144 32 80 144 32 80 144 32 80 144 32 80 144 160 80 144 160 80 144 160 80 144 160 80 144 160 80 144 160 80 144 160 80 144 160 80 144 160 80 144 160 80 144 160 80 144 160 80 144 160 80 144 160 80 144 160 80 144 160 80 144 160 80 144 160 80 144 160 80 144 160 80 144 160 80 144 160 80 144 160 80 144 160 80 144 160 80 144 160 80 144 160 80 144 160 80 144 160 80 144 160 80 144 160 80 144 160 80 144
40 88 160 40 88 160 40 88 160 40 88 160 40 88 160 40 88 160 40 88 160 40 88 160 40 88 160 40 88 160 40 88 160 40 88 160 40 88 160 40 88 160 40 88 160 40 88 160 40 88 160 40 88 160 40 88 160 40 88 160 40 88 160 40 88 160 40 88 160 40 88 160 40 88 160 40 88 160 40 88 160 40 88 160 40 88 160 40 88 160 40 88 160 40 88 160 32 88 160 32 88 160 32 88 160 32 88 160 32 88 160 32 88 160 32 88 160 32 88 160 32 88 160 32 88 160 32 88 160 32 88 160 32 88 160 32 88 160 32 88 160 32 88 160 32 88 160 32 88 160 32 88 160 32 88 160 32 88 160 32 88 160 32 88 160 32 88 160 32 88 160 32 88 160 32 88 160 32 88 160 32 88 160 32 88 160 32 88 160 32 88 160 32 80 144 32 80 144 32 80 144 32 80 144 32 80 144 32 80 144 32 80 144 32 80 144 32 80 144 32 80 144 32 80 144 32 80 144 32 80 144 32 80 144 32 80 144 32 80 144 32 80 144 32 80 144 32 80 144 32 80 144 32 80 144 32 80 144 32 80 144 32 80 144 32 80 144 32 80 144 32 80 144 32 80 144 32 80 144 32 80 144 32 80 144 32 80 144 160 80 144 160 80 144 160 80 144 160 80 144 160 80 144 160 80 144 160 80 144 160 80 144 160 80 144 160 80 144 160 80 144 160 80 144 160 80 144 160 80 144 160 80 144 160 80 144 160 80 144 160 80 144 160 80 144 160 80 144 160 80 144 160 80 144 160 80 144 160 80 144 160 80 144 160 80 144 160 80 144 160 80 144 160 80 144 160 80 144 160 80 144 160 80 144
40 88 160 40 88 160 40 88 160 40 88 160 40 88 160 40 88 160 40 88 160 40 88 160 40 88 160 40 88 160 40 88 160 40 88 160 40 88 160 40 88 160 40 88 160 40 88 160 40 88 160 40 88 160 40 88 160 40 88 160 40 88 160 40 88 160 40 88 160 40 88 160 40 88 160 40 88 160 40 88 160 40 88 160 40 88 160 40 88 160 40 88 160 40 88 160 32 88 160 32 88 160 32 88 160 32 88 160 32 88 160 32 88 160 32 88 160 32 88 160 32 88 160 32 88 160 32 88 160 32 88 160 32 88 160 32 88 160 32 88 160 32 88 160 32 88 160 32 88 160 32 88 160 32 88 160 32 88 160 32 88 160 32 88 160 32 88 160 32 88 160 32 88 160 32 88 160 32 88 160 32 88 160 32 88 160 32 88 160 32 88 160 32 80 144 32 80 144 32 80 144 32 80 144 32 80 144 32 80 144 32 80 144 32 80 144 32 80 144 32 80 144 32 80 144 32 80 144 32 80 144 32 80 144 32 80 144 32 80 144 32 80 144 32 80 144 32 80 144 32 80 144 32 80 144 32 80 144 32 80 144 32 80 144 32 80 144 32 80 144 32 80 144 32 80 144 32 80 144 32 80 144 32 80 144 32 80 144 160 80 144 160 80 144 160 80 144 160 80 144 160 80 144 160 80 144 160 80 144 160 80 144 160 80 144 160 80 144 160 80 144 160 80 144 160 80 144 160 80 144 160 80 144 160 80 144 160 80 144 160 80 144 160 80 144 160 80 144 160 80 144 160 80 144 160 80 144 160 80 144 160 80 144 160 80 144 160 80 144 160 80 144 160 80 144 160 80 144 160 80 144 160 80 144
40 88 160 40 88 160 40 88 160 40 88 160 40 88 160 40 88 160 40 88 160 40 88 160 40 88 160 40 88 160 40 88 160 40 88 160 40 88 160 40 88 160 40 88 160 40 88 160 40 88 160 40 88 160 40 88 160 40 88 160 40 88 160 40 88 160 40 88 160 40 88 160 40 88 160 40 88 160 40 88 160 40 88 160 40 88 160 40 88 160 40 88 160 40 88 160 32 88 160 32 88 160 32 88 160 32 88 160 32 88 160 32 88 160 32 88 160 32 88 160 32 88 160 32 88 160 32 88 160 32 88 160 32 88 160 32 88 160 32 88 160 32 88 160 32 88 160 32 88 160 32 88 160 32 88 160 32 88 160 32 88 160 32 88 160 32 88 160 32 88 160 32 88 160 32 88 160 32 88 160 32 88 160 32 88 160 32 88 160 32 88 160 32 80 144 32 80 144 32 80 144 32 80 144 32 80 144 32 80 144 32 80 144 32 80 144 32 80 144 32 80 144 32 80 144 32 80 144 32 80 144 32 80 144 32 80 144 32 80 144 32 80 144 32 80 144 32 80 144 32 80 144 32 80 144 32 80 144 32 80 144 32 80 144 32 80 144 32 80 144 32 80 144 32 80 144 32 80 144 32 80 144 32 80 144 32 80 144 160 80 144 160 80 144 160 80 144 160 80 144 160 80 144 160 80 144 160 80 144 160 80 144 160 80 144 160 80 144 160 80 144 160 80 144 160 80 144 160 80 144 160 80 144 160 80 144 160 80 144 160 80 144 160 80 144 160 80 144 160 80 144 160 80 144 160 80 144 160 80 144 160 80 144 160 80 144 160 80 144 160 80 144 160 80 144 160 80 144 160 80 144 160 80 144
40 88 160 40 88 160 40 88 160 40 88 160 40 88 160 40 88 160 40 88 160 40 88 160 40 88 160 40 88 160 40 88 160 40 88 160 40 88 160 40 88 160 40 88 160 40 88 160 40 88 160 40 88 160 40 88 160 40 88 160 40 88 160 40 88 160 40 88 160 40 88 160 40 88 160 40 88 160 40 88 160 40 88 160 40 88 160 40 88 160 40 88 160 40 88 160 32 88 160 32 88 160 32 88 160 32 88 160 32 88 160 32 88 160 32 88 160 32 88 160 32 88 160 32 88 160 32 88 160 32 88 160 32 88 160 32 88 160 32 88 160 32 88 160 32 88 160 32 88 160 32 88 160 32 88 160 32 88 160 32 88 160 32 88 160 32 88 160 32 88 160 32 88 160 32 88 160 32 88 160 32 88 160 32 88 160 32 88 160 32 88 160 32 80 144 32 80 144 32 80 144 32 80 144 32 80 144 32 80 144 32 80 144 32 80 144 32 80 144 32 80 144 32 80 144 32 80 144 32 80 144 32 80 144 32 80 144 32 80 144 32 80 144 32 80 144 32 80 144 32 80 144 32 80 144 32 80 144 32 80 144 32 80 144 32 80 144 32 80 144 32 80 144 32 80 144 32 80 144 32 80 144 32 80 144 32 80 144 160 80 144 160 80 144 160 80 144 160 80 144 160 80 144 160 80 144 160 80 144 160 80 144 160 80 144 160 80 144 160 80 144 160 80 144 160 80 144 160 80 144 160 80 144 160 80 144 160 80 144 160 80 144 160 80 144 160 80 144 160 80 144 160 80 144 160 80 144 160 80 144 160 80 144 160 80 144 160 80 144 160 80 144 160 80 144 160 80 144 160 80 144 160 80 144
40 88 160 40 88 160 40 88 160 40 88 160 40 88 160 40 88 160 40 88 160 40 88 160 40 88 160 40 88 160 40 88 160 40 88 160 40 88 160 40 88 160 40 88 160 40 88 160 40 88 160 40 88 160 40 88 160 40 88 160 40 88 160 40 88 160 40 88 160 40 88 160 40 88 160 40 88 160 40 88 160 40 88 160 40 88 160 40 88 160 40 88 160 40 88 160 32 88 160 32 88 160 32 88 160 32 88 160 32 88 160 32 88 160 32 88 160 32 88 160 32 88 160 32 88 160 32 88 160 32 88 160 32 88 160 32 88 160 32 88 160 32 88 160 32 88 160 32 88 160 32 88 160 32 88 160 32 88 160 32 88 160 32 88 160 32 88 160 32 88 160 32 88 160 32 88 160 32 88 160 32 88 160 32 88 160 32 88 160 32 88 160 32 80 144 32 80 144 32 80 144 32 80 144 32 80 144 32 80 144 32 80 144 32 80 144 32 80 144 32 80 144 32 80 144 32 80 144 32 80 144 32 80 144 32 80 144 32 80 144 32 80 144 32 80 144 32 80 144 32 80 144 32 80 144 32 80 144 32 80 144 32 80 144 32 80 144 32 80 144 32 80 144 32 80 144 32 80 144 32 80 144 32 80 144 32 80 144 160 80 144 160 80 144 160 80 144 160 80 144 160 80 144 160 80 144 160 80 144 160 80 144 160 80 144 160 80 144 160 80 144 160 80 144 160 80 144 160 80 144 160 80 144 160 80 144 160 80 144 160 80 144 160 80 144 160 80 144 160 80 144 160 80 144 160 80 144 160 80 144 160 80 144 160 80 144 160 80 144 160 80 144 160 80 144 160 80 144 160 80 144 160 80 144
40 88 160 40 88 160 40 88 160 40 88 160 40 88 160 40 88 160 40 88 160 40 88 160 40 88 160 40 88 160 40 88 160 40 88 160 40 88 160 40 88 160 40 88 160 40 88 160 40 88 160 40 88 160 40 88 160 40 88 160 40 88 160 40 88 160 40 88 160 40 88 160 40 88 160 40 88 160 40 88 160 40 88 160 40 88 160 40 88 160 40 88 160 40 88 160 32 88 160 32 88 160 32 88 160 32 88 160 32 88 160 32 88 160 32 88 160 32 88 160 32 88 160 32 88 160 32 88 160 32 88 160 32 88 160 32 88 160 32 88 160 32 88 160 32 88 160 32 88 160 32 88 160 32 88 160 32 88 160 32 88 160 32 88 160 32 88 160 32 88 160 32 88 160 32 88 160 32 88 160 32 88 160 32 88 160 32 88 160 32 88 160 32 80 144 32 80 144 32 80 144 32 80 144 32 80 144 32 80 144 32 80 144 32 80 144 32 80 144 32 80 144 32 80 144 32 80 144 32 80 144 32 80 144 32 80 144 32 80 144 32 80 144 32 80 144 32 80 144 32 80 144 32 80 144 32 80 144 32 80 144 32 80 144 32 80 144 32 80 144 32 80 144 32 80 144 32 80 144 32 80 144 32 80 144 32 80 144 160 80 144 160 80 144 160 80 144 160 80 144 160 80 144 160 80 144 160 80 144 160 80 144 160 80 144 160 80 144 160 80 144 160 80 144 160 80 144 160 80 144 160 80 144 160 80 144 160 80 144 160 80 144 160 80 144 160 80 144 160 80 144 160 80 144 160 80 144 160 80 144 160 80 144 160 80 144 160 80 144 160 80 144 160 80 144 160 80 144 160 80 144 160 80 144
40 88 160 40 88 160 40 88 160 40 88 160 40 88 160 40 88 160 40 88 160 40 88 160 40 88 160 40 88 160 40 88 160 40 88 160 40 88 160 40 88 160 40 88 160 40 88 160 40 88 160 40 88 160 40 88 160 40 88 160 40 88 160 40 88 160 40 88 160 40 88 160 40 88 160 40 88 160 40 88 160 40 88 160 40 88 160 40 88 160 40 88 160 40 88 160 32 88 160 32 88 160 32 88 160 32 88 160 32 88 160 32 88 160 32 88 160 32 88 160 32 88 160 32 88 160 32 88 160 32 88 160 32 88 160 32 88 160 32 88 160 32 88 160 32 88 160 32 88 160 32 88 160 32 88 160 32 88 160 32 88 160 32 88 160 32 88 160 32 88 160 32 88 160 32 88 160 32 88 160 32 88 160 32 88 160 32 88 160 32 88 160 32 80 144 32 80 144 32 80 144 32 80 144 32 80 144 32 80 144 32 80 144 32 80 144 32 80 144 32 80 144 32 80 144 32 80 144 32 80 144 32 80 144 32 80 144 32 80 144 32 80 144 32 80 144 32 80 144 32 80 144 32 80 144 32 80 144 32 80 144 32 80 144 32 80 144 32 80 144 32 80 144 32 80 144 32 80 144 32 80 144 32 80 144 32 80 144 160 80 144 160 80 144 160 80 144 160 80 144 160 80 144 160 80 144 160 80 144 160 80 144 160 80 144 160 80 144 160 80 144 160 80 144 160 80 144 160 80 144 160 80 144 160 80 144 160 80 144 160 80 144 160 80 144 160 80 144 160 80 144 160 80 144 160 80 144 160 80 144 160 80 144 160 80 144 160 80 144 160 80 144 160 80 144 160 80 144 160 80 144 160 80 144
40 88 160 40 88 160 40 88 160 40 88 160 40 88 160 40 88 160 40 88 160 40 88 160 40 88 160 40 88 160 40 88 160 40 88 160 40 88 160 40 88 160 40 88 160 40 88 160 40 88 160 40 88 160 40 88 160 40 88 160 40 88 160 40 88 160 40 88 160 40 88 160 40 88 160 40 88 160 40 88 160 40 88 160 40 88 160 40 88 160 40 88 160 40 88 160 32 88 160 32 88 160 32 88 160 32 88 160 32 88 160 32 88 160 32 88 160 32 88 160 32 88 160 32 88 160 32 88 160 32 88 160 32 88 160 32 88 160 32 88 160 32 88 160 32 88 160 32 88 160 32 88 160 32 88 160 32 88 160 32 88 160 32 88 160 32 88 160 32 88 160 32 88 160 32 88 160 32 88 160 32 88 160 32 88 160 32 88 160 32 88 160 32 80 144 32 80 144 32 80 144 32 80 144 32 80 144 32 80 144 32 80 144 32 80 144 32 80 144 32 80 144 32 80 144 32 80 144 32 80 144 32 80 144 32 80 144 32 80 144 32 80 144 32 80 144 32 80 144 32 80 144 32 80 144 32 80 144 32 80 144 32 80 144 32 80 144 32 80 144 32 80 144 32 80 144 32 80 144 32 80 144 32 80 144 32 80 144 160 80 144 160 80 144 160 80 144 160 80 144 160 80 144 160 80 144 160 80 144 160 80 144 160 80 144 160 80 144 160 80 144 160 80 144 160 80 144 160 80 144 160 80 144 160 80 144 160 80 144 160 80 144 160 80 144 160 80 144 160 80 144 160 80 144 160 80 144 160 80 144 160 80 144 160 80 144 160 80 144 160 80 144 160 80 144 160 80 144 160 80 144 160 80 144
40 88 160 40 88 160 40 88 160 40 88 160 40 88 160 40 88 160 40 88 160 40 88 160 40 88 160 40 88 160 40 88 160 40 88 160 40 88 160 40 88 160 40 88 160 40 88 160 40 88 160 40 88 160 40 88 160 40 88 160 40 88 160 40 88 160 40 88 160 40 88 160 40 88 160 40 88 160 40 88 160 40 88 160 40 88 160 40 88 160 40 88 160 40 88 160 32 88 160 32 88 160 32 88 160 32 88 160 32 88 160 32 88 160 32 88 160 32 88 160 32 88 160 32 88 160 32 88 160 32 88 160 32 88 160 32 88 160 32 88 160 32 88 160 32 88 160 32 88 160 32 88 160 32 88 160 32 88 160 32 88 160 32 88 160 32 88 160 32 88 160 32 88 160 32 88 160 32 88 160 32 88 160 32 88 160 32 88 160 32 88 160 32 80 144 32 80 144 32 80 144 32 80 144 32 80 144 32 80 144 32 80 144 32 80 144 32 80 144 32 80 144 32 80 144 32 80 144 32 80 144 32 80 144 32 80 144 32 80 144 32 80 144 32 80 144 32 80 144 32 80 144 32 80 144 32 80 144 32 80 144 32 80 144 32 80 144 32 80 144 32 80 144 32 80 144 32 80 144 32 80 144 32 80 144 32 80 144 160 80 144 160 80 144 160 80 144 160 80 144 160 80 144 160 80 144 160 80 144 160 80 144 160 80 144 160 80 144 160 80 144 160 80 144 160 80 144 160 80 144 160 80 144 160 80 144 160 80 144 160 80 144 160 80 144 160 80 144 160 80 144 160 80 144 160 80 144 160 80 144 160 80 144 160 80 144 160 80 144 160 80 144 160 80 144 160 80 144 160 80 144 160 80 144
40 88 160 40 88 160 40 88 160 40 88 160 40 88 160 40 88 160 40 88 160 40 88 160 40 88 160 40 88 160 40 88 160 40 88 160 40 88 160 40 88 160 40 88 160 40 88 160 40 88 160 40 88 160 40 88 160 40 88 160 40 88 160 40 88 160 40 88 160 40 88 160 40 88 160 40 88 160 40 88 160 40 88 160 40 88 160 40 88 160 40 88 160 40 88 160 32 88 160 32 88 160 32 88 160 32 88 160 32 88 160 32 88 160 32 88 160 32 88 160 32 88 160 32 88 160 32 88 160 32 88 160 32 88 160 32 88 160 32 88 160 32 88 160 32 88 160 32 88 160 32 88 160 32 88 160 32 88 160 32 88 160 32 88 160 32 88 160 32 88 160 32 88 160 32 88 160 32 88 160 32 88 160 32 88 160 32 88 160 32 88 160 32 80 144 32 80 144 32 80 144 32 80 144 32 80 144 32 80 144 32 80 144 32 80 144 32 80 144 32 80 144 32 80 144 32 80 144 32 80 144 32 80 144 32 80 144 32 80 144 32 80 144 32 80 144 32 80 144 32 80 144 32 80 144 32 80 144 32 80 144 32 80 144 32 80 144 32 80 144 32 80 144 32 80 144 32 80 144 32 80 144 32 80 144 32 80 144 160 80 144 160 80 144 160 80 144 160 80 144 160 80 144 160 80 144 160 80 144 160 80 144 160 80 144 160 80 144 160 80 144 160 80 144 160 80 144 160 80 144 160 80 144 160 80 144 160 80 144 160 80 144 160 80 144 160 80 144 160 80 144 160 80 144 160 80 144 160 80 144 160 80 144 160 80 144 160 80 144 160 80 144 160 80 144 160 80 144 160 80 144 160 80 144
40 88 160 40 88 160 40 88 160 40 88 160 40 88 160 40 88 160 40 88 160 40 88 160 40 88 160 40 88 160 40 88 160 40 88 160 40 88 160 40 88 160 40 88 160 40 88 160 40 88 160 40 88 160 40 88 160 40 88 160 40 88 160 40 88 160 40 88 160 40 88 160 40 88 160 40 88 160 40 88 160 40 88 160 40 88 160 40 88 160 40 88 160 40 88 160 32 88 160 32 88 160 32 88 160 32 88 160 32 88 160 32 88 160 32 88 160 32 88 160 32 88 160 32 88 160 32 88 160 32 88 160 32 88 160 32 88 160 32 88 160 32 88 160 32 88 160 32 88 160 32 88 160 32 88 160 32 88 160 32 88 160 32 88 160 32 88 160 32 88 160 32 88 160 32 88 160 32 88 160 32 88 160 32 88 160 32 88 160 32 88 160 32 80 144 32 80 144 32 80 144 32 80 144 32 80 144 32 80 144 32 80 144 32 80 144 32 80 144 32 80 144 32 80 144 32 80 144 32 80 144 32 80 144 32 80 144 32 80 144 32 80 144 32 80 144 32 80 144 32 80 144 32 80 144 32 80 144 32 80 144 32 80 144 32 80 144 32 80 144 32 80 144 32 80 144 32 80 144 32 80 144 32 80 144 32 80 144 160 80 144 160 80 144 160 80 144 160 80 144 160 80 144 160 80 144 160 80 144 160 80 144 160 80 144 160 80 144 160 80 144 160 80 144 160 80 144 160 80 144 160 80 144 160 80 144 160 80 144 160 80 144 160 80 144 160 80 144 160 80 144 160 80 144 160 80 144 160 80 144 160 80 144 160 80 144 160 80 144 160 80 144 160 80 144 160 80 144 160 80 144 160 80 144
40 88 160 40 88 160 40 88 160 40 88 160 40 88 160 40 88 160 40 88 160 40 88 160 40 88 160 40 88 160 40 88 160 40 88 160 40 88 160 40 88 160 40 88 160 40 88 160 40 88 160 40 88 160 40 88 160 40 88 160 40 88 160 40 88 160 40 88 160 40 88 160 40 88 160 40 88 160 40 88 160 40 88 160 40 88 160 40 88 160 40 88 160 40 88 160 32 88 160 32 88 160 32 88 160 32 88 160 32 88 160 32 88 160 32 88 160 32 88 160 32 88 160 32 88 160 32 88 160 32 88 160 32 88 160 32 88 160 32 88 160 32 88 160 32 88 160 32 88 160 32 88 160 32 88 160 32 88 160 32 88 160 32 88 160 32 88 160 32 88 160 32 88 160 32 88 160 32 88 160 32 88 160 32 88 160 32 88 160 32 88 160 32 80 144 32 80 144 32 80 144 32 80 144 32 80 144 32 80 144 32 80 144 32 80 144 32 80 144 32 80 144 32 80 144 32 80 144 32 80 144 32 80 144 32 80 144 32 80 144 32 80 144 32 80 144 32 80 144 32 80 144 32 80 144 32 80 144 32 80 144 32 80 144 32 80 144 32 80 144 32 80 144 32 80 144 32 80 144 32 80 144 32 80 144 32 80 144 160 80 144 160 80 144 160 80 144 160 80 144 160 80 144 160 80 144 160 80 144 160 80 144 160 80 144 160 80 144 160 80 144 160 80 144 160 80 144 160 80 144 160 80 144 160 80 144 160 80 144 160 80 144 160 80 144 160 80 144 160 80 144 160 80 144 160 80 144 160 80 144 160 80 144 160 80 144 160 80 144 160 80 144 160 80 144 160 80 144 160 80 144 160 80 144
40 88 160 40 88 160 40 88 160 40 88 160 40 88 160 40 88 160 40 88 160 40 88 160 40 88 160 40 88 160 40 88 160 40 88 160 40 88 160 40 88 160 40 88 160 40 88 160 40 88 160 40 88 160 40 88 160 40 88 160 40 88 160 40 88 160 40 88 160 40 88 160 40 88 160 40 88 160 40 88 160 40 88 160 40 88 160 40 88 160 40 88 160 40 88 160 32 88 160 32 88 160 32 88 160 32 88 160 32 88 160 32 88 160 32 88 160 32 88 160 32 88 160 32 88 160 32 88 160 32 88 160 32 88 160 32 88 160 32 88 160 32 88 160 32 88 160 32 88 160 32 88 160 32 88 160 32 88 160 32 88 160 32 88 160 32 88 160 32 88 160 32 88 160 32 88 160 32 88 160 32 88 160 32 88 160 32 88 160 32 88 160 32 80 144 32 80 144 32 80 144 32 80 144 32 80 144 32 80 144 32 80 144 32 80 144 32 80 144 32 80 144 32 80 144 32 80 144 32 80 144 32 80 144 32 80 144 32 80 144 32 80 144 32 80 144 32 80 144 32 80 144 32 80 144 32 80 144 32 80 144 32 80 144 32 80 144 32 80 144 32 80 144 32 80 144 32 80 144 32 80 144 32 80 144 32 80 144 160 80 144 160 80 144 160 80 144 160 80 144 160 80 144 160 80 144 160 80 144 160 80 144 160 80 144 160 80 144 160 80 144 160 80 144 160 80 144 160 80 144 160 80 144 160 80 144 160 80 144 160 80 144 160 80 144 160 80 144 160 80 144 160 80 144 160 80 144 160 80 144 160 80 144 160 80 144 160 80 144 160 80 144 160 80 144 160 80 144 160 80 144 160 80 144
40 88 160 40 88 160 40 88 160 40 88 160 40 88 160 40 88 160 40 88 160 40 88 160 40 88 160 40 88 160 40 88 160 40 88 160 40 88 160 40 88 160 40 88 160 40 88 160 40 88 160 40 88 160 40 88 160 40 88 160 40 88 160 40 88 160 40 88 160 40 88 160 40 88 160 40 88 160 40 88 160 40 88 160 40 88 160 40 88 160 40 88 160 40 88 160 32 88 160 32 88 160 32 88 160 32 88 160 32 88 160 32 88 160 32 88 160 32 88 160 32 88 160 32 88 160 32 88 160 32 88 160 32 88 160 32 88 160 32 88 160 32 88 160 32 88 160 32 88 160 32 88 160 32 88 160 32 88 160 32 88 160 32 88 160 32 88 160 32 88 160 32 88 160 32 88 160 32 88 160 32 88 160 32 88 160 32 88 160 32 88 160 32 80 144 32 80 144 32 80 144 32 80 144 32 80 144 32 80 144 32 80 144 32 80 144 32 80 144 32 80 144 32 80 144 32 80 144 32 80 144 32 80 144 32 80 144 32 80 144 32 80 144 32 80 144 32 80 144 32 80 144 32 80 144 32 80 144 32 80 144 32 80 144 32 80 144 32 80 144 32 80 144 32 80 144 32 80 144 32 80 144 32 80 144 32 80 144 160 80 144 160 80 144 160 80 144 160 80 144 160 80 144 160 80 144 160 80 144 160 80 144 160 80 144 160 80 144 160 80 144 160 80 144 160 80 144 160 80 144 160 80 144 160 80 144 160 80 144 160 80 144 160 80 144 160 80 144 160 80 144 160 80 144 160 80 144 160 80 144 160 80 144 160 80 144 160 80 144 160 80 144 160 80 144 160 80 144 160 80 144 160 80 144
40 88 160 40 88 160 40 88 160 40 88 160 40 88 160 40 88 160 40 88 160 40 88 160 40 88 160 40 88 160 40 88 160 40 88 160 40 88 160 40 88 160 40 88 160 40 88 160 40 88 160 40 88 160 40 88 160 40 88 160 40 88 160 40 88 160 40 88 160 40 88 160 40 88 160 40 88 160 40 88 160 40 88 160 40 88 160 40 88 160 40 88 160 40 88 160 32 88 160 32 88 160 32 88 160 32 88 160 32 88 160 32 88 160 32 88 160 32 88 160 32 88 160 32 88 160 32 88 160 32 88 160 32 88 160 32 88 160 32 88 160 32 88 160 32 88 160 32 88 160 32 88 160 32 88 160 32 88 160 32 88 160 32 88 160 32 88 160 32 88 160 32 88 160 32 88 160 32 88 160 32 88 160 32 88 160 32 88 160 32 88 160 32 80 144 32 80 144 32 80 144 32 80 144 32 80 144 32 80 144 32 80 144 32 80 144 32 80 144 32 80 144 32 80 144 32 80 144 32 80 144 32 80 144 32 80 144 32 80 144 32 80 144 32 80 144 32 80 144 32 80 144 32 80 144 32 80 144 32 80 144 32 80 144 32 80 144 32 80 144 32 80 144 32 80 144 32 80 144 32 80 144 32 80 144 32 80 144 160 80 144 160 80 144 160 80 144 160 80 144 160 80 144 160 80 144 160 80 144 160 80 144 160 80 144 160 80 144 160 80 144 160 80 144 160 80 144 160 80 144 160 80 144 160 80 144 160 80 144 160 80 144 160 80 144 160 80 144 160 80 144 160 80 144 160 80 144 160 80 144 160 80 144 160 80 144 160 80 144 160 80 144 160 80 144 160 80 144 160 80 144 160 80 144
40 88 160 40 88 160 40 88 160 40 88 160 40 88 160 40 88 160 40 88 160 40 88 160 40 88 160 40 88 160 40 88 160 40 88 160 40 88 160 40 88 160 40 88 160 40 88 160 40 88 160 40 88 160 40 88 160 40 88 160 40 88 160 40 88 160 40 88 160 40 88 160 40 88 160 40 88 160 40 88 160 40 88 160 40 88 160 40 88 160 40 88 160 40 88 160 32 88 160 32 88 160 32 88 160 32 88 160 32 88 160 32 88 160 32 88 160 32 88 160 32 88 160 32 88 160 32 88 160 32 88 160 32 88 160 32 88 160 32 88 160 32 88 160 32 88 160 32 88 160 32 88 160 32 88 160 32 88 160 32 88 160 32 88 160 32 88 160 32 88 160 32 88 160 32 88 160 32 88 160 32 88 160 32 88 160 32 88 160 32 88 160 32 80 144 32 80 144 32 80 144 32 80 144 32 80 144 32 80 144 32 80 144 32 80 144 32 80 144 32 80 144 32 80 144 32 80 144 32 80 144 32 80 144 32 80 144 32 80 144 32 80 144 32 80 144 32 80 144 32 80 144 32 80 144 32 80 144 32 80 144 32 80 144 32 80 144 32 80 144 32 80 144 32 80 144 32 80 144 32 80 144 32 80 144 32 80 144 160 80 144 160 80 144 160 80 144 160 80 144 160 80 144 160 80 144 160 80 144 160 80 144 160 80 144 160 80 144 160 80 144 160 80 144 160 80 144 160 80 144 160 80 144 160 80 144 160 80 144 160 80 144 160 80 144 160 80 144 160 80 144 160 80 144 160 80 144 160 80 144 160 80 144 160 80 144 160 80 144 160 80 144 160 80 144 160 80 144 160 80 144 160 80 144
40 88 160 40 88 160 40 88 160 40 88 160 40 88 160 40 88 160 40 88 160 40 88 160 40 88 160 40 88 160 40 88 160 40 88 160 40 88 160 40 88 160 40 88 160 40 88 160 40 88 160 40 88 160 40 88 160 40 88 160 40 88 160 40 88 160 40 88 160 40 88 160 40 88 160 40 88 160 40 88 160 40 88 160 40 88 160 40 88 160 40 88 160 40 88 160 32 88 160 32 88 160 32 88 160 32 88 160 32 88 160 32 88 160 32 88 160 32 88 160 32 88 160 32 88 160 32 88 160 32 88 160 32 88 160 32 88 160 32 88 160 32 88 160 32 88 160 32 88 160 32 88 160 32 88 160 32 88 160 32 88 160 32 88 160 32 88 160 32 88 160 32 88 160 32 88 160 32 88 160 32 88 160 32 88 160 32 88 160 32 88 160 32 80 144 32 80 144 32 80 144 32 80 144 32 80 144 32 80 144 32 80 144 32 80 144 32 80 144 32 80 144 32 80 144 32 80 144 32 80 144 32 80 144 32 80 144 32 80 144 32 80 144 32 80 144 32 80 144 32 80 144 32 80 144 32 80 144 32 80 144 32 80 144 32 80 144 32 80 144 32 80 144 32 80 144 32 80 144 32 80 144 32 80 144 32 80 144 160 80 144 160 80 144 160 80 144 160 80 144 160 80 144 160 80 144 160 80 144 160 80 144 160 80 144 160 80 144 160 80 144 160 80 144 160 80 144 160 80 144 160 80 144 160 80 144 160 80 144 160 80 144 160 80 144 160 80 144 160 80 144 160 80 144 160 80 144 160 80 144 160 80 144 160 80 144 160 80 144 160 80 144 160 80 144 160 80 144 160 80 144 160 80 144
40 88 160 40 88 160 40 88 160 40 88 160 40 88 160 40 88 160 40 88 160 40 88 160 40 88 160 40 88 160 40 88 160 40 88 160 40 88 160 40 88 160 40 88 160 40 88 160 40 88 160 40 88 160 40 88 160 40 88 160 40 88 160 40 88 160 40 88 160 40 88 160 40 88 160 40 88 160 40 88 160 40 88 160 40 88 160 40 88 160 40 88 160 40 88 160 32 88 160 32 88 160 32 88 160 32 88 160 32 88 160 32 88 160 32 88 160 32 88 160 32 88 160 32 88 160 32 88 160 32 88 160 32 88 160 32 88 160 32 88 160 32 88 160 32 88 160 32 88 160 32 88 160 32 88 160 32 88 160 32 88 160 32 88 160 32 88 160 32 88 160 32 88 160 32 88 160 32 88 160 32 88 160 32 88 160 32 88 160 32 88 160 32 80 144 32 80 144 32 80 144 32 80 144 32 80 144 32 80 144 32 80 144 32 80 144 32 80 144 32 80 144 32 80 144 32 80 144 32 80 144 32 80 144 32 80 144 32 80 144 32 80 144 32 80 144 32 80 144 32 80 144 32 80 144 32 80 144 32 80 144 32 80 144 32 80 144 32 80 144 32 80 144 32 80 144 32 80 144 32 80 144 32 80 144 32 80 144 160 80 144 160 80 144 160 80 144 160 80 144 160 80 144 160 80 144 160 80 144 160 80 144 160 80 144 160 80 144 160 80 144 160 80 144 160 80 144 160 80 144 160 80 144 160 80 144 160 80 144 160 80 144 160 80 144 160 80 144 160 80 144 160 80 144 160 80 144 160 80 144 160 80 144 160 80 144 160 80 144 160 80 144 160 80 144 160 80 144 160 80 144 160 80 144
40 88 160 40 88 160 40 88 160 40 88 160 40 88 160 40 88 160 40 88 160 40 88 160 40 88 160 40 88 160 40 88 160 40 88 160 40 88 160 40 88 160 40 88 160 40 88 160 40 88 160 40 88 160 40 88 160 40 88 160 40 88 160 40 88 160 40 88 160 40 88 160 40 88 160 40 88 160 40 88 160 40 88 160 40 88 160 40 88 160 40 88 160 40 88 160 32 88 160 32 88 160 32 88 160 32 88 160 32 88 160 32 88 160 32 88 160 32 88 160 32 88 160 32 88 160 32 88 160 32 88 160 32 88 160 32 88 160 32 88 160 32 88 160 32 88 160 32 88 160 32 88 160 32 88 160 32 88 160 32 88 160 32 88 160 32 88 160 32 88 160 32 88 160 32 88 160 32 88 160 32 88 160 32 88 160 32 88 160 32 88 160 32 80 144 32 80 144 32 80 144 32 80 144 32 80 144 32 80 144 32 80 144 32 80 144 32 80 144 32 80 144 32 80 144 32 80 144 32 80 144 32 80 144 32 80 144 32 80 144 32 80 144 32 80 144 32 80 144 32 80 144 32 80 144 32 80 144 32 80 144 32 80 144 32 80 144 32 80 144 32 80 144 32 80 144 32 80 144 32 80 144 32 80 144 32 80 144 160 80 144 160 80 144 160 80 144 160 80 144 160 80 144 160 80 144 160 80 144 160 80 144 160 80 144 160 80 144 160 80 144 160 80 144 160 80 144 160 80 144 160 80 144 160 80 144 160 80 144 160 80 144 160 80 144 160 80 144 160 80 144 160 80 144 160 80 144 160 80 144 160 80 144 160 80 144 160 80 144 160 80 144 160 80 144 160 80 144 160 80 144 160 80 144
40 88 160 40 88 160 40 88 160 40 88 160 40 88 160 40 88 160 40 88 160 40 88 160 40 88 160 40 88 160 40 88 160 40 88 160 40 88 160 40 88 160 40 88 160 40 88 160 40 88 160 40 88 160 40 88 160 40 88 160 40 88 160 40 88 160 40 88 160 40 88 160 40 88 160 40 88 160 40 88 160 40 88 160 40 88 160 40 88 160 40 88 160 40 88 160 32 88 160 32 88 160 32 88 160 32 88 160 32 88 160 32 88 160 32 88 160 32 88 160 32 88 160 32 88 160 32 88 160 32 88 160 32 88 160 32 88 160 32 88 160 32 88 160 32 88 160 32 88 160 32 88 160 32 88 160 32 88 160 32 88 160 32 88 160 32 88 160 32 88 160 32 88 160 32 88 160 32 88 160 32 88 160 32 88 160 32 88 160 32 88 160 32 80 144 32 80 144 32 80 144 32 80 144 32 80 144 32 80 144 32 80 144 32 80 144 32 80 144 32 80 144 32 80 144 32 80 144 32 80 144 32 80 144 32 80 144 32 80 144 32 80 144 32 80 144 32 80 144 32 80 144 32 80 144 32 80 144 32 80 144 32 80 144 32 80 144 32 80 144 32 80 144 32 80 144 32 80 144 32 80 144 32 80 144 32 80 144 160 80 144 160 80 144 160 80 144 160 80 144 160 80 144 160 80 144 160 80 144 160 80 144 160 80 144 160 80 144 160 80 144 160 80 144 160 80 144 160 80 144 160 80 144 160 80 144 160 80 144 160 80 144 160 80 144 160 80 144 160 80 144 160 80 144 160 80 144 160 80 144 160 80 144 160 80 144 160 80 144 160 80 144 160 80 144 160 80 144 160 80 144 160 80 144
40 88 160 40 88 160 40 88 160 40 88 160 40 88 160 40 88 160 40 88 160 40 88 160 40 88 160 40 88 160 40 88 160 40 88 160 40 88 160 40 88 160 40 88 160 40 88 160 40 88 160 40 88 160 40 88 160 40 88 160 40 88 160 40 88 160 40 88 160 40 88 160 40 88 160 40 88 160 40 88 160 40 88 160 40 88 160 40 88 160 40 88 160 40 88 160 32 88 160 32 88 160 32 88 160 32 88 160 32 88 160 32 88 160 32 88 160 32 88 160 32 88 160 32 88 160 32 88 160 32 88 160 32 88 160 32 88 160 32 88 160 32 88 160 32 88 160 32 88 160 32 88 160 32 88 160 32 88 160 32 88 160 32 88 160 32 88 160 32 88 160 32 88 160 32 88 160 32 88 160 32 88 160 32 88 160 32 88 160 32 88 160 32 80 144 32 80 144 32 80 144 32 80 144 32 80 144 32 80 144 32 80 144 32 80 144 32 80 144 32 80 144 32 80 144 32 80 144 32 80 144 32 80 144 32 80 144 32 80 144 32 80 144 32 80 144 32 80 144 32 80 144 32 80 144 32 80 144 32 80 144 32 80 144 32 80 144 32 80 144 32 80 144 32 80 144 32 80 144 32 80 144 32 80 144 32 80 144 160 80 144 160 80 144 160 80 144 160 80 144 160 80 144 160 80 144 160 80 144 160 80 144 160 80 144 160 80 144 160 80 144 160 80 144 160 80 144 160 80 144 160 80 144 160 80 144 160 80 144 160 80 144 160 80 144 160 80 144 160 80 144 160 80 144 160 80 144 160 80 144 160 80 144 160 80 144 160 80 144 160 80 144 160 80 144 160 80 144 160 80 144 160 80 144
40 88 160 40 88 160 40 88 160 40 88 160 40 88 160 40 88 160 40 88 160 40 88 160 40 88 160 40 88 160 40 88 160 40 88 160 40 88 160 40 88 160 40 88 160 40 88 160 40 88 160 40 88 160 40 88 160 40 88 160 40 88 160 40 88 160 40 88 160 40 88 160 40 88 160 40 88 160 40 88 160 40 88 160 40 88 160 40 88 160 40 88 160 40 88 160 32 88 160 32 88 160 32 88 160 32 88 160 32 88 160 32 88 160 32 88 160 32 88 160 32 88 160 32 88 160 32 88 160 32 88 160 32 88 160 32 88 160 32 88 160 32 88 160 32 88 160 32 88 160 32 88 160 32 88 160 32 88 160 32 88 160 32 88 160 32 88 160 32 88 160 32 88 160 32 88 160 32 88 160 32 88 160 32 88 160 32 88 160 32 88 160 32 80 144 32 80 144 32 80 144 32 80 144 32 80 144 32 80 144 32 80 144 32 80 144 32 80 144 32 80 144 32 80 144 32 80 144 32 80 144 32 80 144 32 80 144 32 80 144 32 80 144 32 80 144 32 80 144 32 80 144 32 80 144 32 80 144 32 80 144 32 80 144 32 80 144 32 80 144 32 80 144 32 80 144 32 80 144 32 80 144 32 80 144 32 80 144 160 80 144 160 80 144 160 80 144 160 80 144 160 80 144 160 80 144 160 80 144 160 80 144 160 80 144 160 80 144 160 80 144 160 80 144 160 80 144 160 80 144 160 80 144 160 80 144 160 80 144 160 80 144 160 80 144 160 80 144 160 80 144 160 80 144 160 80 144 160 80 144 160 80 144 160 80 144 160 80 144 160 80 144 160 80 144 160 80 144 160 80 144 160 80 144
160 80 144 160 80 144 160 80 144 160 80 144 160 80 144 160 80 144 160 80 144 160 80 144 160 80 144 160 80 144 160 80 144 160 80 144 160 80 144 160 80 144 160 80 144 160 80 144 160 80 144 160 80 144 160 80 144 160 80 144 160 80 144 160 80 144 160 80 144 160 80 144 160 80 144 160 80 144 160 80 144 160 80 144 160 80 144 160 80 144 160 80 144 160 80 144 32 80 144 32 80 144 32 80 144 32 80 144 32 80 144 32 80 144 32 80 144 32 80 144 32 80 144 32 80 144 32 80 144 32 80 144 32 80 144 32 80 144 32 80 144 32 80 144 32 80 144 32 80 144 32 80 144 32 80 144 32 80 144 32 80 144 32 80 144 32 80 144 32 80 144 32 80 144 32 80 144 32 80 144 32 80 144 32 80 144 32 80 144 32 80 144 64 80 40 64 80 40 64 80 40 64 80 40 64 80 40 64 80 40 64 80 40 64 80 40 64 80 40 64 80 40 64 80 40 64 80 40 64 80 40 64 80 40 64 80 40 64 80 40 64 80 40 64 80 40 64 80 40 64 80 40 64 80 40 64 80 40 64 80 40 64 80 40 64 80 40 64 80 40 64 80 40 64 80 40 64 80 40 64 80 40 64 80 40 64 80 40 72 80 40 72 80 40 72 80 40 72 80 40 72 80 40 72 80 40 72 80 40 72 80 40 72 80 40 72 80 40 72 80 40 72 80 40 72 80 40 72 80 40 72 80 40 72 80 40 72 80 40 72 80 40 72 80 40 72 80 40 72 80 40 72 80 40 72 80 40 72 80 40 72 80 40 72 80 40 72 80 40 72 80 40 72 80 40 72 80 40 72 80 40 72 80 40
160 80 144 160 80 144 160 80 144 160 80 144 160 80 144 160 80 144 160 80 144 160 80 144 160 80 144 160 80 144 160 80 144 160 80 144 160 80 144 160 80 144 160 80 144 160 80 144 160 80 144 160 80 144 160 80 144 160 80 144 160 80 144 160 80 144 160 80 144 160 80 144 160 80 144 160 80 144 160 80 144 160 80 144 160 80 144 160 80 144 160 80 144 160 80 144 32 80 144 32 80 144 32 80 144 32 80 144 32 80 144 32 80 144 32 80 144 32 80 144 32 80 144 32 80 144 32 80 144 32 80 144 32 80 144 32 80 144 32 80 144 32 80 144 32 80 144 32 80 144 32 80 144 32 80 144 32 80 144 32 80 144 32 80 144 32 80 144 32 80 144 32 80 144 32 80 144 32 80 144 32 80 144 32 80 144 32 80 144 32 80 144 64 80 40 64 80 40 64 80 40 64 80 40 64 80 40 64 80 40 64 80 40 64 80 40 64 80 40 64 80 40 64 80 40 64 80 40 64 80 40 64 80 40 64 80 40 64 80 40 64 80 40 64 80 40 64 80 40 64 80 40 64 80 40 64 80 40 64 80 40 64 80 40 64 80 40 64 80 40 64 80 40 64 80 40 64 80 40 64 80 40 64 80 40 64 80 40 72 80 40 72 80 40 72 80 40 72 80 40 72 80 40 72 80 40 72 80 40 72 80 40 72 80 40 72 80 40 72 80 40 72 80 40 72 80 40 72 80 40 72 80 40 72 80 40 72 80 40 72 80 40 72 80 40 72 80 40 72 80 40 72 80 40 72 80 40 72 80 40 72 80 40 72 80 40 72 80 40 72 80 40 72 80 40 72 80 40 72 80 40 72 80 40
160 80 144 160 80 144 160 80 144 160 80 144 160 80 144 160 80 144 160 80 144 160 80 144 160 80 144 160 80 144 160 80 144 160 80 144 160 80 144 160 80 144 160 80 144 160 80 144 160 80 144 160 80 144 160 80 144 160 80 144 160 80 144 160 80 144 160 80 144 160 80 144 160 80 144 160 80 144 160 80 144 160 80 144 160 80 144 160 80 144 160 80 144 160 80 144 32 80 144 32 80 144 32 80 144 32 80 144 32 80 144 32 80 144 32 80 144 32 80 144 32 80 144 32 80 144 32 80 144 32 80 144 32 80 144 32 80 144 32 80 144 32 80 144 32 80 144 32 80 144 32 80 144 32 80 144 32 80 144 32 80 144 32 80 144 32 80 144 32 80 144 32 80 144 32 80 144 32 80 144 32 80 144 32 80 144 32 80 144 32 80 144 64 80 40 64 80 40 64 80 40 64 80 40 64 80 40 64 80 40 64 80 40 64 80 40 64 80 40 64 80 40 64 80 40 64 80 40 64 80 40 64 80 40 64 80 40 64 80 40 64 80 40 64 80 40 64 80 40 64 80 40 64 80 40 64 80 40 64 80 40 64 80 40 64 80 40 64 80 40 64 80 40 64 80 40 64 80 40 64 80 40 64 80 40 64 80 40 72 80 40 72 80 40 72 80 40 72 80 40 72 80 40 72 80 40 72 80 40 72 80 40 72 80 40 72 80 40 72 80 40 72 80 40 72 80 40 72 80 40 72 80 40 72 80 40 72 80 40 72 80 40 72 80 40 72 80 40 72 80 40 72 80 40 72 80 40 72 80 40 72 80 40 72 80 40 72 80 40 72 80 40 72 80 40 72 80 40 72 80 40 72 80 40
160 80 144 160 80 144 160 80 144 160 80 144 160 80 144 160 80 144 160 80 144 160 80 144 160 80 144 160 80 144 160 80 144 160 80 144 160 80 144 160 80 144 160 80 144 160 80 144 160 80 144 160 80 144 160 80 144 160 80 144 160 80 144 160 80 144 160 80 144 160 80 144 160 80 144 160 80 144 160 80 144 160 80 144 160 80 144 160 80 144 160 80 144 160 80 144 32 80 144 32 80 144 32 80 144 32 80 144 32 80 144 32 80 144 32 80 144 32 80 144 32 80 144 32 80 144 32 80 144 32 80 144 32 80 144 32 80 144 32 80 144 32 80 144 32 80 144 32 80 144 32 80 144 32 80 144 32 80 144 32 80 144 32 80 144 32 80 144 32 80 144 32 80 144 32 80 144 32 80 144 32 80 144 32 80 144 32 80 144 32 80 144 64 80 40 64 80 40 64 80 40 64 80 40 64 80 40 64 80 40 64 80 40 64 80 40 64 80 40 64 80 40 64 80 40 64 80 40 64 80 40 64 80 40 64 80 40 64 80 40 64 80 40 64 80 40 64 80 40 64 80 40 64 80 40 64 80 40 64 80 40 64 80 40 64 80 40 64 80 40 64 80 40 64 80 40 64 80 40 64 80 40 64 80 40 64 80 40 72 80 40 72 80 40 72 80 40 72 80 40 72 80 40 72 80 40 72 80 40 72 80 40 72 80 40 72 80 40 72 80 40 72 80 40 72 80 40 72 80 40 72 80 40 72 80 40 72 80 40 72 80 40 72 80 40 72 80 40 72 80 40 72 80 40 72 80 40 72 80 40 72 80 40 72 80 40 72 80 40 72 80 40 72 80 40 72 80 40 72 80 40 72 80 40
160 80 144 160 80 144 160 80 144 160 80 144 160 80 144 160 80 144 160 80 144 160 80 144 160 80 144 160 80 144 160 80 144 160 80 144 160 80 144 160 80 144 160 80 144 160 80 144 160 80 144 160 80 144 160 80 144 160 80 144 160 80 144 160 80 144 160 80 144 160 80 144 160 80 144 160 80 144 160 80 144 160 80 144 160 80 144 160 80 144 160 80 144 160 80 144 32 80 144 32 80 144 32 80 144 32 80 144 32 80 144 32 80 144 32 80 144 32 80 144 32 80 144 32 80 144 32 80 144 32 80 144 32 80 144 32 80 144 32 80 144 32 80 144 32 80 144 32 80 144 32 80 144 32 80 144 32 80 144 32 80 144 32 80 144 32 80 144 32 80 144 32 80 144 32 80 144 32 80 144 32 80 144 32 80 144 32 80 144 32 80 144 64 80 40 64 80 40 64 80 40 64 80 40 64 80 40 64 80 40 64 80 40 64 80 40 64 80 40 64 80 40 64 80 40 64 80 40 64 80 40 64 80 40 64 80 40 64 80 40 64 80 40 64 80 40 64 80 40 64 80 40 64 80 40 64 80 40 64 80 40 64 80 40 64 80 40 64 80 40 64 80 40 64 80 40 64 80 40 64 80 40 64 80 40 64 80 40 72 80 40 72 80 40 72 80 40 72 80 40 72 80 40 72 80 40 72 80 40 72 80 40 72 80 40 72 80 40 72 80 40 72 80 40 72 80 40 72 80 40 72 80 40 72 80 40 72 80 40 72 80 40 72 80 40 72 80 40 72 80 40 72 80 40 72 80 40 72 80 40 72 80 40 72 80 40 72 80 40 72 80 40 72 80 40 72 80 40 72 80 40 72 80 40
160 80 144 160 80 144 160 80 144 160 80 144 160 80 144 160 80 144 160 80 144 160 80 144 160 80 144 160 80 144 160 80 144 160 80 144 160 80 144 160 80 144 160 80 144 160 80 144 160 80 144 160 80 144 160 80 144 160 80 144 160 80 144 160 80 144 160 80 144 160 80 144 160 80 144 160 80 144 160 80 144 160 80 144 160 80 144 160 80 144 160 80 144 160 80 144 32 80 144 32 80 144 32 80 144 32 80 144 32 80 144 32 80 144 32 80 144 32 80 144 32 80 144 32 80 144 32 80 144 32 80 144 32 80 144 32 80 144 32 80 144 32 80 144 32 80 144 32 80 144 32 80 144 32 80 144 32 80 144 32 80 144 32 80 144 32 80 144 32 80 144 32 80 144 32 80 144 32 80 144 32 80 144 32 80 144 32 80 144 32 80 144 64 80 40 64 80 40 64 80 40 64 80 40 64 80 40 64 80 40 64 80 40 64 80 40 64 80 40 64 80 40 64 80 40 64 80 40 64 80 40 64 80 40 64 80 40 64 80 40 64 80 40 64 80 40 64 80 40 64 80 40 64 80 40 64 80 40 64 80 40 64 80 40 64 80 40 64 80 40 64 80 40 64 80 40 64 80 40 64 80 40 64 80 40 64 80 40 72 80 40 72 80 40 72 80 40 72 80 40 72 80 40 72 80 40 72 80 40 72 80 40 72 80 40 72 80 40 72 80 40 72 80 40 72 80 40 72 80 40 72 80 40 72 80 40 72 80 40 72 80 40 72 80 40 72 80 40 72 80 40 72 80 40 72 80 40 72 80 40 72 80 40 72 80 40 72 80 40 72 80 40 72 80 40 72 80 40 72 80 40 72 80 40
160 80 144 160 80 144 160 80 144 160 80 144 160 80 144 160 80 144 160 80 144 160 80 144 160 80 144 160 80 144 160 80 144 160 80 144 160 80 144 160 80 144 160 80 144 160 80 144 160 80 144 160 80 144 160 80 144 160 80 144 160 80 144 160 80 144 160 80 144 160 80 144 160 80 144 160 80 144 160 80 144 160 80 144 160 80 144 160 80 144 160 80 144 160 80 144 32 80 144 32 80 144 32 80 144 32 80 144 32 80 144 32 80 144 32 80 144 32 80 144 32 80 144 32 80 144 32 80 144 32 80 144 32 80 144 32 80 144 32 80 144 32 80 144 32 80 144 32 80 144 32 80 144 32 80 144 32 80 144 32 80 144 32 80 144 32 80 144 32 80 144 32 80 144 32 80 144 32 80 144 32 80 144 32 80 144 32 80 144 32 80 144 64 80 40 64 80 40 64 80 40 64 80 40 64 80 40 64 80 40 64 80 40 64 80 40 64 80 40 64 80 40 64 80 40 64 80 40 64 80 40 64 80 40 64 80 40 64 80 40 64 80 40 64 80 40 64 80 40 64 80 40 64 80 40 64 80 40 64 80 40 64 80 40 64 80 40 64 80 40 64 80 40 64 80 40 64 80 40 64 80 40 64 80 40 64 80 40 72 80 40 72 80 40 72 80 40 72 80 40 72 80 40 72 80 40 72 80 40 72 80 40 72 80 40 72 80 40 72 80 40 72 80 40 72 80 40 72 80 40 72 80 40 72 80 40 72 80 40 72 80 40 72 80 40 72 80 40 72 80 40 72 80 40 72 80 40 72 80 40 72 80 40 72 80 40 72 80 40 72 80 40 72 80 40 72 80 40 72 80 40 72 80 40
160 80 144 160 80 144 160 80 144 160 80 144 160 80 144 160 80 144 160 80 144 160 80 144 160 80 144 160 80 144 160 80 144 160 80 144 160 80 144 160 80 144 160 80 144 160 80 144 160 80 144 160 80 144 160 80 144 160 80 144 160 80 144 160 80 144 160 80 144 160 80 144 160 80 144 160 80 144 160 80 144 160 80 144 160 80 144 160 80 144 160 80 144 160 80 144 32 80 144 32 80 144 32 80 144 32 80 144 32 80 144 32 80 144 32 80 144 32 80 144 32 80 144 32 80 144 32 80 144 32 80 144 32 80 144 32 80 144 32 80 144 32 80 144 32 80 144 32 80 144 32 80 144 32 80 144 32 80 144 32 80 144 32 80 144 32 80 144 32 80 144 32 80 144 32 80 144 32 80 144 32 80 144 32 80 144 32 80 144 32 80 144 64 80 40 64 80 40 64 80 40 64 80 40 64 80 40 64 80 40 64 80 40 64 80 40 64 80 40 64 80 40 64 80 40 64 80 40 64 80 40 64 80 40 64 80 40 64 80 40 64 80 40 64 80 40 64 80 40 64 80 40 64 80 40 64 80 40 64 80 40 64 80 40 64 80 40 64 80 40 64 80 40 64 80 40 64 80 40 64 80 40 64 80 40 64 80 40 72 80 40 72 80 40 72 80 40 72 80 40 72 80 40 72 80 40 72 80 40 72 80 40 72 80 40 72 80 40 72 80 40 72 80 40 72 80 40 72 80 40 72 80 40 72 80 40 72 80 40 72 80 40 72 80 40 72 80 40 72 80 40 72 80 40 72 80 40 72 80 40 72 80 40 72 80 40 72 80 40 72 80 40 72 80 40 72 80 40 72 80 40 72 80 40
160 80 144 160 80 144 160 80 144 160 80 144 160 80 144 160 80 144 160 80 144 160 80 144 160 80 144 160 80 144 160 80 144 160 80 144 160 80 144 160 80 144 160 80 144 160 80 144 160 80 144 160 80 144 160 80 144 160 80 144 160 80 144 160 80 144 160 80 144 160 80 144 160 80 144 160 80 144 160 80 144 160 80 144 160 80 144 160 80 144 160 80 144 160 80 144 32 80 144 32 80 144 32 80 144 32 80 144 32 80 144 32 80 144 32 80 144 32 80 144 32 80 144 32 80 144 32 80 144 32 80 144 32 80 144 32 80 144 32 80 144 32 80 144 32 80 144 32 80 144 32 80 144 32 80 144 32 80 144 32 80 144 32 80 144 32 80 144 32 80 144 32 80 144 32 80 144 32 80 144 32 80 144 32 80 144 32 80 144 32 80 144 64 80 40 64 80 40 64 80 40 64 80 40 64 80 40 64 80 40 64 80 40 64 80 40 64 80 40 64 80 40 64 80 40 64 80 40 64 80 40 64 80 40 64 80 40 64 80 40 64 80 40 64 80 40 64 80 40 64 80 40 64 80 40 64 80 40 64 80 40 64 80 40 64 80 40 64 80 40 64 80 40 64 80 40 64 80 40 64 80 40 64 80 40 64 80 40 72 80 40 72 80 40 72 80 40 72 80 40 72 80 40 72 80 40 72 80 40 72 80 40 72 80 40 72 80 40 72 80 40 72 80 40 72 80 40 72 80 40 72 80 40 72 80 40 72 80 40 72 80 40 72 80 40 72 80 40 72 80 40 72 80 40 72 80 40 72 80 40 72 80 40 72 80 40 72 80 40 72 80 40 72 80 40 72 80 40 72 80 40 72 80 40
160 80 144 160 80 144 160 80 144 160 80 144 160 80 144 160 80 144 160 80 144 160 80 144 160 80 144 160 80 144 160 80 144 160 80 144 160 80 144 160 80 144 160 80 144 160 80 144 160 80 144 160 80 144 160 80 144 160 80 144 160 80 144 160 80 144 160 80 144 160 80 144 160 80 144 160 80 144 160 80 144 160 80 144 160 80 144 160 80 144 160 80 144 160 80 144 32 80 144 32 80 144 32 80 144 32 80 144 32 80 144 32 80 144 32 80 144 32 80 144 32 80 144 32 80 144 32 80 144 32 80 144 32 80 144 32 80 144 32 80 144 32 80 144 32 80 144 32 80 144 32 80 144 32 80 144 32 80 144 32 80 144 32 80 144 32 80 144 32 80 144 32 80 144 32 80 144 32 80 144 32 80 144 32 80 144 32 80 144 32 80 144 64 80 40 64 80 40 64 80 40 64 80 40 64 80 40 64 80 40 64 80 40 64 80 40 64 80 40 64 80 40 64 80 40 64 80 40 64 80 40 64 80 40 64 80 40 64 80 40 64 80 40 64 80 40 64 80 40 64 80 40 64 80 40 64 80 40 64 80 40 64 80 40 64 80 40 64 80 40 64 80 40 64 80 40 64 80 40 64 80 40 64 80 40 64 80 40 72 80 40 72 80 40 72 80 40 72 80 40 72 80 40 72 80 40 72 80 40 72 80 40 72 80 40 72 80 40 72 80 40 72 80 40 72 80 40 72 80 40 72 80 40 72 80 40 72 80 40 72 80 40 72 80 40 72 80 40 72 80 40 72 80 40 72 80 40 72 80 40 72 80 40 72 80 40 72 80 40 72 80 40 72 80 40 72 80 40 72 80 40 72 80 40
160 80 144 160 80 144 160 80 144 160 80 144 160 80 144 160 80 144 160 80 144 160 80 144 160 80 144 160 80 144 160 80 144 160 80 144 160 80 144 160 80 144 160 80 144 160 80 144 160 80 144 160 80 144 160 80 144 160 80 144 160 80 144 160 80 144 160 80 144 160 80 144 160 80 144 160 80 144 160 80 144 160 80 144 160 80 144 160 80 144 160 80 144 160 80 144 32 80 144 32 80 144 32 80 144 32 80 144 32 80 144 32 80 144 32 80 144 32 80 144 32 80 144 32 80 144 32 80 144 32 80 144 32 80 144 32 80 144 32 80 144 32 80 144 32 80 144 32 80 144 32 80 144 32 80 144 32 80 144 32 80 144 32 80 144 32 80 144 32 80 144 32 80 144 32 80 144 32 80 144 32 80 144 32 80 144 32 80 144 32 80 144 64 80 40 64 80 40 64 80 40 64 80 40 64 80 40 64 80 40 64 80 40 64 80 40 64 80 40 64 80 40 64 80 40 64 80 40 64 80 40 64 80 40 64 80 40 64 80 40 64 80 40 64 80 40 64 80 40 64 80 40 64 80 40 64 80 40 64 80 40 64 80 40 64 80 40 64 80 40 64 80 40 64 80 40 64 80 40 64 80 40 64 80 40 64 80 40 72 80 40 72 80 40 72 80 40 72 80 40 72 80 40 72 80 40 72 80 40 72 80 40 72 80 40 72 80 40 72 80 40 72 80 40 72 80 40 72 80 40 72 80 40 72 80 40 72 80 40 72 80 40 72 80 40 72 80 40 72 80 40 72 80 40 72 80 40 72 80 40 72 80 40 72 80 40 72 80 40 72 80 40 72 80 40 72 80 40 72 80 40 72 80 40
160 80 144 160 80 144 160 80 144 160 80 144 160 80 144 160 80 144 160 80 144 160 80 144 160 80 144 160 80 144 160 80 144 160 80 144 160 80 144 160 80 144 160 80 144 160 80 144 160 80 144 160 80 144 160 80 144 160 80 144 160 80 144 160 80 144 160 80 144 160 80 144 160 80 144 160 80 144 160 80 144 160 80 144 160 80 144 160 80 144 160 80 144 160 80 144 32 80 144 32 80 144 32 80 144 32 80 144 32 80 144 32 80 144 32 80 144 32 80 144 32 80 144 32 80 144 32 80 144 32 80 144 32 80 144 32 80 144 32 80 144 32 80 144 32 80 144 32 80 144 32 80 144 32 80 144 32 80 144 32 80 144 32 80 144 32 80 144 32 80 144 32 80 144 32 80 144 32 80 144 32 80 144 32 80 144 32 80 144 32 80 144 64 80 40 64 80 40 64 80 40 64 80 40 64 80 40 64 80 40 64 80 40 64 80 40 64 80 40 64 80 40 64 80 40 64 80 40 64 80 40 64 80 40 64 80 40 64 80 40 64 80 40 64 80 40 64 80 40 64 80 40 64 80 40 64 80 40 64 80 40 64 80 40 64 80 40 64 80 40 64 80 40 64 80 40 64 80 40 64 80 40 64 80 40 64 80 40 72 80 40 72 80 40 72 80 40 72 80 40 72 80 40 72 80 40 72 80 40 72 80 40 72 80 40 72 80 40 72 80 40 72 80 40 72 80 40 72 80 40 72 80 40 72 80 40 72 80 40 72 80 40 72 80 40 72 80 40 72 80 40 72 80 40 72 80 40 72 80 40 72 80 40 72 80 40 72 80 40 72 80 40 72 80 40 72 80 40 72 80 40 72 80 40
160 80 144 160 80 144 160 80 144 160 80 144 160 80 144 160 80 144 160 80 144 160 80 144 160 80 144 160 80 144 160 80 144 160 80 144 160 80 144 160 80 144 160 80 144 160 80 144 160 80 144 160 80 144 160 80 144 160 80 144 160 80 144 160 80 144 160 80 144 160 80 144 160 80 144 160 80 144 160 80 144 160 80 144 160 80 144 160 80 144 160 80 144 160 80 144 32 80 144 32 80 144 32 80 144 32 80 144 32 80 144 32 80 144 32 80 144 32 80 144 32 80 144 32 80 144 32 80 144 32 80 144 32 80 144 32 80 144 32 80 144 32 80 144 32 80 144 32 80 144 32 80 144 32 80 144 32 80 144 32 80 144 32 80 144 32 80 144 32 80 144 32 80 144 32 80 144 32 80 144 32 80 144 32 80 144 32 80 144 32 80 144 64 80 40 64 80 40 64 80 40 64 80 40 64 80 40 64 80 40 64 80 40 64 80 40 64 80 40 64 80 40 64 80 40 64 80 40 64 80 40 64 80 40 64 80 40 64 80 40 64 80 40 64 80 40 64 80 40 64 80 40 64 80 40 64 80 40 64 80 40 64 80 40 64 80 40 64 80 40 64 80 40 64 80 40 64 80 40 64 80 40 64 80 40 64 80 40 72 80 40 72 80 40 72 80 40 72 80 40 72 80 40 72 80 40 72 80 40 72 80 40 72 80 40 72 80 40 72 80 40 72 80 40 72 80 40 72 80 40 72 80 40 72 80 40 72 80 40 72 80 40 72 80 40 72 80 40 72 80 40 72 80 40 72 80 40 72 80 40 72 80 40 72 80 40 72 80 40 72 80 40 72 80 40 72 80 40 72 80 40 72 80 40
160 80 144 160 80 144 160 80 144 160 80 144 160 80 144 160 80 144 160 80 144 160 80 144 160 80 144 160 80 144 160 80 144 160 80 144 160 80 144 160 80 144 160 80 144 160 80 144 160 80 144 160 80 144 160 80 144 160 80 144 160 80 144 160 80 144 160 80 144 160 80 144 160 80 144 160 80 144 160 80 144 160 80 144 160 80 144 160 80 144 160 80 144 160 80 144 32 80 144 32 80 144 32 80 144 32 80 144 32 80 144 32 80 144 32 80 144 32 80 144 32 80 144 32 80 144 32 80 144 32 80 144 32 80 144 32 80 144 32 80 144 32 80 144 32 80 144 32 80 144 32 80 144 32 80 144 32 80 144 32 80 144 32 80 144 32 80 144 32 80 144 32 80 144 32 80 144 32 80 144 32 80 144 32 80 144 32 80 144 32 80 144 64 80 40 64 80 40 64 80 40 64 80 40 64 80 40 64 80 40 64 80 40 64 80 40 64 80 40 64 80 40 64 80 40 64 80 40 64 80 40 64 80 40 64 80 40 64 80 40 64 80 40 64 80 40 64 80 40 64 80 40 64 80 40 64 80 40 64 80 40 64 80 40 64 80 40 64 80 40 64 80 40 64 80 40 64 80 40 64 80 40 64 80 40 64 80 40 72 80 40 72 80 40 72 80 40 72 80 40 72 80 40 72 80 40 72 80 40 72 80 40 72 80 40 72 80 40 72 80 40 72 80 40 72 80 40 72 80 40 72 80 40 72 80 40 72 80 40 72 80 40 72 80 40 72 80 40 72 80 40 72 80 40 72 80 40 72 80 40 72 80 40 72 80 40 72 80 40 72 80 40 72 80 40 72 80 40 72 80 40 72 80 40
160 80 144 160 80 144 160 80 144 160 80 144 160 80 144 160 80 144 160 80 144 160 80 144 160 80 144 160 80 144 160 80 144 160 80 144 160 80 144 160 80 144 160 80 144 160 80 144 160 80 144 160 80 144 160 80 144 160 80 144 160 80 144 160 80 144 160 80 144 160 80 144 160 80 144 160 80 144 160 80 144 160 80 144 160 80 144 160 80 144 160 80 144 160 80 144 32 80 144 32 80 144 32 80 144 32 80 144 32 80 144 32 80 144 32 80 144 32 80 144 32 80 144 32 80 144 32 80 144 32 80 144 32 80 144 32 80 144 32 80 144 32 80 144 32 80 144 32 80 144 32 80 144 32 80 144 32 80 144 32 80 144 32 80 144 32 80 144 32 80 144 32 80 144 32 80 144 32 80 144 32 80 144 32 80 144 32 80 144 32 80 144 64 80 40 64 80 40 64 80 40 64 80 40 64 80 40 64 80 40 64 80 40 64 80 40 64 80 40 64 80 40 64 80 40 64 80 40 64 80 40 64 80 40 64 80 40 64 80 40 64 80 40 64 80 40 64 80 40 64 80 40 64 80 40 64 80 40 64 80 40 64 80 40 64 80 40 64 80 40 64 80 40 64 80 40 64 80 40 64 80 40 64 80 40 64 80 40 72 80 40 72 80 40 72 80 40 72 80 40 72 80 40 72 80 40 72 80 40 72 80 40 72 80 40 72 80 40 72 80 40 72 80 40 72 80 40 72 80 40 72 80 40 72 80 40 72 80 40 72 80 40 72 80 40 72 80 40 72 80 40 72 80 40 72 80 40 72 80 40 72 80 40 72 80 40 72 80 40 72 80 40 72 80 40 72 80 40 72 80 40 72 80 40
160 80 144 160 80 144 160 80 144 160 80 144 160 80 144 160 80 144 160 80 144 160 80 144 160 80 144 160 80 144 160 80 144 160 80 144 160 80 144 160 80 144 160 80 144 160 80 144 160 80 144 160 80 144 160 80 144 160 80 144 160 80 144 160 80 144 160 80 144 160 80 144 160 80 144 160 80 144 160 80 144 160 80 144 160 80 144 160 80 144 160 80 144 160 80 144 32 80 144 32 80 144 32 80 144 32 80 144 32 80 144 32 80 144 32 80 144 32 80 144 32 80 144 32 80 144 32 80 144 32 80 144 32 80 144 32 80 144 32 80 144 32 80 144 32 80 144 32 80 144 32 80 144 32 80 144 32 80 144 32 80 144 32 80 144 32 80 144 32 80 144 32 80 144 32 80 144 32 80 144 32 80 144 32 80 144 32 80 144 32 80 144 64 80 40 64 80 40 64 80 40 64 80 40 64 80 40 64 80 40 64 80 40 64 80 40 64 80 40 64 80 40 64 80 40 64 80 40 64 80 40 64 80 40 64 80 40 64 80 40 64 80 40 64 80 40 64 80 40 64 80 40 64 80 40 64 80 40 64 80 40 64 80 40 64 80 40 64 80 40 64 80 40 64 80 40 64 80 40 64 80 40 64 80 40 64 80 40 72 80 40 72 80 40 72 80 40 72 80 40 72 80 40 72 80 40 72 80 40 72 80 40 72 80 40 72 80 40 72 80 40 72 80 40 72 80 40 72 80 40 72 80 40 72 80 40 72 80 40 72 80 40 72 80 40 72 80 40 72 80 40 72 80 40 72 80 40 72 80 40 72 80 40 72 80 40 72 80 40 72 80 40 72 80 40 72 80 40 72 80 40 72 80 40
160 80 144 160 80 144 160 80 144 160 80 144 160 80 144 160 80 144 160 80 144 160 80 144 160 80 144 160 80 144 160 80 144 160 80 144 160 80 144 160 80 144 160 80 144 160 80 144 160 80 144 160 80 144 160 80 144 160 80 144 160 80 144 160 80 144 160 80 144 160 80 144 160 80 144 160 80 144 160 80 144 160 80 144 160 80 144 160 80 144 160 80 144 160 80 144 32 80 144 32 80 144 32 80 144 32 80 144 32 80 144 32 80 144 32 80 144 32 80 144 32 80 144 32 80 144 32 80 144 32 80 144 32 80 144 32 80 144 32 80 144 32 80 144 32 80 144 32 80 144 32 80 144 32 80 144 32 80 144 32 80 144 32 80 144 32 80 144 32 80 144 32 80 144 32 80 144 32 80 144 32 80 144 32 80 144 32 80 144 32 80 144 64 80 40 64 80 40 64 80 40 64 80 40 64 80 40 64 80 40 64 80 40 64 80 40 64 80 40 64 80 40 64 80 40 64 80 40 64 80 40 64 80 40 64 80 40 64 80 40 64 80 40 64 80 40 64 80 40 64 80 40 64 80 40 64 80 40 64 80 40 64 80 40 64 80 40 64 80 40 64 80 40 64 80 40 64 80 40 64 80 40 64 80 40 64 80 40 72 80 40 72 80 40 72 80 40 72 80 40 72 80 40 72 80 40 72 80 40 72 80 40 72 80 40 72 80 40 72 80 40 72 80 40 72 80 40 72 80 40 72 80 40 72 80 40 72 80 40 72 80 40 72 80 40 72 80 40 72 80 40 72 80 40 72 80 40 72 80 40 72 80 40 72 80 40 72 80 40 72 80 40 72 80 40 72 80 40 72 80 40 72 80 40
160 80 144 160 80 144 160 80 144 160 80 144 160 80 144 160 80 144 160 80 144 160 80 144 160 80 144 160 80 144 160 80 144 160 80 144 160 80 144 160 80 144 160 80 144 160 80 144 160 80 144 160 80 144 160 80 144 160 80 144 160 80 144 160 80 144 160 80 144 160 80 144 160 80 144 160 80 144 160 80 144 160 80 144 160 80 144 160 80 144 160 80 144 160 80 144 32 80 144 32 80 144 32 80 144 32 80 144 32 80 144 32 80 144 32 80 144 32 80 144 32 80 144 32 80 144 32 80 144 32 80 144 32 80 144 32 80 144 32 80 144 32 80 144 32 80 144 32 80 144 32 80 144 32 80 144 32 80 144 32 80 144 32 80 144 32 80 144 32 80 144 32 80 144 32 80 144 32 80 144 32 80 144 32 80 144 32 80 144 32 80 144 64 80 40 64 80 40 64 80 40 64 80 40 64 80 40 64 80 40 64 80 40 64 80 40 64 80 40 64 80 40 64 80 40 64 80 40 64 80 40 64 80 40 64 80 40 64 80 40 64 80 40 64 80 40 64 80 40 64 80 40 64 80 40 64 80 40 64 80 40 64 80 40 64 80 40 64 80 40 64 80 40 64 80 40 64 80 40 64 80 40 64 80 40 64 80 40 72 80 40 72 80 40 72 80 40 72 80 40 72 80 40 72 80 40 72 80 40 72 80 40 72 80 40 72 80 40 72 80 40 72 80 40 72 80 40 72 80 40 72 80 40 72 80 40 72 80 40 72 80 40 72 80 40 72 80 40 72 80 40 72 80 40 72 80 40 72 80 40 72 80 40 72 80 40 72 80 40 72 80 40 72 80 40 72 80 40 72 80 40 72 80 40
160 80 144 160 80 144 160 80 144 160 80 144 160 80 144 160 80 144 160 80 144 160 80 144 160 80 144 160 80 144 160 80 144 160 80 144 160 80 144 160 80 144 160 80 144 160 80 144 160 80 144 160 80 144 160 80 144 160 80 144 160 80 144 160 80 144 160 80 144 160 80 144 160 80 144 160 80 144 160 80 144 160 80 144 160 80 144 160 80 144 160 80 144 160 80 144 32 80 144 32 80 144 32 80 144 32 80 144 32 80 144 32 80 144 32 80 144 32 80 144 32 80 144 32 80 144 32 80 144 32 80 144 32 80 144 32 80 144 32 80 144 32 80 144 32 80 144 32 80 144 32 80 144 32 80 144 32 80 144 32 80 144 32 80 144 32 80 144 32 80 144 32 80 144 32 80 144 32 80 144 32 80 144 32 80 144 32 80 144 32 80 144 64 80 40 64 80 40 64 80 40 64 80 40 64 80 40 64 80 40 64 80 40 64 80 40 64 80 40 64 80 40 64 80 40 64 80 40 64 80 40 64 80 40 64 80 40 64 80 40 64 80 40 64 80 40 64 80 40 64 80 40 64 80 40 64 80 40 64 80 40 64 80 40 64 80 40 64 80 40 64 80 40 64 80 40 64 80 40 64 80 40 64 80 40 64 80 40 72 80 40 72 80 40 72 80 40 72 80 40 72 80 40 72 80 40 72 80 40 72 80 40 72 80 40 72 80 40 72 80 40 72 80 40 72 80 40 72 80 40 72 80 40 72 80 40 72 80 40 72 80 40 72 80 40 72 80 40 72 80 40 72 80 40 72 80 40 72 80 40 72 80 40 72 80 40 72 80 40 72 80 40 72 80 40 72 80 40 72 80 40 72 80 40
160 80 144 160 80 144 160 80 144 160 80 144 160 80 144 160 80 144 160 80 144 160 80 144 160 80 144 160 80 144 160 80 144 160 80 144 160 80 144 160 80 144 160 80 144 160 80 144 160 80 144 160 80 144 160 80 144 160 80 144 160 80 144 160 80 144 160 80 144 160 80 144 160 80 144 160 80 144 160 80 144 160 80 144 160 80 144 160 80 144 160 80 144 160 80 144 32 80 144 32 80 144 32 80 144 32 80 144 32 80 144 32 80 144 32 80 144 32 80 144 32 80 144 32 80 144 32 80 144 32 80 144 32 80 144 32 80 144 32 80 144 32 80 144 32 80 144 32 80 144 32 80 144 32 80 144 32 80 144 32 80 144 32 80 144 32 80 144 32 80 144 32 80 144 32 80 144 32 80 144 32 80 144 32 80 144 32 80 144 32 80 144 64 80 40 64 80 40 64 80 40 64 80 40 64 80 40 64 80 40 64 80 40 64 80 40 64 80 40 64 80 40 64 80 40 64 80 40 64 80 40 64 80 40 64 80 40 64 80 40 64 80 40 64 80 40 64 80 40 64 80 40 64 80 40 64 80 40 64 80 40 64 80 40 64 80 40 64 80 40 64 80 40 64 80 40 64 80 40 64 80 40 64 80 40 64 80 40 72 80 40 72 80 40 72 80 40 72 80 40 72 80 40 72 80 40 72 80 40 72 80 40 72 80 40 72 80 40 72 80 40 72 80 40 72 80 40 72 80 40 72 80 40 72 80 40 72 80 40 72 80 40 72 80 40 72 80 40 72 80 40 72 80 40 72 80 40 72 80 40 72 80 40 72 80 40 72 80 40 72 80 40 72 80 40 72 80 40 72 80 40 72 80 40
160 80 144 160 80 144 160 80 144 160 80 144 160 80 144 160 80 144 160 80 144 160 80 144 160 80 144 160 80 144 160 80 144 160 80 144 160 80 144 160 80 144 160 80 144 160 80 144 160 80 144 160 80 144 160 80 144 160 80 144 160 80 144 160 80 144 160 80 144 160 80 144 160 80 144 160 80 144 160 80 144 160 80 144 160 80 144 160 80 144 160 80 144 160 80 144 32 80 144 32 80 144 32 80 144 32 80 144 32 80 144 32 80 144 32 80 144 32 80 144 32 80 144 32 80 144 32 80 144 32 80 144 32 80 144 32 80 144 32 80 144 32 80 144 32 80 144 32 80 144 32 80 144 32 80 144 32 80 144 32 80 144 32 80 144 32 80 144 32 80 144 32 80 144 32 80 144 32 80 144 32 80 144 32 80 144 32 80 144 32 80 144 64 80 40 64 80 40 64 80 40 64 80 40 64 80 40 64 80 40 64 80 40 64 80 40 64 80 40 64 80 40 64 80 40 64 80 40 64 80 40 64 80 40 64 80 40 64 80 40 64 80 40 64 80 40 64 80 40 64 80 40 64 80 40 64 80 40 64 80 40 64 80 40 64 80 40 64 80 40 64 80 40 64 80 40 64 80 40 64 80 40 64 80 40 64 80 40 72 80 40 72 80 40 72 80 40 72 80 40 72 80 40 72 80 40 72 80 40 72 80 40 72 80 40 72 80 40 72 80 40 72 80 40 72 80 40 72 80 40 72 80 40 72 80 40 72 80 40 72 80 40 72 80 40 72 80 40 72 80 40 72 80 40 72 80 40 72 80 40 72 80 40 72 80 40 72 80 40 72 80 40 72 80 40 72 80 40 72 80 40 72 80 40
160 80 144 160 80 144 160 80 144 160 80 144 160 80 144 160 80 144 160 80 144 160 80 144 160 80 144 160 80 144 160 80 144 160 80 144 160 80 144 160 80 144 160 80 144 160 80 144 160 80 144 160 80 144 160 80 144 160 80 144 160 80 144 160 80 144 160 80 144 160 80 144 160 80 144 160 80 144 160 80 144 160 80 144 160 80 144 160 80 144 160 80 144 160 80 144 32 80 144 32 80 144 32 80 144 32 80 144 32 80 144 32 80 144 32 80 144 32 80 144 32 80 144 32 80 144 32 80 144 32 80 144 32 80 144 32 80 144 32 80 144 32 80 144 32 80 144 32 80 144 32 80 144 32 80 144 32 80 144 32 80 144 32 80 144 32 80 144 32 80 144 32 80 144 32 80 144 32 80 144 32 80 144 32 80 144 32 80 144 32 80 144 64 80 40 64 80 40 64 80 40 64 80 40 64 80 40 64 80 40 64 80 40 64 80 40 64 80 40 64 80 40 64 80 40 64 80 40 64 80 40 64 80 40 64 80 40 64 80 40 64 80 40 64 80 40 64 80 40 64 80 40 64 80 40 64 80 40 64 80 40 64 80 40 64 80 40 64 80 40 64 80 40 64 80 40 64 80 40 64 80 40 64 80 40 64 80 40 72 80 40 72 80 40 72 80 40 72 80 40 72 80 40 72 80 40 72 80 40 72 80 40 72 80 40 72 80 40 72 80 40 72 80 40 72 80 40 72 80 40 72 80 40 72 80 40 72 80 40 72 80 40 72 80 40 72 80 40 72 80 40 72 80 40 72 80 40 72 80 40 72 80 40 72 80 40 72 80 40 72 80 40 72 80 40 72 80 40 72 80 40 72 80 40
160 80 144 160 80 144 160 80 144 160 80 144 160 80 144 160 80 144 160 80 144 160 80 144 160 80 144 160 80 144 160 80 144 160 80 144 160 80 144 160 80 144 160 80 144 160 80 144 160 80 144 160 80 144 160 80 144 160 80 144 160 80 144 160 80 144 160 80 144 160 80 144 160 80 144 160 80 144 160 80 144 160 80 144 160 80 144 160 80 144 160 80 144 160 80 144 32 80 144 32 80 144 32 80 144 32 80 144 32 80 144 32 80 144 32 80 144 32 80 144 32 80 144 32 80 144 32 80 144 32 80 144 32 80 144 32 80 144 32 80 144 32 80 144 32 80 144 32 80 144 32 80 144 32 80 144 32 80 144 32 80 144 32 80 144 32 80 144 32 80 144 32 80 144 32 80 144 32 80 144 32 80 144 32 80 144 32 80 144 32 80 144 64 80 40 64 80 40 64 80 40 64 80 40 64 80 40 64 80 40 64 80 40 64 80 40 64 80 40 64 80 40 64 80 40 64 80 40 64 80 40 64 80 40 64 80 40 64 80 40 64 80 40 64 80 40 64 80 40 64 80 40 64 80 40 64 80 40 64 80 40 64 80 40 64 80 40 64 80 40 64 80 40 64 80 40 64 80 40 64 80 40 64 80 40 64 80 40 72 80 40 72 80 40 72 80 40 72 80 40 72 80 40 72 80 40 72 80 40 72 80 40 72 80 40 72 80 40 72 80 40 72 80 40 72 80 40 72 80 40 72 80 40 72 80 40 72 80 40 72 80 40 72 80 40 72 80 40 72 80 40 72 80 40 72 80 40 72 80 40 72 80 40 72 80 40 72 80 40 72 80 40 72 80 40 72 80 40 72 80 40 72 80 40
160 80 144 160 80 144 160 80 144 160 80 144 160 80 144 160 80 144 160 80 144 160 80 144 160 80 144 160 80 144 160 80 144 160 80 144 160 80 144 160 80 144 160 80 144 160 80 144 160 80 144 160 80 144 160 80 144 160 80 144 160 80 144 160 80 144 160 80 144 160 80 144 160 80 144 160 80 144 160 80 144 160 80 144 160 80 144 160 80 144 160 80 144 160 80 144 32 80 144 32 80 144 32 80 144 32 80 144 32 80 144 32 80 144 32 80 144 32 80 144 32 80 144 32 80 144 32 80 144 32 80 144 32 80 144 32 80 144 32 80 144 32 80 144 32 80 144 32 80 144 32 80 144 32 80 144 32 80 144 32 80 144 32 80 144 32 80 144 32 80 144 32 80 144 32 80 144 32 80 144 32 80 144 32 80 144 32 80 144 32 80 144 64 80 40 64 80 40 64 80 40 64 80 40 64 80 40 64 80 40 64 80 40 64 80 40 64 80 40 64 80 40 64 80 40 64 80 40 64 80 40 64 80 40 64 80 40 64 80 40 64 80 40 64 80 40 64 80 40 64 80 40 64 80 40 64 80 40 64 80 40 64 80 40 64 80 40 64 80 40 64 80 40 64 80 40 64 80 40 64 80 40 64 80 40 64 80 40 72 80 40 72 80 40 72 80 40 72 80 40 72 80 40 72 80 40 72 80 40 72 80 40 72 80 40 72 80 40 72 80 40 72 80 40 72 80 40 72 80 40 72 80 40 72 80 40 72 80 40 72 80 40 72 80 40 72 80 40 72 80 40 72 80 40 72 80 40 72 80 40 72 80 40 72 80 40 72 80 40 72 80 40 72 80 40 72 80 40 72 80 40 72 80 40
160 80 144 160 80 144 160 80 144 160 80 144 160 80 144 160 80 144 160 80 144 160 80 144 160 80 144 160 80 144 160 80 144 160 80 144 160 80 144 160 80 144 160 80 144 160 80 144 160 80 144 160 80 144 160 80 144 160 80 144 160 80 144 160 80 144 160 80 144 160 80 144 160 80 144 160 80 144 160 80 144 160 80 144 160 80 144 160 80 144 160 80 144 160 80 144 32 80 144 32 80 144 32 80 144 32 80 144 32 80 144 32 80 144 32 80 144 32 80 144 32 80 144 32 80 144 32 80 144 32 80 144 32 80 144 32 80 144 32 80 144 32 80 144 32 80 144 32 80 144 32 80 144 32 80 144 32 80 144 32 80 144 32 80 144 32 80 144 32 80 144 32 80 144 32 80 144 32 80 144 32 80 144 32 80 144 32 80 144 32 80 144 64 80 40 64 80 40 64 80 40 64 80 40 64 80 40 64 80 40 64 80 40 64 80 40 64 80 40 64 80 40 64 80 40 64 80 40 64 80 40 64 80 40 64 80 40 64 80 40 64 80 40 64 80 40 64 80 40 64 80 40 64 80 40 64 80 40 64 80 40 64 80 40 64 80 40 64 80 40 64 80 40 64 80 40 64 80 40 64 80 40 64 80 40 64 80 40 72 80 40 72 80 40 72 80 40 72 80 40 72 80 40 72 80 40 72 80 40 72 80 40 72 80 40 72 80 40 72 80 40 72 80 40 72 80 40 72 80 40 72 80 40 72 80 40 72 80 40 72 80 40 72 80 40 72 80 40 72 80 40 72 80 40 72 80 40 72 80 40 72 80 40 72 80 40 72 80 40 72 80 40 72 80 40 72 80 40 72 80 40 72 80 40
160 80 144 160 80 144 160 80 144 160 80 144 160 80 144 160 80 144 160 80 144 160 80 144 160 80 144 160 80 144 160 80 144 160 80 144 160 80 144 160 80 144 160 80 144 160 80 144 160 80 144 160 80 144 160 80 144 160 80 144 160 80 144 160 80 144 160 80 144 160 80 144 160 80 144 160 80 144 160 80 144 160 80 144 160 80 144 160 80 144 160 80 144 160 80 144 32 80 144 32 80 144 32 80 144 32 80 144 32 80 144 32 80 144 32 80 144 32 80 144 32 80 144 32 80 144 32 80 144 32 80 144 32 80 144 32 80 144 32 80 144 32 80 144 32 80 144 32 80 144 32 80 144 32 80 144 32 80 144 32 80 144 32 80 144 32 80 144 32 80 144 32 80 144 32 80 144 32 80 144 32 80 144 32 80 144 32 80 144 32 80 144 64 80 40 64 80 40 64 80 40 64 80 40 64 80 40 64 80 40 64 80 40 64 80 40 64 80 40 64 80 40 64 80 40 64 80 40 64 80 40 64 80 40 64 80 40 64 80 40 64 80 40 64 80 40 64 80 40 64 80 40 64 80 40 64 80 40 64 80 40 64 80 40 64 80 40 64 80 40 64 80 40 64 80 40 64 80 40 64 80 40 64 80 40 64 80 40 72 80 40 72 80 40 72 80 40 72 80 40 72 80 40 72 80 40 72 80 40 72 80 40 72 80 40 72 80 40 72 80 40 72 80 40 72 80 40 72 80 40 72 80 40 72 80 40 72 80 40 72 80 40 72 80 40 72 80 40 72 80 40 72 80 40 72 80 40 72 80 40 72 80 40 72 80 40 72 80 40 72 80 40 72 80 40 72 80 40 72 80 40 72 80 40
160 80 144 160 80 144 160 80 144 160 80 144 160 80 144 160 80 144 160 80 144 160 80 144 160 80 144 160 80 144 160 80 144 160 80 144 160 80 144 160 80 144 160 80 144 160 80 144 160 80 144 160 80 144 160 80 144 160 80 144 160 80 144 160 80 144 160 80 144 160 80 144 160 80 144 160 80 144 160 80 144 160 80 144 160 80 144 160 80 144 160 80 144 160 80 144 32 80 144 32 80 144 32 80 144 32 80 144 32 80 144 32 80 144 32 80 144 32 80 144 32 80 144 32 80 144 32 80 144 32 80 144 32 80 144 32 80 144 32 80 144 32 80 144 32 80 144 32 80 144 32 80 144 32 80 144 32 80 144 32 80 144 32 80 144 32 80 144 32 80 144 32 80 144 32 80 144 32 80 144 32 80 144 32 80 144 32 80 144 32 80 144 64 80 40 64 80 40 64 80 40 64 80 40 64 80 40 64 80 40 64 80 40 64 80 40 64 80 40 64 80 40 64 80 40 64 80 40 64 80 40 64 80 40 64 80 40 64 80 40 64 80 40 64 80 40 64 80 40 64 80 40 64 80 40 64 80 40 64 80 40 64 80 40 64 80 40 64 80 40 64 80 40 64 80 40 64 80 40 64 80 40 64 80 40 64 80 40 72 80 40 72 80 40 72 80 40 72 80 40 72 80 40 72 80 40 72 80 40 72 80 40 72 80 40 72 80 40 72 80 40 72 80 40 72 80 40 72 80 40 72 80 40 72 80 40 72 80 40 72 80 40 72 80 40 72 80 40 72 80 40 72 80 40 72 80 40 72 80 40 72 80 40 72 80 40 72 80 40 72 80 40 72 80 40 72 80 40 72 80 40 72 80 40
160 80 144 160 80 144 160 80 144 160 80 144 160 80 144 160 80 144 160 80 144 160 80 144 160 80 144 160 80 144 160 80 144 160 80 144 160 80 144 160 80 144 160 80 144 160 80 144 160 80 144 160 80 144 160 80 144 160 80 144 160 80 144 160 80 144 160 80 144 160 80 144 160 80 144 160 80 144 160 80 144 160 80 144 160 80 144 160 80 144 160 80 144 160 80 144 32 80 144 32 80 144 32 80 144 32 80 144 32 80 144 32 80 144 32 80 144 32 80 144 32 80 144 32 80 144 32 80 144 32 80 144 32 80 144 32 80 144 32 80 144 32 80 144 32 80 144 32 80 144 32 80 144 32 80 144 32 80 144 32 80 144 32 80 144 32 80 144 32 80 144 32 80 144 32 80 144 32 80 144 32 80 144 32 80 144 32 80 144 32 80 144 64 80 40 64 80 40 64 80 40 64 80 40 64 80 40 64 80 40 64 80 40 64 80 40 64 80 40 64 80 40 64 80 40 64 80 40 64 80 40 64 80 40 64 80 40 64 80 40 64 80 40 64 80 40 64 80 40 64 80 40 64 80 40 64 80 40 64 80 40 64 80 40 64 80 40 64 80 40 64 80 40 64 80 40 64 80 40 64 80 40 64 80 40 64 80 40 72 80 40 72 80 40 72 80 40 72 80 40 72 80 40 72 80 40 72 80 40 72 80 40 72 80 40 72 80 40 72 80 40 72 80 40 72 80 40 72 80 40 72 80 40 72 80 40 72 80 40 72 80 40 72 80 40 72 80 40 72 80 40 72 80 40 72 80 40 72 80 40 72 80 40 72 80 40 72 80 40 72 80 40 72 80 40 72 80 40 72 80 40 72 80 40
160 80 144 160 80 144 160 80 144 160 80 144 160 80 144 160 80 144 160 80 144 160 80 144 160 80 144 160 80 144 160 80 144 160 80 144 160 80 144 160 80 144 160 80 144 160 80 144 160 80 144 160 80 144 160 80 144 160 80 144 160 80 144 160 80 144 160 80 144 160 80 144 160 80 144 160 80 144 160 80 144 160 80 144 160 80 144 160 80 144 160 80 144 160 80 144 32 80 144 32 80 144 32 80 144 32 80 144 32 80 144 32 80 144 32 80 144 32 80 144 32 80 144 32 80 144 32 80 144 32 80 144 32 80 144 32 80 144 32 80 144 32 80 144 32 80 144 32 80 144 32 80 144 32 80 144 32 80 144 32 80 144 32 80 144 32 80 144 32 80 144 32 80 144 32 80 144 32 80 144 32 80 144 32 80 144 32 80 144 32 80 144 64 80 40 64 80 40 64 80 40 64 80 40 64 80 40 64 80 40 64 80 40 64 80 40 64 80 40 64 80 40 64 80 40 64 80 40 64 80 40 64 80 40 64 80 40 64 80 40 64 80 40 64 80 40 64 80 40 64 80 40 64 80 40 64 80 40 64 80 40 64 80 40 64 80 40 64 80 40 64 80 40 64 80 40 64 80 40 64 80 40 64 80 40 64 80 40 72 80 40 72 80 40 72 80 40 72 80 40 72 80 40 72 80 40 72 80 40 72 80 40 72 80 40 72 80 40 72 80 40 72 80 40 72 80 40 72 80 40 72 80 40 72 80 40 72 80 40 72 80 40 72 80 40 72 80 40 72 80 40 72 80 40 72 80 40 72 80 40 72 80 40 72 80 40 72 80 40 72 80 40 72 80 40 72 80 40 72 80 40 72 80 40
160 80 144 160 80 144 160 80 144 160 80 144 160 80 144 160 80 144 160 80 144 160 80 144 160 80 144 160 80 144 160 80 144 160 80 144 160 80 144 160 80 144 160 80 144 160 80 144 160 80 144 160 80 144 160 80 144 160 80 144 160 80 144 160 80 144 160 80 144 160 80 144 160 80 144 160 80 144 160 80 144 160 80 144 160 80 144 160 80 144 160 80 144 160 80 144 32 80 144 32 80 144 32 80 144 32 80 144 32 80 144 32 80 144 32 80 144 32 80 144 32 80 144 32 80 144 32 80 144 32 80 144 32 80 144 32 80 144 32 80 144 32 80 144 32 80 144 32 80 144 32 80 144 32 80 144 32 80 144 32 80 144 32 80 144 32 80 144 32 80 144 32 80 144 32 80 144 32 80 144 32 80 144 32 80 144 32 80 144 32 80 144 64 80 40 64 80 40 64 80 40 64 80 40 64 80 40 64 80 40 64 80 40 64 80 40 64 80 40 64 80 40 64 80 40 64 80 40 64 80 40 64 80 40 64 80 40 64 80 40 64 80 40 64 80 40 64 80 40 64 80 40 64 80 40 64 80 40 64 80 40 64 80 40 64 80 40 64 80 40 64 80 40 64 80 40 64 80 40 64 80 40 64 80 40 64 80 40 72 80 40 72 80 40 72 80 40 72 80 40 72 80 40 72 80 40 72 80 40 72 80 40 72 80 40 72 80 40 72 80 40 72 80 40 72 80 40 72 80 40 72 80 40 72 80 40 72 80 40 72 80 40 72 80 40 72 80 40 72 80 40 72 80 40 72 80 40 72 80 40 72 80 40 72 80 40 72 80 40 72 80 40 72 80 40 72 80 40 72 80 40 72 80 40
160 80 144 160 80 144 160 80 144 160 80 144 160 80 144 160 80 144 160 80 144 160 80 144 160 80 144 160 80 144 160 80 144 160 80 144 160 80 144 160 80 144 160 80 144 160 80 144 160 80 144 160 80 144 160 80 144 160 80 144 160 80 144 160 80 144 160 80 144 160 80 144 160 80 144 160 80 144 160 80 144 160 80 144 160 80 144 160 80 144 160 80 144 160 80 144 32 80 144 32 80 144 32 80 144 32 80 144 32 80 144 32 80 144 32 80 144 32 80 144 32 80 144 32 80 144 32 80 144 32 80 144 32 80 144 32 80 144 32 80 144 32 80 144 32 80 144 32 80 144 32 80 144 32 80 144 32 80 144 32 80 144 32 80 144 32 80 144 32 80 144 32 80 144 32 80 144 32 80 144 32 80 144 32 80 144 32 80 144 32 80 144 64 80 40 64 80 40 64 80 40 64 80 40 64 80 40 64 80 40 64 80 40 64 80 40 64 80 40 64 80 40 64 80 40 64 80 40 64 80 40 64 80 40 64 80 40 64 80 40 64 80 40 64 80 40 64 80 40 64 80 40 64 80 40 64 80 40 64 80 40 64 80 40 64 80 40 64 80 40 64 80 40 64 80 40 64 80 40 64 80 40 64 80 40 64 80 40 72 80 40 72 80 40 72 80 40 72 80 40 72 80 40 72 80 40 72 80 40 72 80 40 72 80 40 72 80 40 72 80 40 72 80 40 72 80 40 72 80 40 72 80 40 72 80 40 72 80 40 72 80 40 72 80 40 72 80 40 72 80 40 72 80 40 72 80 40 72 80 40 72 80 40 72 80 40 72 80 40 72 80 40 72 80 40 72 80 40 72 80 40 72 80 40
160 80 144 160 80 144 160 80 144 160 80 144 160 80 144 160 80 144 160 80 144 160 80 144 160 80 144 160 80 144 160 80 144 160 80 144 160 80 144 160 80 144 160 80 144 160 80 144 160 80 144 160 80 144 160 80 144 160 80 144 160 80 144 160 80 144 160 80 144 160 80 144 160 80 144 160 80 144 160 80 144 160 80 144 160 80 144 160 80 144 160 80 144 160 80 144 32 80 144 32 80 144 32 80 144 32 80 144 32 80 144 32 80 144 32 80 144 32 80 144 32 80 144 32 80 144 32 80 144 32 80 144 32 80 144 32 80 144 32 80 144 32 80 144 32 80 144 32 80 144 32 80 144 32 80 144 32 80 144 32 80 144 32 80 144 32 80 144 32 80 144 32 80 144 32 80 144 32 80 144 32 80 144 32 80 144 32 80 144 32 80 144 64 80 40 64 80 40 64 80 40 64 80 40 64 80 40 64 80 40 64 80 40 64 80 40 64 80 40 64 80 40 64 80 40 64 80 40 64 80 40 64 80 40 64 80 40 64 80 40 64 80 40 64 80 40 64 80 40 64 80 40 64 80 40 64 80 40 64 80 40 64 80 40 64 80 40 64 80 40 64 80 40 64 80 40 64 80 40 64 80 40 64 80 40 64 80 40 72 80 40 72 80 40 72 80 40 72 80 40 72 80 40 72 80 40 72 80 40 72 80 40 72 80 40 72 80 40 72 80 40 72 80 40 72 80 40 72 80 40 72 80 40 72 80 40 72 80 40 72 80 40 72 80 40 72 80 40 72 80 40 72 80 40 72 80 40 72 80 40 72 80 40 72 80 40 72 80 40 72 80 40 72 80 40 72 80 40 72 80 40 72 80 40