P3
128 128
255
136 32 16 136 32 16 136 32 16 136 32 16 136 32 16 136 32 16 136 32 16 136 32 16 136 32 16 136 32 16 136 32 16 136 32 16 136 32 16 136 32 16 136 32 16 136 32 16 136 32 16 136 32 16 136 32 16 136 32 16 136 32 16 136 32 16 136 32 16 136 32 16 136 32 16 136 32 16 136 32 16 136 32 16 136 32 16 136 32 16 136 32 16 136 32 16 184 32 16 184 32 16 184 32 16 184 32 16 184 32 16 184 32 16 184 32 16 184 32 16 184 32 16 184 32 16 184 32 16 184 32 16 184 32 16 184 32 16 184 32 16 184 32 16 184 32 16 184 32 16 184 32 16 184 32 16 184 32 16 184 32 16 184 32 16 184 32 16 184 32 16 184 32 16 184 32 16 184 32 16 184 32 16 184 32 16 184 32 16 184 32 16 48 40 144 48 40 144 48 40 144 48 40 144 48 40 144 48 40 144 48 40 144 48 40 144 48 40 144 48 40 144 48 40 144 48 40 144 48 40 144 48 40 144 48 40 144 48 40 144 48 40 144 48 40 144 48 40 144 48 40 144 48 40 144 48 40 144 48 40 144 48 40 144 48 40 144 48 40 144 48 40 144 48 40 144 48 40 144 48 40 144 48 40 144 48 40 144 40 40 144 40 40 144 40 40 144 40 40 144 40 40 144 40 40 144 40 40 144 40 40 144 40 40 144 40 40 144 40 40 144 40 40 144 40 40 144 40 40 144 40 40 144 40 40 144 40 40 144 40 40 144 40 40 144 40 40 144 40 40 144 40 40 144 40 40 144 40 40 144 40 40 144 40 40 144 40 40 144 40 40 144 40 40 144 40 40 144 40 40 144 40 40 144
136 32 16 136 32 16 136 32 16 136 32 16 136 32 16 136 32 16 136 32 16 136 32 16 136 32 16 136 32 16 136 32 16 136 32 16 136 32 16 136 32 16 136 32 16 136 32 16 136 32 16 136 32 16 136 32 16 136 32 16 136 32 16 136 32 16 136 32 16 136 32 16 136 32 16 136 32 16 136 32 16 136 32 16 136 32 16 136 32 16 136 32 16 136 32 16 184 32 16 184 32 16 184 32 16 184 32 16 184 32 16 184 32 16 184 32 16 184 32 16 184 32 16 184 32 16 184 32 16 184 32 16 184 32 16 184 32 16 184 32 16 184 32 16 184 32 16 184 32 16 184 32 16 184 32 16 184 32 16 184 32 16 184 32 16 184 32 16 184 32 16 184 32 16 184 32 16 184 32 16 184 32 16 184 32 16 184 32 16 184 32 16 48 40 144 48 40 144 48 40 144 48 40 144 48 40 144 48 40 144 48 40 144 48 40 144 48 40 144 48 40 144 48 40 144 48 40 144 48 40 144 48 40 144 48 40 144 48 40 144 48 40 144 48 40 144 48 40 144 48 40 144 48 40 144 48 40 144 48 40 144 48 40 144 48 40 144 48 40 144 48 40 144 48 40 144 48 40 144 48 40 144 48 40 144 48 40 144 40 40 144 40 40 144 40 40 144 40 40 144 40 40 144 40 40 144 40 40 144 40 40 144 40 40 144 40 40 144 40 40 144 40 40 144 40 40 144 40 40 144 40 40 144 40 40 144 40 40 144 40 40 144 40 40 144 40 40 144 40 40 144 40 40 144 40 40 144 40 40 144 40 40 144 40 40 144 40 40 144 40 40 144 40 40 144 40 40 144 40 40 144 40 40 144
136 32 16 136 32 16 136 32 16 136 32 16 136 32 16 136 32 16 136 32 16 136 32 16 136 32 16 136 32 16 136 32 16 136 32 16 136 32 16 136 32 16 136 32 16 136 32 16 136 32 16 136 32 16 136 32 16 136 32 16 136 32 16 136 32 16 136 32 16 136 32 16 136 32 16 136 32 16 136 32 16 136 32 16 136 32 16 136 32 16 136 32 16 136 32 16 184 32 16 184 32 16 184 32 16 184 32 16 184 32 16 184 32 16 184 32 16 184 32 16 184 32 16 184 32 16 184 32 16 184 32 16 184 32 16 184 32 16 184 32 16 184 32 16 184 32 16 184 32 16 184 32 16 184 32 16 184 32 16 184 32 16 184 32 16 184 32 16 184 32 16 184 32 16 184 32 16 184 32 16 184 32 16 184 32 16 184 32 16 184 32 16 48 40 144 48 40 144 48 40 144 48 40 144 48 40 144 48 40 144 48 40 144 48 40 144 48 40 144 48 40 144 48 40 144 48 40 144 48 40 144 48 40 144 48 40 144 48 40 144 48 40 144 48 40 144 48 40 144 48 40 144 48 40 144 48 40 144 48 40 144 48 40 144 48 40 144 48 40 144 48 40 144 48 40 144 48 40 144 48 40 144 48 40 144 48 40 144 40 40 144 40 40 144 40 40 144 40 40 144 40 40 144 40 40 144 40 40 144 40 40 144 40 40 144 40 40 144 40 40 144 40 40 144 40 40 144 40 40 144 40 40 144 40 40 144 40 40 144 40 40 144 40 40 144 40 40 144 40 40 144 40 40 144 40 40 144 40 40 144 40 40 144 40 40 144 40 40 144 40 40 144 40 40 144 40 40 144 40 40 144 40 40 144
136 32 16 136 32 16 136 32 16 136 32 16 136 32 16 136 32 16 136 32 16 136 32 16 136 32 16 136 32 16 136 32 16 136 32 16 136 32 16 136 32 16 136 32 16 136 32 16 136 32 16 136 32 16 136 32 16 136 32 16 136 32 16 136 32 16 136 32 16 136 32 16 136 32 16 136 32 16 136 32 16 136 32 16 136 32 16 136 32 16 136 32 16 136 32 16 184 32 16 184 32 16 184 32 16 184 32 16 184 32 16 184 32 16 184 32 16 184 32 16 184 32 16 184 32 16 184 32 16 184 32 16 184 32 16 184 32 16 184 32 16 184 32 16 184 32 16 184 32 16 184 32 16 184 32 16 184 32 16 184 32 16 184 32 16 184 32 16 184 32 16 184 32 16 184 32 16 184 32 16 184 32 16 184 32 16 184 32 16 184 32 16 48 40 144 48 40 144 48 40 144 48 40 144 48 40 144 48 40 144 48 40 144 48 40 144 48 40 144 48 40 144 48 40 144 48 40 144 48 40 144 48 40 144 48 40 144 48 40 144 48 40 144 48 40 144 48 40 144 48 40 144 48 40 144 48 40 144 48 40 144 48 40 144 48 40 144 48 40 144 48 40 144 48 40 144 48 40 144 48 40 144 48 40 144 48 40 144 40 40 144 40 40 144 40 40 144 40 40 144 40 40 144 40 40 144 40 40 144 40 40 144 40 40 144 40 40 144 40 40 144 40 40 144 40 40 144 40 40 144 40 40 144 40 40 144 40 40 144 40 40 144 40 40 144 40 40 144 40 40 144 40 40 144 40 40 144 40 40 144 40 40 144 40 40 144 40 40 144 40 40 144 40 40 144 40 40 144 40 40 144 40 40 144
136 32 16 136 32 16 136 32 16 136 32 16 136 32 16 136 32 16 136 32 16 136 32 16 136 32 16 136 32 16 136 32 16 136 32 16 136 32 16 136 32 16 136 32 16 136 32 16 136 32 16 136 32 16 136 32 16 136 32 16 136 32 16 136 32 16 136 32 16 136 32 16 136 32 16 136 32 16 136 32 16 136 32 16 136 32 16 136 32 16 136 32 16 136 32 16 184 32 16 184 32 16 184 32 16 184 32 16 184 32 16 184 32 16 184 32 16 184 32 16 184 32 16 184 32 16 184 32 16 184 32 16 184 32 16 184 32 16 184 32 16 184 32 16 184 32 16 184 32 16 184 32 16 184 32 16 184 32 16 184 32 16 184 32 16 184 32 16 184 32 16 184 32 16 184 32 16 184 32 16 184 32 16 184 32 16 184 32 16 184 32 16 48 40 144 48 40 144 48 40 144 48 40 144 48 40 144 48 40 144 48 40 144 48 40 144 48 40 144 48 40 144 48 40 144 48 40 144 48 40 144 48 40 144 48 40 144 48 40 144 48 40 144 48 40 144 48 40 144 48 40 144 48 40 144 48 40 144 48 40 144 48 40 144 48 40 144 48 40 144 48 40 144 48 40 144 48 40 144 48 40 144 48 40 144 48 40 144 40 40 144 40 40 144 40 40 144 40 40 144 40 40 144 40 40 144 40 40 144 40 40 144 40 40 144 40 40 144 40 40 144 40 40 144 40 40 144 40 40 144 40 40 144 40 40 144 40 40 144 40 40 144 40 40 144 40 40 144 40 40 144 40 40 144 40 40 144 40 40 144 40 40 144 40 40 144 40 40 144 40 40 144 40 40 144 40 40 144 40 40 144 40 40 144
136 32 16 136 32 16 136 32 16 136 32 16 136 32 16 136 32 16 136 32 16 136 32 16 136 32 16 136 32 16 136 32 16 136 32 16 136 32 16 136 32 16 136 32 16 136 32 16 136 32 16 136 32 16 136 32 16 136 32 16 136 32 16 136 32 16 136 32 16 136 32 16 136 32 16 136 32 16 136 32 16 136 32 16 136 32 16 136 32 16 136 32 16 136 32 16 184 32 16 184 32 16 184 32 16 184 32 16 184 32 16 184 32 16 184 32 16 184 32 16 184 32 16 184 32 16 184 32 16 184 32 16 184 32 16 184 32 16 184 32 16 184 32 16 184 32 16 184 32 16 184 32 16 184 32 16 184 32 16 184 32 16 184 32 16 184 32 16 184 32 16 184 32 16 184 32 16 184 32 16 184 32 16 184 32 16 184 32 16 184 32 16 48 40 144 48 40 144 48 40 144 48 40 144 48 40 144 48 40 144 48 40 144 48 40 144 48 40 144 48 40 144 48 40 144 48 40 144 48 40 144 48 40 144 48 40 144 48 40 144 48 40 144 48 40 144 48 40 144 48 40 144 48 40 144 48 40 144 48 40 144 48 40 144 48 40 144 48 40 144 48 40 144 48 40 144 48 40 144 48 40 144 48 40 144 48 40 144 40 40 144 40 40 144 40 40 144 40 40 144 40 40 144 40 40 144 40 40 144 40 40 144 40 40 144 40 40 144 40 40 144 40 40 144 40 40 144 40 40 144 40 40 144 40 40 144 40 40 144 40 40 144 40 40 144 40 40 144 40 40 144 40 40 144 40 40 144 40 40 144 40 40 144 40 40 144 40 40 144 40 40 144 40 40 144 40 40 144 40 40 144 40 40 144
136 32 16 136 32 16 136 32 16 136 32 16 136 32 16 136 32 16 136 32 16 136 32 16 136 32 16 136 32 16 136 32 16 136 32 16 136 32 16 136 32 16 136 32 16 136 32 16 136 32 16 136 32 16 136 32 16 136 32 16 136 32 16 136 32 16 136 32 16 136 32 16 136 32 16 136 32 16 136 32 16 136 32 16 136 32 16 136 32 16 136 32 16 136 32 16 184 32 16 184 32 16 184 32 16 184 32 16 184 32 16 184 32 16 184 32 16 184 32 16 184 32 16 184 32 16 184 32 16 184 32 16 184 32 16 184 32 16 184 32 16 184 32 16 184 32 16 184 32 16 184 32 16 184 32 16 184 32 16 184 32 16 184 32 16 184 32 16 184 32 16 184 32 16 184 32 16 184 32 16 184 32 16 184 32 16 184 32 16 184 32 16 48 40 144 48 40 144 48 40 144 48 40 144 48 40 144 48 40 144 48 40 144 48 40 144 48 40 144 48 40 144 48 40 144 48 40 144 48 40 144 48 40 144 48 40 144 48 40 144 48 40 144 48 40 144 48 40 144 48 40 144 48 40 144 48 40 144 48 40 144 48 40 144 48 40 144 48 40 144 48 40 144 48 40 144 48 40 144 48 40 144 48 40 144 48 40 144 40 40 144 40 40 144 40 40 144 40 40 144 40 40 144 40 40 144 40 40 144 40 40 144 40 40 144 40 40 144 40 40 144 40 40 144 40 40 144 40 40 144 40 40 144 40 40 144 40 40 144 40 40 144 40 40 144 40 40 144 40 40 144 40 40 144 40 40 144 40 40 144 40 40 144 40 40 144 40 40 144 40 40 144 40 40 144 40 40 144 40 40 144 40 40 144
136 32 16 136 32 16 136 32 16 136 32 16 136 32 16 136 32 16 136 32 16 136 32 16 136 32 16 136 32 16 136 32 16 136 32 16 136 32 16 136 32 16 136 32 16 136 32 16 136 32 16 136 32 16 136 32 16 136 32 16 136 32 16 136 32 16 136 32 16 136 32 16 136 32 16 136 32 16 136 32 16 136 32 16 136 32 16 136 32 16 136 32 16 136 32 16 184 32 16 184 32 16 184 32 16 184 32 16 184 32 16 184 32 16 184 32 16 184 32 16 184 32 16 184 32 16 184 32 16 184 32 16 184 32 16 184 32 16 184 32 16 184 32 16 184 32 16 184 32 16 184 32 16 184 32 16 184 32 16 184 32 16 184 32 16 184 32 16 184 32 16 184 32 16 184 32 16 184 32 16 184 32 16 184 32 16 184 32 16 184 32 16 48 40 144 48 40 144 48 40 144 48 40 144 48 40 144 48 40 144 48 40 144 48 40 144 48 40 144 48 40 144 48 40 144 48 40 144 48 40 144 48 40 144 48 40 144 48 40 144 48 40 144 48 40 144 48 40 144 48 40 144 48 40 144 48 40 144 48 40 144 48 40 144 48 40 144 48 40 144 48 40 144 48 40 144 48 40 144 48 40 144 48 40 144 48 40 144 40 40 144 40 40 144 40 40 144 40 40 144 40 40 144 40 40 144 40 40 144 40 40 144 40 40 144 40 40 144 40 40 144 40 40 144 40 40 144 40 40 144 40 40 144 40 40 144 40 40 144 40 40 144 40 40 144 40 40 144 40 40 144 40 40 144 40 40 144 40 40 144 40 40 144 40 40 144 40 40 144 40 40 144 40 40 144 40 40 144 40 40 144 40 40 144
136 32 16 136 32 16 136 32 16 136 32 16 136 32 16 136 32 16 136 32 16 136 32 16 136 32 16 136 32 16 136 32 16 136 32 16 136 32 16 136 32 16 136 32 16 136 32 16 136 32 16 136 32 16 136 32 16 136 32 16 136 32 16 136 32 16 136 32 16 136 32 16 136 32 16 136 32 16 136 32 16 136 32 16 136 32 16 136 32 16 136 32 16 136 32 16 184 32 16 184 32 16 184 32 16 184 32 16 184 32 16 184 32 16 184 32 16 184 32 16 184 32 16 184 32 16 184 32 16 184 32 16 184 32 16 184 32 16 184 32 16 184 32 16 184 32 16 184 32 16 184 32 16 184 32 16 184 32 16 184 32 16 184 32 16 184 32 16 184 32 16 184 32 16 184 32 16 184 32 16 184 32 16 184 32 16 184 32 16 184 32 16 48 40 144 48 40 144 48 40 144 48 40 144 48 40 144 48 40 144 48 40 144 48 40 144 48 40 144 48 40 144 48 40 144 48 40 144 48 40 144 48 40 144 48 40 144 48 40 144 48 40 144 48 40 144 48 40 144 48 40 144 48 40 144 48 40 144 48 40 144 48 40 144 48 40 144 48 40 144 48 40 144 48 40 144 48 40 144 48 40 144 48 40 144 48 40 144 40 40 144 40 40 144 40 40 144 40 40 144 40 40 144 40 40 144 40 40 144 40 40 144 40 40 144 40 40 144 40 40 144 40 40 144 40 40 144 40 40 144 40 40 144 40 40 144 40 40 144 40 40 144 40 40 144 40 40 144 40 40 144 40 40 144 40 40 144 40 40 144 40 40 144 40 40 144 40 40 144 40 40 144 40 40 144 40 40 144 40 40 144 40 40 144
136 32 16 136 32 16 136 32 16 136 32 16 136 32 16 136 32 16 136 32 16 136 32 16 136 32 16 136 32 16 136 32 16 136 32 16 136 32 16 136 32 16 136 32 16 136 32 16 136 32 16 136 32 16 136 32 16 136 32 16 136 32 16 136 32 16 136 32 16 136 32 16 136 32 16 136 32 16 136 32 16 136 32 16 136 32 16 136 32 16 136 32 16 136 32 16 184 32 16 184 32 16 184 32 16 184 32 16 184 32 16 184 32 16 184 32 16 184 32 16 184 32 16 184 32 16 184 32 16 184 32 16 184 32 16 184 32 16 184 32 16 184 32 16 184 32 16 184 32 16 184 32 16 184 32 16 184 32 16 184 32 16 184 32 16 184 32 16 184 32 16 184 32 16 184 32 16 184 32 16 184 32 16 184 32 16 184 32 16 184 32 16 48 40 144 48 40 144 48 40 144 48 40 144 48 40 144 48 40 144 48 40 144 48 40 144 48 40 144 48 40 144 48 40 144 48 40 144 48 40 144 48 40 144 48 40 144 48 40 144 48 40 144 48 40 144 48 40 144 48 40 144 48 40 144 48 40 144 48 40 144 48 40 144 48 40 144 48 40 144 48 40 144 48 40 144 48 40 144 48 40 144 48 40 144 48 40 144 40 40 144 40 40 144 40 40 144 40 40 144 40 40 144 40 40 144 40 40 144 40 40 144 40 40 144 40 40 144 40 40 144 40 40 144 40 40 144 40 40 144 40 40 144 40 40 144 40 40 144 40 40 144 40 40 144 40 40 144 40 40 144 40 40 144 40 40 144 40 40 144 40 40 144 40 40 144 40 40 144 40 40 144 40 40 144 40 40 144 40 40 144 40 40 144
136 32 16 136 32 16 136 32 16 136 32 16 136 32 16 136 32 16 136 32 16 136 32 16 136 32 16 136 32 16 136 32 16 136 32 16 136 32 16 136 32 16 136 32 16 136 32 16 136 32 16 136 32 16 136 32 16 136 32 16 136 32 16 136 32 16 136 32 16 136 32 16 136 32 16 136 32 16 136 32 16 136 32 16 136 32 16 136 32 16 136 32 16 136 32 16 184 32 16 184 32 16 184 32 16 184 32 16 184 32 16 184 32 16 184 32 16 184 32 16 184 32 16 184 32 16 184 32 16 184 32 16 184 32 16 184 32 16 184 32 16 184 32 16 184 32 16 184 32 16 184 32 16 184 32 16 184 32 16 184 32 16 184 32 16 184 32 16 184 32 16 184 32 16 184 32 16 184 32 16 184 32 16 184 32 16 184 32 16 184 32 16 48 40 144 48 40 144 48 40 144 48 40 144 48 40 144 48 40 144 48 40 144 48 40 144 48 40 144 48 40 144 48 40 144 48 40 144 48 40 144 48 40 144 48 40 144 48 40 144 48 40 144 48 40 144 48 40 144 48 40 144 48 40 144 48 40 144 48 40 144 48 40 144 48 40 144 48 40 144 48 40 144 48 40 144 48 40 144 48 40 144 48 40 144 48 40 144 40 40 144 40 40 144 40 40 144 40 40 144 40 40 144 40 40 144 40 40 144 40 40 144 40 40 144 40 40 144 40 40 144 40 40 144 40 40 144 40 40 144 40 40 144 40 40 144 40 40 144 40 40 144 40 40 144 40 40 144 40 40 144 40 40 144 40 40 144 40 40 144 40 40 144 40 40 144 40 40 144 40 40 144 40 40 144 40 40 144 40 40 144 40 40 144
136 32 16 136 32 16 136 32 16 136 32 16 136 32 16 136 32 16 136 32 16 136 32 16 136 32 16 136 32 16 136 32 16 136 32 16 136 32 16 136 32 16 136 32 16 136 32 16 136 32 16 136 32 16 136 32 16 136 32 16 136 32 16 136 32 16 136 32 16 136 32 16 136 32 16 136 32 16 136 32 16 136 32 16 136 32 16 136 32 16 136 32 16 136 32 16 184 32 16 184 32 16 184 32 16 184 32 16 184 32 16 184 32 16 184 32 16 184 32 16 184 32 16 184 32 16 184 32 16 184 32 16 184 32 16 184 32 16 184 32 16 184 32 16 184 32 16 184 32 16 184 32 16 184 32 16 184 32 16 184 32 16 184 32 16 184 32 16 184 32 16 184 32 16 184 32 16 184 32 16 184 32 16 184 32 16 184 32 16 184 32 16 48 40 144 48 40 144 48 40 144 48 40 144 48 40 144 48 40 144 48 40 144 48 40 144 48 40 144 48 40 144 48 40 144 48 40 144 48 40 144 48 40 144 48 40 144 48 40 144 48 40 144 48 40 144 48 40 144 48 40 144 48 40 144 48 40 144 48 40 144 48 40 144 48 40 144 48 40 144 48 40 144 48 40 144 48 40 144 48 40 144 48 40 144 48 40 144 40 40 144 40 40 144 40 40 144 40 40 144 40 40 144 40 40 144 40 40 144 40 40 144 40 40 144 40 40 144 40 40 144 40 40 144 40 40 144 40 40 144 40 40 144 40 40 144 40 40 144 40 40 144 40 40 144 40 40 144 40 40 144 40 40 144 40 40 144 40 40 144 40 40 144 40 40 144 40 40 144 40 40 144 40 40 144 40 40 144 40 40 144 40 40 144
136 32 16 136 32 16 136 32 16 136 32 16 136 32 16 136 32 16 136 32 16 136 32 16 136 32 16 136 32 16 136 32 16 136 32 16 136 32 16 136 32 16 136 32 16 136 32 16 136 32 16 136 32 16 136 32 16 136 32 16 136 32 16 136 32 16 136 32 16 136 32 16 136 32 16 136 32 16 136 32 16 136 32 16 136 32 16 136 32 16 136 32 16 136 32 16 184 32 16 184 32 16 184 32 16 184 32 16 184 32 16 184 32 16 184 32 16 184 32 16 184 32 16 184 32 16 184 32 16 184 32 16 184 32 16 184 32 16 184 32 16 184 32 16 184 32 16 184 32 16 184 32 16 184 32 16 184 32 16 184 32 16 184 32 16 184 32 16 184 32 16 184 32 16 184 32 16 184 32 16 184 32 16 184 32 16 184 32 16 184 32 16 48 40 144 48 40 144 48 40 144 48 40 144 48 40 144 48 40 144 48 40 144 48 40 144 48 40 144 48 40 144 48 40 144 48 40 144 48 40 144 48 40 144 48 40 144 48 40 144 48 40 144 48 40 144 48 40 144 48 40 144 48 40 144 48 40 144 48 40 144 48 40 144 48 40 144 48 40 144 48 40 144 48 40 144 48 40 144 48 40 144 48 40 144 48 40 144 40 40 144 40 40 144 40 40 144 40 40 144 40 40 144 40 40 144 40 40 144 40 40 144 40 40 144 40 40 144 40 40 144 40 40 144 40 40 144 40 40 144 40 40 144 40 40 144 40 40 144 40 40 144 40 40 144 40 40 144 40 40 144 40 40 144 40 40 144 40 40 144 40 40 144 40 40 144 40 40 144 40 40 144 40 40 144 40 40 144 40 40 144 40 40 144
136 32 16 136 32 16 136 32 16 136 32 16 136 32 16 136 32 16 136 32 16 136 32 16 136 32 16 136 32 16 136 32 16 136 32 16 136 32 16 136 32 16 136 32 16 136 32 16 136 32 16 136 32 16 136 32 16 136 32 16 136 32 16 136 32 16 136 32 16 136 32 16 136 32 16 136 32 16 136 32 16 136 32 16 136 32 16 136 32 16 136 32 16 136 32 16 184 32 16 184 32 16 184 32 16 184 32 16 184 32 16 184 32 16 184 32 16 184 32 16 184 32 16 184 32 16 184 32 16 184 32 16 184 32 16 184 32 16 184 32 16 184 32 16 184 32 16 184 32 16 184 32 16 184 32 16 184 32 16 184 32 16 184 32 16 184 32 16 184 32 16 184 32 16 184 32 16 184 32 16 184 32 16 184 32 16 184 32 16 184 32 16 48 40 144 48 40 144 48 40 144 48 40 144 48 40 144 48 40 144 48 40 144 48 40 144 48 40 144 48 40 144 48 40 144 48 40 144 48 40 144 48 40 144 48 40 144 48 40 144 48 40 144 48 40 144 48 40 144 48 40 144 48 40 144 48 40 144 48 40 144 48 40 144 48 40 144 48 40 144 48 40 144 48 40 144 48 40 144 48 40 144 48 40 144 48 40 144 40 40 144 40 40 144 40 40 144 40 40 144 40 40 144 40 40 144 40 40 144 40 40 144 40 40 144 40 40 144 40 40 144 40 40 144 40 40 144 40 40 144 40 40 144 40 40 144 40 40 144 40 40 144 40 40 144 40 40 144 40 40 144 40 40 144 40 40 144 40 40 144 40 40 144 40 40 144 40 40 144 40 40 144 40 40 144 40 40 144 40 40 144 40 40 144
136 32 16 136 32 16 136 32 16 136 32 16 136 32 16 136 32 16 136 32 16 136 32 16 136 32 16 136 32 16 136 32 16 136 32 16 136 32 16 136 32 16 136 32 16 136 32 16 136 32 16 136 32 16 136 32 16 136 32 16 136 32 16 136 32 16 136 32 16 136 32 16 136 32 16 136 32 16 136 32 16 136 32 16 136 32 16 136 32 16 136 32 16 136 32 16 184 32 16 184 32 16 184 32 16 184 32 16 184 32 16 184 32 16 184 32 16 184 32 16 184 32 16 184 32 16 184 32 16 184 32 16 184 32 16 184 32 16 184 32 16 184 32 16 184 32 16 184 32 16 184 32 16 184 32 16 184 32 16 184 32 16 184 32 16 184 32 16 184 32 16 184 32 16 184 32 16 184 32 16 184 32 16 184 32 16 184 32 16 184 32 16 48 40 144 48 40 144 48 40 144 48 40 144 48 40 144 48 40 144 48 40 144 48 40 144 48 40 144 48 40 144 48 40 144 48 40 144 48 40 144 48 40 144 48 40 144 48 40 144 48 40 144 48 40 144 48 40 144 48 40 144 48 40 144 48 40 144 48 40 144 48 40 144 48 40 144 48 40 144 48 40 144 48 40 144 48 40 144 48 40 144 48 40 144 48 40 144 40 40 144 40 40 144 40 40 144 40 40 144 40 40 144 40 40 144 40 40 144 40 40 144 40 40 144 40 40 144 40 40 144 40 40 144 40 40 144 40 40 144 40 40 144 40 40 144 40 40 144 40 40 144 40 40 144 40 40 144 40 40 144 40 40 144 40 40 144 40 40 144 40 40 144 40 40 144 40 40 144 40 40 144 40 40 144 40 40 144 40 40 144 40 40 144
136 32 16 136 32 16 136 32 16 136 32 16 136 32 16 136 32 16 136 32 16 136 32 16 136 32 16 136 32 16 136 32 16 136 32 16 136 32 16 136 32 16 136 32 16 136 32 16 136 32 16 136 32 16 136 32 16 136 32 16 136 32 16 136 32 16 136 32 16 136 32 16 136 32 16 136 32 16 136 32 16 136 32 16 136 32 16 136 32 16 136 32 16 136 32 16 184 32 16 184 32 16 184 32 16 184 32 16 184 32 16 184 32 16 184 32 16 184 32 16 184 32 16 184 32 16 184 32 16 184 32 16 184 32 16 184 32 16 184 32 16 184 32 16 184 32 16 184 32 16 184 32 16 184 32 16 184 32 16 184 32 16 184 32 16 184 32 16 184 32 16 184 32 16 184 32 16 184 32 16 184 32 16 184 32 16 184 32 16 184 32 16 48 40 144 48 40 144 48 40 144 48 40 144 48 40 144 48 40 144 48 40 144 48 40 144 48 40 144 48 40 144 48 40 144 48 40 144 48 40 144 48 40 144 48 40 144 48 40 144 48 40 144 48 40 144 48 40 144 48 40 144 48 40 144 48 40 144 48 40 144 48 40 144 48 40 144 48 40 144 48 40 144 48 40 144 48 40 144 48 40 144 48 40 144 48 40 144 40 40 144 40 40 144 40 40 144 40 40 144 40 40 144 40 40 144 40 40 144 40 40 144 40 40 144 40 40 144 40 40 144 40 40 144 40 40 144 40 40 144 40 40 144 40 40 144 40 40 144 40 40 144 40 40 144 40 40 144 40 40 144 40 40 144 40 40 144 40 40 144 40 40 144 40 40 144 40 40 144 40 40 144 40 40 144 40 40 144 40 40 144 40 40 144
136 32 16 136 32 16 136 32 16 136 32 16 136 32 16 136 32 16 136 32 16 136 32 16 136 32 16 136 32 16 136 32 16 136 32 16 136 32 16 136 32 16 136 32 16 136 32 16 136 32 16 136 32 16 136 32 16 136 32 16 136 32 16 136 32 16 136 32 16 136 32 16 136 32 16 136 32 16 136 32 16 136 32 16 136 32 16 136 32 16 136 32 16 136 32 16 184 32 16 184 32 16 184 32 16 184 32 16 184 32 16 184 32 16 184 32 16 184 32 16 184 32 16 184 32 16 184 32 16 184 32 16 184 32 16 184 32 16 184 32 16 184 32 16 184 32 16 184 32 16 184 32 16 184 32 16 184 32 16 184 32 16 184 32 16 184 32 16 184 32 16 184 32 16 184 32 16 184 32 16 184 32 16 184 32 16 184 32 16 184 32 16 48 40 144 48 40 144 48 40 144 48 40 144 48 40 144 48 40 144 48 40 144 48 40 144 48 40 144 48 40 144 48 40 144 48 40 144 48 40 144 48 40 144 48 40 144 48 40 144 48 40 144 48 40 144 48 40 144 48 40 144 48 40 144 48 40 144 48 40 144 48 40 144 48 40 144 48 40 144 48 40 144 48 40 144 48 40 144 48 40 144 48 40 144 48 40 144 40 40 144 40 40 144 40 40 144 40 40 144 40 40 144 40 40 144 40 40 144 40 40 144 40 40 144 40 40 144 40 40 144 40 40 144 40 40 144 40 40 144 40 40 144 40 40 144 40 40 144 40 40 144 40 40 144 40 40 144 40 40 144 40 40 144 40 40 144 40 40 144 40 40 144 40 40 144 40 40 144 40 40 144 40 40 144 40 40 144 40 40 144 40 40 144
136 32 16 136 32 16 136 32 16 136 32 16 136 32 16 136 32 16 136 32 16 136 32 16 136 32 16 136 32 16 136 32 16 136 32 16 136 32 16 136 32 16 136 32 16 136 32 16 136 32 16 136 32 16 136 32 16 136 32 16 136 32 16 136 32 16 136 32 16 136 32 16 136 32 16 136 32 16 136 32 16 136 32 16 136 32 16 136 32 16 136 32 16 136 32 16 184 32 16 184 32 16 184 32 16 184 32 16 184 32 16 184 32 16 184 32 16 184 32 16 184 32 16 184 32 16 184 32 16 184 32 16 184 32 16 184 32 16 184 32 16 184 32 16 184 32 16 184 32 16 184 32 16 184 32 16 184 32 16 184 32 16 184 32 16 184 32 16 184 32 16 184 32 16 184 32 16 184 32 16 184 32 16 184 32 16 184 32 16 184 32 16 48 40 144 48 40 144 48 40 144 48 40 144 48 40 144 48 40 144 48 40 144 48 40 144 48 40 144 48 40 144 48 40 144 48 40 144 48 40 144 48 40 144 48 40 144 48 40 144 48 40 144 48 40 144 48 40 144 48 40 144 48 40 144 48 40 144 48 40 144 48 40 144 48 40 144 48 40 144 48 40 144 48 40 144 48 40 144 48 40 144 48 40 144 48 40 144 40 40 144 40 40 144 40 40 144 40 40 144 40 40 144 40 40 144 40 40 144 40 40 144 40 40 144 40 40 144 40 40 144 40 40 144 40 40 144 40 40 144 40 40 144 40 40 144 40 40 144 40 40 144 40 40 144 40 40 144 40 40 144 40 40 144 40 40 144 40 40 144 40 40 144 40 40 144 40 40 144 40 40 144 40 40 144 40 40 144 40 40 144 40 40 144
136 32 16 136 32 16 136 32 16 136 32 16 136 32 16 136 32 16 136 32 16 136 32 16 136 32 16 136 32 16 136 32 16 136 32 16 136 32 16 136 32 16 136 32 16 136 32 16 136 32 16 136 32 16 136 32 16 136 32 16 136 32 16 136 32 16 136 32 16 136 32 16 136 32 16 136 32 16 136 32 16 136 32 16 136 32 16 136 32 16 136 32 16 136 32 16 184 32 16 184 32 16 184 32 16 184 32 16 184 32 16 184 32 16 184 32 16 184 32 16 184 32 16 184 32 16 184 32 16 184 32 16 184 32 16 184 32 16 184 32 16 184 32 16 184 32 16 184 32 16 184 32 16 184 32 16 184 32 16 184 32 16 184 32 16 184 32 16 184 32 16 184 32 16 184 32 16 184 32 16 184 32 16 184 32 16 184 32 16 184 32 16 48 40 144 48 40 144 48 40 144 48 40 144 48 40 144 48 40 144 48 40 144 48 40 144 48 40 144 48 40 144 48 40 144 48 40 144 48 40 144 48 40 144 48 40 144 48 40 144 48 40 144 48 40 144 48 40 144 48 40 144 48 40 144 48 40 144 48 40 144 48 40 144 48 40 144 48 40 144 48 40 144 48 40 144 48 40 144 48 40 144 48 40 144 48 40 144 40 40 144 40 40 144 40 40 144 40 40 144 40 40 144 40 40 144 40 40 144 40 40 144 40 40 144 40 40 144 40 40 144 40 40 144 40 40 144 40 40 144 40 40 144 40 40 144 40 40 144 40 40 144 40 40 144 40 40 144 40 40 144 40 40 144 40 40 144 40 40 144 40 40 144 40 40 144 40 40 144 40 40 144 40 40 144 40 40 144 40 40 144 40 40 144
136 32 16 136 32 16 136 32 16 136 32 16 136 32 16 136 32 16 136 32 16 136 32 16 136 32 16 136 32 16 136 32 16 136 32 16 136 32 16 136 32 16 136 32 16 136 32 16 136 32 16 136 32 16 136 32 16 136 32 16 136 32 16 136 32 16 136 32 16 136 32 16 136 32 16 136 32 16 136 32 16 136 32 16 136 32 16 136 32 16 136 32 16 136 32 16 184 32 16 184 32 16 184 32 16 184 32 16 184 32 16 184 32 16 184 32 16 184 32 16 184 32 16 184 32 16 184 32 16 184 32 16 184 32 16 184 32 16 184 32 16 184 32 16 184 32 16 184 32 16 184 32 16 184 32 16 184 32 16 184 32 16 184 32 16 184 32 16 184 32 16 184 32 16 184 32 16 184 32 16 184 32 16 184 32 16 184 32 16 184 32 16 48 40 144 48 40 144 48 40 144 48 40 144 48 40 144 48 40 144 48 40 144 48 40 144 48 40 144 48 40 144 48 40 144 48 40 144 48 40 144 48 40 144 48 40 144 48 40 144 48 40 144 48 40 144 48 40 144 48 40 144 48 40 144 48 40 144 48 40 144 48 40 144 48 40 144 48 40 144 48 40 144 48 40 144 48 40 144 48 40 144 48 40 144 48 40 144 40 40 144 40 40 144 40 40 144 40 40 144 40 40 144 40 40 144 40 40 144 40 40 144 40 40 144 40 40 144 40 40 144 40 40 144 40 40 144 40 40 144 40 40 144 40 40 144 40 40 144 40 40 144 40 40 144 40 40 144 40 40 144 40 40 144 40 40 144 40 40 144 40 40 144 40 40 144 40 40 144 40 40 144 40 40 144 40 40 144 40 40 144 40 40 144
136 32 16 136 32 16 136 32 16 136 32 16 136 32 16 136 32 16 136 32 16 136 32 16 136 32 16 136 32 16 136 32 16 136 32 16 136 32 16 136 32 16 136 32 16 136 32 16 136 32 16 136 32 16 136 32 16 136 32 16 136 32 16 136 32 16 136 32 16 136 32 16 136 32 16 136 32 16 136 32 16 136 32 16 136 32 16 136 32 16 136 32 16 136 32 16 184 32 16 184 32 16 184 32 16 184 32 16 184 32 16 184 32 16 184 32 16 184 32 16 184 32 16 184 32 16 184 32 16 184 32 16 184 32 16 184 32 16 184 32 16 184 32 16 184 32 16 184 32 16 184 32 16 184 32 16 184 32 16 184 32 16 184 32 16 184 32 16 184 32 16 184 32 16 184 32 16 184 32 16 184 32 16 184 32 16 184 32 16 184 32 16 48 40 144 48 40 144 48 40 144 48 40 144 48 40 144 48 40 144 48 40 144 48 40 144 48 40 144 48 40 144 48 40 144 48 40 144 48 40 144 48 40 144 48 40 144 48 40 144 48 40 144 48 40 144 48 40 144 48 40 144 48 40 144 48 40 144 48 40 144 48 40 144 48 40 144 48 40 144 48 40 144 48 40 144 48 40 144 48 40 144 48 40 144 48 40 144 40 40 144 40 40 144 40 40 144 40 40 144 40 40 144 40 40 144 40 40 144 40 40 144 40 40 144 40 40 144 40 40 144 40 40 144 40 40 144 40 40 144 40 40 144 40 40 144 40 40 144 40 40 144 40 40 144 40 40 144 40 40 144 40 40 144 40 40 144 40 40 144 40 40 144 40 40 144 40 40 144 40 40 144 40 40 144 40 40 144 40 40 144 40 40 144
136 32 16 136 32 16 136 32 16 136 32 16 136 32 16 136 32 16 136 32 16 136 32 16 136 32 16 136 32 16 136 32 16 136 32 16 136 32 16 136 32 16 136 32 16 136 32 16 136 32 16 136 32 16 136 32 16 136 32 16 136 32 16 136 32 16 136 32 16 136 32 16 136 32 16 136 32 16 136 32 16 136 32 16 136 32 16 136 32 16 136 32 16 136 32 16 184 32 16 184 32 16 184 32 16 184 32 16 184 32 16 184 32 16 184 32 16 184 32 16 184 32 16 184 32 16 184 32 16 184 32 16 184 32 16 184 32 16 184 32 16 184 32 16 184 32 16 184 32 16 184 32 16 184 32 16 184 32 16 184 32 16 184 32 16 184 32 16 184 32 16 184 32 16 184 32 16 184 32 16 184 32 16 184 32 16 184 32 16 184 32 16 48 40 144 48 40 144 48 40 144 48 40 144 48 40 144 48 40 144 48 40 144 48 40 144 48 40 144 48 40 144 48 40 144 48 40 144 48 40 144 48 40 144 48 40 144 48 40 144 48 40 144 48 40 144 48 40 144 48 40 144 48 40 144 48 40 144 48 40 144 48 40 144 48 40 144 48 40 144 48 40 144 48 40 144 48 40 144 48 40 144 48 40 144 48 40 144 40 40 144 40 40 144 40 40 144 40 40 144 40 40 144 40 40 144 40 40 144 40 40 144 40 40 144 40 40 144 40 40 144 40 40 144 40 40 144 40 40 144 40 40 144 40 40 144 40 40 144 40 40 144 40 40 144 40 40 144 40 40 144 40 40 144 40 40 144 40 40 144 40 40 144 40 40 144 40 40 144 40 40 144 40 40 144 40 40 144 40 40 144 40 40 144
136 32 16 136 32 16 136 32 16 136 32 16 136 32 16 136 32 16 136 32 16 136 32 16 136 32 16 136 32 16 136 32 16 136 32 16 136 32 16 136 32 16 136 32 16 136 32 16 136 32 16 136 32 16 136 32 16 136 32 16 136 32 16 136 32 16 136 32 16 136 32 16 136 32 16 136 32 16 136 32 16 136 32 16 136 32 16 136 32 16 136 32 16 136 32 16 184 32 16 184 32 16 184 32 16 184 32 16 184 32 16 184 32 16 184 32 16 184 32 16 184 32 16 184 32 16 184 32 16 184 32 16 184 32 16 184 32 16 184 32 16 184 32 16 184 32 16 184 32 16 184 32 16 184 32 16 184 32 16 184 32 16 184 32 16 184 32 16 184 32 16 184 32 16 184 32 16 184 32 16 184 32 16 184 32 16 184 32 16 184 32 16 48 40 144 48 40 144 48 40 144 48 40 144 48 40 144 48 40 144 48 40 144 48 40 144 48 40 144 48 40 144 48 40 144 48 40 144 48 40 144 48 40 144 48 40 144 48 40 144 48 40 144 48 40 144 48 40 144 48 40 144 48 40 144 48 40 144 48 40 144 48 40 144 48 40 144 48 40 144 48 40 144 48 40 144 48 40 144 48 40 144 48 40 144 48 40 144 40 40 144 40 40 144 40 40 144 40 40 144 40 40 144 40 40 144 40 40 144 40 40 144 40 40 144 40 40 144 40 40 144 40 40 144 40 40 144 40 40 144 40 40 144 40 40 144 40 40 144 40 40 144 40 40 144 40 40 144 40 40 144 40 40 144 40 40 144 40 40 144 40 40 144 40 40 144 40 40 144 40 40 144 40 40 144 40 40 144 40 40 144 40 40 144
136 32 16 136 32 16 136 32 16 136 32 16 136 32 16 136 32 16 136 32 16 136 32 16 136 32 16 136 32 16 136 32 16 136 32 16 136 32 16 136 32 16 136 32 16 136 32 16 136 32 16 136 32 16 136 32 16 136 32 16 136 32 16 136 32 16 136 32 16 136 32 16 136 32 16 136 32 16 136 32 16 136 32 16 136 32 16 136 32 16 136 32 16 136 32 16 184 32 16 184 32 16 184 32 16 184 32 16 184 32 16 184 32 16 184 32 16 184 32 16 184 32 16 184 32 16 184 32 16 184 32 16 184 32 16 184 32 16 184 32 16 184 32 16 184 32 16 184 32 16 184 32 16 184 32 16 184 32 16 184 32 16 184 32 16 184 32 16 184 32 16 184 32 16 184 32 16 184 32 16 184 32 16 184 32 16 184 32 16 184 32 16 48 40 144 48 40 144 48 40 144 48 40 144 48 40 144 48 40 144 48 40 144 48 40 144 48 40 144 48 40 144 48 40 144 48 40 144 48 40 144 48 40 144 48 40 144 48 40 144 48 40 144 48 40 144 48 40 144 48 40 144 48 40 144 48 40 144 48 40 144 48 40 144 48 40 144 48 40 144 48 40 144 48 40 144 48 40 144 48 40 144 48 40 144 48 40 144 40 40 144 40 40 144 40 40 144 40 40 144 40 40 144 40 40 144 40 40 144 40 40 144 40 40 144 40 40 144 40 40 144 40 40 144 40 40 144 40 40 144 40 40 144 40 40 144 40 40 144 40 40 144 40 40 144 40 40 144 40 40 144 40 40 144 40 40 144 40 40 144 40 40 144 40 40 144 40 40 144 40 40 144 40 40 144 40 40 144 40 40 144 40 40 144
136 32 16 136 32 16 136 32 16 136 32 16 136 32 16 136 32 16 136 32 16 136 32 16 136 32 16 136 32 16 136 32 16 136 32 16 136 32 16 136 32 16 136 32 16 136 32 16 136 32 16 136 32 16 136 32 16 136 32 16 136 32 16 136 32 16 136 32 16 136 32 16 136 32 16 136 32 16 136 32 16 136 32 16 136 32 16 136 32 16 136 32 16 136 32 16 184 32 16 184 32 16 184 32 16 184 32 16 184 32 16 184 32 16 184 32 16 184 32 16 184 32 16 184 32 16 184 32 16 184 32 16 184 32 16 184 32 16 184 32 16 184 32 16 184 32 16 184 32 16 184 32 16 184 32 16 184 32 16 184 32 16 184 32 16 184 32 16 184 32 16 184 32 16 184 32 16 184 32 16 184 32 16 184 32 16 184 32 16 184 32 16 48 40 144 48 40 144 48 40 144 48 40 144 48 40 144 48 40 144 48 40 144 48 40 144 48 40 144 48 40 144 48 40 144 48 40 144 48 40 144 48 40 144 48 40 144 48 40 144 48 40 144 48 40 144 48 40 144 48 40 144 48 40 144 48 40 144 48 40 144 48 40 144 48 40 144 48 40 144 48 40 144 48 40 144 48 40 144 48 40 144 48 40 144 48 40 144 40 40 144 40 40 144 40 40 144 40 40 144 40 40 144 40 40 144 40 40 144 40 40 144 40 40 144 40 40 144 40 40 144 40 40 144 40 40 144 40 40 144 40 40 144 40 40 144 40 40 144 40 40 144 40 40 144 40 40 144 40 40 144 40 40 144 40 40 144 40 40 144 40 40 144 40 40 144 40 40 144 40 40 144 40 40 144 40 40 144 40 40 144 40 40 144
136 32 16 136 32 16 136 32 16 136 32 16 136 32 16 136 32 16 136 32 16 136 32 16 136 32 16 136 32 16 136 32 16 136 32 16 136 32 16 136 32 16 136 32 16 136 32 16 136 32 16 136 32 16 136 32 16 136 32 16 136 32 16 136 32 16 136 32 16 136 32 16 136 32 16 136 32 16 136 32 16 136 32 16 136 32 16 136 32 16 136 32 16 136 32 16 184 32 16 184 32 16 184 32 16 184 32 16 184 32 16 184 32 16 184 32 16 184 32 16 184 32 16 184 32 16 184 32 16 184 32 16 184 32 16 184 32 16 184 32 16 184 32 16 184 32 16 184 32 16 184 32 16 184 32 16 184 32 16 184 32 16 184 32 16 184 32 16 184 32 16 184 32 16 184 32 16 184 32 16 184 32 16 184 32 16 184 32 16 184 32 16 48 40 144 48 40 144 48 40 144 48 40 144 48 40 144 48 40 144 48 40 144 48 40 144 48 40 144 48 40 144 48 40 144 48 40 144 48 40 144 48 40 144 48 40 144 48 40 144 48 40 144 48 40 144 48 40 144 48 40 144 48 40 144 48 40 144 48 40 144 48 40 144 48 40 144 48 40 144 48 40 144 48 40 144 48 40 144 48 40 144 48 40 144 48 40 144 40 40 144 40 40 144 40 40 144 40 40 144 40 40 144 40 40 144 40 40 144 40 40 144 40 40 144 40 40 144 40 40 144 40 40 144 40 40 144 40 40 144 40 40 144 40 40 144 40 40 144 40 40 144 40 40 144 40 40 144 40 40 144 40 40 144 40 40 144 40 40 144 40 40 144 40 40 144 40 40 144 40 40 144 40 40 144 40 40 144 40 40 144 40 40 144
136 32 16 136 32 16 136 32 16 136 32 16 136 32 16 136 32 16 136 32 16 136 32 16 136 32 16 136 32 16 136 32 16 136 32 16 136 32 16 136 32 16 136 32 16 136 32 16 136 32 16 136 32 16 136 32 16 136 32 16 136 32 16 136 32 16 136 32 16 136 32 16 136 32 16 136 32 16 136 32 16 136 32 16 136 32 16 136 32 16 136 32 16 136 32 16 184 32 16 184 32 16 184 32 16 184 32 16 184 32 16 184 32 16 184 32 16 184 32 16 184 32 16 184 32 16 184 32 16 184 32 16 184 32 16 184 32 16 184 32 16 184 32 16 184 32 16 184 32 16 184 32 16 184 32 16 184 32 16 184 32 16 184 32 16 184 32 16 184 32 16 184 32 16 184 32 16 184 32 16 184 32 16 184 32 16 184 32 16 184 32 16 48 40 144 48 40 144 48 40 144 48 40 144 48 40 144 48 40 144 48 40 144 48 40 144 48 40 144 48 40 144 48 40 144 48 40 144 48 40 144 48 40 144 48 40 144 48 40 144 48 40 144 48 40 144 48 40 144 48 40 144 48 40 144 48 40 144 48 40 144 48 40 144 48 40 144 48 40 144 48 40 144 48 40 144 48 40 144 48 40 144 48 40 144 48 40 144 40 40 144 40 40 144 40 40 144 40 40 144 40 40 144 40 40 144 40 40 144 40 40 144 40 40 144 40 40 144 40 40 144 40 40 144 40 40 144 40 40 144 40 40 144 40 40 144 40 40 144 40 40 144 40 40 144 40 40 144 40 40 144 40 40 144 40 40 144 40 40 144 40 40 144 40 40 144 40 40 144 40 40 144 40 40 144 40 40 144 40 40 144 40 40 144
136 32 16 136 32 16 136 32 16 136 32 16 136 32 16 136 32 16 136 32 16 136 32 16 136 32 16 136 32 16 136 32 16 136 32 16 136 32 16 136 32 16 136 32 16 136 32 16 136 32 16 136 32 16 136 32 16 136 32 16 136 32 16 136 32 16 136 32 16 136 32 16 136 32 16 136 32 16 136 32 16 136 32 16 136 32 16 136 32 16 136 32 16 136 32 16 184 32 16 184 32 16 184 32 16 184 32 16 184 32 16 184 32 16 184 32 16 184 32 16 184 32 16 184 32 16 184 32 16 184 32 16 184 32 16 184 32 16 184 32 16 184 32 16 184 32 16 184 32 16 184 32 16 184 32 16 184 32 16 184 32 16 184 32 16 184 32 16 184 32 16 184 32 16 184 32 16 184 32 16 184 32 16 184 32 16 184 32 16 184 32 16 48 40 144 48 40 144 48 40 144 48 40 144 48 40 144 48 40 144 48 40 144 48 40 144 48 40 144 48 40 144 48 40 144 48 40 144 48 40 144 48 40 144 48 40 144 48 40 144 48 40 144 48 40 144 48 40 144 48 40 144 48 40 144 48 40 144 48 40 144 48 40 144 48 40 144 48 40 144 48 40 144 48 40 144 48 40 144 48 40 144 48 40 144 48 40 144 40 40 144 40 40 144 40 40 144 40 40 144 40 40 144 40 40 144 40 40 144 40 40 144 40 40 144 40 40 144 40 40 144 40 40 144 40 40 144 40 40 144 40 40 144 40 40 144 40 40 144 40 40 144 40 40 144 40 40 144 40 40 144 40 40 144 40 40 144 40 40 144 40 40 144 40 40 144 40 40 144 40 40 144 40 40 144 40 40 144 40 40 144 40 40 144
136 32 16 136 32 16 136 32 16 136 32 16 136 32 16 136 32 16 136 32 16 136 32 16 136 32 16 136 32 16 136 32 16 136 32 16 136 32 16 136 32 16 136 32 16 136 32 16 136 32 16 136 32 16 136 32 16 136 32 16 136 32 16 136 32 16 136 32 16 136 32 16 136 32 16 136 32 16 136 32 16 136 32 16 136 32 16 136 32 16 136 32 16 136 32 16 184 32 16 184 32 16 184 32 16 184 32 16 184 32 16 184 32 16 184 32 16 184 32 16 184 32 16 184 32 16 184 32 16 184 32 16 184 32 16 184 32 16 184 32 16 184 32 16 184 32 16 184 32 16 184 32 16 184 32 16 184 32 16 184 32 16 184 32 16 184 32 16 184 32 16 184 32 16 184 32 16 184 32 16 184 32 16 184 32 16 184 32 16 184 32 16 48 40 144 48 40 144 48 40 144 48 40 144 48 40 144 48 40 144 48 40 144 48 40 144 48 40 144 48 40 144 48 40 144 48 40 144 48 40 144 48 40 144 48 40 144 48 40 144 48 40 144 48 40 144 48 40 144 48 40 144 48 40 144 48 40 144 48 40 144 48 40 144 48 40 144 48 40 144 48 40 144 48 40 144 48 40 144 48 40 144 48 40 144 48 40 144 40 40 144 40 40 144 40 40 144 40 40 144 40 40 144 40 40 144 40 40 144 40 40 144 40 40 144 40 40 144 40 40 144 40 40 144 40 40 144 40 40 144 40 40 144 40 40 144 40 40 144 40 40 144 40 40 144 40 40 144 40 40 144 40 40 144 40 40 144 40 40 144 40 40 144 40 40 144 40 40 144 40 40 144 40 40 144 40 40 144 40 40 144 40 40 144
136 32 16 136 32 16 136 32 16 136 32 16 136 32 16 136 32 16 136 32 16 136 32 16 136 32 16 136 32 16 136 32 16 136 32 16 136 32 16 136 32 16 136 32 16 136 32 16 136 32 16 136 32 16 136 32 16 136 32 16 136 32 16 136 32 16 136 32 16 136 32 16 136 32 16 136 32 16 136 32 16 136 32 16 136 32 16 136 32 16 136 32 16 136 32 16 184 32 16 184 32 16 184 32 16 184 32 16 184 32 16 184 32 16 184 32 16 184 32 16 184 32 16 184 32 16 184 32 16 184 32 16 184 32 16 184 32 16 184 32 16 184 32 16 184 32 16 184 32 16 184 32 16 184 32 16 184 32 16 184 32 16 184 32 16 184 32 16 184 32 16 184 32 16 184 32 16 184 32 16 184 32 16 184 32 16 184 32 16 184 32 16 48 40 144 48 40 144 48 40 144 48 40 144 48 40 144 48 40 144 48 40 144 48 40 144 48 40 144 48 40 144 48 40 144 48 40 144 48 40 144 48 40 144 48 40 144 48 40 144 48 40 144 48 40 144 48 40 144 48 40 144 48 40 144 48 40 144 48 40 144 48 40 144 48 40 144 48 40 144 48 40 144 48 40 144 48 40 144 48 40 144 48 40 144 48 40 144 40 40 144 40 40 144 40 40 144 40 40 144 40 40 144 40 40 144 40 40 144 40 40 144 40 40 144 40 40 144 40 40 144 40 40 144 40 40 144 40 40 144 40 40 144 40 40 144 40 40 144 40 40 144 40 40 144 40 40 144 40 40 144 40 40 144 40 40 144 40 40 144 40 40 144 40 40 144 40 40 144 40 40 144 40 40 144 40 40 144 40 40 144 40 40 144
136 32 16 136 32 16 136 32 16 136 32 16 136 32 16 136 32 16 136 32 16 136 32 16 136 32 16 136 32 16 136 32 16 136 32 16 136 32 16 136 32 16 136 32 16 136 32 16 136 32 16 136 32 16 136 32 16 136 32 16 136 32 16 136 32 16 136 32 16 136 32 16 136 32 16 136 32 16 136 32 16 136 32 16 136 32 16 136 32 16 136 32 16 136 32 16 184 32 16 184 32 16 184 32 16 184 32 16 184 32 16 184 32 16 184 32 16 184 32 16 184 32 16 184 32 16 184 32 16 184 32 16 184 32 16 184 32 16 184 32 16 184 32 16 184 32 16 184 32 16 184 32 16 184 32 16 184 32 16 184 32 16 184 32 16 184 32 16 184 32 16 184 32 16 184 32 16 184 32 16 184 32 16 184 32 16 184 32 16 184 32 16 48 40 144 48 40 144 48 40 144 48 40 144 48 40 144 48 40 144 48 40 144 48 40 144 48 40 144 48 40 144 48 40 144 48 40 144 48 40 144 48 40 144 48 40 144 48 40 144 48 40 144 48 40 144 48 40 144 48 40 144 48 40 144 48 40 144 48 40 144 48 40 144 48 40 144 48 40 144 48 40 144 48 40 144 48 40 144 48 40 144 48 40 144 48 40 144 40 40 144 40 40 144 40 40 144 40 40 144 40 40 144 40 40 144 40 40 144 40 40 144 40 40 144 40 40 144 40 40 144 40 40 144 40 40 144 40 40 144 40 40 144 40 40 144 40 40 144 40 40 144 40 40 144 40 40 144 40 40 144 40 40 144 40 40 144 40 40 144 40 40 144 40 40 144 40 40 144 40 40 144 40 40 144 40 40 144 40 40 144 40 40 144
136 32 16 136 32 16 136 32 16 136 32 16 136 32 16 136 32 16 136 32 16 136 32 16 136 32 16 136 32 16 136 32 16 136 32 16 136 32 16 136 32 16 136 32 16 136 32 16 136 32 16 136 32 16 136 32 16 136 32 16 136 32 16 136 32 16 136 32 16 136 32 16 136 32 16 136 32 16 136 32 16 136 32 16 136 32 16 136 32 16 136 32 16 136 32 16 184 32 16 184 32 16 184 32 16 184 32 16 184 32 16 184 32 16 184 32 16 184 32 16 184 32 16 184 32 16 184 32 16 184 32 16 184 32 16 184 32 16 184 32 16 184 32 16 184 32 16 184 32 16 184 32 16 184 32 16 184 32 16 184 32 16 184 32 16 184 32 16 184 32 16 184 32 16 184 32 16 184 32 16 184 32 16 184 32 16 184 32 16 184 32 16 48 40 144 48 40 144 48 40 144 48 40 144 48 40 144 48 40 144 48 40 144 48 40 144 48 40 144 48 40 144 48 40 144 48 40 144 48 40 144 48 40 144 48 40 144 48 40 144 48 40 144 48 40 144 48 40 144 48 40 144 48 40 144 48 40 144 48 40 144 48 40 144 48 40 144 48 40 144 48 40 144 48 40 144 48 40 144 48 40 144 48 40 144 48 40 144 40 40 144 40 40 144 40 40 144 40 40 144 40 40 144 40 40 144 40 40 144 40 40 144 40 40 144 40 40 144 40 40 144 40 40 144 40 40 144 40 40 144 40 40 144 40 40 144 40 40 144 40 40 144 40 40 144 40 40 144 40 40 144 40 40 144 40 40 144 40 40 144 40 40 144 40 40 144 40 40 144 40 40 144 40 40 144 40 40 144 40 40 144 40 40 144
128 32 16 128 32 16 128 32 16 128 32 16 128 32 16 128 32 16 128 32 16 128 32 16 128 32 16 128 32 16 128 32 16 128 32 16 128 32 16 128 32 16 128 32 16 128 32 16 128 32 16 128 32 16 128 32 16 128 32 16 128 32 16 128 32 16 128 32 16 128 32 16 128 32 16 128 32 16 128 32 16 128 32 16 128 32 16 128 32 16 128 32 16 128 32 16 240 32 144 240 32 144 240 32 144 240 32 144 240 32 144 240 32 144 240 32 144 240 32 144 240 32 144 240 32 144 240 32 144 240 32 144 240 32 144 240 32 144 240 32 144 240 32 144 240 32 144 240 32 144 240 32 144 240 32 144 240 32 144 240 32 144 240 32 144 240 32 144 240 32 144 240 32 144 240 32 144 240 32 144 240 32 144 240 32 144 240 32 144 240 32 144 192 32 144 192 32 144 192 32 144 192 32 144 192 32 144 192 32 144 192 32 144 192 32 144 192 32 144 192 32 144 192 32 144 192 32 144 192 32 144 192 32 144 192 32 144 192 32 144 192 32 144 192 32 144 192 32 144 192 32 144 192 32 144 192 32 144 192 32 144 192 32 144 192 32 144 192 32 144 192 32 144 192 32 144 192 32 144 192 32 144 192 32 144 192 32 144 200 32 144 200 32 144 200 32 144 200 32 144 200 32 144 200 32 144 200 32 144 200 32 144 200 32 144 200 32 144 200 32 144 200 32 144 200 32 144 200 32 144 200 32 144 200 32 144 200 32 144 200 32 144 200 32 144 200 32 144 200 32 144 200 32 144 200 32 144 200 32 144 200 32 144 200 32 144 200 32 144 200 32 144 200 32 144 200 32 144 200 32 144 200 32 144
128 32 16 128 32 16 128 32 16 128 32 16 128 32 16 128 32 16 128 32 16 128 32 16 128 32 16 128 32 16 128 32 16 128 32 16 128 32 16 128 32 16 128 32 16 128 32 16 128 32 16 128 32 16 128 32 16 128 32 16 128 32 16 128 32 16 128 32 16 128 32 16 128 32 16 128 32 16 128 32 16 128 32 16 128 32 16 128 32 16 128 32 16 128 32 16 240 32 144 240 32 144 240 32 144 240 32 144 240 32 144 240 32 144 240 32 144 240 32 144 240 32 144 240 32 144 240 32 144 240 32 144 240 32 144 240 32 144 240 32 144 240 32 144 240 32 144 240 32 144 240 32 144 240 32 144 240 32 144 240 32 144 240 32 144 240 32 144 240 32 144 240 32 144 240 32 144 240 32 144 240 32 144 240 32 144 240 32 144 240 32 144 192 32 144 192 32 144 192 32 144 192 32 144 192 32 144 192 32 144 192 32 144 192 32 144 192 32 144 192 32 144 192 32 144 192 32 144 192 32 144 192 32 144 192 32 144 192 32 144 192 32 144 192 32 144 192 32 144 192 32 144 192 32 144 192 32 144 192 32 144 192 32 144 192 32 144 192 32 144 192 32 144 192 32 144 192 32 144 192 32 144 192 32 144 192 32 144 200 32 144 200 32 144 200 32 144 200 32 144 200 32 144 200 32 144 200 32 144 200 32 144 200 32 144 200 32 144 200 32 144 200 32 144 200 32 144 200 32 144 200 32 144 200 32 144 200 32 144 200 32 144 200 32 144 200 32 144 200 32 144 200 32 144 200 32 144 200 32 144 200 32 144 200 32 144 200 32 144 200 32 144 200 32 144 200 32 144 200 32 144 200 32 144
128 32 16 128 32 16 128 32 16 128 32 16 128 32 16 128 32 16 128 32 16 128 32 16 128 32 16 128 32 16 128 32 16 128 32 16 128 32 16 128 32 16 128 32 16 128 32 16 128 32 16 128 32 16 128 32 16 128 32 16 128 32 16 128 32 16 128 32 16 128 32 16 128 32 16 128 32 16 128 32 16 128 32 16 128 32 16 128 32 16 128 32 16 128 32 16 240 32 144 240 32 144 240 32 144 240 32 144 240 32 144 240 32 144 240 32 144 240 32 144 240 32 144 240 32 144 240 32 144 240 32 144 240 32 144 240 32 144 240 32 144 240 32 144 240 32 144 240 32 144 240 32 144 240 32 144 240 32 144 240 32 144 240 32 144 240 32 144 240 32 144 240 32 144 240 32 144 240 32 144 240 32 144 240 32 144 240 32 144 240 32 144 192 32 144 192 32 144 192 32 144 192 32 144 192 32 144 192 32 144 192 32 144 192 32 144 192 32 144 192 32 144 192 32 144 192 32 144 192 32 144 192 32 144 192 32 144 192 32 144 192 32 144 192 32 144 192 32 144 192 32 144 192 32 144 192 32 144 192 32 144 192 32 144 192 32 144 192 32 144 192 32 144 192 32 144 192 32 144 192 32 144 192 32 144 192 32 144 200 32 144 200 32 144 200 32 144 200 32 144 200 32 144 200 32 144 200 32 144 200 32 144 200 32 144 200 32 144 200 32 144 200 32 144 200 32 144 200 32 144 200 32 144 200 32 144 200 32 144 200 32 144 200 32 144 200 32 144 200 32 144 200 32 144 200 32 144 200 32 144 200 32 144 200 32 144 200 32 144 200 32 144 200 32 144 200 32 144 200 32 144 200 32 144
128 32 16 128 32 16 128 32 16 128 32 16 128 32 16 128 32 16 128 32 16 128 32 16 128 32 16 128 32 16 128 32 16 128 32 16 128 32 16 128 32 16 128 32 16 128 32 16 128 32 16 128 32 16 128 32 16 128 32 16 128 32 16 128 32 16 128 32 16 128 32 16 128 32 16 128 32 16 128 32 16 128 32 16 128 32 16 128 32 16 128 32 16 128 32 16 240 32 144 240 32 144 240 32 144 240 32 144 240 32 144 240 32 144 240 32 144 240 32 144 240 32 144 240 32 144 240 32 144 240 32 144 240 32 144 240 32 144 240 32 144 240 32 144 240 32 144 240 32 144 240 32 144 240 32 144 240 32 144 240 32 144 240 32 144 240 32 144 240 32 144 240 32 144 240 32 144 240 32 144 240 32 144 240 32 144 240 32 144 240 32 144 192 32 144 192 32 144 192 32 144 192 32 144 192 32 144 192 32 144 192 32 144 192 32 144 192 32 144 192 32 144 192 32 144 192 32 144 192 32 144 192 32 144 192 32 144 192 32 144 192 32 144 192 32 144 192 32 144 192 32 144 192 32 144 192 32 144 192 32 144 192 32 144 192 32 144 192 32 144 192 32 144 192 32 144 192 32 144 192 32 144 192 32 144 192 32 144 200 32 144 200 32 144 200 32 144 200 32 144 200 32 144 200 32 144 200 32 144 200 32 144 200 32 144 200 32 144 200 32 144 200 32 144 200 32 144 200 32 144 200 32 144 200 32 144 200 32 144 200 32 144 200 32 144 200 32 144 200 32 144 200 32 144 200 32 144 200 32 144 200 32 144 200 32 144 200 32 144 200 32 144 200 32 144 200 32 144 200 32 144 200 32 144
128 32 16 128 32 16 128 32 16 128 32 16 128 32 16 128 32 16 128 32 16 128 32 16 128 32 16 128 32 16 128 32 16 128 32 16 128 32 16 128 32 16 128 32 16 128 32 16 128 32 16 128 32 16 128 32 16 128 32 16 128 32 16 128 32 16 128 32 16 128 32 16 128 32 16 128 32 16 128 32 16 128 32 16 128 32 16 128 32 16 128 32 16 128 32 16 240 32 144 240 32 144 240 32 144 240 32 144 240 32 144 240 32 144 240 32 144 240 32 144 240 32 144 240 32 144 240 32 144 240 32 144 240 32 144 240 32 144 240 32 144 240 32 144 240 32 144 240 32 144 240 32 144 240 32 144 240 32 144 240 32 144 240 32 144 240 32 144 240 32 144 240 32 144 240 32 144 240 32 144 240 32 144 240 32 144 240 32 144 240 32 144 192 32 144 192 32 144 192 32 144 192 32 144 192 32 144 192 32 144 192 32 144 192 32 144 192 32 144 192 32 144 192 32 144 192 32 144 192 32 144 192 32 144 192 32 144 192 32 144 192 32 144 192 32 144 192 32 144 192 32 144 192 32 144 192 32 144 192 32 144 192 32 144 192 32 144 192 32 144 192 32 144 192 32 144 192 32 144 192 32 144 192 32 144 192 32 144 200 32 144 200 32 144 200 32 144 200 32 144 200 32 144 200 32 144 200 32 144 200 32 144 200 32 144 200 32 144 200 32 144 200 32 144 200 32 144 200 32 144 200 32 144 200 32 144 200 32 144 200 32 144 200 32 144 200 32 144 200 32 144 200 32 144 200 32 144 200 32 144 200 32 144 200 32 144 200 32 144 200 32 144 200 32 144 200 32 144 200 32 144 200 32 144
128 32 16 128 32 16 128 32 16 128 32 16 128 32 16 128 32 16 128 32 16 128 32 16 128 32 16 128 32 16 128 32 16 128 32 16 128 32 16 128 32 16 128 32 16 128 32 16 128 32 16 128 32 16 128 32 16 128 32 16 128 32 16 128 32 16 128 32 16 128 32 16 128 32 16 128 32 16 128 32 16 128 32 16 128 32 16 128 32 16 128 32 16 128 32 16 240 32 144 240 32 144 240 32 144 240 32 144 240 32 144 240 32 144 240 32 144 240 32 144 240 32 144 240 32 144 240 32 144 240 32 144 240 32 144 240 32 144 240 32 144 240 32 144 240 32 144 240 32 144 240 32 144 240 32 144 240 32 144 240 32 144 240 32 144 240 32 144 240 32 144 240 32 144 240 32 144 240 32 144 240 32 144 240 32 144 240 32 144 240 32 144 192 32 144 192 32 144 192 32 144 192 32 144 192 32 144 192 32 144 192 32 144 192 32 144 192 32 144 192 32 144 192 32 144 192 32 144 192 32 144 192 32 144 192 32 144 192 32 144 192 32 144 192 32 144 192 32 144 192 32 144 192 32 144 192 32 144 192 32 144 192 32 144 192 32 144 192 32 144 192 32 144 192 32 144 192 32 144 192 32 144 192 32 144 192 32 144 200 32 144 200 32 144 200 32 144 200 32 144 200 32 144 200 32 144 200 32 144 200 32 144 200 32 144 200 32 144 200 32 144 200 32 144 200 32 144 200 32 144 200 32 144 200 32 144 200 32 144 200 32 144 200 32 144 200 32 144 200 32 144 200 32 144 200 32 144 200 32 144 200 32 144 200 32 144 200 32 144 200 32 144 200 32 144 200 32 144 200 32 144 200 32 144
128 32 16 128 32 16 128 32 16 128 32 16 128 32 16 128 32 16 128 32 16 128 32 16 128 32 16 128 32 16 128 32 16 128 32 16 128 32 16 128 32 16 128 32 16 128 32 16 128 32 16 128 32 16 128 32 16 128 32 16 128 32 16 128 32 16 128 32 16 128 32 16 128 32 16 128 32 16 128 32 16 128 32 16 128 32 16 128 32 16 128 32 16 128 32 16 240 32 144 240 32 144 240 32 144 240 32 144 240 32 144 240 32 144 240 32 144 240 32 144 240 32 144 240 32 144 240 32 144 240 32 144 240 32 144 240 32 144 240 32 144 240 32 144 240 32 144 240 32 144 240 32 144 240 32 144 240 32 144 240 32 144 240 32 144 240 32 144 240 32 144 240 32 144 240 32 144 240 32 144 240 32 144 240 32 144 240 32 144 240 32 144 192 32 144 192 32 144 192 32 144 192 32 144 192 32 144 192 32 144 192 32 144 192 32 144 192 32 144 192 32 144 192 32 144 192 32 144 192 32 144 192 32 144 192 32 144 192 32 144 192 32 144 192 32 144 192 32 144 192 32 144 192 32 144 192 32 144 192 32 144 192 32 144 192 32 144 192 32 144 192 32 144 192 32 144 192 32 144 192 32 144 192 32 144 192 32 144 200 32 144 200 32 144 200 32 144 200 32 144 200 32 144 200 32 144 200 32 144 200 32 144 200 32 144 200 32 144 200 32 144 200 32 144 200 32 144 200 32 144 200 32 144 200 32 144 200 32 144 200 32 144 200 32 144 200 32 144 200 32 144 200 32 144 200 32 144 200 32 144 200 32 144 200 32 144 200 32 144 200 32 144 200 32 144 200 32 144 200 32 144 200 32 144
128 32 16 128 32 16 128 32 16 128 32 16 128 32 16 128 32 16 128 32 16 128 32 16 128 32 16 128 32 16 128 32 16 128 32 16 128 32 16 128 32 16 128 32 16 128 32 16 128 32 16 128 32 16 128 32 16 128 32 16 128 32 16 128 32 16 128 32 16 128 32 16 128 32 16 128 32 16 128 32 16 128 32 16 128 32 16 128 32 16 128 32 16 128 32 16 240 32 144 240 32 144 240 32 144 240 32 144 240 32 144 240 32 144 240 32 144 240 32 144 240 32 144 240 32 144 240 32 144 240 32 144 240 32 144 240 32 144 240 32 144 240 32 144 240 32 144 240 32 144 240 32 144 240 32 144 240 32 144 240 32 144 240 32 144 240 32 144 240 32 144 240 32 144 240 32 144 240 32 144 240 32 144 240 32 144 240 32 144 240 32 144 192 32 144 192 32 144 192 32 144 192 32 144 192 32 144 192 32 144 192 32 144 192 32 144 192 32 144 192 32 144 192 32 144 192 32 144 192 32 144 192 32 144 192 32 144 192 32 144 192 32 144 192 32 144 192 32 144 192 32 144 192 32 144 192 32 144 192 32 144 192 32 144 192 32 144 192 32 144 192 32 144 192 32 144 192 32 144 192 32 144 192 32 144 192 32 144 200 32 144 200 32 144 200 32 144 200 32 144 200 32 144 200 32 144 200 32 144 200 32 144 200 32 144 200 32 144 200 32 144 200 32 144 200 32 144 200 32 144 200 32 144 200 32 144 200 32 144 200 32 144 200 32 144 200 32 144 200 32 144 200 32 144 200 32 144 200 32 144 200 32 144 200 32 144 200 32 144 200 32 144 200 32 144 200 32 144 200 32 144 200 32 144
128 32 16 128 32 16 128 32 16 128 32 16 128 32 16 128 32 16 128 32 16 128 32 16 128 32 16 128 32 16 128 32 16 128 32 16 128 32 16 128 32 16 128 32 16 128 32 16 128 32 16 128 32 16 128 32 16 128 32 16 128 32 16 128 32 16 128 32 16 128 32 16 128 32 16 128 32 16 128 32 16 128 32 16 128 32 16 128 32 16 128 32 16 128 32 16 240 32 144 240 32 144 240 32 144 240 32 144 240 32 144 240 32 144 240 32 144 240 32 144 240 32 144 240 32 144 240 32 144 240 32 144 240 32 144 240 32 144 240 32 144 240 32 144 240 32 144 240 32 144 240 32 144 240 32 144 240 32 144 240 32 144 240 32 144 240 32 144 240 32 144 240 32 144 240 32 144 240 32 144 240 32 144 240 32 144 240 32 144 240 32 144 192 32 144 192 32 144 192 32 144 192 32 144 192 32 144 192 32 144 192 32 144 192 32 144 192 32 144 192 32 144 192 32 144 192 32 144 192 32 144 192 32 144 192 32 144 192 32 144 192 32 144 192 32 144 192 32 144 192 32 144 192 32 144 192 32 144 192 32 144 192 32 144 192 32 144 192 32 144 192 32 144 192 32 144 192 32 144 192 32 144 192 32 144 192 32 144 200 32 144 200 32 144 200 32 144 200 32 144 200 32 144 200 32 144 200 32 144 200 32 144 200 32 144 200 32 144 200 32 144 200 32 144 200 32 144 200 32 144 200 32 144 200 32 144 200 32 144 200 32 144 200 32 144 200 32 144 200 32 144 200 32 144 200 32 144 200 32 144 200 32 144 200 32 144 200 32 144 200 32 144 200 32 144 200 32 144 200 32 144 200 32 144
128 32 16 128 32 16 128 32 16 128 32 16 128 32 16 128 32 16 128 32 16 128 32 16 128 32 16 128 32 16 128 32 16 128 32 16 128 32 16 128 32 16 128 32 16 128 32 16 128 32 16 128 32 16 128 32 16 128 32 16 128 32 16 128 32 16 128 32 16 128 32 16 128 32 16 128 32 16 128 32 16 128 32 16 128 32 16 128 32 16 128 32 16 128 32 16 240 32 144 240 32 144 240 32 144 240 32 144 240 32 144 240 32 144 240 32 144 240 32 144 240 32 144 240 32 144 240 32 144 240 32 144 240 32 144 240 32 144 240 32 144 240 32 144 240 32 144 240 32 144 240 32 144 240 32 144 240 32 144 240 32 144 240 32 144 240 32 144 240 32 144 240 32 144 240 32 144 240 32 144 240 32 144 240 32 144 240 32 144 240 32 144 192 32 144 192 32 144 192 32 144 192 32 144 192 32 144 192 32 144 192 32 144 192 32 144 192 32 144 192 32 144 192 32 144 192 32 144 192 32 144 192 32 144 192 32 144 192 32 144 192 32 144 192 32 144 192 32 144 192 32 144 192 32 144 192 32 144 192 32 144 192 32 144 192 32 144 192 32 144 192 32 144 192 32 144 192 32 144 192 32 144 192 32 144 192 32 144 200 32 144 200 32 144 200 32 144 200 32 144 200 32 144 200 32 144 200 32 144 200 32 144 200 32 144 200 32 144 200 32 144 200 32 144 200 32 144 200 32 144 200 32 144 200 32 144 200 32 144 200 32 144 200 32 144 200 32 144 200 32 144 200 32 144 200 32 144 200 32 144 200 32 144 200 32 144 200 32 144 200 32 144 200 32 144 200 32 144 200 32 144 200 32 144
128 32 16 128 32 16 128 32 16 128 32 16 128 32 16 128 32 16 128 32 16 128 32 16 128 32 16 128 32 16 128 32 16 128 32 16 128 32 16 128 32 16 128 32 16 128 32 16 128 32 16 128 32 16 128 32 16 128 32 16 128 32 16 128 32 16 128 32 16 128 32 16 128 32 16 128 32 16 128 32 16 128 32 16 128 32 16 128 32 16 128 32 16 128 32 16 240 32 144 240 32 144 240 32 144 240 32 144 240 32 144 240 32 144 240 32 144 240 32 144 240 32 144 240 32 144 240 32 144 240 32 144 240 32 144 240 32 144 240 32 144 240 32 144 240 32 144 240 32 144 240 32 144 240 32 144 240 32 144 240 32 144 240 32 144 240 32 144 240 32 144 240 32 144 240 32 144 240 32 144 240 32 144 240 32 144 240 32 144 240 32 144 192 32 144 192 32 144 192 32 144 192 32 144 192 32 144 192 32 144 192 32 144 192 32 144 192 32 144 192 32 144 192 32 144 192 32 144 192 32 144 192 32 144 192 32 144 192 32 144 192 32 144 192 32 144 192 32 144 192 32 144 192 32 144 192 32 144 192 32 144 192 32 144 192 32 144 192 32 144 192 32 144 192 32 144 192 32 144 192 32 144 192 32 144 192 32 144 200 32 144 200 32 144 200 32 144 200 32 144 200 32 144 200 32 144 200 32 144 200 32 144 200 32 144 200 32 144 200 32 144 200 32 144 200 32 144 200 32 144 200 32 144 200 32 144 200 32 144 200 32 144 200 32 144 200 32 144 200 32 144 200 32 144 200 32 144 200 32 144 200 32 144 200 32 144 200 32 144 200 32 144 200 32 144 200 32 144 200 32 144 200 32 144
128 32 16 128 32 16 128 32 16 128 32 16 128 32 16 128 32 16 128 32 16 128 32 16 128 32 16 128 32 16 128 32 16 128 32 16 128 32 16 128 32 16 128 32 16 128 32 16 128 32 16 128 32 16 128 32 16 128 32 16 128 32 16 128 32 16 128 32 16 128 32 16 128 32 16 128 32 16 128 32 16 128 32 16 128 32 16 128 32 16 128 32 16 128 32 16 240 32 144 240 32 144 240 32 144 240 32 144 240 32 144 240 32 144 240 32 144 240 32 144 240 32 144 240 32 144 240 32 144 240 32 144 240 32 144 240 32 144 240 32 144 240 32 144 240 32 144 240 32 144 240 32 144 240 32 144 240 32 144 240 32 144 240 32 144 240 32 144 240 32 144 240 32 144 240 32 144 240 32 144 240 32 144 240 32 144 240 32 144 240 32 144 192 32 144 192 32 144 192 32 144 192 32 144 192 32 144 192 32 144 192 32 144 192 32 144 192 32 144 192 32 144 192 32 144 192 32 144 192 32 144 192 32 144 192 32 144 192 32 144 192 32 144 192 32 144 192 32 144 192 32 144 192 32 144 192 32 144 192 32 144 192 32 144 192 32 144 192 32 144 192 32 144 192 32 144 192 32 144 192 32 144 192 32 144 192 32 144 200 32 144 200 32 144 200 32 144 200 32 144 200 32 144 200 32 144 200 32 144 200 32 144 200 32 144 200 32 144 200 32 144 200 32 144 200 32 144 200 32 144 200 32 144 200 32 144 200 32 144 200 32 144 200 32 144 200 32 144 200 32 144 200 32 144 200 32 144 200 32 144 200 32 144 200 32 144 200 32 144 200 32 144 200 32 144 200 32 144 200 32 144 200 32 144
128 32 16 128 32 16 128 32 16 128 32 16 128 32 16 128 32 16 128 32 16 128 32 16 128 32 16 128 32 16 128 32 16 128 32 16 128 32 16 128 32 16 128 32 16 128 32 16 128 32 16 128 32 16 128 32 16 128 32 16 128 32 16 128 32 16 128 32 16 128 32 16 128 32 16 128 32 16 128 32 16 128 32 16 128 32 16 128 32 16 128 32 16 128 32 16 240 32 144 240 32 144 240 32 144 240 32 144 240 32 144 240 32 144 240 32 144 240 32 144 240 32 144 240 32 144 240 32 144 240 32 144 240 32 144 240 32 144 240 32 144 240 32 144 240 32 144 240 32 144 240 32 144 240 32 144 240 32 144 240 32 144 240 32 144 240 32 144 240 32 144 240 32 144 240 32 144 240 32 144 240 32 144 240 32 144 240 32 144 240 32 144 192 32 144 192 32 144 192 32 144 192 32 144 192 32 144 192 32 144 192 32 144 192 32 144 192 32 144 192 32 144 192 32 144 192 32 144 192 32 144 192 32 144 192 32 144 192 32 144 192 32 144 192 32 144 192 32 144 192 32 144 192 32 144 192 32 144 192 32 144 192 32 144 192 32 144 192 32 144 192 32 144 192 32 144 192 32 144 192 32 144 192 32 144 192 32 144 200 32 144 200 32 144 200 32 144 200 32 144 200 32 144 200 32 144 200 32 144 200 32 144 200 32 144 200 32 144 200 32 144 200 32 144 200 32 144 200 32 144 200 32 144 200 32 144 200 32 144 200 32 144 200 32 144 200 32 144 200 32 144 200 32 144 200 32 144 200 32 144 200 32 144 200 32 144 200 32 144 200 32 144 200 32 144 200 32 144 200 32 144 200 32 144
128 32 16 128 32 16 128 32 16 128 32 16 128 32 16 128 32 16 128 32 16 128 32 16 128 32 16 128 32 16 128 32 16 128 32 16 128 32 16 128 32 16 128 32 16 128 32 16 128 32 16 128 32 16 128 32 16 128 32 16 128 32 16 128 32 16 128 32 16 128 32 16 128 32 16 128 32 16 128 32 16 128 32 16 128 32 16 128 32 16 128 32 16 128 32 16 240 32 144 240 32 144 240 32 144 240 32 144 240 32 144 240 32 144 240 32 144 240 32 144 240 32 144 240 32 144 240 32 144 240 32 144 240 32 144 240 32 144 240 32 144 240 32 144 240 32 144 240 32 144 240 32 144 240 32 144 240 32 144 240 32 144 240 32 144 240 32 144 240 32 144 240 32 144 240 32 144 240 32 144 240 32 144 240 32 144 240 32 144 240 32 144 192 32 144 192 32 144 192 32 144 192 32 144 192 32 144 192 32 144 192 32 144 192 32 144 192 32 144 192 32 144 192 32 144 192 32 144 192 32 144 192 32 144 192 32 144 192 32 144 192 32 144 192 32 144 192 32 144 192 32 144 192 32 144 192 32 144 192 32 144 192 32 144 192 32 144 192 32 144 192 32 144 192 32 144 192 32 144 192 32 144 192 32 144 192 32 144 200 32 144 200 32 144 200 32 144 200 32 144 200 32 144 200 32 144 200 32 144 200 32 144 200 32 144 200 32 144 200 32 144 200 32 144 200 32 144 200 32 144 200 32 144 200 32 144 200 32 144 200 32 144 200 32 144 200 32 144 200 32 144 200 32 144 200 32 144 200 32 144 200 32 144 200 32 144 200 32 144 200 32 144 200 32 144 200 32 144 200 32 144 200 32 144
128 32 16 128 32 16 128 32 16 128 32 16 128 32 16 128 32 16 128 32 16 128 32 16 128 32 16 128 32 16 128 32 16 128 32 16 128 32 16 128 32 16 128 32 16 128 32 16 128 32 16 128 32 16 128 32 16 128 32 16 128 32 16 128 32 16 128 32 16 128 32 16 128 32 16 128 32 16 128 32 16 128 32 16 128 32 16 128 32 16 128 32 16 128 32 16 240 32 144 240 32 144 240 32 144 240 32 144 240 32 144 240 32 144 240 32 144 240 32 144 240 32 144 240 32 144 240 32 144 240 32 144 240 32 144 240 32 144 240 32 144 240 32 144 240 32 144 240 32 144 240 32 144 240 32 144 240 32 144 240 32 144 240 32 144 240 32 144 240 32 144 240 32 144 240 32 144 240 32 144 240 32 144 240 32 144 240 32 144 240 32 144 192 32 144 192 32 144 192 32 144 192 32 144 192 32 144 192 32 144 192 32 144 192 32 144 192 32 144 192 32 144 192 32 144 192 32 144 192 32 144 192 32 144 192 32 144 192 32 144 192 32 144 192 32 144 192 32 144 192 32 144 192 32 144 192 32 144 192 32 144 192 32 144 192 32 144 192 32 144 192 32 144 192 32 144 192 32 144 192 32 144 192 32 144 192 32 144 200 32 144 200 32 144 200 32 144 200 32 144 200 32 144 200 32 144 200 32 144 200 32 144 200 32 144 200 32 144 200 32 144 200 32 144 200 32 144 200 32 144 200 32 144 200 32 144 200 32 144 200 32 144 200 32 144 200 32 144 200 32 144 200 32 144 200 32 144 200 32 144 200 32 144 200 32 144 200 32 144 200 32 144 200 32 144 200 32 144 200 32 144 200 32 144
128 32 16 128 32 16 128 32 16 128 32 16 128 32 16 128 32 16 128 32 16 128 32 16 128 32 16 128 32 16 128 32 16 128 32 16 128 32 16 128 32 16 128 32 16 128 32 16 128 32 16 128 32 16 128 32 16 128 32 16 128 32 16 128 32 16 128 32 16 128 32 16 128 32 16 128 32 16 128 32 16 128 32 16 128 32 16 128 32 16 128 32 16 128 32 16 240 32 144 240 32 144 240 32 144 240 32 144 240 32 144 240 32 144 240 32 144 240 32 144 240 32 144 240 32 144 240 32 144 240 32 144 240 32 144 240 32 144 240 32 144 240 32 144 240 32 144 240 32 144 240 32 144 240 32 144 240 32 144 240 32 144 240 32 144 240 32 144 240 32 144 240 32 144 240 32 144 240 32 144 240 32 144 240 32 144 240 32 144 240 32 144 192 32 144 192 32 144 192 32 144 192 32 144 192 32 144 192 32 144 192 32 144 192 32 144 192 32 144 192 32 144 192 32 144 192 32 144 192 32 144 192 32 144 192 32 144 192 32 144 192 32 144 192 32 144 192 32 144 192 32 144 192 32 144 192 32 144 192 32 144 192 32 144 192 32 144 192 32 144 192 32 144 192 32 144 192 32 144 192 32 144 192 32 144 192 32 144 200 32 144 200 32 144 200 32 144 200 32 144 200 32 144 200 32 144 200 32 144 200 32 144 200 32 144 200 32 144 200 32 144 200 32 144 200 32 144 200 32 144 200 32 144 200 32 144 200 32 144 200 32 144 200 32 144 200 32 144 200 32 144 200 32 144 200 32 144 200 32 144 200 32 144 200 32 144 200 32 144 200 32 144 200 32 144 200 32 144 200 32 144 200 32 144
128 32 16 128 32 16 128 32 16 128 32 16 128 32 16 128 32 16 128 32 16 128 32 16 128 32 16 128 32 16 128 32 16 128 32 16 128 32 16 128 32 16 128 32 16 128 32 16 128 32 16 128 32 16 128 32 16 128 32 16 128 32 16 128 32 16 128 32 16 128 32 16 128 32 16 128 32 16 128 32 16 128 32 16 128 32 16 128 32 16 128 32 16 128 32 16 240 32 144 240 32 144 240 32 144 240 32 144 240 32 144 240 32 144 240 32 144 240 32 144 240 32 144 240 32 144 240 32 144 240 32 144 240 32 144 240 32 144 240 32 144 240 32 144 240 32 144 240 32 144 240 32 144 240 32 144 240 32 144 240 32 144 240 32 144 240 32 144 240 32 144 240 32 144 240 32 144 240 32 144 240 32 144 240 32 144 240 32 144 240 32 144 192 32 144 192 32 144 192 32 144 192 32 144 192 32 144 192 32 144 192 32 144 192 32 144 192 32 144 192 32 144 192 32 144 192 32 144 192 32 144 192 32 144 192 32 144 192 32 144 192 32 144 192 32 144 192 32 144 192 32 144 192 32 144 192 32 144 192 32 144 192 32 144 192 32 144 192 32 144 192 32 144 192 32 144 192 32 144 192 32 144 192 32 144 192 32 144 200 32 144 200 32 144 200 32 144 200 32 144 200 32 144 200 32 144 200 32 144 200 32 144 200 32 144 200 32 144 200 32 144 200 32 144 200 32 144 200 32 144 200 32 144 200 32 144 200 32 144 200 32 144 200 32 144 200 32 144 200 32 144 200 32 144 200 32 144 200 32 144 200 32 144 200 32 144 200 32 144 200 32 144 200 32 144 200 32 144 200 32 144 200 32 144
128 32 16 128 32 16 128 32 16 128 32 16 128 32 16 128 32 16 128 32 16 128 32 16 128 32 16 128 32 16 128 32 16 128 32 16 128 32 16 128 32 16 128 32 16 128 32 16 128 32 16 128 32 16 128 32 16 128 32 16 128 32 16 128 32 16 128 32 16 128 32 16 128 32 16 128 32 16 128 32 16 128 32 16 128 32 16 128 32 16 128 32 16 128 32 16 240 32 144 240 32 144 240 32 144 240 32 144 240 32 144 240 32 144 240 32 144 240 32 144 240 32 144 240 32 144 240 32 144 240 32 144 240 32 144 240 32 144 240 32 144 240 32 144 240 32 144 240 32 144 240 32 144 240 32 144 240 32 144 240 32 144 240 32 144 240 32 144 240 32 144 240 32 144 240 32 144 240 32 144 240 32 144 240 32 144 240 32 144 240 32 144 192 32 144 192 32 144 192 32 144 192 32 144 192 32 144 192 32 144 192 32 144 192 32 144 192 32 144 192 32 144 192 32 144 192 32 144 192 32 144 192 32 144 192 32 144 192 32 144 192 32 144 192 32 144 192 32 144 192 32 144 192 32 144 192 32 144 192 32 144 192 32 144 192 32 144 192 32 144 192 32 144 192 32 144 192 32 144 192 32 144 192 32 144 192 32 144 200 32 144 200 32 144 200 32 144 200 32 144 200 32 144 200 32 144 200 32 144 200 32 144 200 32 144 200 32 144 200 32 144 200 32 144 200 32 144 200 32 144 200 32 144 200 32 144 200 32 144 200 32 144 200 32 144 200 32 144 200 32 144 200 32 144 200 32 144 200 32 144 200 32 144 200 32 144 200 32 144 200 32 144 200 32 144 200 32 144 200 32 144 200 32 144
128 32 16 128 32 16 128 32 16 128 32 16 128 32 16 128 32 16 128 32 16 128 32 16 128 32 16 128 32 16 128 32 16 128 32 16 128 32 16 128 32 16 128 32 16 128 32 16 128 32 16 128 32 16 128 32 16 128 32 16 128 32 16 128 32 16 128 32 16 128 32 16 128 32 16 128 32 16 128 32 16 128 32 16 128 32 16 128 32 16 128 32 16 128 32 16 240 32 144 240 32 144 240 32 144 240 32 144 240 32 144 240 32 144 240 32 144 240 32 144 240 32 144 240 32 144 240 32 144 240 32 144 240 32 144 240 32 144 240 32 144 240 32 144 240 32 144 240 32 144 240 32 144 240 32 144 240 32 144 240 32 144 240 32 144 240 32 144 240 32 144 240 32 144 240 32 144 240 32 144 240 32 144 240 32 144 240 32 144 240 32 144 192 32 144 192 32 144 192 32 144 192 32 144 192 32 144 192 32 144 192 32 144 192 32 144 192 32 144 192 32 144 192 32 144 192 32 144 192 32 144 192 32 144 192 32 144 192 32 144 192 32 144 192 32 144 192 32 144 192 32 144 192 32 144 192 32 144 192 32 144 192 32 144 192 32 144 192 32 144 192 32 144 192 32 144 192 32 144 192 32 144 192 32 144 192 32 144 200 32 144 200 32 144 200 32 144 200 32 144 200 32 144 200 32 144 200 32 144 200 32 144 200 32 144 200 32 144 200 32 144 200 32 144 200 32 144 200 32 144 200 32 144 200 32 144 200 32 144 200 32 144 200 32 144 200 32 144 200 32 144 200 32 144 200 32 144 200 32 144 200 32 144 200 32 144 200 32 144 200 32 144 200 32 144 200 32 144 200 32 144 200 32 144
128 32 16 128 32 16 128 32 16 128 32 16 128 32 16 128 32 16 128 32 16 128 32 16 128 32 16 128 32 16 128 32 16 128 32 16 128 32 16 128 32 16 128 32 16 128 32 16 128 32 16 128 32 16 128 32 16 128 32 16 128 32 16 128 32 16 128 32 16 128 32 16 128 32 16 128 32 16 128 32 16 128 32 16 128 32 16 128 32 16 128 32 16 128 32 16 240 32 144 240 32 144 240 32 144 240 32 144 240 32 144 240 32 144 240 32 144 240 32 144 240 32 144 240 32 144 240 32 144 240 32 144 240 32 144 240 32 144 240 32 144 240 32 144 240 32 144 240 32 144 240 32 144 240 32 144 240 32 144 240 32 144 240 32 144 240 32 144 240 32 144 240 32 144 240 32 144 240 32 144 240 32 144 240 32 144 240 32 144 240 32 144 192 32 144 192 32 144 192 32 144 192 32 144 192 32 144 192 32 144 192 32 144 192 32 144 192 32 144 192 32 144 192 32 144 192 32 144 192 32 144 192 32 144 192 32 144 192 32 144 192 32 144 192 32 144 192 32 144 192 32 144 192 32 144 192 32 144 192 32 144 192 32 144 192 32 144 192 32 144 192 32 144 192 32 144 192 32 144 192 32 144 192 32 144 192 32 144 200 32 144 200 32 144 200 32 144 200 32 144 200 32 144 200 32 144 200 32 144 200 32 144 200 32 144 200 32 144 200 32 144 200 32 144 200 32 144 200 32 144 200 32 144 200 32 144 200 32 144 200 32 144 200 32 144 200 32 144 200 32 144 200 32 144 200 32 144 200 32 144 200 32 144 200 32 144 200 32 144 200 32 144 200 32 144 200 32 144 200 32 144 200 32 144
128 32 16 128 32 16 128 32 16 128 32 16 128 32 16 128 32 16 128 32 16 128 32 16 128 32 16 128 32 16 128 32 16 128 32 16 128 32 16 128 32 16 128 32 16 128 32 16 128 32 16 128 32 16 128 32 16 128 32 16 128 32 16 128 32 16 128 32 16 128 32 16 128 32 16 128 32 16 128 32 16 128 32 16 128 32 16 128 32 16 128 32 16 128 32 16 240 32 144 240 32 144 240 32 144 240 32 144 240 32 144 240 32 144 240 32 144 240 32 144 240 32 144 240 32 144 240 32 144 240 32 144 240 32 144 240 32 144 240 32 144 240 32 144 240 32 144 240 32 144 240 32 144 240 32 144 240 32 144 240 32 144 240 32 144 240 32 144 240 32 144 240 32 144 240 32 144 240 32 144 240 32 144 240 32 144 240 32 144 240 32 144 192 32 144 192 32 144 192 32 144 192 32 144 192 32 144 192 32 144 192 32 144 192 32 144 192 32 144 192 32 144 192 32 144 192 32 144 192 32 144 192 32 144 192 32 144 192 32 144 192 32 144 192 32 144 192 32 144 192 32 144 192 32 144 192 32 144 192 32 144 192 32 144 192 32 144 192 32 144 192 32 144 192 32 144 192 32 144 192 32 144 192 32 144 192 32 144 200 32 144 200 32 144 200 32 144 200 32 144 200 32 144 200 32 144 200 32 144 200 32 144 200 32 144 200 32 144 200 32 144 200 32 144 200 32 144 200 32 144 200 32 144 200 32 144 200 32 144 200 32 144 200 32 144 200 32 144 200 32 144 200 32 144 200 32 144 200 32 144 200 32 144 200 32 144 200 32 144 200 32 144 200 32 144 200 32 144 200 32 144 200 32 144
128 32 16 128 32 16 128 32 16 128 32 16 128 32 16 128 32 16 128 32 16 128 32 16 128 32 16 128 32 16 128 32 16 128 32 16 128 32 16 128 32 16 128 32 16 128 32 16 128 32 16 128 32 16 128 32 16 128 32 16 128 32 16 128 32 16 128 32 16 128 32 16 128 32 16 128 32 16 128 32 16 128 32 16 128 32 16 128 32 16 128 32 16 128 32 16 240 32 144 240 32 144 240 32 144 240 32 144 240 32 144 240 32 144 240 32 144 240 32 144 240 32 144 240 32 144 240 32 144 240 32 144 240 32 144 240 32 144 240 32 144 240 32 144 240 32 144 240 32 144 240 32 144 240 32 144 240 32 144 240 32 144 240 32 144 240 32 144 240 32 144 240 32 144 240 32 144 240 32 144 240 32 144 240 32 144 240 32 144 240 32 144 192 32 144 192 32 144 192 32 144 192 32 144 192 32 144 192 32 144 192 32 144 192 32 144 192 32 144 192 32 144 192 32 144 192 32 144 192 32 144 192 32 144 192 32 144 192 32 144 192 32 144 192 32 144 192 32 144 192 32 144 192 32 144 192 32 144 192 32 144 192 32 144 192 32 144 192 32 144 192 32 144 192 32 144 192 32 144 192 32 144 192 32 144 192 32 144 200 32 144 200 32 144 200 32 144 200 32 144 200 32 144 200 32 144 200 32 144 200 32 144 200 32 144 200 32 144 200 32 144 200 32 144 200 32 144 200 32 144 200 32 144 200 32 144 200 32 144 200 32 144 200 32 144 200 32 144 200 32 144 200 32 144 200 32 144 200 32 144 200 32 144 200 32 144 200 32 144 200 32 144 200 32 144 200 32 144 200 32 144 200 32 144
128 32 16 128 32 16 128 32 16 128 32 16 128 32 16 128 32 16 128 32 16 128 32 16 128 32 16 128 32 16 128 32 16 128 32 16 128 32 16 128 32 16 128 32 16 128 32 16 128 32 16 128 32 16 128 32 16 128 32 16 128 32 16 128 32 16 128 32 16 128 32 16 128 32 16 128 32 16 128 32 16 128 32 16 128 32 16 128 32 16 128 32 16 128 32 16 240 32 144 240 32 144 240 32 144 240 32 144 240 32 144 240 32 144 240 32 144 240 32 144 240 32 144 240 32 144 240 32 144 240 32 144 240 32 144 240 32 144 240 32 144 240 32 144 240 32 144 240 32 144 240 32 144 240 32 144 240 32 144 240 32 144 240 32 144 240 32 144 240 32 144 240 32 144 240 32 144 240 32 144 240 32 144 240 32 144 240 32 144 240 32 144 192 32 144 192 32 144 192 32 144 192 32 144 192 32 144 192 32 144 192 32 144 192 32 144 192 32 144 192 32 144 192 32 144 192 32 144 192 32 144 192 32 144 192 32 144 192 32 144 192 32 144 192 32 144 192 32 144 192 32 144 192 32 144 192 32 144 192 32 144 192 32 144 192 32 144 192 32 144 192 32 144 192 32 144 192 32 144 192 32 144 192 32 144 192 32 144 200 32 144 200 32 144 200 32 144 200 32 144 200 32 144 200 32 144 200 32 144 200 32 144 200 32 144 200 32 144 200 32 144 200 32 144 200 32 144 200 32 144 200 32 144 200 32 144 200 32 144 200 32 144 200 32 144 200 32 144 200 32 144 200 32 144 200 32 144 200 32 144 200 32 144 200 32 144 200 32 144 200 32 144 200 32 144 200 32 144 200 32 144 200 32 144
128 32 16 128 32 16 128 32 16 128 32 16 128 32 16 128 32 16 128 32 16 128 32 16 128 32 16 128 32 16 128 32 16 128 32 16 128 32 16 128 32 16 128 32 16 128 32 16 128 32 16 128 32 16 128 32 16 128 32 16 128 32 16 128 32 16 128 32 16 128 32 16 128 32 16 128 32 16 128 32 16 128 32 16 128 32 16 128 32 16 128 32 16 128 32 16 240 32 144 240 32 144 240 32 144 240 32 144 240 32 144 240 32 144 240 32 144 240 32 144 240 32 144 240 32 144 240 32 144 240 32 144 240 32 144 240 32 144 240 32 144 240 32 144 240 32 144 240 32 144 240 32 144 240 32 144 240 32 144 240 32 144 240 32 144 240 32 144 240 32 144 240 32 144 240 32 144 240 32 144 240 32 144 240 32 144 240 32 144 240 32 144 192 32 144 192 32 144 192 32 144 192 32 144 192 32 144 192 32 144 192 32 144 192 32 144 192 32 144 192 32 144 192 32 144 192 32 144 192 32 144 192 32 144 192 32 144 192 32 144 192 32 144 192 32 144 192 32 144 192 32 144 192 32 144 192 32 144 192 32 144 192 32 144 192 32 144 192 32 144 192 32 144 192 32 144 192 32 144 192 32 144 192 32 144 192 32 144 200 32 144 200 32 144 200 32 144 200 32 144 200 32 144 200 32 144 200 32 144 200 32 144 200 32 144 200 32 144 200 32 144 200 32 144 200 32 144 200 32 144 200 32 144 200 32 144 200 32 144 200 32 144 200 32 144 200 32 144 200 32 144 200 32 144 200 32 144 200 32 144 200 32 144 200 32 144 200 32 144 200 32 144 200 32 144 200 32 144 200 32 144 200 32 144
128 32 16 128 32 16 128 32 16 128 32 16 128 32 16 128 32 16 128 32 16 128 32 16 128 32 16 128 32 16 128 32 16 128 32 16 128 32 16 128 32 16 128 32 16 128 32 16 128 32 16 128 32 16 128 32 16 128 32 16 128 32 16 128 32 16 128 32 16 128 32 16 128 32 16 128 32 16 128 32 16 128 32 16 128 32 16 128 32 16 128 32 16 128 32 16 240 32 144 240 32 144 240 32 144 240 32 144 240 32 144 240 32 144 240 32 144 240 32 144 240 32 144 240 32 144 240 32 144 240 32 144 240 32 144 240 32 144 240 32 144 240 32 144 240 32 144 240 32 144 240 32 144 240 32 144 240 32 144 240 32 144 240 32 144 240 32 144 240 32 144 240 32 144 240 32 144 240 32 144 240 32 144 240 32 144 240 32 144 240 32 144 192 32 144 192 32 144 192 32 144 192 32 144 192 32 144 192 32 144 192 32 144 192 32 144 192 32 144 192 32 144 192 32 144 192 32 144 192 32 144 192 32 144 192 32 144 192 32 144 192 32 144 192 32 144 192 32 144 192 32 144 192 32 144 192 32 144 192 32 144 192 32 144 192 32 144 192 32 144 192 32 144 192 32 144 192 32 144 192 32 144 192 32 144 192 32 144 200 32 144 200 32 144 200 32 144 200 32 144 200 32 144 200 32 144 200 32 144 200 32 144 200 32 144 200 32 144 200 32 144 200 32 144 200 32 144 200 32 144 200 32 144 200 32 144 200 32 144 200 32 144 200 32 144 200 32 144 200 32 144 200 32 144 200 32 144 200 32 144 200 32 144 200 32 144 200 32 144 200 32 144 200 32 144 200 32 144 200 32 144 200 32 144
128 32 16 128 32 16 128 32 16 128 32 16 128 32 16 128 32 16 128 32 16 128 32 16 128 32 16 128 32 16 128 32 16 128 32 16 128 32 16 128 32 16 128 32 16 128 32 16 128 32 16 128 32 16 128 32 16 128 32 16 128 32 16 128 32 16 128 32 16 128 32 16 128 32 16 128 32 16 128 32 16 128 32 16 128 32 16 128 32 16 128 32 16 128 32 16 240 32 144 240 32 144 240 32 144 240 32 144 240 32 144 240 32 144 240 32 144 240 32 144 240 32 144 240 32 144 240 32 144 240 32 144 240 32 144 240 32 144 240 32 144 240 32 144 240 32 144 240 32 144 240 32 144 240 32 144 240 32 144 240 32 144 240 32 144 240 32 144 240 32 144 240 32 144 240 32 144 240 32 144 240 32 144 240 32 144 240 32 144 240 32 144 192 32 144 192 32 144 192 32 144 192 32 144 192 32 144 192 32 144 192 32 144 192 32 144 192 32 144 192 32 144 192 32 144 192 32 144 192 32 144 192 32 144 192 32 144 192 32 144 192 32 144 192 32 144 192 32 144 192 32 144 192 32 144 192 32 144 192 32 144 192 32 144 192 32 144 192 32 144 192 32 144 192 32 144 192 32 144 192 32 144 192 32 144 192 32 144 200 32 144 200 32 144 200 32 144 200 32 144 200 32 144 200 32 144 200 32 144 200 32 144 200 32 144 200 32 144 200 32 144 200 32 144 200 32 144 200 32 144 200 32 144 200 32 144 200 32 144 200 32 144 200 32 144 200 32 144 200 32 144 200 32 144 200 32 144 200 32 144 200 32 144 200 32 144 200 32 144 200 32 144 200 32 144 200 32 144 200 32 144 200 32 144
128 32 16 128 32 16 128 32 16 128 32 16 128 32 16 128 32 16 128 32 16 128 32 16 128 32 16 128 32 16 128 32 16 128 32 16 128 32 16 128 32 16 128 32 16 128 32 16 128 32 16 128 32 16 128 32 16 128 32 16 128 32 16 128 32 16 128 32 16 128 32 16 128 32 16 128 32 16 128 32 16 128 32 16 128 32 16 128 32 16 128 32 16 128 32 16 240 32 144 240 32 144 240 32 144 240 32 144 240 32 144 240 32 144 240 32 144 240 32 144 240 32 144 240 32 144 240 32 144 240 32 144 240 32 144 240 32 144 240 32 144 240 32 144 240 32 144 240 32 144 240 32 144 240 32 144 240 32 144 240 32 144 240 32 144 240 32 144 240 32 144 240 32 144 240 32 144 240 32 144 240 32 144 240 32 144 240 32 144 240 32 144 192 32 144 192 32 144 192 32 144 192 32 144 192 32 144 192 32 144 192 32 144 192 32 144 192 32 144 192 32 144 192 32 144 192 32 144 192 32 144 192 32 144 192 32 144 192 32 144 192 32 144 192 32 144 192 32 144 192 32 144 192 32 144 192 32 144 192 32 144 192 32 144 192 32 144 192 32 144 192 32 144 192 32 144 192 32 144 192 32 144 192 32 144 192 32 144 200 32 144 200 32 144 200 32 144 200 32 144 200 32 144 200 32 144 200 32 144 200 32 144 200 32 144 200 32 144 200 32 144 200 32 144 200 32 144 200 32 144 200 32 144 200 32 144 200 32 144 200 32 144 200 32 144 200 32 144 200 32 144 200 32 144 200 32 144 200 32 144 200 32 144 200 32 144 200 32 144 200 32 144 200 32 144 200 32 144 200 32 144 200 32 144
128 32 16 128 32 16 128 32 16 128 32 16 128 32 16 128 32 16 128 32 16 128 32 16 128 32 16 128 32 16 128 32 16 128 32 16 128 32 16 128 32 16 128 32 16 128 32 16 128 32 16 128 32 16 128 32 16 128 32 16 128 32 16 128 32 16 128 32 16 128 32 16 128 32 16 128 32 16 128 32 16 128 32 16 128 32 16 128 32 16 128 32 16 128 32 16 240 32 144 240 32 144 240 32 144 240 32 144 240 32 144 240 32 144 240 32 144 240 32 144 240 32 144 240 32 144 240 32 144 240 32 144 240 32 144 240 32 144 240 32 144 240 32 144 240 32 144 240 32 144 240 32 144 240 32 144 240 32 144 240 32 144 240 32 144 240 32 144 240 32 144 240 32 144 240 32 144 240 32 144 240 32 144 240 32 144 240 32 144 240 32 144 192 32 144 192 32 144 192 32 144 192 32 144 192 32 144 192 32 144 192 32 144 192 32 144 192 32 144 192 32 144 192 32 144 192 32 144 192 32 144 192 32 144 192 32 144 192 32 144 192 32 144 192 32 144 192 32 144 192 32 144 192 32 144 192 32 144 192 32 144 192 32 144 192 32 144 192 32 144 192 32 144 192 32 144 192 32 144 192 32 144 192 32 144 192 32 144 200 32 144 200 32 144 200 32 144 200 32 144 200 32 144 200 32 144 200 32 144 200 32 144 200 32 144 200 32 144 200 32 144 200 32 144 200 32 144 200 32 144 200 32 144 200 32 144 200 32 144 200 32 144 200 32 144 200 32 144 200 32 144 200 32 144 200 32 144 200 32 144 200 32 144 200 32 144 200 32 144 200 32 144 200 32 144 200 32 144 200 32 144 200 32 144
128 32 16 128 32 16 128 32 16 128 32 16 128 32 16 128 32 16 128 32 16 128 32 16 128 32 16 128 32 16 128 32 16 128 32 16 128 32 16 128 32 16 128 32 16 128 32 16 128 32 16 128 32 16 128 32 16 128 32 16 128 32 16 128 32 16 128 32 16 128 32 16 128 32 16 128 32 16 128 32 16 128 32 16 128 32 16 128 32 16 128 32 16 128 32 16 240 32 144 240 32 144 240 32 144 240 32 144 240 32 144 240 32 144 240 32 144 240 32 144 240 32 144 240 32 144 240 32 144 240 32 144 240 32 144 240 32 144 240 32 144 240 32 144 240 32 144 240 32 144 240 32 144 240 32 144 240 32 144 240 32 144 240 32 144 240 32 144 240 32 144 240 32 144 240 32 144 240 32 144 240 32 144 240 32 144 240 32 144 240 32 144 192 32 144 192 32 144 192 32 144 192 32 144 192 32 144 192 32 144 192 32 144 192 32 144 192 32 144 192 32 144 192 32 144 192 32 144 192 32 144 192 32 144 192 32 144 192 32 144 192 32 144 192 32 144 192 32 144 192 32 144 192 32 144 192 32 144 192 32 144 192 32 144 192 32 144 192 32 144 192 32 144 192 32 144 192 32 144 192 32 144 192 32 144 192 32 144 200 32 144 200 32 144 200 32 144 200 32 144 200 32 144 200 32 144 200 32 144 200 32 144 200 32 144 200 32 144 200 32 144 200 32 144 200 32 144 200 32 144 200 32 144 200 32 144 200 32 144 200 32 144 200 32 144 200 32 144 200 32 144 200 32 144 200 32 144 200 32 144 200 32 144 200 32 144 200 32 144 200 32 144 200 32 144 200 32 144 200 32 144 200 32 144
128 32 16 128 32 16 128 32 16 128 32 16 128 32 16 128 32 16 128 32 16 128 32 16 128 32 16 128 32 16 128 32 16 128 32 16 128 32 16 128 32 16 128 32 16 128 32 16 128 32 16 128 32 16 128 32 16 128 32 16 128 32 16 128 32 16 128 32 16 128 32 16 128 32 16 128 32 16 128 32 16 128 32 16 128 32 16 128 32 16 128 32 16 128 32 16 240 32 144 240 32 144 240 32 144 240 32 144 240 32 144 240 32 144 240 32 144 240 32 144 240 32 144 240 32 144 240 32 144 240 32 144 240 32 144 240 32 144 240 32 144 240 32 144 240 32 144 240 32 144 240 32 144 240 32 144 240 32 144 240 32 144 240 32 144 240 32 144 240 32 144 240 32 144 240 32 144 240 32 144 240 32 144 240 32 144 240 32 144 240 32 144 192 32 144 192 32 144 192 32 144 192 32 144 192 32 144 192 32 144 192 32 144 192 32 144 192 32 144 192 32 144 192 32 144 192 32 144 192 32 144 192 32 144 192 32 144 192 32 144 192 32 144 192 32 144 192 32 144 192 32 144 192 32 144 192 32 144 192 32 144 192 32 144 192 32 144 192 32 144 192 32 144 192 32 144 192 32 144 192 32 144 192 32 144 192 32 144 200 32 144 200 32 144 200 32 144 200 32 144 200 32 144 200 32 144 200 32 144 200 32 144 200 32 144 200 32 144 200 32 144 200 32 144 200 32 144 200 32 144 200 32 144 200 32 144 200 32 144 200 32 144 200 32 144 200 32 144 200 32 144 200 32 144 200 32 144 200 32 144 200 32 144 200 32 144 200 32 144 200 32 144 200 32 144 200 32 144 200 32 144 200 32 144
128 32 16 128 32 16 128 32 16 128 32 16 128 32 16 128 32 16 128 32 16 128 32 16 128 32 16 128 32 16 128 32 16 128 32 16 128 32 16 128 32 16 128 32 16 128 32 16 128 32 16 128 32 16 128 32 16 128 32 16 128 32 16 128 32 16 128 32 16 128 32 16 128 32 16 128 32 16 128 32 16 128 32 16 128 32 16 128 32 16 128 32 16 128 32 16 240 32 144 240 32 144 240 32 144 240 32 144 240 32 144 240 32 144 240 32 144 240 32 144 240 32 144 240 32 144 240 32 144 240 32 144 240 32 144 240 32 144 240 32 144 240 32 144 240 32 144 240 32 144 240 32 144 240 32 144 240 32 144 240 32 144 240 32 144 240 32 144 240 32 144 240 32 144 240 32 144 240 32 144 240 32 144 240 32 144 240 32 144 240 32 144 192 32 144 192 32 144 192 32 144 192 32 144 192 32 144 192 32 144 192 32 144 192 32 144 192 32 144 192 32 144 192 32 144 192 32 144 192 32 144 192 32 144 192 32 144 192 32 144 192 32 144 192 32 144 192 32 144 192 32 144 192 32 144 192 32 144 192 32 144 192 32 144 192 32 144 192 32 144 192 32 144 192 32 144 192 32 144 192 32 144 192 32 144 192 32 144 200 32 144 200 32 144 200 32 144 200 32 144 200 32 144 200 32 144 200 32 144 200 32 144 200 32 144 200 32 144 200 32 144 200 32 144 200 32 144 200 32 144 200 32 144 200 32 144 200 32 144 200 32 144 200 32 144 200 32 144 200 32 144 200 32 144 200 32 144 200 32 144 200 32 144 200 32 144 200 32 144 200 32 144 200 32 144 200 32 144 200 32 144 200 32 144
128 32 16 128 32 16 128 32 16 128 32 16 128 32 16 128 32 16 128 32 16 128 32 16 128 32 16 128 32 16 128 32 16 128 32 16 128 32 16 128 32 16 128 32 16 128 32 16 128 32 16 128 32 16 128 32 16 128 32 16 128 32 16 128 32 16 128 32 16 128 32 16 128 32 16 128 32 16 128 32 16 128 32 16 128 32 16 128 32 16 128 32 16 128 32 16 240 32 144 240 32 144 240 32 144 240 32 144 240 32 144 240 32 144 240 32 144 240 32 144 240 32 144 240 32 144 240 32 144 240 32 144 240 32 144 240 32 144 240 32 144 240 32 144 240 32 144 240 32 144 240 32 144 240 32 144 240 32 144 240 32 144 240 32 144 240 32 144 240 32 144 240 32 144 240 32 144 240 32 144 240 32 144 240 32 144 240 32 144 240 32 144 192 32 144 192 32 144 192 32 144 192 32 144 192 32 144 192 32 144 192 32 144 192 32 144 192 32 144 192 32 144 192 32 144 192 32 144 192 32 144 192 32 144 192 32 144 192 32 144 192 32 144 192 32 144 192 32 144 192 32 144 192 32 144 192 32 144 192 32 144 192 32 144 192 32 144 192 32 144 192 32 144 192 32 144 192 32 144 192 32 144 192 32 144 192 32 144 200 32 144 200 32 144 200 32 144 200 32 144 200 32 144 200 32 144 200 32 144 200 32 144 200 32 144 200 32 144 200 32 144 200 32 144 200 32 144 200 32 144 200 32 144 200 32 144 200 32 144 200 32 144 200 32 144 200 32 144 200 32 144 200 32 144 200 32 144 200 32 144 200 32 144 200 32 144 200 32 144 200 32 144 200 32 144 200 32 144 200 32 144 200 32 144
160 32 144 160 32 144 160 32 144 160 32 144 160 32 144 160 32 144 160 32 144 160 32 144 160 32 144 160 32 144 160 32 144 160 32 144 160 32 144 160 32 144 160 32 144 160 32 144 160 32 144 160 32 144 160 32 144 160 32 144 160 32 144 160 32 144 160 32 144 160 32 144 160 32 144 160 32 144 160 32 144 160 32 144 160 32 144 160 32 144 160 32 144 160 32 144 152 32 144 152 32 144 152 32 144 152 32 144 152 32 144 152 32 144 152 32 144 152 32 144 152 32 144 152 32 144 152 32 144 152 32 144 152 32 144 152 32 144 152 32 144 152 32 144 152 32 144 152 32 144 152 32 144 152 32 144 152 32 144 152 32 144 152 32 144 152 32 144 152 32 144 152 32 144 152 32 144 152 32 144 152 32 144 152 32 144 152 32 144 152 32 144 144 32 144 144 32 144 144 32 144 144 32 144 144 32 144 144 32 144 144 32 144 144 32 144 144 32 144 144 32 144 144 32 144 144 32 144 144 32 144 144 32 144 144 32 144 144 32 144 144 32 144 144 32 144 144 32 144 144 32 144 144 32 144 144 32 144 144 32 144 144 32 144 144 32 144 144 32 144 144 32 144 144 32 144 144 32 144 144 32 144 144 32 144 144 32 144 152 32 144 152 32 144 152 32 144 152 32 144 152 32 144 152 32 144 152 32 144 152 32 144 152 32 144 152 32 144 152 32 144 152 32 144 152 32 144 152 32 144 152 32 144 152 32 144 152 32 144 152 32 144 152 32 144 152 32 144 152 32 144 152 32 144 152 32 144 152 32 144 152 32 144 152 32 144 152 32 144 152 32 144 152 32 144 152 32 144 152 32 144 152 32 144
160 32 144 160 32 144 160 32 144 160 32 144 160 32 144 160 32 144 160 32 144 160 32 144 160 32 144 160 32 144 160 32 144 160 32 144 160 32 144 160 32 144 160 32 144 160 32 144 160 32 144 160 32 144 160 32 144 160 32 144 160 32 144 160 32 144 160 32 144 160 32 144 160 32 144 160 32 144 160 32 144 160 32 144 160 32 144 160 32 144 160 32 144 160 32 144 152 32 144 152 32 144 152 32 144 152 32 144 152 32 144 152 32 144 152 32 144 152 32 144 152 32 144 152 32 144 152 32 144 152 32 144 152 32 144 152 32 144 152 32 144 152 32 144 152 32 144 152 32 144 152 32 144 152 32 144 152 32 144 152 32 144 152 32 144 152 32 144 152 32 144 152 32 144 152 32 144 152 32 144 152 32 144 152 32 144 152 32 144 152 32 144 144 32 144 144 32 144 144 32 144 144 32 144 144 32 144 144 32 144 144 32 144 144 32 144 144 32 144 144 32 144 144 32 144 144 32 144 144 32 144 144 32 144 144 32 144 144 32 144 144 32 144 144 32 144 144 32 144 144 32 144 144 32 144 144 32 144 144 32 144 144 32 144 144 32 144 144 32 144 144 32 144 144 32 144 144 32 144 144 32 144 144 32 144 144 32 144 152 32 144 152 32 144 152 32 144 152 32 144 152 32 144 152 32 144 152 32 144 152 32 144 152 32 144 152 32 144 152 32 144 152 32 144 152 32 144 152 32 144 152 32 144 152 32 144 152 32 144 152 32 144 152 32 144 152 32 144 152 32 144 152 32 144 152 32 144 152 32 144 152 32 144 152 32 144 152 32 144 152 32 144 152 32 144 152 32 144 152 32 144 152 32 144
160 32 144 160 32 144 160 32 144 160 32 144 160 32 144 160 32 144 160 32 144 160 32 144 160 32 144 160 32 144 160 32 144 160 32 144 160 32 144 160 32 144 160 32 144 160 32 144 160 32 144 160 32 144 160 32 144 160 32 144 160 32 144 160 32 144 160 32 144 160 32 144 160 32 144 160 32 144 160 32 144 160 32 144 160 32 144 160 32 144 160 32 144 160 32 144 152 32 144 152 32 144 152 32 144 152 32 144 152 32 144 152 32 144 152 32 144 152 32 144 152 32 144 152 32 144 152 32 144 152 32 144 152 32 144 152 32 144 152 32 144 152 32 144 152 32 144 152 32 144 152 32 144 152 32 144 152 32 144 152 32 144 152 32 144 152 32 144 152 32 144 152 32 144 152 32 144 152 32 144 152 32 144 152 32 144 152 32 144 152 32 144 144 32 144 144 32 144 144 32 144 144 32 144 144 32 144 144 32 144 144 32 144 144 32 144 144 32 144 144 32 144 144 32 144 144 32 144 144 32 144 144 32 144 144 32 144 144 32 144 144 32 144 144 32 144 144 32 144 144 32 144 144 32 144 144 32 144 144 32 144 144 32 144 144 32 144 144 32 144 144 32 144 144 32 144 144 32 144 144 32 144 144 32 144 144 32 144 152 32 144 152 32 144 152 32 144 152 32 144 152 32 144 152 32 144 152 32 144 152 32 144 152 32 144 152 32 144 152 32 144 152 32 144 152 32 144 152 32 144 152 32 144 152 32 144 152 32 144 152 32 144 152 32 144 152 32 144 152 32 144 152 32 144 152 32 144 152 32 144 152 32 144 152 32 144 152 32 144 152 32 144 152 32 144 152 32 144 152 32 144 152 32 144
160 32 144 160 32 144 160 32 144 160 32 144 160 32 144 160 32 144 160 32 144 160 32 144 160 32 144 160 32 144 160 32 144 160 32 144 160 32 144 160 32 144 160 32 144 160 32 144 160 32 144 160 32 144 160 32 144 160 32 144 160 32 144 160 32 144 160 32 144 160 32 144 160 32 144 160 32 144 160 32 144 160 32 144 160 32 144 160 32 144 160 32 144 160 32 144 152 32 144 152 32 144 152 32 144 152 32 144 152 32 144 152 32 144 152 32 144 152 32 144 152 32 144 152 32 144 152 32 144 152 32 144 152 32 144 152 32 144 152 32 144 152 32 144 152 32 144 152 32 144 152 32 144 152 32 144 152 32 144 152 32 144 152 32 144 152 32 144 152 32 144 152 32 144 152 32 144 152 32 144 152 32 144 152 32 144 152 32 144 152 32 144 144 32 144 144 32 144 144 32 144 144 32 144 144 32 144 144 32 144 144 32 144 144 32 144 144 32 144 144 32 144 144 32 144 144 32 144 144 32 144 144 32 144 144 32 144 144 32 144 144 32 144 144 32 144 144 32 144 144 32 144 144 32 144 144 32 144 144 32 144 144 32 144 144 32 144 144 32 144 144 32 144 144 32 144 144 32 144 144 32 144 144 32 144 144 32 144 152 32 144 152 32 144 152 32 144 152 32 144 152 32 144 152 32 144 152 32 144 152 32 144 152 32 144 152 32 144 152 32 144 152 32 144 152 32 144 152 32 144 152 32 144 152 32 144 152 32 144 152 32 144 152 32 144 152 32 144 152 32 144 152 32 144 152 32 144 152 32 144 152 32 144 152 32 144 152 32 144 152 32 144 152 32 144 152 32 144 152 32 144 152 32 144
160 32 144 160 32 144 160 32 144 160 32 144 160 32 144 160 32 144 160 32 144 160 32 144 160 32 144 160 32 144 160 32 144 160 32 144 160 32 144 160 32 144 160 32 144 160 32 144 160 32 144 160 32 144 160 32 144 160 32 144 160 32 144 160 32 144 160 32 144 160 32 144 160 32 144 160 32 144 160 32 144 160 32 144 160 32 144 160 32 144 160 32 144 160 32 144 152 32 144 152 32 144 152 32 144 152 32 144 152 32 144 152 32 144 152 32 144 152 32 144 152 32 144 152 32 144 152 32 144 152 32 144 152 32 144 152 32 144 152 32 144 152 32 144 152 32 144 152 32 144 152 32 144 152 32 144 152 32 144 152 32 144 152 32 144 152 32 144 152 32 144 152 32 144 152 32 144 152 32 144 152 32 144 152 32 144 152 32 144 152 32 144 144 32 144 144 32 144 144 32 144 144 32 144 144 32 144 144 32 144 144 32 144 144 32 144 144 32 144 144 32 144 144 32 144 144 32 144 144 32 144 144 32 144 144 32 144 144 32 144 144 32 144 144 32 144 144 32 144 144 32 144 144 32 144 144 32 144 144 32 144 144 32 144 144 32 144 144 32 144 144 32 144 144 32 144 144 32 144 144 32 144 144 32 144 144 32 144 152 32 144 152 32 144 152 32 144 152 32 144 152 32 144 152 32 144 152 32 144 152 32 144 152 32 144 152 32 144 152 32 144 152 32 144 152 32 144 152 32 144 152 32 144 152 32 144 152 32 144 152 32 144 152 32 144 152 32 144 152 32 144 152 32 144 152 32 144 152 32 144 152 32 144 152 32 144 152 32 144 152 32 144 152 32 144 152 32 144 152 32 144 152 32 144
160 32 144 160 32 144 160 32 144 160 32 144 160 32 144 160 32 144 160 32 144 160 32 144 160 32 144 160 32 144 160 32 144 160 32 144 160 32 144 160 32 144 160 32 144 160 32 144 160 32 144 160 32 144 160 32 144 160 32 144 160 32 144 160 32 144 160 32 144 160 32 144 160 32 144 160 32 144 160 32 144 160 32 144 160 32 144 160 32 144 160 32 144 160 32 144 152 32 144 152 32 144 152 32 144 152 32 144 152 32 144 152 32 144 152 32 144 152 32 144 152 32 144 152 32 144 152 32 144 152 32 144 152 32 144 152 32 144 152 32 144 152 32 144 152 32 144 152 32 144 152 32 144 152 32 144 152 32 144 152 32 144 152 32 144 152 32 144 152 32 144 152 32 144 152 32 144 152 32 144 152 32 144 152 32 144 152 32 144 152 32 144 144 32 144 144 32 144 144 32 144 144 32 144 144 32 144 144 32 144 144 32 144 144 32 144 144 32 144 144 32 144 144 32 144 144 32 144 144 32 144 144 32 144 144 32 144 144 32 144 144 32 144 144 32 144 144 32 144 144 32 144 144 32 144 144 32 144 144 32 144 144 32 144 144 32 144 144 32 144 144 32 144 144 32 144 144 32 144 144 32 144 144 32 144 144 32 144 152 32 144 152 32 144 152 32 144 152 32 144 152 32 144 152 32 144 152 32 144 152 32 144 152 32 144 152 32 144 152 32 144 152 32 144 152 32 144 152 32 144 152 32 144 152 32 144 152 32 144 152 32 144 152 32 144 152 32 144 152 32 144 152 32 144 152 32 144 152 32 144 152 32 144 152 32 144 152 32 144 152 32 144 152 32 144 152 32 144 152 32 144 152 32 144
160 32 144 160 32 144 160 32 144 160 32 144 160 32 144 160 32 144 160 32 144 160 32 144 160 32 144 160 32 144 160 32 144 160 32 144 160 32 144 160 32 144 160 32 144 160 32 144 160 32 144 160 32 144 160 32 144 160 32 144 160 32 144 160 32 144 160 32 144 160 32 144 160 32 144 160 32 144 160 32 144 160 32 144 160 32 144 160 32 144 160 32 144 160 32 144 152 32 144 152 32 144 152 32 144 152 32 144 152 32 144 152 32 144 152 32 144 152 32 144 152 32 144 152 32 144 152 32 144 152 32 144 152 32 144 152 32 144 152 32 144 152 32 144 152 32 144 152 32 144 152 32 144 152 32 144 152 32 144 152 32 144 152 32 144 152 32 144 152 32 144 152 32 144 152 32 144 152 32 144 152 32 144 152 32 144 152 32 144 152 32 144 144 32 144 144 32 144 144 32 144 144 32 144 144 32 144 144 32 144 144 32 144 144 32 144 144 32 144 144 32 144 144 32 144 144 32 144 144 32 144 144 32 144 144 32 144 144 32 144 144 32 144 144 32 144 144 32 144 144 32 144 144 32 144 144 32 144 144 32 144 144 32 144 144 32 144 144 32 144 144 32 144 144 32 144 144 32 144 144 32 144 144 32 144 144 32 144 152 32 144 152 32 144 152 32 144 152 32 144 152 32 144 152 32 144 152 32 144 152 32 144 152 32 144 152 32 144 152 32 144 152 32 144 152 32 144 152 32 144 152 32 144 152 32 144 152 32 144 152 32 144 152 32 144 152 32 144 152 32 144 152 32 144 152 32 144 152 32 144 152 32 144 152 32 144 152 32 144 152 32 144 152 32 144 152 32 144 152 32 144 152 32 144
160 32 144 160 32 144 160 32 144 160 32 144 160 32 144 160 32 144 160 32 144 160 32 144 160 32 144 160 32 144 160 32 144 160 32 144 160 32 144 160 32 144 160 32 144 160 32 144 160 32 144 160 32 144 160 32 144 160 32 144 160 32 144 160 32 144 160 32 144 160 32 144 160 32 144 160 32 144 160 32 144 160 32 144 160 32 144 160 32 144 160 32 144 160 32 144 152 32 144 152 32 144 152 32 144 152 32 144 152 32 144 152 32 144 152 32 144 152 32 144 152 32 144 152 32 144 152 32 144 152 32 144 152 32 144 152 32 144 152 32 144 152 32 144 152 32 144 152 32 144 152 32 144 152 32 144 152 32 144 152 32 144 152 32 144 152 32 144 152 32 144 152 32 144 152 32 144 152 32 144 152 32 144 152 32 144 152 32 144 152 32 144 144 32 144 144 32 144 144 32 144 144 32 144 144 32 144 144 32 144 144 32 144 144 32 144 144 32 144 144 32 144 144 32 144 144 32 144 144 32 144 144 32 144 144 32 144 144 32 144 144 32 144 144 32 144 144 32 144 144 32 144 144 32 144 144 32 144 144 32 144 144 32 144 144 32 144 144 32 144 144 32 144 144 32 144 144 32 144 144 32 144 144 32 144 144 32 144 152 32 144 152 32 144 152 32 144 152 32 144 152 32 144 152 32 144 152 32 144 152 32 144 152 32 144 152 32 144 152 32 144 152 32 144 152 32 144 152 32 144 152 32 144 152 32 144 152 32 144 152 32 144 152 32 144 152 32 144 152 32 144 152 32 144 152 32 144 152 32 144 152 32 144 152 32 144 152 32 144 152 32 144 152 32 144 152 32 144 152 32 144 152 32 144
160 32 144 160 32 144 160 32 144 160 32 144 160 32 144 160 32 144 160 32 144 160 32 144 160 32 144 160 32 144 160 32 144 160 32 144 160 32 144 160 32 144 160 32 144 160 32 144 160 32 144 160 32 144 160 32 144 160 32 144 160 32 144 160 32 144 160 32 144 160 32 144 160 32 144 160 32 144 160 32 144 160 32 144 160 32 144 160 32 144 160 32 144 160 32 144 152 32 144 152 32 144 152 32 144 152 32 144 152 32 144 152 32 144 152 32 144 152 32 144 152 32 144 152 32 144 152 32 144 152 32 144 152 32 144 152 32 144 152 32 144 152 32 144 152 32 144 152 32 144 152 32 144 152 32 144 152 32 144 152 32 144 152 32 144 152 32 144 152 32 144 152 32 144 152 32 144 152 32 144 152 32 144 152 32 144 152 32 144 152 32 144 144 32 144 144 32 144 144 32 144 144 32 144 144 32 144 144 32 144 144 32 144 144 32 144 144 32 144 144 32 144 144 32 144 144 32 144 144 32 144 144 32 144 144 32 144 144 32 144 144 32 144 144 32 144 144 32 144 144 32 144 144 32 144 144 32 144 144 32 144 144 32 144 144 32 144 144 32 144 144 32 144 144 32 144 144 32 144 144 32 144 144 32 144 144 32 144 152 32 144 152 32 144 152 32 144 152 32 144 152 32 144 152 32 144 152 32 144 152 32 144 152 32 144 152 32 144 152 32 144 152 32 144 152 32 144 152 32 144 152 32 144 152 32 144 152 32 144 152 32 144 152 32 144 152 32 144 152 32 144 152 32 144 152 32 144 152 32 144 152 32 144 152 32 144 152 32 144 152 32 144 152 32 144 152 32 144 152 32 144 152 32 144
160 32 144 160 32 144 160 32 144 160 32 144 160 32 144 160 32 144 160 32 144 160 32 144 160 32 144 160 32 144 160 32 144 160 32 144 160 32 144 160 32 144 160 32 144 160 32 144 160 32 144 160 32 144 160 32 144 160 32 144 160 32 144 160 32 144 160 32 144 160 32 144 160 32 144 160 32 144 160 32 144 160 32 144 160 32 144 160 32 144 160 32 144 160 32 144 152 32 144 152 32 144 152 32 144 152 32 144 152 32 144 152 32 144 152 32 144 152 32 144 152 32 144 152 32 144 152 32 144 152 32 144 152 32 144 152 32 144 152 32 144 152 32 144 152 32 144 152 32 144 152 32 144 152 32 144 152 32 144 152 32 144 152 32 144 152 32 144 152 32 144 152 32 144 152 32 144 152 32 144 152 32 144 152 32 144 152 32 144 152 32 144 144 32 144 144 32 144 144 32 144 144 32 144 144 32 144 144 32 144 144 32 144 144 32 144 144 32 144 144 32 144 144 32 144 144 32 144 144 32 144 144 32 144 144 32 144 144 32 144 144 32 144 144 32 144 144 32 144 144 32 144 144 32 144 144 32 144 144 32 144 144 32 144 144 32 144 144 32 144 144 32 144 144 32 144 144 32 144 144 32 144 144 32 144 144 32 144 152 32 144 152 32 144 152 32 144 152 32 144 152 32 144 152 32 144 152 32 144 152 32 144 152 32 144 152 32 144 152 32 144 152 32 144 152 32 144 152 32 144 152 32 144 152 32 144 152 32 144 152 32 144 152 32 144 152 32 144 152 32 144 152 32 144 152 32 144 152 32 144 152 32 144 152 32 144 152 32 144 152 32 144 152 32 144 152 32 144 152 32 144 152 32 144
160 32 144 160 32 144 160 32 144 160 32 144 160 32 144 160 32 144 160 32 144 160 32 144 160 32 144 160 32 144 160 32 144 160 32 144 160 32 144 160 32 144 160 32 144 160 32 144 160 32 144 160 32 144 160 32 144 160 32 144 160 32 144 160 32 144 160 32 144 160 32 144 160 32 144 160 32 144 160 32 144 160 32 144 160 32 144 160 32 144 160 32 144 160 32 144 152 32 144 152 32 144 152 32 144 152 32 144 152 32 144 152 32 144 152 32 144 152 32 144 152 32 144 152 32 144 152 32 144 152 32 144 152 32 144 152 32 144 152 32 144 152 32 144 152 32 144 152 32 144 152 32 144 152 32 144 152 32 144 152 32 144 152 32 144 152 32 144 152 32 144 152 32 144 152 32 144 152 32 144 152 32 144 152 32 144 152 32 144 152 32 144 144 32 144 144 32 144 144 32 144 144 32 144 144 32 144 144 32 144 144 32 144 144 32 144 144 32 144 144 32 144 144 32 144 144 32 144 144 32 144 144 32 144 144 32 144 144 32 144 144 32 144 144 32 144 144 32 144 144 32 144 144 32 144 144 32 144 144 32 144 144 32 144 144 32 144 144 32 144 144 32 144 144 32 144 144 32 144 144 32 144 144 32 144 144 32 144 152 32 144 152 32 144 152 32 144 152 32 144 152 32 144 152 32 144 152 32 144 152 32 144 152 32 144 152 32 144 152 32 144 152 32 144 152 32 144 152 32 144 152 32 144 152 32 144 152 32 144 152 32 144 152 32 144 152 32 144 152 32 144 152 32 144 152 32 144 152 32 144 152 32 144 152 32 144 152 32 144 152 32 144 152 32 144 152 32 144 152 32 144 152 32 144
160 32 144 160 32 144 160 32 144 160 32 144 160 32 144 160 32 144 160 32 144 160 32 144 160 32 144 160 32 144 160 32 144 160 32 144 160 32 144 160 32 144 160 32 144 160 32 144 160 32 144 160 32 144 160 32 144 160 32 144 160 32 144 160 32 144 160 32 144 160 32 144 160 32 144 160 32 144 160 32 144 160 32 144 160 32 144 160 32 144 160 32 144 160 32 144 152 32 144 152 32 144 152 32 144 152 32 144 152 32 144 152 32 144 152 32 144 152 32 144 152 32 144 152 32 144 152 32 144 152 32 144 152 32 144 152 32 144 152 32 144 152 32 144 152 32 144 152 32 144 152 32 144 152 32 144 152 32 144 152 32 144 152 32 144 152 32 144 152 32 144 152 32 144 152 32 144 152 32 144 152 32 144 152 32 144 152 32 144 152 32 144 144 32 144 144 32 144 144 32 144 144 32 144 144 32 144 144 32 144 144 32 144 144 32 144 144 32 144 144 32 144 144 32 144 144 32 144 144 32 144 144 32 144 144 32 144 144 32 144 144 32 144 144 32 144 144 32 144 144 32 144 144 32 144 144 32 144 144 32 144 144 32 144 144 32 144 144 32 144 144 32 144 144 32 144 144 32 144 144 32 144 144 32 144 144 32 144 152 32 144 152 32 144 152 32 144 152 32 144 152 32 144 152 32 144 152 32 144 152 32 144 152 32 144 152 32 144 152 32 144 152 32 144 152 32 144 152 32 144 152 32 144 152 32 144 152 32 144 152 32 144 152 32 144 152 32 144 152 32 144 152 32 144 152 32 144 152 32 144 152 32 144 152 32 144 152 32 144 152 32 144 152 32 144 152 32 144 152 32 144 152 32 144
160 32 144 160 32 144 160 32 144 160 32 144 160 32 144 160 32 144 160 32 144 160 32 144 160 32 144 160 32 144 160 32 144 160 32 144 160 32 144 160 32 144 160 32 144 160 32 144 160 32 144 160 32 144 160 32 144 160 32 144 160 32 144 160 32 144 160 32 144 160 32 144 160 32 144 160 32 144 160 32 144 160 32 144 160 32 144 160 32 144 160 32 144 160 32 144 152 32 144 152 32 144 152 32 144 152 32 144 152 32 144 152 32 144 152 32 144 152 32 144 152 32 144 152 32 144 152 32 144 152 32 144 152 32 144 152 32 144 152 32 144 152 32 144 152 32 144 152 32 144 152 32 144 152 32 144 152 32 144 152 32 144 152 32 144 152 32 144 152 32 144 152 32 144 152 32 144 152 32 144 152 32 144 152 32 144 152 32 144 152 32 144 144 32 144 144 32 144 144 32 144 144 32 144 144 32 144 144 32 144 144 32 144 144 32 144 144 32 144 144 32 144 144 32 144 144 32 144 144 32 144 144 32 144 144 32 144 144 32 144 144 32 144 144 32 144 144 32 144 144 32 144 144 32 144 144 32 144 144 32 144 144 32 144 144 32 144 144 32 144 144 32 144 144 32 144 144 32 144 144 32 144 144 32 144 144 32 144 152 32 144 152 32 144 152 32 144 152 32 144 152 32 144 152 32 144 152 32 144 152 32 144 152 32 144 152 32 144 152 32 144 152 32 144 152 32 144 152 32 144 152 32 144 152 32 144 152 32 144 152 32 144 152 32 144 152 32 144 152 32 144 152 32 144 152 32 144 152 32 144 152 32 144 152 32 144 152 32 144 152 32 144 152 32 144 152 32 144 152 32 144 152 32 144
160 32 144 160 32 144 160 32 144 160 32 144 160 32 144 160 32 144 160 32 144 160 32 144 160 32 144 160 32 144 160 32 144 160 32 144 160 32 144 160 32 144 160 32 144 160 32 144 160 32 144 160 32 144 160 32 144 160 32 144 160 32 144 160 32 144 160 32 144 160 32 144 160 32 144 160 32 144 160 32 144 160 32 144 160 32 144 160 32 144 160 32 144 160 32 144 152 32 144 152 32 144 152 32 144 152 32 144 152 32 144 152 32 144 152 32 144 152 32 144 152 32 144 152 32 144 152 32 144 152 32 144 152 32 144 152 32 144 152 32 144 152 32 144 152 32 144 152 32 144 152 32 144 152 32 144 152 32 144 152 32 144 152 32 144 152 32 144 152 32 144 152 32 144 152 32 144 152 32 144 152 32 144 152 32 144 152 32 144 152 32 144 144 32 144 144 32 144 144 32 144 144 32 144 144 32 144 144 32 144 144 32 144 144 32 144 144 32 144 144 32 144 144 32 144 144 32 144 144 32 144 144 32 144 144 32 144 144 32 144 144 32 144 144 32 144 144 32 144 144 32 144 144 32 144 144 32 144 144 32 144 144 32 144 144 32 144 144 32 144 144 32 144 144 32 144 144 32 144 144 32 144 144 32 144 144 32 144 152 32 144 152 32 144 152 32 144 152 32 144 152 32 144 152 32 144 152 32 144 152 32 144 152 32 144 152 32 144 152 32 144 152 32 144 152 32 144 152 32 144 152 32 144 152 32 144 152 32 144 152 32 144 152 32 144 152 32 144 152 32 144 152 32 144 152 32 144 152 32 144 152 32 144 152 32 144 152 32 144 152 32 144 152 32 144 152 32 144 152 32 144 152 32 144
160 32 144 160 32 144 160 32 144 160 32 144 160 32 144 160 32 144 160 32 144 160 32 144 160 32 144 160 32 144 160 32 144 160 32 144 160 32 144 160 32 144 160 32 144 160 32 144 160 32 144 160 32 144 160 32 144 160 32 144 160 32 144 160 32 144 160 32 144 160 32 144 160 32 144 160 32 144 160 32 144 160 32 144 160 32 144 160 32 144 160 32 144 160 32 144 152 32 144 152 32 144 152 32 144 152 32 144 152 32 144 152 32 144 152 32 144 152 32 144 152 32 144 152 32 144 152 32 144 152 32 144 152 32 144 152 32 144 152 32 144 152 32 144 152 32 144 152 32 144 152 32 144 152 32 144 152 32 144 152 32 144 152 32 144 152 32 144 152 32 144 152 32 144 152 32 144 152 32 144 152 32 144 152 32 144 152 32 144 152 32 144 144 32 144 144 32 144 144 32 144 144 32 144 144 32 144 144 32 144 144 32 144 144 32 144 144 32 144 144 32 144 144 32 144 144 32 144 144 32 144 144 32 144 144 32 144 144 32 144 144 32 144 144 32 144 144 32 144 144 32 144 144 32 144 144 32 144 144 32 144 144 32 144 144 32 144 144 32 144 144 32 144 144 32 144 144 32 144 144 32 144 144 32 144 144 32 144 152 32 144 152 32 144 152 32 144 152 32 144 152 32 144 152 32 144 152 32 144 152 32 144 152 32 144 152 32 144 152 32 144 152 32 144 152 32 144 152 32 144 152 32 144 152 32 144 152 32 144 152 32 144 152 32 144 152 32 144 152 32 144 152 32 144 152 32 144 152 32 144 152 32 144 152 32 144 152 32 144 152 32 144 152 32 144 152 32 144 152 32 144 152 32 144
160 32 144 160 32 144 160 32 144 160 32 144 160 32 144 160 32 144 160 32 144 160 32 144 160 32 144 160 32 144 160 32 144 160 32 144 160 32 144 160 32 144 160 32 144 160 32 144 160 32 144 160 32 144 160 32 144 160 32 144 160 32 144 160 32 144 160 32 144 160 32 144 160 32 144 160 32 144 160 32 144 160 32 144 160 32 144 160 32 144 160 32 144 160 32 144 152 32 144 152 32 144 152 32 144 152 32 144 152 32 144 152 32 144 152 32 144 152 32 144 152 32 144 152 32 144 152 32 144 152 32 144 152 32 144 152 32 144 152 32 144 152 32 144 152 32 144 152 32 144 152 32 144 152 32 144 152 32 144 152 32 144 152 32 144 152 32 144 152 32 144 152 32 144 152 32 144 152 32 144 152 32 144 152 32 144 152 32 144 152 32 144 144 32 144 144 32 144 144 32 144 144 32 144 144 32 144 144 32 144 144 32 144 144 32 144 144 32 144 144 32 144 144 32 144 144 32 144 144 32 144 144 32 144 144 32 144 144 32 144 144 32 144 144 32 144 144 32 144 144 32 144 144 32 144 144 32 144 144 32 144 144 32 144 144 32 144 144 32 144 144 32 144 144 32 144 144 32 144 144 32 144 144 32 144 144 32 144 152 32 144 152 32 144 152 32 144 152 32 144 152 32 144 152 32 144 152 32 144 152 32 144 152 32 144 152 32 144 152 32 144 152 32 144 152 32 144 152 32 144 152 32 144 152 32 144 152 32 144 152 32 144 152 32 144 152 32 144 152 32 144 152 32 144 152 32 144 152 32 144 152 32 144 152 32 144 152 32 144 152 32 144 152 32 144 152 32 144 152 32 144 152 32 144
160 32 144 160 32 144 160 32 144 160 32 144 160 32 144 160 32 144 160 32 144 160 32 144 160 32 144 160 32 144 160 32 144 160 32 144 160 32 144 160 32 144 160 32 144 160 32 144 160 32 144 160 32 144 160 32 144 160 32 144 160 32 144 160 32 144 160 32 144 160 32 144 160 32 144 160 32 144 160 32 144 160 32 144 160 32 144 160 32 144 160 32 144 160 32 144 152 32 144 152 32 144 152 32 144 152 32 144 152 32 144 152 32 144 152 32 144 152 32 144 152 32 144 152 32 144 152 32 144 152 32 144 152 32 144 152 32 144 152 32 144 152 32 144 152 32 144 152 32 144 152 32 144 152 32 144 152 32 144 152 32 144 152 32 144 152 32 144 152 32 144 152 32 144 152 32 144 152 32 144 152 32 144 152 32 144 152 32 144 152 32 144 144 32 144 144 32 144 144 32 144 144 32 144 144 32 144 144 32 144 144 32 144 144 32 144 144 32 144 144 32 144 144 32 144 144 32 144 144 32 144 144 32 144 144 32 144 144 32 144 144 32 144 144 32 144 144 32 144 144 32 144 144 32 144 144 32 144 144 32 144 144 32 144 144 32 144 144 32 144 144 32 144 144 32 144 144 32 144 144 32 144 144 32 144 144 32 144 152 32 144 152 32 144 152 32 144 152 32 144 152 32 144 152 32 144 152 32 144 152 32 144 152 32 144 152 32 144 152 32 144 152 32 144 152 32 144 152 32 144 152 32 144 152 32 144 152 32 144 152 32 144 152 32 144 152 32 144 152 32 144 152 32 144 152 32 144 152 32 144 152 32 144 152 32 144 152 32 144 152 32 144 152 32 144 152 32 144 152 32 144 152 32 144
160 32 144 160 32 144 160 32 144 160 32 144 160 32 144 160 32 144 160 32 144 160 32 144 160 32 144 160 32 144 160 32 144 160 32 144 160 32 144 160 32 144 160 32 144 160 32 144 160 32 144 160 32 144 160 32 144 160 32 144 160 32 144 160 32 144 160 32 144 160 32 144 160 32 144 160 32 144 160 32 144 160 32 144 160 32 144 160 32 144 160 32 144 160 32 144 152 32 144 152 32 144 152 32 144 152 32 144 152 32 144 152 32 144 152 32 144 152 32 144 152 32 144 152 32 144 152 32 144 152 32 144 152 32 144 152 32 144 152 32 144 152 32 144 152 32 144 152 32 144 152 32 144 152 32 144 152 32 144 152 32 144 152 32 144 152 32 144 152 32 144 152 32 144 152 32 144 152 32 144 152 32 144 152 32 144 152 32 144 152 32 144 144 32 144 144 32 144 144 32 144 144 32 144 144 32 144 144 32 144 144 32 144 144 32 144 144 32 144 144 32 144 144 32 144 144 32 144 144 32 144 144 32 144 144 32 144 144 32 144 144 32 144 144 32 144 144 32 144 144 32 144 144 32 144 144 32 144 144 32 144 144 32 144 144 32 144 144 32 144 144 32 144 144 32 144 144 32 144 144 32 144 144 32 144 144 32 144 152 32 144 152 32 144 152 32 144 152 32 144 152 32 144 152 32 144 152 32 144 152 32 144 152 32 144 152 32 144 152 32 144 152 32 144 152 32 144 152 32 144 152 32 144 152 32 144 152 32 144 152 32 144 152 32 144 152 32 144 152 32 144 152 32 144 152 32 144 152 32 144 152 32 144 152 32 144 152 32 144 152 32 144 152 32 144 152 32 144 152 32 144 152 32 144
160 32 144 160 32 144 160 32 144 160 32 144 160 32 144 160 32 144 160 32 144 160 32 144 160 32 144 160 32 144 160 32 144 160 32 144 160 32 144 160 32 144 160 32 144 160 32 144 160 32 144 160 32 144 160 32 144 160 32 144 160 32 144 160 32 144 160 32 144 160 32 144 160 32 144 160 32 144 160 32 144 160 32 144 160 32 144 160 32 144 160 32 144 160 32 144 152 32 144 152 32 144 152 32 144 152 32 144 152 32 144 152 32 144 152 32 144 152 32 144 152 32 144 152 32 144 152 32 144 152 32 144 152 32 144 152 32 144 152 32 144 152 32 144 152 32 144 152 32 144 152 32 144 152 32 144 152 32 144 152 32 144 152 32 144 152 32 144 152 32 144 152 32 144 152 32 144 152 32 144 152 32 144 152 32 144 152 32 144 152 32 144 144 32 144 144 32 144 144 32 144 144 32 144 144 32 144 144 32 144 144 32 144 144 32 144 144 32 144 144 32 144 144 32 144 144 32 144 144 32 144 144 32 144 144 32 144 144 32 144 144 32 144 144 32 144 144 32 144 144 32 144 144 32 144 144 32 144 144 32 144 144 32 144 144 32 144 144 32 144 144 32 144 144 32 144 144 32 144 144 32 144 144 32 144 144 32 144 152 32 144 152 32 144 152 32 144 152 32 144 152 32 144 152 32 144 152 32 144 152 32 144 152 32 144 152 32 144 152 32 144 152 32 144 152 32 144 152 32 144 152 32 144 152 32 144 152 32 144 152 32 144 152 32 144 152 32 144 152 32 144 152 32 144 152 32 144 152 32 144 152 32 144 152 32 144 152 32 144 152 32 144 152 32 144 152 32 144 152 32 144 152 32 144
160 32 144 160 32 144 160 32 144 160 32 144 160 32 144 160 32 144 160 32 144 160 32 144 160 32 144 160 32 144 160 32 144 160 32 144 160 32 144 160 32 144 160 32 144 160 32 144 160 32 144 160 32 144 160 32 144 160 32 144 160 32 144 160 32 144 160 32 144 160 32 144 160 32 144 160 32 144 160 32 144 160 32 144 160 32 144 160 32 144 160 32 144 160 32 144 152 32 144 152 32 144 152 32 144 152 32 144 152 32 144 152 32 144 152 32 144 152 32 144 152 32 144 152 32 144 152 32 144 152 32 144 152 32 144 152 32 144 152 32 144 152 32 144 152 32 144 152 32 144 152 32 144 152 32 144 152 32 144 152 32 144 152 32 144 152 32 144 152 32 144 152 32 144 152 32 144 152 32 144 152 32 144 152 32 144 152 32 144 152 32 144 144 32 144 144 32 144 144 32 144 144 32 144 144 32 144 144 32 144 144 32 144 144 32 144 144 32 144 144 32 144 144 32 144 144 32 144 144 32 144 144 32 144 144 32 144 144 32 144 144 32 144 144 32 144 144 32 144 144 32 144 144 32 144 144 32 144 144 32 144 144 32 144 144 32 144 144 32 144 144 32 144 144 32 144 144 32 144 144 32 144 144 32 144 144 32 144 152 32 144 152 32 144 152 32 144 152 32 144 152 32 144 152 32 144 152 32 144 152 32 144 152 32 144 152 32 144 152 32 144 152 32 144 152 32 144 152 32 144 152 32 144 152 32 144 152 32 144 152 32 144 152 32 144 152 32 144 152 32 144 152 32 144 152 32 144 152 32 144 152 32 144 152 32 144 152 32 144 152 32 144 152 32 144 152 32 144 152 32 144 152 32 144
160 32 144 160 32 144 160 32 144 160 32 144 160 32 144 160 32 144 160 32 144 160 32 144 160 32 144 160 32 144 160 32 144 160 32 144 160 32 144 160 32 144 160 32 144 160 32 144 160 32 144 160 32 144 160 32 144 160 32 144 160 32 144 160 32 144 160 32 144 160 32 144 160 32 144 160 32 144 160 32 144 160 32 144 160 32 144 160 32 144 160 32 144 160 32 144 152 32 144 152 32 144 152 32 144 152 32 144 152 32 144 152 32 144 152 32 144 152 32 144 152 32 144 152 32 144 152 32 144 152 32 144 152 32 144 152 32 144 152 32 144 152 32 144 152 32 144 152 32 144 152 32 144 152 32 144 152 32 144 152 32 144 152 32 144 152 32 144 152 32 144 152 32 144 152 32 144 152 32 144 152 32 144 152 32 144 152 32 144 152 32 144 144 32 144 144 32 144 144 32 144 144 32 144 144 32 144 144 32 144 144 32 144 144 32 144 144 32 144 144 32 144 144 32 144 144 32 144 144 32 144 144 32 144 144 32 144 144 32 144 144 32 144 144 32 144 144 32 144 144 32 144 144 32 144 144 32 144 144 32 144 144 32 144 144 32 144 144 32 144 144 32 144 144 32 144 144 32 144 144 32 144 144 32 144 144 32 144 152 32 144 152 32 144 152 32 144 152 32 144 152 32 144 152 32 144 152 32 144 152 32 144 152 32 144 152 32 144 152 32 144 152 32 144 152 32 144 152 32 144 152 32 144 152 32 144 152 32 144 152 32 144 152 32 144 152 32 144 152 32 144 152 32 144 152 32 144 152 32 144 152 32 144 152 32 144 152 32 144 152 32 144 152 32 144 152 32 144 152 32 144 152 32 144
160 32 144 160 32 144 160 32 144 160 32 144 160 32 144 160 32 144 160 32 144 160 32 144 160 32 144 160 32 144 160 32 144 160 32 144 160 32 144 160 32 144 160 32 144 160 32 144 160 32 144 160 32 144 160 32 144 160 32 144 160 32 144 160 32 144 160 32 144 160 32 144 160 32 144 160 32 144 160 32 144 160 32 144 160 32 144 160 32 144 160 32 144 160 32 144 152 32 144 152 32 144 152 32 144 152 32 144 152 32 144 152 32 144 152 32 144 152 32 144 152 32 144 152 32 144 152 32 144 152 32 144 152 32 144 152 32 144 152 32 144 152 32 144 152 32 144 152 32 144 152 32 144 152 32 144 152 32 144 152 32 144 152 32 144 152 32 144 152 32 144 152 32 144 152 32 144 152 32 144 152 32 144 152 32 144 152 32 144 152 32 144 144 32 144 144 32 144 144 32 144 144 32 144 144 32 144 144 32 144 144 32 144 144 32 144 144 32 144 144 32 144 144 32 144 144 32 144 144 32 144 144 32 144 144 32 144 144 32 144 144 32 144 144 32 144 144 32 144 144 32 144 144 32 144 144 32 144 144 32 144 144 32 144 144 32 144 144 32 144 144 32 144 144 32 144 144 32 144 144 32 144 144 32 144 144 32 144 152 32 144 152 32 144 152 32 144 152 32 144 152 32 144 152 32 144 152 32 144 152 32 144 152 32 144 152 32 144 152 32 144 152 32 144 152 32 144 152 32 144 152 32 144 152 32 144 152 32 144 152 32 144 152 32 144 152 32 144 152 32 144 152 32 144 152 32 144 152 32 144 152 32 144 152 32 144 152 32 144 152 32 144 152 32 144 152 32 144 152 32 144 152 32 144
160 32 144 160 32 144 160 32 144 160 32 144 160 32 144 160 32 144 160 32 144 160 32 144 160 32 144 160 32 144 160 32 144 160 32 144 160 32 144 160 32 144 160 32 144 160 32 144 160 32 144 160 32 144 160 32 144 160 32 144 160 32 144 160 32 144 160 32 144 160 32 144 160 32 144 160 32 144 160 32 144 160 32 144 160 32 144 160 32 144 160 32 144 160 32 144 152 32 144 152 32 144 152 32 144 152 32 144 152 32 144 152 32 144 152 32 144 152 32 144 152 32 144 152 32 144 152 32 144 152 32 144 152 32 144 152 32 144 152 32 144 152 32 144 152 32 144 152 32 144 152 32 144 152 32 144 152 32 144 152 32 144 152 32 144 152 32 144 152 32 144 152 32 144 152 32 144 152 32 144 152 32 144 152 32 144 152 32 144 152 32 144 144 32 144 144 32 144 144 32 144 144 32 144 144 32 144 144 32 144 144 32 144 144 32 144 144 32 144 144 32 144 144 32 144 144 32 144 144 32 144 144 32 144 144 32 144 144 32 144 144 32 144 144 32 144 144 32 144 144 32 144 144 32 144 144 32 144 144 32 144 144 32 144 144 32 144 144 32 144 144 32 144 144 32 144 144 32 144 144 32 144 144 32 144 144 32 144 152 32 144 152 32 144 152 32 144 152 32 144 152 32 144 152 32 144 152 32 144 152 32 144 152 32 144 152 32 144 152 32 144 152 32 144 152 32 144 152 32 144 152 32 144 152 32 144 152 32 144 152 32 144 152 32 144 152 32 144 152 32 144 152 32 144 152 32 144 152 32 144 152 32 144 152 32 144 152 32 144 152 32 144 152 32 144 152 32 144 152 32 144 152 32 144
160 32 144 160 32 144 160 32 144 160 32 144 160 32 144 160 32 144 160 32 144 160 32 144 160 32 144 160 32 144 160 32 144 160 32 144 160 32 144 160 32 144 160 32 144 160 32 144 160 32 144 160 32 144 160 32 144 160 32 144 160 32 144 160 32 144 160 32 144 160 32 144 160 32 144 160 32 144 160 32 144 160 32 144 160 32 144 160 32 144 160 32 144 160 32 144 152 32 144 152 32 144 152 32 144 152 32 144 152 32 144 152 32 144 152 32 144 152 32 144 152 32 144 152 32 144 152 32 144 152 32 144 152 32 144 152 32 144 152 32 144 152 32 144 152 32 144 152 32 144 152 32 144 152 32 144 152 32 144 152 32 144 152 32 144 152 32 144 152 32 144 152 32 144 152 32 144 152 32 144 152 32 144 152 32 144 152 32 144 152 32 144 144 32 144 144 32 144 144 32 144 144 32 144 144 32 144 144 32 144 144 32 144 144 32 144 144 32 144 144 32 144 144 32 144 144 32 144 144 32 144 144 32 144 144 32 144 144 32 144 144 32 144 144 32 144 144 32 144 144 32 144 144 32 144 144 32 144 144 32 144 144 32 144 144 32 144 144 32 144 144 32 144 144 32 144 144 32 144 144 32 144 144 32 144 144 32 144 152 32 144 152 32 144 152 32 144 152 32 144 152 32 144 152 32 144 152 32 144 152 32 144 152 32 144 152 32 144 152 32 144 152 32 144 152 32 144 152 32 144 152 32 144 152 32 144 152 32 144 152 32 144 152 32 144 152 32 144 152 32 144 152 32 144 152 32 144 152 32 144 152 32 144 152 32 144 152 32 144 152 32 144 152 32 144 152 32 144 152 32 144 152 32 144
160 32 144 160 32 144 160 32 144 160 32 144 160 32 144 160 32 144 160 32 144 160 32 144 160 32 144 160 32 144 160 32 144 160 32 144 160 32 144 160 32 144 160 32 144 160 32 144 160 32 144 160 32 144 160 32 144 160 32 144 160 32 144 160 32 144 160 32 144 160 32 144 160 32 144 160 32 144 160 32 144 160 32 144 160 32 144 160 32 144 160 32 144 160 32 144 152 32 144 152 32 144 152 32 144 152 32 144 152 32 144 152 32 144 152 32 144 152 32 144 152 32 144 152 32 144 152 32 144 152 32 144 152 32 144 152 32 144 152 32 144 152 32 144 152 32 144 152 32 144 152 32 144 152 32 144 152 32 144 152 32 144 152 32 144 152 32 144 152 32 144 152 32 144 152 32 144 152 32 144 152 32 144 152 32 144 152 32 144 152 32 144 144 32 144 144 32 144 144 32 144 144 32 144 144 32 144 144 32 144 144 32 144 144 32 144 144 32 144 144 32 144 144 32 144 144 32 144 144 32 144 144 32 144 144 32 144 144 32 144 144 32 144 144 32 144 144 32 144 144 32 144 144 32 144 144 32 144 144 32 144 144 32 144 144 32 144 144 32 144 144 32 144 144 32 144 144 32 144 144 32 144 144 32 144 144 32 144 152 32 144 152 32 144 152 32 144 152 32 144 152 32 144 152 32 144 152 32 144 152 32 144 152 32 144 152 32 144 152 32 144 152 32 144 152 32 144 152 32 144 152 32 144 152 32 144 152 32 144 152 32 144 152 32 144 152 32 144 152 32 144 152 32 144 152 32 144 152 32 144 152 32 144 152 32 144 152 32 144 152 32 144 152 32 144 152 32 144 152 32 144 152 32 144
160 32 144 160 32 144 160 32 144 160 32 144 160 32 144 160 32 144 160 32 144 160 32 144 160 32 144 160 32 144 160 32 144 160 32 144 160 32 144 160 32 144 160 32 144 160 32 144 160 32 144 160 32 144 160 32 144 160 32 144 160 32 144 160 32 144 160 32 144 160 32 144 160 32 144 160 32 144 160 32 144 160 32 144 160 32 144 160 32 144 160 32 144 160 32 144 152 32 144 152 32 144 152 32 144 152 32 144 152 32 144 152 32 144 152 32 144 152 32 144 152 32 144 152 32 144 152 32 144 152 32 144 152 32 144 152 32 144 152 32 144 152 32 144 152 32 144 152 32 144 152 32 144 152 32 144 152 32 144 152 32 144 152 32 144 152 32 144 152 32 144 152 32 144 152 32 144 152 32 144 152 32 144 152 32 144 152 32 144 152 32 144 144 32 144 144 32 144 144 32 144 144 32 144 144 32 144 144 32 144 144 32 144 144 32 144 144 32 144 144 32 144 144 32 144 144 32 144 144 32 144 144 32 144 144 32 144 144 32 144 144 32 144 144 32 144 144 32 144 144 32 144 144 32 144 144 32 144 144 32 144 144 32 144 144 32 144 144 32 144 144 32 144 144 32 144 144 32 144 144 32 144 144 32 144 144 32 144 152 32 144 152 32 144 152 32 144 152 32 144 152 32 144 152 32 144 152 32 144 152 32 144 152 32 144 152 32 144 152 32 144 152 32 144 152 32 144 152 32 144 152 32 144 152 32 144 152 32 144 152 32 144 152 32 144 152 32 144 152 32 144 152 32 144 152 32 144 152 32 144 152 32 144 152 32 144 152 32 144 152 32 144 152 32 144 152 32 144 152 32 144 152 32 144
160 32 144 160 32 144 160 32 144 160 32 144 160 32 144 160 32 144 160 32 144 160 32 144 160 32 144 160 32 144 160 32 144 160 32 144 160 32 144 160 32 144 160 32 144 160 32 144 160 32 144 160 32 144 160 32 144 160 32 144 160 32 144 160 32 144 160 32 144 160 32 144 160 32 144 160 32 144 160 32 144 160 32 144 160 32 144 160 32 144 160 32 144 160 32 144 152 32 144 152 32 144 152 32 144 152 32 144 152 32 144 152 32 144 152 32 144 152 32 144 152 32 144 152 32 144 152 32 144 152 32 144 152 32 144 152 32 144 152 32 144 152 32 144 152 32 144 152 32 144 152 32 144 152 32 144 152 32 144 152 32 144 152 32 144 152 32 144 152 32 144 152 32 144 152 32 144 152 32 144 152 32 144 152 32 144 152 32 144 152 32 144 144 32 144 144 32 144 144 32 144 144 32 144 144 32 144 144 32 144 144 32 144 144 32 144 144 32 144 144 32 144 144 32 144 144 32 144 144 32 144 144 32 144 144 32 144 144 32 144 144 32 144 144 32 144 144 32 144 144 32 144 144 32 144 144 32 144 144 32 144 144 32 144 144 32 144 144 32 144 144 32 144 144 32 144 144 32 144 144 32 144 144 32 144 144 32 144 152 32 144 152 32 144 152 32 144 152 32 144 152 32 144 152 32 144 152 32 144 152 32 144 152 32 144 152 32 144 152 32 144 152 32 144 152 32 144 152 32 144 152 32 144 152 32 144 152 32 144 152 32 144 152 32 144 152 32 144 152 32 144 152 32 144 152 32 144 152 32 144 152 32 144 152 32 144 152 32 144 152 32 144 152 32 144 152 32 144 152 32 144 152 32 144
160 32 144 160 32 144 160 32 144 160 32 144 160 32 144 160 32 144 160 32 144 160 32 144 160 32 144 160 32 144 160 32 144 160 32 144 160 32 144 160 32 144 160 32 144 160 32 144 160 32 144 160 32 144 160 32 144 160 32 144 160 32 144 160 32 144 160 32 144 160 32 144 160 32 144 160 32 144 160 32 144 160 32 144 160 32 144 160 32 144 160 32 144 160 32 144 152 32 144 152 32 144 152 32 144 152 32 144 152 32 144 152 32 144 152 32 144 152 32 144 152 32 144 152 32 144 152 32 144 152 32 144 152 32 144 152 32 144 152 32 144 152 32 144 152 32 144 152 32 144 152 32 144 152 32 144 152 32 144 152 32 144 152 32 144 152 32 144 152 32 144 152 32 144 152 32 144 152 32 144 152 32 144 152 32 144 152 32 144 152 32 144 144 32 144 144 32 144 144 32 144 144 32 144 144 32 144 144 32 144 144 32 144 144 32 144 144 32 144 144 32 144 144 32 144 144 32 144 144 32 144 144 32 144 144 32 144 144 32 144 144 32 144 144 32 144 144 32 144 144 32 144 144 32 144 144 32 144 144 32 144 144 32 144 144 32 144 144 32 144 144 32 144 144 32 144 144 32 144 144 32 144 144 32 144 144 32 144 152 32 144 152 32 144 152 32 144 152 32 144 152 32 144 152 32 144 152 32 144 152 32 144 152 32 144 152 32 144 152 32 144 152 32 144 152 32 144 152 32 144 152 32 144 152 32 144 152 32 144 152 32 144 152 32 144 152 32 144 152 32 144 152 32 144 152 32 144 152 32 144 152 32 144 152 32 144 152 32 144 152 32 144 152 32 144 152 32 144 152 32 144 152 32 144
160 32 144 160 32 144 160 32 144 160 32 144 160 32 144 160 32 144 160 32 144 160 32 144 160 32 144 160 32 144 160 32 144 160 32 144 160 32 144 160 32 144 160 32 144 160 32 144 160 32 144 160 32 144 160 32 144 160 32 144 160 32 144 160 32 144 160 32 144 160 32 144 160 32 144 160 32 144 160 32 144 160 32 144 160 32 144 160 32 144 160 32 144 160 32 144 152 32 144 152 32 144 152 32 144 152 32 144 152 32 144 152 32 144 152 32 144 152 32 144 152 32 144 152 32 144 152 32 144 152 32 144 152 32 144 152 32 144 152 32 144 152 32 144 152 32 144 152 32 144 152 32 144 152 32 144 152 32 144 152 32 144 152 32 144 152 32 144 152 32 144 152 32 144 152 32 144 152 32 144 152 32 144 152 32 144 152 32 144 152 32 144 144 32 144 144 32 144 144 32 144 144 32 144 144 32 144 144 32 144 144 32 144 144 32 144 144 32 144 144 32 144 144 32 144 144 32 144 144 32 144 144 32 144 144 32 144 144 32 144 144 32 144 144 32 144 144 32 144 144 32 144 144 32 144 144 32 144 144 32 144 144 32 144 144 32 144 144 32 144 144 32 144 144 32 144 144 32 144 144 32 144 144 32 144 144 32 144 152 32 144 152 32 144 152 32 144 152 32 144 152 32 144 152 32 144 152 32 144 152 32 144 152 32 144 152 32 144 152 32 144 152 32 144 152 32 144 152 32 144 152 32 144 152 32 144 152 32 144 152 32 144 152 32 144 152 32 144 152 32 144 152 32 144 152 32 144 152 32 144 152 32 144 152 32 144 152 32 144 152 32 144 152 32 144 152 32 144 152 32 144 152 32 144
160 32 144 160 32 144 160 32 144 160 32 144 160 32 144 160 32 144 160 32 144 160 32 144 160 32 144 160 32 144 160 32 144 160 32 144 160 32 144 160 32 144 160 32 144 160 32 144 160 32 144 160 32 144 160 32 144 160 32 144 160 32 144 160 32 144 160 32 144 160 32 144 160 32 144 160 32 144 160 32 144 160 32 144 160 32 144 160 32 144 160 32 144 160 32 144 152 32 144 152 32 144 152 32 144 152 32 144 152 32 144 152 32 144 152 32 144 152 32 144 152 32 144 152 32 144 152 32 144 152 32 144 152 32 144 152 32 144 152 32 144 152 32 144 152 32 144 152 32 144 152 32 144 152 32 144 152 32 144 152 32 144 152 32 144 152 32 144 152 32 144 152 32 144 152 32 144 152 32 144 152 32 144 152 32 144 152 32 144 152 32 144 144 32 144 144 32 144 144 32 144 144 32 144 144 32 144 144 32 144 144 32 144 144 32 144 144 32 144 144 32 144 144 32 144 144 32 144 144 32 144 144 32 144 144 32 144 144 32 144 144 32 144 144 32 144 144 32 144 144 32 144 144 32 144 144 32 144 144 32 144 144 32 144 144 32 144 144 32 144 144 32 144 144 32 144 144 32 144 144 32 144 144 32 144 144 32 144 152 32 144 152 32 144 152 32 144 152 32 144 152 32 144 152 32 144 152 32 144 152 32 144 152 32 144 152 32 144 152 32 144 152 32 144 152 32 144 152 32 144 152 32 144 152 32 144 152 32 144 152 32 144 152 32 144 152 32 144 152 32 144 152 32 144 152 32 144 152 32 144 152 32 144 152 32 144 152 32 144 152 32 144 152 32 144 152 32 144 152 32 144 152 32 144
160 32 144 160 32 144 160 32 144 160 32 144 160 32 144 160 32 144 160 32 144 160 32 144 160 32 144 160 32 144 160 32 144 160 32 144 160 32 144 160 32 144 160 32 144 160 32 144 160 32 144 160 32 144 160 32 144 160 32 144 160 32 144 160 32 144 160 32 144 160 32 144 160 32 144 160 32 144 160 32 144 160 32 144 160 32 144 160 32 144 160 32 144 160 32 144 152 32 144 152 32 144 152 32 144 152 32 144 152 32 144 152 32 144 152 32 144 152 32 144 152 32 144 152 32 144 152 32 144 152 32 144 152 32 144 152 32 144 152 32 144 152 32 144 152 32 144 152 32 144 152 32 144 152 32 144 152 32 144 152 32 144 152 32 144 152 32 144 152 32 144 152 32 144 152 32 144 152 32 144 152 32 144 152 32 144 152 32 144 152 32 144 144 32 144 144 32 144 144 32 144 144 32 144 144 32 144 144 32 144 144 32 144 144 32 144 144 32 144 144 32 144 144 32 144 144 32 144 144 32 144 144 32 144 144 32 144 144 32 144 144 32 144 144 32 144 144 32 144 144 32 144 144 32 144 144 32 144 144 32 144 144 32 144 144 32 144 144 32 144 144 32 144 144 32 144 144 32 144 144 32 144 144 32 144 144 32 144 152 32 144 152 32 144 152 32 144 152 32 144 152 32 144 152 32 144 152 32 144 152 32 144 152 32 144 152 32 144 152 32 144 152 32 144 152 32 144 152 32 144 152 32 144 152 32 144 152 32 144 152 32 144 152 32 144 152 32 144 152 32 144 152 32 144 152 32 144 152 32 144 152 32 144 152 32 144 152 32 144 152 32 144 152 32 144 152 32 144 152 32 144 152 32 144
160 32 144 160 32 144 160 32 144 160 32 144 160 32 144 160 32 144 160 32 144 160 32 144 160 32 144 160 32 144 160 32 144 160 32 144 160 32 144 160 32 144 160 32 144 160 32 144 160 32 144 160 32 144 160 32 144 160 32 144 160 32 144 160 32 144 160 32 144 160 32 144 160 32 144 160 32 144 160 32 144 160 32 144 160 32 144 160 32 144 160 32 144 160 32 144 152 32 144 152 32 144 152 32 144 152 32 144 152 32 144 152 32 144 152 32 144 152 32 144 152 32 144 152 32 144 152 32 144 152 32 144 152 32 144 152 32 144 152 32 144 152 32 144 152 32 144 152 32 144 152 32 144 152 32 144 152 32 144 152 32 144 152 32 144 152 32 144 152 32 144 152 32 144 152 32 144 152 32 144 152 32 144 152 32 144 152 32 144 152 32 144 144 32 144 144 32 144 144 32 144 144 32 144 144 32 144 144 32 144 144 32 144 144 32 144 144 32 144 144 32 144 144 32 144 144 32 144 144 32 144 144 32 144 144 32 144 144 32 144 144 32 144 144 32 144 144 32 144 144 32 144 144 32 144 144 32 144 144 32 144 144 32 144 144 32 144 144 32 144 144 32 144 144 32 144 144 32 144 144 32 144 144 32 144 144 32 144 152 32 144 152 32 144 152 32 144 152 32 144 152 32 144 152 32 144 152 32 144 152 32 144 152 32 144 152 32 144 152 32 144 152 32 144 152 32 144 152 32 144 152 32 144 152 32 144 152 32 144 152 32 144 152 32 144 152 32 144 152 32 144 152 32 144 152 32 144 152 32 144 152 32 144 152 32 144 152 32 144 152 32 144 152 32 144 152 32 144 152 32 144 152 32 144
112 40 152 112 40 152 112 40 152 112 40 152 112 40 152 112 40 152 112 40 152 112 40 152 112 40 152 112 40 152 112 40 152 112 40 152 112 40 152 112 40 152 112 40 152 112 40 152 112 40 152 112 40 152 112 40 152 112 40 152 112 40 152 112 40 152 112 40 152 112 40 152 112 40 152 112 40 152 112 40 152 112 40 152 112 40 152 112 40 152 112 40 152 112 40 152 16 40 16 16 40 16 16 40 16 16 40 16 16 40 16 16 40 16 16 40 16 16 40 16 16 40 16 16 40 16 16 40 16 16 40 16 16 40 16 16 40 16 16 40 16 16 40 16 16 40 16 16 40 16 16 40 16 16 40 16 16 40 16 16 40 16 16 40 16 16 40 16 16 40 16 16 40 16 16 40 16 16 40 16 16 40 16 16 40 16 16 40 16 16 40 16 176 32 16 176 32 16 176 32 16 176 32 16 176 32 16 176 32 16 176 32 16 176 32 16 176 32 16 176 32 16 176 32 16 176 32 16 176 32 16 176 32 16 176 32 16 176 32 16 176 32 16 176 32 16 176 32 16 176 32 16 176 32 16 176 32 16 176 32 16 176 32 16 176 32 16 176 32 16 176 32 16 176 32 16 176 32 16 176 32 16 176 32 16 176 32 16 128 32 16 128 32 16 128 32 16 128 32 16 128 32 16 128 32 16 128 32 16 128 32 16 128 32 16 128 32 16 128 32 16 128 32 16 128 32 16 128 32 16 128 32 16 128 32 16 128 32 16 128 32 16 128 32 16 128 32 16 128 32 16 128 32 16 128 32 16 128 32 16 128 32 16 128 32 16 128 32 16 128 32 16 128 32 16 128 32 16 128 32 16 128 32 16
112 40 152 112 40 152 112 40 152 112 40 152 112 40 152 112 40 152 112 40 152 112 40 152 112 40 152 112 40 152 112 40 152 112 40 152 112 40 152 112 40 152 112 40 152 112 40 152 112 40 152 112 40 152 112 40 152 112 40 152 112 40 152 112 40 152 112 40 152 112 40 152 112 40 152 112 40 152 112 40 152 112 40 152 112 40 152 112 40 152 112 40 152 112 40 152 16 40 16 16 40 16 16 40 16 16 40 16 16 40 16 16 40 16 16 40 16 16 40 16 16 40 16 16 40 16 16 40 16 16 40 16 16 40 16 16 40 16 16 40 16 16 40 16 16 40 16 16 40 16 16 40 16 16 40 16 16 40 16 16 40 16 16 40 16 16 40 16 16 40 16 16 40 16 16 40 16 16 40 16 16 40 16 16 40 16 16 40 16 16 40 16 176 32 16 176 32 16 176 32 16 176 32 16 176 32 16 176 32 16 176 32 16 176 32 16 176 32 16 176 32 16 176 32 16 176 32 16 176 32 16 176 32 16 176 32 16 176 32 16 176 32 16 176 32 16 176 32 16 176 32 16 176 32 16 176 32 16 176 32 16 176 32 16 176 32 16 176 32 16 176 32 16 176 32 16 176 32 16 176 32 16 176 32 16 176 32 16 128 32 16 128 32 16 128 32 16 128 32 16 128 32 16 128 32 16 128 32 16 128 32 16 128 32 16 128 32 16 128 32 16 128 32 16 128 32 16 128 32 16 128 32 16 128 32 16 128 32 16 128 32 16 128 32 16 128 32 16 128 32 16 128 32 16 128 32 16 128 32 16 128 32 16 128 32 16 128 32 16 128 32 16 128 32 16 128 32 16 128 32 16 128 32 16
112 40 152 112 40 152 112 40 152 112 40 152 112 40 152 112 40 152 112 40 152 112 40 152 112 40 152 112 40 152 112 40 152 112 40 152 112 40 152 112 40 152 112 40 152 112 40 152 112 40 152 112 40 152 112 40 152 112 40 152 112 40 152 112 40 152 112 40 152 112 40 152 112 40 152 112 40 152 112 40 152 112 40 152 112 40 152 112 40 152 112 40 152 112 40 152 16 40 16 16 40 16 16 40 16 16 40 16 16 40 16 16 40 16 16 40 16 16 40 16 16 40 16 16 40 16 16 40 16 16 40 16 16 40 16 16 40 16 16 40 16 16 40 16 16 40 16 16 40 16 16 40 16 16 40 16 16 40 16 16 40 16 16 40 16 16 40 16 16 40 16 16 40 16 16 40 16 16 40 16 16 40 16 16 40 16 16 40 16 16 40 16 176 32 16 176 32 16 176 32 16 176 32 16 176 32 16 176 32 16 176 32 16 176 32 16 176 32 16 176 32 16 176 32 16 176 32 16 176 32 16 176 32 16 176 32 16 176 32 16 176 32 16 176 32 16 176 32 16 176 32 16 176 32 16 176 32 16 176 32 16 176 32 16 176 32 16 176 32 16 176 32 16 176 32 16 176 32 16 176 32 16 176 32 16 176 32 16 128 32 16 128 32 16 128 32 16 128 32 16 128 32 16 128 32 16 128 32 16 128 32 16 128 32 16 128 32 16 128 32 16 128 32 16 128 32 16 128 32 16 128 32 16 128 32 16 128 32 16 128 32 16 128 32 16 128 32 16 128 32 16 128 32 16 128 32 16 128 32 16 128 32 16 128 32 16 128 32 16 128 32 16 128 32 16 128 32 16 128 32 16 128 32 16
112 40 152 112 40 152 112 40 152 112 40 152 112 40 152 112 40 152 112 40 152 112 40 152 112 40 152 112 40 152 112 40 152 112 40 152 112 40 152 112 40 152 112 40 152 112 40 152 112 40 152 112 40 152 112 40 152 112 40 152 112 40 152 112 40 152 112 40 152 112 40 152 112 40 152 112 40 152 112 40 152 112 40 152 112 40 152 112 40 152 112 40 152 112 40 152 16 40 16 16 40 16 16 40 16 16 40 16 16 40 16 16 40 16 16 40 16 16 40 16 16 40 16 16 40 16 16 40 16 16 40 16 16 40 16 16 40 16 16 40 16 16 40 16 16 40 16 16 40 16 16 40 16 16 40 16 16 40 16 16 40 16 16 40 16 16 40 16 16 40 16 16 40 16 16 40 16 16 40 16 16 40 16 16 40 16 16 40 16 16 40 16 176 32 16 176 32 16 176 32 16 176 32 16 176 32 16 176 32 16 176 32 16 176 32 16 176 32 16 176 32 16 176 32 16 176 32 16 176 32 16 176 32 16 176 32 16 176 32 16 176 32 16 176 32 16 176 32 16 176 32 16 176 32 16 176 32 16 176 32 16 176 32 16 176 32 16 176 32 16 176 32 16 176 32 16 176 32 16 176 32 16 176 32 16 176 32 16 128 32 16 128 32 16 128 32 16 128 32 16 128 32 16 128 32 16 128 32 16 128 32 16 128 32 16 128 32 16 128 32 16 128 32 16 128 32 16 128 32 16 128 32 16 128 32 16 128 32 16 128 32 16 128 32 16 128 32 16 128 32 16 128 32 16 128 32 16 128 32 16 128 32 16 128 32 16 128 32 16 128 32 16 128 32 16 128 32 16 128 32 16 128 32 16
112 40 152 112 40 152 112 40 152 112 40 152 112 40 152 112 40 152 112 40 152 112 40 152 112 40 152 112 40 152 112 40 152 112 40 152 112 40 152 112 40 152 112 40 152 112 40 152 112 40 152 112 40 152 112 40 152 112 40 152 112 40 152 112 40 152 112 40 152 112 40 152 112 40 152 112 40 152 112 40 152 112 40 152 112 40 152 112 40 152 112 40 152 112 40 152 16 40 16 16 40 16 16 40 16 16 40 16 16 40 16 16 40 16 16 40 16 16 40 16 16 40 16 16 40 16 16 40 16 16 40 16 16 40 16 16 40 16 16 40 16 16 40 16 16 40 16 16 40 16 16 40 16 16 40 16 16 40 16 16 40 16 16 40 16 16 40 16 16 40 16 16 40 16 16 40 16 16 40 16 16 40 16 16 40 16 16 40 16 16 40 16 176 32 16 176 32 16 176 32 16 176 32 16 176 32 16 176 32 16 176 32 16 176 32 16 176 32 16 176 32 16 176 32 16 176 32 16 176 32 16 176 32 16 176 32 16 176 32 16 176 32 16 176 32 16 176 32 16 176 32 16 176 32 16 176 32 16 176 32 16 176 32 16 176 32 16 176 32 16 176 32 16 176 32 16 176 32 16 176 32 16 176 32 16 176 32 16 128 32 16 128 32 16 128 32 16 128 32 16 128 32 16 128 32 16 128 32 16 128 32 16 128 32 16 128 32 16 128 32 16 128 32 16 128 32 16 128 32 16 128 32 16 128 32 16 128 32 16 128 32 16 128 32 16 128 32 16 128 32 16 128 32 16 128 32 16 128 32 16 128 32 16 128 32 16 128 32 16 128 32 16 128 32 16 128 32 16 128 32 16 128 32 16
112 40 152 112 40 152 112 40 152 112 40 152 112 40 152 112 40 152 112 40 152 112 40 152 112 40 152 112 40 152 112 40 152 112 40 152 112 40 152 112 40 152 112 40 152 112 40 152 112 40 152 112 40 152 112 40 152 112 40 152 112 40 152 112 40 152 112 40 152 112 40 152 112 40 152 112 40 152 112 40 152 112 40 152 112 40 152 112 40 152 112 40 152 112 40 152 16 40 16 16 40 16 16 40 16 16 40 16 16 40 16 16 40 16 16 40 16 16 40 16 16 40 16 16 40 16 16 40 16 16 40 16 16 40 16 16 40 16 16 40 16 16 40 16 16 40 16 16 40 16 16 40 16 16 40 16 16 40 16 16 40 16 16 40 16 16 40 16 16 40 16 16 40 16 16 40 16 16 40 16 16 40 16 16 40 16 16 40 16 16 40 16 176 32 16 176 32 16 176 32 16 176 32 16 176 32 16 176 32 16 176 32 16 176 32 16 176 32 16 176 32 16 176 32 16 176 32 16 176 32 16 176 32 16 176 32 16 176 32 16 176 32 16 176 32 16 176 32 16 176 32 16 176 32 16 176 32 16 176 32 16 176 32 16 176 32 16 176 32 16 176 32 16 176 32 16 176 32 16 176 32 16 176 32 16 176 32 16 128 32 16 128 32 16 128 32 16 128 32 16 128 32 16 128 32 16 128 32 16 128 32 16 128 32 16 128 32 16 128 32 16 128 32 16 128 32 16 128 32 16 128 32 16 128 32 16 128 32 16 128 32 16 128 32 16 128 32 16 128 32 16 128 32 16 128 32 16 128 32 16 128 32 16 128 32 16 128 32 16 128 32 16 128 32 16 128 32 16 128 32 16 128 32 16
112 40 152 112 40 152 112 40 152 112 40 152 112 40 152 112 40 152 112 40 152 112 40 152 112 40 152 112 40 152 112 40 152 112 40 152 112 40 152 112 40 152 112 40 152 112 40 152 112 40 152 112 40 152 112 40 152 112 40 152 112 40 152 112 40 152 112 40 152 112 40 152 112 40 152 112 40 152 112 40 152 112 40 152 112 40 152 112 40 152 112 40 152 112 40 152 16 40 16 16 40 16 16 40 16 16 40 16 16 40 16 16 40 16 16 40 16 16 40 16 16 40 16 16 40 16 16 40 16 16 40 16 16 40 16 16 40 16 16 40 16 16 40 16 16 40 16 16 40 16 16 40 16 16 40 16 16 40 16 16 40 16 16 40 16 16 40 16 16 40 16 16 40 16 16 40 16 16 40 16 16 40 16 16 40 16 16 40 16 16 40 16 176 32 16 176 32 16 176 32 16 176 32 16 176 32 16 176 32 16 176 32 16 176 32 16 176 32 16 176 32 16 176 32 16 176 32 16 176 32 16 176 32 16 176 32 16 176 32 16 176 32 16 176 32 16 176 32 16 176 32 16 176 32 16 176 32 16 176 32 16 176 32 16 176 32 16 176 32 16 176 32 16 176 32 16 176 32 16 176 32 16 176 32 16 176 32 16 128 32 16 128 32 16 128 32 16 128 32 16 128 32 16 128 32 16 128 32 16 128 32 16 128 32 16 128 32 16 128 32 16 128 32 16 128 32 16 128 32 16 128 32 16 128 32 16 128 32 16 128 32 16 128 32 16 128 32 16 128 32 16 128 32 16 128 32 16 128 32 16 128 32 16 128 32 16 128 32 16 128 32 16 128 32 16 128 32 16 128 32 16 128 32 16
112 40 152 112 40 152 112 40 152 112 40 152 112 40 152 112 40 152 112 40 152 112 40 152 112 40 152 112 40 152 112 40 152 112 40 152 112 40 152 112 40 152 112 40 152 112 40 152 112 40 152 112 40 152 112 40 152 112 40 152 112 40 152 112 40 152 112 40 152 112 40 152 112 40 152 112 40 152 112 40 152 112 40 152 112 40 152 112 40 152 112 40 152 112 40 152 16 40 16 16 40 16 16 40 16 16 40 16 16 40 16 16 40 16 16 40 16 16 40 16 16 40 16 16 40 16 16 40 16 16 40 16 16 40 16 16 40 16 16 40 16 16 40 16 16 40 16 16 40 16 16 40 16 16 40 16 16 40 16 16 40 16 16 40 16 16 40 16 16 40 16 16 40 16 16 40 16 16 40 16 16 40 16 16 40 16 16 40 16 16 40 16 176 32 16 176 32 16 176 32 16 176 32 16 176 32 16 176 32 16 176 32 16 176 32 16 176 32 16 176 32 16 176 32 16 176 32 16 176 32 16 176 32 16 176 32 16 176 32 16 176 32 16 176 32 16 176 32 16 176 32 16 176 32 16 176 32 16 176 32 16 176 32 16 176 32 16 176 32 16 176 32 16 176 32 16 176 32 16 176 32 16 176 32 16 176 32 16 128 32 16 128 32 16 128 32 16 128 32 16 128 32 16 128 32 16 128 32 16 128 32 16 128 32 16 128 32 16 128 32 16 128 32 16 128 32 16 128 32 16 128 32 16 128 32 16 128 32 16 128 32 16 128 32 16 128 32 16 128 32 16 128 32 16 128 32 16 128 32 16 128 32 16 128 32 16 128 32 16 128 32 16 128 32 16 128 32 16 128 32 16 128 32 16
112 40 152 112 40 152 112 40 152 112 40 152 112 40 152 112 40 152 112 40 152 112 40 152 112 40 152 112 40 152 112 40 152 112 40 152 112 40 152 112 40 152 112 40 152 112 40 152 112 40 152 112 40 152 112 40 152 112 40 152 112 40 152 112 40 152 112 40 152 112 40 152 112 40 152 112 40 152 112 40 152 112 40 152 112 40 152 112 40 152 112 40 152 112 40 152 16 40 16 16 40 16 16 40 16 16 40 16 16 40 16 16 40 16 16 40 16 16 40 16 16 40 16 16 40 16 16 40 16 16 40 16 16 40 16 16 40 16 16 40 16 16 40 16 16 40 16 16 40 16 16 40 16 16 40 16 16 40 16 16 40 16 16 40 16 16 40 16 16 40 16 16 40 16 16 40 16 16 40 16 16 40 16 16 40 16 16 40 16 16 40 16 176 32 16 176 32 16 176 32 16 176 32 16 176 32 16 176 32 16 176 32 16 176 32 16 176 32 16 176 32 16 176 32 16 176 32 16 176 32 16 176 32 16 176 32 16 176 32 16 176 32 16 176 32 16 176 32 16 176 32 16 176 32 16 176 32 16 176 32 16 176 32 16 176 32 16 176 32 16 176 32 16 176 32 16 176 32 16 176 32 16 176 32 16 176 32 16 128 32 16 128 32 16 128 32 16 128 32 16 128 32 16 128 32 16 128 32 16 128 32 16 128 32 16 128 32 16 128 32 16 128 32 16 128 32 16 128 32 16 128 32 16 128 32 16 128 32 16 128 32 16 128 32 16 128 32 16 128 32 16 128 32 16 128 32 16 128 32 16 128 32 16 128 32 16 128 32 16 128 32 16 128 32 16 128 32 16 128 32 16 128 32 16
112 40 152 112 40 152 112 40 152 112 40 152 112 40 152 112 40 152 112 40 152 112 40 152 112 40 152 112 40 152 112 40 152 112 40 152 112 40 152 112 40 152 112 40 152 112 40 152 112 40 152 112 40 152 112 40 152 112 40 152 112 40 152 112 40 152 112 40 152 112 40 152 112 40 152 112 40 152 112 40 152 112 40 152 112 40 152 112 40 152 112 40 152 112 40 152 16 40 16 16 40 16 16 40 16 16 40 16 16 40 16 16 40 16 16 40 16 16 40 16 16 40 16 16 40 16 16 40 16 16 40 16 16 40 16 16 40 16 16 40 16 16 40 16 16 40 16 16 40 16 16 40 16 16 40 16 16 40 16 16 40 16 16 40 16 16 40 16 16 40 16 16 40 16 16 40 16 16 40 16 16 40 16 16 40 16 16 40 16 16 40 16 176 32 16 176 32 16 176 32 16 176 32 16 176 32 16 176 32 16 176 32 16 176 32 16 176 32 16 176 32 16 176 32 16 176 32 16 176 32 16 176 32 16 176 32 16 176 32 16 176 32 16 176 32 16 176 32 16 176 32 16 176 32 16 176 32 16 176 32 16 176 32 16 176 32 16 176 32 16 176 32 16 176 32 16 176 32 16 176 32 16 176 32 16 176 32 16 128 32 16 128 32 16 128 32 16 128 32 16 128 32 16 128 32 16 128 32 16 128 32 16 128 32 16 128 32 16 128 32 16 128 32 16 128 32 16 128 32 16 128 32 16 128 32 16 128 32 16 128 32 16 128 32 16 128 32 16 128 32 16 128 32 16 128 32 16 128 32 16 128 32 16 128 32 16 128 32 16 128 32 16 128 32 16 128 32 16 128 32 16 128 32 16
112 40 152 112 40 152 112 40 152 112 40 152 112 40 152 112 40 152 112 40 152 112 40 152 112 40 152 112 40 152 112 40 152 112 40 152 112 40 152 112 40 152 112 40 152 112 40 152 112 40 152 112 40 152 112 40 152 112 40 152 112 40 152 112 40 152 112 40 152 112 40 152 112 40 152 112 40 152 112 40 152 112 40 152 112 40 152 112 40 152 112 40 152 112 40 152 16 40 16 16 40 16 16 40 16 16 40 16 16 40 16 16 40 16 16 40 16 16 40 16 16 40 16 16 40 16 16 40 16 16 40 16 16 40 16 16 40 16 16 40 16 16 40 16 16 40 16 16 40 16 16 40 16 16 40 16 16 40 16 16 40 16 16 40 16 16 40 16 16 40 16 16 40 16 16 40 16 16 40 16 16 40 16 16 40 16 16 40 16 16 40 16 176 32 16 176 32 16 176 32 16 176 32 16 176 32 16 176 32 16 176 32 16 176 32 16 176 32 16 176 32 16 176 32 16 176 32 16 176 32 16 176 32 16 176 32 16 176 32 16 176 32 16 176 32 16 176 32 16 176 32 16 176 32 16 176 32 16 176 32 16 176 32 16 176 32 16 176 32 16 176 32 16 176 32 16 176 32 16 176 32 16 176 32 16 176 32 16 128 32 16 128 32 16 128 32 16 128 32 16 128 32 16 128 32 16 128 32 16 128 32 16 128 32 16 128 32 16 128 32 16 128 32 16 128 32 16 128 32 16 128 32 16 128 32 16 128 32 16 128 32 16 128 32 16 128 32 16 128 32 16 128 32 16 128 32 16 128 32 16 128 32 16 128 32 16 128 32 16 128 32 16 128 32 16 128 32 16 128 32 16 128 32 16
112 40 152 112 40 152 112 40 152 112 40 152 112 40 152 112 40 152 112 40 152 112 40 152 112 40 152 112 40 152 112 40 152 112 40 152 112 40 152 112 40 152 112 40 152 112 40 152 112 40 152 112 40 152 112 40 152 112 40 152 112 40 152 112 40 152 112 40 152 112 40 152 112 40 152 112 40 152 112 40 152 112 40 152 112 40 152 112 40 152 112 40 152 112 40 152 16 40 16 16 40 16 16 40 16 16 40 16 16 40 16 16 40 16 16 40 16 16 40 16 16 40 16 16 40 16 16 40 16 16 40 16 16 40 16 16 40 16 16 40 16 16 40 16 16 40 16 16 40 16 16 40 16 16 40 16 16 40 16 16 40 16 16 40 16 16 40 16 16 40 16 16 40 16 16 40 16 16 40 16 16 40 16 16 40 16 16 40 16 16 40 16 176 32 16 176 32 16 176 32 16 176 32 16 176 32 16 176 32 16 176 32 16 176 32 16 176 32 16 176 32 16 176 32 16 176 32 16 176 32 16 176 32 16 176 32 16 176 32 16 176 32 16 176 32 16 176 32 16 176 32 16 176 32 16 176 32 16 176 32 16 176 32 16 176 32 16 176 32 16 176 32 16 176 32 16 176 32 16 176 32 16 176 32 16 176 32 16 128 32 16 128 32 16 128 32 16 128 32 16 128 32 16 128 32 16 128 32 16 128 32 16 128 32 16 128 32 16 128 32 16 128 32 16 128 32 16 128 32 16 128 32 16 128 32 16 128 32 16 128 32 16 128 32 16 128 32 16 128 32 16 128 32 16 128 32 16 128 32 16 128 32 16 128 32 16 128 32 16 128 32 16 128 32 16 128 32 16 128 32 16 128 32 16
112 40 152 112 40 152 112 40 152 112 40 152 112 40 152 112 40 152 112 40 152 112 40 152 112 40 152 112 40 152 112 40 152 112 40 152 112 40 152 112 40 152 112 40 152 112 40 152 112 40 152 112 40 152 112 40 152 112 40 152 112 40 152 112 40 152 112 40 152 112 40 152 112 40 152 112 40 152 112 40 152 112 40 152 112 40 152 112 40 152 112 40 152 112 40 152 16 40 16 16 40 16 16 40 16 16 40 16 16 40 16 16 40 16 16 40 16 16 40 16 16 40 16 16 40 16 16 40 16 16 40 16 16 40 16 16 40 16 16 40 16 16 40 16 16 40 16 16 40 16 16 40 16 16 40 16 16 40 16 16 40 16 16 40 16 16 40 16 16 40 16 16 40 16 16 40 16 16 40 16 16 40 16 16 40 16 16 40 16 16 40 16 176 32 16 176 32 16 176 32 16 176 32 16 176 32 16 176 32 16 176 32 16 176 32 16 176 32 16 176 32 16 176 32 16 176 32 16 176 32 16 176 32 16 176 32 16 176 32 16 176 32 16 176 32 16 176 32 16 176 32 16 176 32 16 176 32 16 176 32 16 176 32 16 176 32 16 176 32 16 176 32 16 176 32 16 176 32 16 176 32 16 176 32 16 176 32 16 128 32 16 128 32 16 128 32 16 128 32 16 128 32 16 128 32 16 128 32 16 128 32 16 128 32 16 128 32 16 128 32 16 128 32 16 128 32 16 128 32 16 128 32 16 128 32 16 128 32 16 128 32 16 128 32 16 128 32 16 128 32 16 128 32 16 128 32 16 128 32 16 128 32 16 128 32 16 128 32 16 128 32 16 128 32 16 128 32 16 128 32 16 128 32 16
112 40 152 112 40 152 112 40 152 112 40 152 112 40 152 112 40 152 112 40 152 112 40 152 112 40 152 112 40 152 112 40 152 112 40 152 112 40 152 112 40 152 112 40 152 112 40 152 112 40 152 112 40 152 112 40 152 112 40 152 112 40 152 112 40 152 112 40 152 112 40 152 112 40 152 112 40 152 112 40 152 112 40 152 112 40 152 112 40 152 112 40 152 112 40 152 16 40 16 16 40 16 16 40 16 16 40 16 16 40 16 16 40 16 16 40 16 16 40 16 16 40 16 16 40 16 16 40 16 16 40 16 16 40 16 16 40 16 16 40 16 16 40 16 16 40 16 16 40 16 16 40 16 16 40 16 16 40 16 16 40 16 16 40 16 16 40 16 16 40 16 16 40 16 16 40 16 16 40 16 16 40 16 16 40 16 16 40 16 16 40 16 176 32 16 176 32 16 176 32 16 176 32 16 176 32 16 176 32 16 176 32 16 176 32 16 176 32 16 176 32 16 176 32 16 176 32 16 176 32 16 176 32 16 176 32 16 176 32 16 176 32 16 176 32 16 176 32 16 176 32 16 176 32 16 176 32 16 176 32 16 176 32 16 176 32 16 176 32 16 176 32 16 176 32 16 176 32 16 176 32 16 176 32 16 176 32 16 128 32 16 128 32 16 128 32 16 128 32 16 128 32 16 128 32 16 128 32 16 128 32 16 128 32 16 128 32 16 128 32 16 128 32 16 128 32 16 128 32 16 128 32 16 128 32 16 128 32 16 128 32 16 128 32 16 128 32 16 128 32 16 128 32 16 128 32 16 128 32 16 128 32 16 128 32 16 128 32 16 128 32 16 128 32 16 128 32 16 128 32 16 128 32 16
112 40 152 112 40 152 112 40 152 112 40 152 112 40 152 112 40 152 112 40 152 112 40 152 112 40 152 112 40 152 112 40 152 112 40 152 112 40 152 112 40 152 112 40 152 112 40 152 112 40 152 112 40 152 112 40 152 112 40 152 112 40 152 112 40 152 112 40 152 112 40 152 112 40 152 112 40 152 112 40 152 112 40 152 112 40 152 112 40 152 112 40 152 112 40 152 16 40 16 16 40 16 16 40 16 16 40 16 16 40 16 16 40 16 16 40 16 16 40 16 16 40 16 16 40 16 16 40 16 16 40 16 16 40 16 16 40 16 16 40 16 16 40 16 16 40 16 16 40 16 16 40 16 16 40 16 16 40 16 16 40 16 16 40 16 16 40 16 16 40 16 16 40 16 16 40 16 16 40 16 16 40 16 16 40 16 16 40 16 16 40 16 176 32 16 176 32 16 176 32 16 176 32 16 176 32 16 176 32 16 176 32 16 176 32 16 176 32 16 176 32 16 176 32 16 176 32 16 176 32 16 176 32 16 176 32 16 176 32 16 176 32 16 176 32 16 176 32 16 176 32 16 176 32 16 176 32 16 176 32 16 176 32 16 176 32 16 176 32 16 176 32 16 176 32 16 176 32 16 176 32 16 176 32 16 176 32 16 128 32 16 128 32 16 128 32 16 128 32 16 128 32 16 128 32 16 128 32 16 128 32 16 128 32 16 128 32 16 128 32 16 128 32 16 128 32 16 128 32 16 128 32 16 128 32 16 128 32 16 128 32 16 128 32 16 128 32 16 128 32 16 128 32 16 128 32 16 128 32 16 128 32 16 128 32 16 128 32 16 128 32 16 128 32 16 128 32 16 128 32 16 128 32 16
112 40 152 112 40 152 112 40 152 112 40 152 112 40 152 112 40 152 112 40 152 112 40 152 112 40 152 112 40 152 112 40 152 112 40 152 112 40 152 112 40 152 112 40 152 112 40 152 112 40 152 112 40 152 112 40 152 112 40 152 112 40 152 112 40 152 112 40 152 112 40 152 112 40 152 112 40 152 112 40 152 112 40 152 112 40 152 112 40 152 112 40 152 112 40 152 16 40 16 16 40 16 16 40 16 16 40 16 16 40 16 16 40 16 16 40 16 16 40 16 16 40 16 16 40 16 16 40 16 16 40 16 16 40 16 16 40 16 16 40 16 16 40 16 16 40 16 16 40 16 16 40 16 16 40 16 16 40 16 16 40 16 16 40 16 16 40 16 16 40 16 16 40 16 16 40 16 16 40 16 16 40 16 16 40 16 16 40 16 16 40 16 176 32 16 176 32 16 176 32 16 176 32 16 176 32 16 176 32 16 176 32 16 176 32 16 176 32 16 176 32 16 176 32 16 176 32 16 176 32 16 176 32 16 176 32 16 176 32 16 176 32 16 176 32 16 176 32 16 176 32 16 176 32 16 176 32 16 176 32 16 176 32 16 176 32 16 176 32 16 176 32 16 176 32 16 176 32 16 176 32 16 176 32 16 176 32 16 128 32 16 128 32 16 128 32 16 128 32 16 128 32 16 128 32 16 128 32 16 128 32 16 128 32 16 128 32 16 128 32 16 128 32 16 128 32 16 128 32 16 128 32 16 128 32 16 128 32 16 128 32 16 128 32 16 128 32 16 128 32 16 128 32 16 128 32 16 128 32 16 128 32 16 128 32 16 128 32 16 128 32 16 128 32 16 128 32 16 128 32 16 128 32 16
112 40 152 112 40 152 112 40 152 112 40 152 112 40 152 112 40 152 112 40 152 112 40 152 112 40 152 112 40 152 112 40 152 112 40 152 112 40 152 112 40 152 112 40 152 112 40 152 112 40 152 112 40 152 112 40 152 112 40 152 112 40 152 112 40 152 112 40 152 112 40 152 112 40 152 112 40 152 112 40 152 112 40 152 112 40 152 112 40 152 112 40 152 112 40 152 16 40 16 16 40 16 16 40 16 16 40 16 16 40 16 16 40 16 16 40 16 16 40 16 16 40 16 16 40 16 16 40 16 16 40 16 16 40 16 16 40 16 16 40 16 16 40 16 16 40 16 16 40 16 16 40 16 16 40 16 16 40 16 16 40 16 16 40 16 16 40 16 16 40 16 16 40 16 16 40 16 16 40 16 16 40 16 16 40 16 16 40 16 16 40 16 176 32 16 176 32 16 176 32 16 176 32 16 176 32 16 176 32 16 176 32 16 176 32 16 176 32 16 176 32 16 176 32 16 176 32 16 176 32 16 176 32 16 176 32 16 176 32 16 176 32 16 176 32 16 176 32 16 176 32 16 176 32 16 176 32 16 176 32 16 176 32 16 176 32 16 176 32 16 176 32 16 176 32 16 176 32 16 176 32 16 176 32 16 176 32 16 128 32 16 128 32 16 128 32 16 128 32 16 128 32 16 128 32 16 128 32 16 128 32 16 128 32 16 128 32 16 128 32 16 128 32 16 128 32 16 128 32 16 128 32 16 128 32 16 128 32 16 128 32 16 128 32 16 128 32 16 128 32 16 128 32 16 128 32 16 128 32 16 128 32 16 128 32 16 128 32 16 128 32 16 128 32 16 128 32 16 128 32 16 128 32 16
112 40 152 112 40 152 112 40 152 112 40 152 112 40 152 112 40 152 112 40 152 112 40 152 112 40 152 112 40 152 112 40 152 112 40 152 112 40 152 112 40 152 112 40 152 112 40 152 112 40 152 112 40 152 112 40 152 112 40 152 112 40 152 112 40 152 112 40 152 112 40 152 112 40 152 112 40 152 112 40 152 112 40 152 112 40 152 112 40 152 112 40 152 112 40 152 16 40 16 16 40 16 16 40 16 16 40 16 16 40 16 16 40 16 16 40 16 16 40 16 16 40 16 16 40 16 16 40 16 16 40 16 16 40 16 16 40 16 16 40 16 16 40 16 16 40 16 16 40 16 16 40 16 16 40 16 16 40 16 16 40 16 16 40 16 16 40 16 16 40 16 16 40 16 16 40 16 16 40 16 16 40 16 16 40 16 16 40 16 16 40 16 176 32 16 176 32 16 176 32 16 176 32 16 176 32 16 176 32 16 176 32 16 176 32 16 176 32 16 176 32 16 176 32 16 176 32 16 176 32 16 176 32 16 176 32 16 176 32 16 176 32 16 176 32 16 176 32 16 176 32 16 176 32 16 176 32 16 176 32 16 176 32 16 176 32 16 176 32 16 176 32 16 176 32 16 176 32 16 176 32 16 176 32 16 176 32 16 128 32 16 128 32 16 128 32 16 128 32 16 128 32 16 128 32 16 128 32 16 128 32 16 128 32 16 128 32 16 128 32 16 128 32 16 128 32 16 128 32 16 128 32 16 128 32 16 128 32 16 128 32 16 128 32 16 128 32 16 128 32 16 128 32 16 128 32 16 128 32 16 128 32 16 128 32 16 128 32 16 128 32 16 128 32 16 128 32 16 128 32 16 128 32 16
112 40 152 112 40 152 112 40 152 112 40 152 112 40 152 112 40 152 112 40 152 112 40 152 112 40 152 112 40 152 112 40 152 112 40 152 112 40 152 112 40 152 112 40 152 112 40 152 112 40 152 112 40 152 112 40 152 112 40 152 112 40 152 112 40 152 112 40 152 112 40 152 112 40 152 112 40 152 112 40 152 112 40 152 112 40 152 112 40 152 112 40 152 112 40 152 16 40 16 16 40 16 16 40 16 16 40 16 16 40 16 16 40 16 16 40 16 16 40 16 16 40 16 16 40 16 16 40 16 16 40 16 16 40 16 16 40 16 16 40 16 16 40 16 16 40 16 16 40 16 16 40 16 16 40 16 16 40 16 16 40 16 16 40 16 16 40 16 16 40 16 16 40 16 16 40 16 16 40 16 16 40 16 16 40 16 16 40 16 16 40 16 176 32 16 176 32 16 176 32 16 176 32 16 176 32 16 176 32 16 176 32 16 176 32 16 176 32 16 176 32 16 176 32 16 176 32 16 176 32 16 176 32 16 176 32 16 176 32 16 176 32 16 176 32 16 176 32 16 176 32 16 176 32 16 176 32 16 176 32 16 176 32 16 176 32 16 176 32 16 176 32 16 176 32 16 176 32 16 176 32 16 176 32 16 176 32 16 128 32 16 128 32 16 128 32 16 128 32 16 128 32 16 128 32 16 128 32 16 128 32 16 128 32 16 128 32 16 128 32 16 128 32 16 128 32 16 128 32 16 128 32 16 128 32 16 128 32 16 128 32 16 128 32 16 128 32 16 128 32 16 128 32 16 128 32 16 128 32 16 128 32 16 128 32 16 128 32 16 128 32 16 128 32 16 128 32 16 128 32 16 128 32 16
112 40 152 112 40 152 112 40 152 112 40 152 112 40 152 112 40 152 112 40 152 112 40 152 112 40 152 112 40 152 112 40 152 112 40 152 112 40 152 112 40 152 112 40 152 112 40 152 112 40 152 112 40 152 112 40 152 112 40 152 112 40 152 112 40 152 112 40 152 112 40 152 112 40 152 112 40 152 112 40 152 112 40 152 112 40 152 112 40 152 112 40 152 112 40 152 16 40 16 16 40 16 16 40 16 16 40 16 16 40 16 16 40 16 16 40 16 16 40 16 16 40 16 16 40 16 16 40 16 16 40 16 16 40 16 16 40 16 16 40 16 16 40 16 16 40 16 16 40 16 16 40 16 16 40 16 16 40 16 16 40 16 16 40 16 16 40 16 16 40 16 16 40 16 16 40 16 16 40 16 16 40 16 16 40 16 16 40 16 16 40 16 176 32 16 176 32 16 176 32 16 176 32 16 176 32 16 176 32 16 176 32 16 176 32 16 176 32 16 176 32 16 176 32 16 176 32 16 176 32 16 176 32 16 176 32 16 176 32 16 176 32 16 176 32 16 176 32 16 176 32 16 176 32 16 176 32 16 176 32 16 176 32 16 176 32 16 176 32 16 176 32 16 176 32 16 176 32 16 176 32 16 176 32 16 176 32 16 128 32 16 128 32 16 128 32 16 128 32 16 128 32 16 128 32 16 128 32 16 128 32 16 128 32 16 128 32 16 128 32 16 128 32 16 128 32 16 128 32 16 128 32 16 128 32 16 128 32 16 128 32 16 128 32 16 128 32 16 128 32 16 128 32 16 128 32 16 128 32 16 128 32 16 128 32 16 128 32 16 128 32 16 128 32 16 128 32 16 128 32 16 128 32 16
112 40 152 112 40 152 112 40 152 112 40 152 112 40 152 112 40 152 112 40 152 112 40 152 112 40 152 112 40 152 112 40 152 112 40 152 112 40 152 112 40 152 112 40 152 112 40 152 112 40 152 112 40 152 112 40 152 112 40 152 112 40 152 112 40 152 112 40 152 112 40 152 112 40 152 112 40 152 112 40 152 112 40 152 112 40 152 112 40 152 112 40 152 112 40 152 16 40 16 16 40 16 16 40 16 16 40 16 16 40 16 16 40 16 16 40 16 16 40 16 16 40 16 16 40 16 16 40 16 16 40 16 16 40 16 16 40 16 16 40 16 16 40 16 16 40 16 16 40 16 16 40 16 16 40 16 16 40 16 16 40 16 16 40 16 16 40 16 16 40 16 16 40 16 16 40 16 16 40 16 16 40 16 16 40 16 16 40 16 16 40 16 176 32 16 176 32 16 176 32 16 176 32 16 176 32 16 176 32 16 176 32 16 176 32 16 176 32 16 176 32 16 176 32 16 176 32 16 176 32 16 176 32 16 176 32 16 176 32 16 176 32 16 176 32 16 176 32 16 176 32 16 176 32 16 176 32 16 176 32 16 176 32 16 176 32 16 176 32 16 176 32 16 176 32 16 176 32 16 176 32 16 176 32 16 176 32 16 128 32 16 128 32 16 128 32 16 128 32 16 128 32 16 128 32 16 128 32 16 128 32 16 128 32 16 128 32 16 128 32 16 128 32 16 128 32 16 128 32 16 128 32 16 128 32 16 128 32 16 128 32 16 128 32 16 128 32 16 128 32 16 128 32 16 128 32 16 128 32 16 128 32 16 128 32 16 128 32 16 128 32 16 128 32 16 128 32 16 128 32 16 128 32 16
112 40 152 112 40 152 112 40 152 112 40 152 112 40 152 112 40 152 112 40 152 112 40 152 112 40 152 112 40 152 112 40 152 112 40 152 112 40 152 112 40 152 112 40 152 112 40 152 112 40 152 112 40 152 112 40 152 112 40 152 112 40 152 112 40 152 112 40 152 112 40 152 112 40 152 112 40 152 112 40 152 112 40 152 112 40 152 112 40 152 112 40 152 112 40 152 16 40 16 16 40 16 16 40 16 16 40 16 16 40 16 16 40 16 16 40 16 16 40 16 16 40 16 16 40 16 16 40 16 16 40 16 16 40 16 16 40 16 16 40 16 16 40 16 16 40 16 16 40 16 16 40 16 16 40 16 16 40 16 16 40 16 16 40 16 16 40 16 16 40 16 16 40 16 16 40 16 16 40 16 16 40 16 16 40 16 16 40 16 16 40 16 176 32 16 176 32 16 176 32 16 176 32 16 176 32 16 176 32 16 176 32 16 176 32 16 176 32 16 176 32 16 176 32 16 176 32 16 176 32 16 176 32 16 176 32 16 176 32 16 176 32 16 176 32 16 176 32 16 176 32 16 176 32 16 176 32 16 176 32 16 176 32 16 176 32 16 176 32 16 176 32 16 176 32 16 176 32 16 176 32 16 176 32 16 176 32 16 128 32 16 128 32 16 128 32 16 128 32 16 128 32 16 128 32 16 128 32 16 128 32 16 128 32 16 128 32 16 128 32 16 128 32 16 128 32 16 128 32 16 128 32 16 128 32 16 128 32 16 128 32 16 128 32 16 128 32 16 128 32 16 128 32 16 128 32 16 128 32 16 128 32 16 128 32 16 128 32 16 128 32 16 128 32 16 128 32 16 128 32 16 128 32 16
112 40 152 112 40 152 112 40 152 112 40 152 112 40 152 112 40 152 112 40 152 112 40 152 112 40 152 112 40 152 112 40 152 112 40 152 112 40 152 112 40 152 112 40 152 112 40 152 112 40 152 112 40 152 112 40 152 112 40 152 112 40 152 112 40 152 112 40 152 112 40 152 112 40 152 112 40 152 112 40 152 112 40 152 112 40 152 112 40 152 112 40 152 112 40 152 16 40 16 16 40 16 16 40 16 16 40 16 16 40 16 16 40 16 16 40 16 16 40 16 16 40 16 16 40 16 16 40 16 16 40 16 16 40 16 16 40 16 16 40 16 16 40 16 16 40 16 16 40 16 16 40 16 16 40 16 16 40 16 16 40 16 16 40 16 16 40 16 16 40 16 16 40 16 16 40 16 16 40 16 16 40 16 16 40 16 16 40 16 16 40 16 176 32 16 176 32 16 176 32 16 176 32 16 176 32 16 176 32 16 176 32 16 176 32 16 176 32 16 176 32 16 176 32 16 176 32 16 176 32 16 176 32 16 176 32 16 176 32 16 176 32 16 176 32 16 176 32 16 176 32 16 176 32 16 176 32 16 176 32 16 176 32 16 176 32 16 176 32 16 176 32 16 176 32 16 176 32 16 176 32 16 176 32 16 176 32 16 128 32 16 128 32 16 128 32 16 128 32 16 128 32 16 128 32 16 128 32 16 128 32 16 128 32 16 128 32 16 128 32 16 128 32 16 128 32 16 128 32 16 128 32 16 128 32 16 128 32 16 128 32 16 128 32 16 128 32 16 128 32 16 128 32 16 128 32 16 128 32 16 128 32 16 128 32 16 128 32 16 128 32 16 128 32 16 128 32 16 128 32 16 128 32 16
112 40 152 112 40 152 112 40 152 112 40 152 112 40 152 112 40 152 112 40 152 112 40 152 112 40 152 112 40 152 112 40 152 112 40 152 112 40 152 112 40 152 112 40 152 112 40 152 112 40 152 112 40 152 112 40 152 112 40 152 112 40 152 112 40 152 112 40 152 112 40 152 112 40 152 112 40 152 112 40 152 112 40 152 112 40 152 112 40 152 112 40 152 112 40 152 16 40 16 16 40 16 16 40 16 16 40 16 16 40 16 16 40 16 16 40 16 16 40 16 16 40 16 16 40 16 16 40 16 16 40 16 16 40 16 16 40 16 16 40 16 16 40 16 16 40 16 16 40 16 16 40 16 16 40 16 16 40 16 16 40 16 16 40 16 16 40 16 16 40 16 16 40 16 16 40 16 16 40 16 16 40 16 16 40 16 16 40 16 16 40 16 176 32 16 176 32 16 176 32 16 176 32 16 176 32 16 176 32 16 176 32 16 176 32 16 176 32 16 176 32 16 176 32 16 176 32 16 176 32 16 176 32 16 176 32 16 176 32 16 176 32 16 176 32 16 176 32 16 176 32 16 176 32 16 176 32 16 176 32 16 176 32 16 176 32 16 176 32 16 176 32 16 176 32 16 176 32 16 176 32 16 176 32 16 176 32 16 128 32 16 128 32 16 128 32 16 128 32 16 128 32 16 128 32 16 128 32 16 128 32 16 128 32 16 128 32 16 128 32 16 128 32 16 128 32 16 128 32 16 128 32 16 128 32 16 128 32 16 128 32 16 128 32 16 128 32 16 128 32 16 128 32 16 128 32 16 128 32 16 128 32 16 128 32 16 128 32 16 128 32 16 128 32 16 128 32 16 128 32 16 128 32 16
112 40 152 112 40 152 112 40 152 112 40 152 112 40 152 112 40 152 112 40 152 112 40 152 112 40 152 112 40 152 112 40 152 112 40 152 112 40 152 112 40 152 112 40 152 112 40 152 112 40 152 112 40 152 112 40 152 112 40 152 112 40 152 112 40 152 112 40 152 112 40 152 112 40 152 112 40 152 112 40 152 112 40 152 112 40 152 112 40 152 112 40 152 112 40 152 16 40 16 16 40 16 16 40 16 16 40 16 16 40 16 16 40 16 16 40 16 16 40 16 16 40 16 16 40 16 16 40 16 16 40 16 16 40 16 16 40 16 16 40 16 16 40 16 16 40 16 16 40 16 16 40 16 16 40 16 16 40 16 16 40 16 16 40 16 16 40 16 16 40 16 16 40 16 16 40 16 16 40 16 16 40 16 16 40 16 16 40 16 16 40 16 176 32 16 176 32 16 176 32 16 176 32 16 176 32 16 176 32 16 176 32 16 176 32 16 176 32 16 176 32 16 176 32 16 176 32 16 176 32 16 176 32 16 176 32 16 176 32 16 176 32 16 176 32 16 176 32 16 176 32 16 176 32 16 176 32 16 176 32 16 176 32 16 176 32 16 176 32 16 176 32 16 176 32 16 176 32 16 176 32 16 176 32 16 176 32 16 128 32 16 128 32 16 128 32 16 128 32 16 128 32 16 128 32 16 128 32 16 128 32 16 128 32 16 128 32 16 128 32 16 128 32 16 128 32 16 128 32 16 128 32 16 128 32 16 128 32 16 128 32 16 128 32 16 128 32 16 128 32 16 128 32 16 128 32 16 128 32 16 128 32 16 128 32 16 128 32 16 128 32 16 128 32 16 128 32 16 128 32 16 128 32 16
112 40 152 112 40 152 112 40 152 112 40 152 112 40 152 112 40 152 112 40 152 112 40 152 112 40 152 112 40 152 112 40 152 112 40 152 112 40 152 112 40 152 112 40 152 112 40 152 112 40 152 112 40 152 112 40 152 112 40 152 112 40 152 112 40 152 112 40 152 112 40 152 112 40 152 112 40 152 112 40 152 112 40 152 112 40 152 112 40 152 112 40 152 112 40 152 16 40 16 16 40 16 16 40 16 16 40 16 16 40 16 16 40 16 16 40 16 16 40 16 16 40 16 16 40 16 16 40 16 16 40 16 16 40 16 16 40 16 16 40 16 16 40 16 16 40 16 16 40 16 16 40 16 16 40 16 16 40 16 16 40 16 16 40 16 16 40 16 16 40 16 16 40 16 16 40 16 16 40 16 16 40 16 16 40 16 16 40 16 16 40 16 176 32 16 176 32 16 176 32 16 176 32 16 176 32 16 176 32 16 176 32 16 176 32 16 176 32 16 176 32 16 176 32 16 176 32 16 176 32 16 176 32 16 176 32 16 176 32 16 176 32 16 176 32 16 176 32 16 176 32 16 176 32 16 176 32 16 176 32 16 176 32 16 176 32 16 176 32 16 176 32 16 176 32 16 176 32 16 176 32 16 176 32 16 176 32 16 128 32 16 128 32 16 128 32 16 128 32 16 128 32 16 128 32 16 128 32 16 128 32 16 128 32 16 128 32 16 128 32 16 128 32 16 128 32 16 128 32 16 128 32 16 128 32 16 128 32 16 128 32 16 128 32 16 128 32 16 128 32 16 128 32 16 128 32 16 128 32 16 128 32 16 128 32 16 128 32 16 128 32 16 128 32 16 128 32 16 128 32 16 128 32 16
112 40 152 112 40 152 112 40 152 112 40 152 112 40 152 112 40 152 112 40 152 112 40 152 112 40 152 112 40 152 112 40 152 112 40 152 112 40 152 112 40 152 112 40 152 112 40 152 112 40 152 112 40 152 112 40 152 112 40 152 112 40 152 112 40 152 112 40 152 112 40 152 112 40 152 112 40 152 112 40 152 112 40 152 112 40 152 112 40 152 112 40 152 112 40 152 16 40 16 16 40 16 16 40 16 16 40 16 16 40 16 16 40 16 16 40 16 16 40 16 16 40 16 16 40 16 16 40 16 16 40 16 16 40 16 16 40 16 16 40 16 16 40 16 16 40 16 16 40 16 16 40 16 16 40 16 16 40 16 16 40 16 16 40 16 16 40 16 16 40 16 16 40 16 16 40 16 16 40 16 16 40 16 16 40 16 16 40 16 16 40 16 176 32 16 176 32 16 176 32 16 176 32 16 176 32 16 176 32 16 176 32 16 176 32 16 176 32 16 176 32 16 176 32 16 176 32 16 176 32 16 176 32 16 176 32 16 176 32 16 176 32 16 176 32 16 176 32 16 176 32 16 176 32 16 176 32 16 176 32 16 176 32 16 176 32 16 176 32 16 176 32 16 176 32 16 176 32 16 176 32 16 176 32 16 176 32 16 128 32 16 128 32 16 128 32 16 128 32 16 128 32 16 128 32 16 128 32 16 128 32 16 128 32 16 128 32 16 128 32 16 128 32 16 128 32 16 128 32 16 128 32 16 128 32 16 128 32 16 128 32 16 128 32 16 128 32 16 128 32 16 128 32 16 128 32 16 128 32 16 128 32 16 128 32 16 128 32 16 128 32 16 128 32 16 128 32 16 128 32 16 128 32 16
112 40 152 112 40 152 112 40 152 112 40 152 112 40 152 112 40 152 112 40 152 112 40 152 112 40 152 112 40 152 112 40 152 112 40 152 112 40 152 112 40 152 112 40 152 112 40 152 112 40 152 112 40 152 112 40 152 112 40 152 112 40 152 112 40 152 112 40 152 112 40 152 112 40 152 112 40 152 112 40 152 112 40 152 112 40 152 112 40 152 112 40 152 112 40 152 16 40 16 16 40 16 16 40 16 16 40 16 16 40 16 16 40 16 16 40 16 16 40 16 16 40 16 16 40 16 16 40 16 16 40 16 16 40 16 16 40 16 16 40 16 16 40 16 16 40 16 16 40 16 16 40 16 16 40 16 16 40 16 16 40 16 16 40 16 16 40 16 16 40 16 16 40 16 16 40 16 16 40 16 16 40 16 16 40 16 16 40 16 16 40 16 176 32 16 176 32 16 176 32 16 176 32 16 176 32 16 176 32 16 176 32 16 176 32 16 176 32 16 176 32 16 176 32 16 176 32 16 176 32 16 176 32 16 176 32 16 176 32 16 176 32 16 176 32 16 176 32 16 176 32 16 176 32 16 176 32 16 176 32 16 176 32 16 176 32 16 176 32 16 176 32 16 176 32 16 176 32 16 176 32 16 176 32 16 176 32 16 128 32 16 128 32 16 128 32 16 128 32 16 128 32 16 128 32 16 128 32 16 128 32 16 128 32 16 128 32 16 128 32 16 128 32 16 128 32 16 128 32 16 128 32 16 128 32 16 128 32 16 128 32 16 128 32 16 128 32 16 128 32 16 128 32 16 128 32 16 128 32 16 128 32 16 128 32 16 128 32 16 128 32 16 128 32 16 128 32 16 128 32 16 128 32 16
112 40 152 112 40 152 112 40 152 112 40 152 112 40 152 112 40 152 112 40 152 112 40 152 112 40 152 112 40 152 112 40 152 112 40 152 112 40 152 112 40 152 112 40 152 112 40 152 112 40 152 112 40 152 112 40 152 112 40 152 112 40 152 112 40 152 112 40 152 112 40 152 112 40 152 112 40 152 112 40 152 112 40 152 112 40 152 112 40 152 112 40 152 112 40 152 16 40 16 16 40 16 16 40 16 16 40 16 16 40 16 16 40 16 16 40 16 16 40 16 16 40 16 16 40 16 16 40 16 16 40 16 16 40 16 16 40 16 16 40 16 16 40 16 16 40 16 16 40 16 16 40 16 16 40 16 16 40 16 16 40 16 16 40 16 16 40 16 16 40 16 16 40 16 16 40 16 16 40 16 16 40 16 16 40 16 16 40 16 16 40 16 176 32 16 176 32 16 176 32 16 176 32 16 176 32 16 176 32 16 176 32 16 176 32 16 176 32 16 176 32 16 176 32 16 176 32 16 176 32 16 176 32 16 176 32 16 176 32 16 176 32 16 176 32 16 176 32 16 176 32 16 176 32 16 176 32 16 176 32 16 176 32 16 176 32 16 176 32 16 176 32 16 176 32 16 176 32 16 176 32 16 176 32 16 176 32 16 128 32 16 128 32 16 128 32 16 128 32 16 128 32 16 128 32 16 128 32 16 128 32 16 128 32 16 128 32 16 128 32 16 128 32 16 128 32 16 128 32 16 128 32 16 128 32 16 128 32 16 128 32 16 128 32 16 128 32 16 128 32 16 128 32 16 128 32 16 128 32 16 128 32 16 128 32 16 128 32 16 128 32 16 128 32 16 128 32 16 128 32 16 128 32 16
112 40 152 112 40 152 112 40 152 112 40 152 112 40 152 112 40 152 112 40 152 112 40 152 112 40 152 112 40 152 112 40 152 112 40 152 112 40 152 112 40 152 112 40 152 112 40 152 112 40 152 112 40 152 112 40 152 112 40 152 112 40 152 112 40 152 112 40 152 112 40 152 112 40 152 112 40 152 112 40 152 112 40 152 112 40 152 112 40 152 112 40 152 112 40 152 16 40 16 16 40 16 16 40 16 16 40 16 16 40 16 16 40 16 16 40 16 16 40 16 16 40 16 16 40 16 16 40 16 16 40 16 16 40 16 16 40 16 16 40 16 16 40 16 16 40 16 16 40 16 16 40 16 16 40 16 16 40 16 16 40 16 16 40 16 16 40 16 16 40 16 16 40 16 16 40 16 16 40 16 16 40 16 16 40 16 16 40 16 16 40 16 176 32 16 176 32 16 176 32 16 176 32 16 176 32 16 176 32 16 176 32 16 176 32 16 176 32 16 176 32 16 176 32 16 176 32 16 176 32 16 176 32 16 176 32 16 176 32 16 176 32 16 176 32 16 176 32 16 176 32 16 176 32 16 176 32 16 176 32 16 176 32 16 176 32 16 176 32 16 176 32 16 176 32 16 176 32 16 176 32 16 176 32 16 176 32 16 128 32 16 128 32 16 128 32 16 128 32 16 128 32 16 128 32 16 128 32 16 128 32 16 128 32 16 128 32 16 128 32 16 128 32 16 128 32 16 128 32 16 128 32 16 128 32 16 128 32 16 128 32 16 128 32 16 128 32 16 128 32 16 128 32 16 128 32 16 128 32 16 128 32 16 128 32 16 128 32 16 128 32 16 128 32 16 128 32 16 128 32 16 128 32 16
112 40 152 112 40 152 112 40 152 112 40 152 112 40 152 112 40 152 112 40 152 112 40 152 112 40 152 112 40 152 112 40 152 112 40 152 112 40 152 112 40 152 112 40 152 112 40 152 112 40 152 112 40 152 112 40 152 112 40 152 112 40 152 112 40 152 112 40 152 112 40 152 112 40 152 112 40 152 112 40 152 112 40 152 112 40 152 112 40 152 112 40 152 112 40 152 16 40 16 16 40 16 16 40 16 16 40 16 16 40 16 16 40 16 16 40 16 16 40 16 16 40 16 16 40 16 16 40 16 16 40 16 16 40 16 16 40 16 16 40 16 16 40 16 16 40 16 16 40 16 16 40 16 16 40 16 16 40 16 16 40 16 16 40 16 16 40 16 16 40 16 16 40 16 16 40 16 16 40 16 16 40 16 16 40 16 16 40 16 16 40 16 176 32 16 176 32 16 176 32 16 176 32 16 176 32 16 176 32 16 176 32 16 176 32 16 176 32 16 176 32 16 176 32 16 176 32 16 176 32 16 176 32 16 176 32 16 176 32 16 176 32 16 176 32 16 176 32 16 176 32 16 176 32 16 176 32 16 176 32 16 176 32 16 176 32 16 176 32 16 176 32 16 176 32 16 176 32 16 176 32 16 176 32 16 176 32 16 128 32 16 128 32 16 128 32 16 128 32 16 128 32 16 128 32 16 128 32 16 128 32 16 128 32 16 128 32 16 128 32 16 128 32 16 128 32 16 128 32 16 128 32 16 128 32 16 128 32 16 128 32 16 128 32 16 128 32 16 128 32 16 128 32 16 128 32 16 128 32 16 128 32 16 128 32 16 128 32 16 128 32 16 128 32 16 128 32 16 128 32 16 128 32 16
112 40 152 112 40 152 112 40 152 112 40 152 112 40 152 112 40 152 112 40 152 112 40 152 112 40 152 112 40 152 112 40 152 112 40 152 112 40 152 112 40 152 112 40 152 112 40 152 112 40 152 112 40 152 112 40 152 112 40 152 112 40 152 112 40 152 112 40 152 112 40 152 112 40 152 112 40 152 112 40 152 112 40 152 112 40 152 112 40 152 112 40 152 112 40 152 16 40 16 16 40 16 16 40 16 16 40 16 16 40 16 16 40 16 16 40 16 16 40 16 16 40 16 16 40 16 16 40 16 16 40 16 16 40 16 16 40 16 16 40 16 16 40 16 16 40 16 16 40 16 16 40 16 16 40 16 16 40 16 16 40 16 16 40 16 16 40 16 16 40 16 16 40 16 16 40 16 16 40 16 16 40 16 16 40 16 16 40 16 16 40 16 176 32 16 176 32 16 176 32 16 176 32 16 176 32 16 176 32 16 176 32 16 176 32 16 176 32 16 176 32 16 176 32 16 176 32 16 176 32 16 176 32 16 176 32 16 176 32 16 176 32 16 176 32 16 176 32 16 176 32 16 176 32 16 176 32 16 176 32 16 176 32 16 176 32 16 176 32 16 176 32 16 176 32 16 176 32 16 176 32 16 176 32 16 176 32 16 128 32 16 128 32 16 128 32 16 128 32 16 128 32 16 128 32 16 128 32 16 128 32 16 128 32 16 128 32 16 128 32 16 128 32 16 128 32 16 128 32 16 128 32 16 128 32 16 128 32 16 128 32 16 128 32 16 128 32 16 128 32 16 128 32 16 128 32 16 128 32 16 128 32 16 128 32 16 128 32 16 128 32 16 128 32 16 128 32 16 128 32 16 128 32 16