P3
128 128
255
240 88 168 240 88 168 240 88 168 240 88 168 240 88 168 240 88 168 240 88 168 240 88 168 240 88 168 240 88 168 240 88 168 240 88 168 240 88 168 240 88 168 240 88 168 240 88 168 240 88 168 240 88 168 240 88 168 240 88 168 240 88 168 240 88 168 240 88 168 240 88 168 240 88 168 240 88 168 240 88 168 240 88 168 240 88 168 240 88 168 240 88 168 240 88 168 48 80 24 48 80 24 48 80 24 48 80 24 48 80 24 48 80 24 48 80 24 48 80 24 48 80 24 48 80 24 48 80 24 48 80 24 48 80 24 48 80 24 48 80 24 48 80 24 48 80 24 48 80 24 48 80 24 48 80 24 48 80 24 48 80 24 48 80 24 48 80 24 48 80 24 48 80 24 48 80 24 48 80 24 48 80 24 48 80 24 48 80 24 48 80 24 48 80 152 48 80 152 48 80 152 48 80 152 48 80 152 48 80 152 48 80 152 48 80 152 48 80 152 48 80 152 48 80 152 48 80 152 48 80 152 48 80 152 48 80 152 48 80 152 48 80 152 48 80 152 48 80 152 48 80 152 48 80 152 48 80 152 48 80 152 48 80 152 48 80 152 48 80 152 48 80 152 48 80 152 48 80 152 48 80 152 48 80 152 48 80 152 88 104 24 88 104 24 88 104 24 88 104 24 88 104 24 88 104 24 88 104 24 88 104 24 88 104 24 88 104 24 88 104 24 88 104 24 88 104 24 88 104 24 88 104 24 88 104 24 88 104 24 88 104 24 88 104 24 88 104 24 88 104 24 88 104 24 88 104 24 88 104 24 88 104 24 88 104 24 88 104 24 88 104 24 88 104 24 88 104 24 88 104 24 88 104 24
240 88 168 240 88 168 240 88 168 240 88 168 240 88 168 240 88 168 240 88 168 240 88 168 240 88 168 240 88 168 240 88 168 240 88 168 240 88 168 240 88 168 240 88 168 240 88 168 240 88 168 240 88 168 240 88 168 240 88 168 240 88 168 240 88 168 240 88 168 240 88 168 240 88 168 240 88 168 240 88 168 240 88 168 240 88 168 240 88 168 240 88 168 240 88 168 48 80 24 48 80 24 48 80 24 48 80 24 48 80 24 48 80 24 48 80 24 48 80 24 48 80 24 48 80 24 48 80 24 48 80 24 48 80 24 48 80 24 48 80 24 48 80 24 48 80 24 48 80 24 48 80 24 48 80 24 48 80 24 48 80 24 48 80 24 48 80 24 48 80 24 48 80 24 48 80 24 48 80 24 48 80 24 48 80 24 48 80 24 48 80 24 48 80 152 48 80 152 48 80 152 48 80 152 48 80 152 48 80 152 48 80 152 48 80 152 48 80 152 48 80 152 48 80 152 48 80 152 48 80 152 48 80 152 48 80 152 48 80 152 48 80 152 48 80 152 48 80 152 48 80 152 48 80 152 48 80 152 48 80 152 48 80 152 48 80 152 48 80 152 48 80 152 48 80 152 48 80 152 48 80 152 48 80 152 48 80 152 88 104 24 88 104 24 88 104 24 88 104 24 88 104 24 88 104 24 88 104 24 88 104 24 88 104 24 88 104 24 88 104 24 88 104 24 88 104 24 88 104 24 88 104 24 88 104 24 88 104 24 88 104 24 88 104 24 88 104 24 88 104 24 88 104 24 88 104 24 88 104 24 88 104 24 88 104 24 88 104 24 88 104 24 88 104 24 88 104 24 88 104 24 88 104 24
240 88 168 240 88 168 240 88 168 240 88 168 240 88 168 240 88 168 240 88 168 240 88 168 240 88 168 240 88 168 240 88 168 240 88 168 240 88 168 240 88 168 240 88 168 240 88 168 240 88 168 240 88 168 240 88 168 240 88 168 240 88 168 240 88 168 240 88 168 240 88 168 240 88 168 240 88 168 240 88 168 240 88 168 240 88 168 240 88 168 240 88 168 240 88 168 48 80 24 48 80 24 48 80 24 48 80 24 48 80 24 48 80 24 48 80 24 48 80 24 48 80 24 48 80 24 48 80 24 48 80 24 48 80 24 48 80 24 48 80 24 48 80 24 48 80 24 48 80 24 48 80 24 48 80 24 48 80 24 48 80 24 48 80 24 48 80 24 48 80 24 48 80 24 48 80 24 48 80 24 48 80 24 48 80 24 48 80 24 48 80 24 48 80 152 48 80 152 48 80 152 48 80 152 48 80 152 48 80 152 48 80 152 48 80 152 48 80 152 48 80 152 48 80 152 48 80 152 48 80 152 48 80 152 48 80 152 48 80 152 48 80 152 48 80 152 48 80 152 48 80 152 48 80 152 48 80 152 48 80 152 48 80 152 48 80 152 48 80 152 48 80 152 48 80 152 48 80 152 48 80 152 48 80 152 48 80 152 88 104 24 88 104 24 88 104 24 88 104 24 88 104 24 88 104 24 88 104 24 88 104 24 88 104 24 88 104 24 88 104 24 88 104 24 88 104 24 88 104 24 88 104 24 88 104 24 88 104 24 88 104 24 88 104 24 88 104 24 88 104 24 88 104 24 88 104 24 88 104 24 88 104 24 88 104 24 88 104 24 88 104 24 88 104 24 88 104 24 88 104 24 88 104 24
240 88 168 240 88 168 240 88 168 240 88 168 240 88 168 240 88 168 240 88 168 240 88 168 240 88 168 240 88 168 240 88 168 240 88 168 240 88 168 240 88 168 240 88 168 240 88 168 240 88 168 240 88 168 240 88 168 240 88 168 240 88 168 240 88 168 240 88 168 240 88 168 240 88 168 240 88 168 240 88 168 240 88 168 240 88 168 240 88 168 240 88 168 240 88 168 48 80 24 48 80 24 48 80 24 48 80 24 48 80 24 48 80 24 48 80 24 48 80 24 48 80 24 48 80 24 48 80 24 48 80 24 48 80 24 48 80 24 48 80 24 48 80 24 48 80 24 48 80 24 48 80 24 48 80 24 48 80 24 48 80 24 48 80 24 48 80 24 48 80 24 48 80 24 48 80 24 48 80 24 48 80 24 48 80 24 48 80 24 48 80 24 48 80 152 48 80 152 48 80 152 48 80 152 48 80 152 48 80 152 48 80 152 48 80 152 48 80 152 48 80 152 48 80 152 48 80 152 48 80 152 48 80 152 48 80 152 48 80 152 48 80 152 48 80 152 48 80 152 48 80 152 48 80 152 48 80 152 48 80 152 48 80 152 48 80 152 48 80 152 48 80 152 48 80 152 48 80 152 48 80 152 48 80 152 48 80 152 88 104 24 88 104 24 88 104 24 88 104 24 88 104 24 88 104 24 88 104 24 88 104 24 88 104 24 88 104 24 88 104 24 88 104 24 88 104 24 88 104 24 88 104 24 88 104 24 88 104 24 88 104 24 88 104 24 88 104 24 88 104 24 88 104 24 88 104 24 88 104 24 88 104 24 88 104 24 88 104 24 88 104 24 88 104 24 88 104 24 88 104 24 88 104 24
240 88 168 240 88 168 240 88 168 240 88 168 240 88 168 240 88 168 240 88 168 240 88 168 240 88 168 240 88 168 240 88 168 240 88 168 240 88 168 240 88 168 240 88 168 240 88 168 240 88 168 240 88 168 240 88 168 240 88 168 240 88 168 240 88 168 240 88 168 240 88 168 240 88 168 240 88 168 240 88 168 240 88 168 240 88 168 240 88 168 240 88 168 240 88 168 48 80 24 48 80 24 48 80 24 48 80 24 48 80 24 48 80 24 48 80 24 48 80 24 48 80 24 48 80 24 48 80 24 48 80 24 48 80 24 48 80 24 48 80 24 48 80 24 48 80 24 48 80 24 48 80 24 48 80 24 48 80 24 48 80 24 48 80 24 48 80 24 48 80 24 48 80 24 48 80 24 48 80 24 48 80 24 48 80 24 48 80 24 48 80 24 48 80 152 48 80 152 48 80 152 48 80 152 48 80 152 48 80 152 48 80 152 48 80 152 48 80 152 48 80 152 48 80 152 48 80 152 48 80 152 48 80 152 48 80 152 48 80 152 48 80 152 48 80 152 48 80 152 48 80 152 48 80 152 48 80 152 48 80 152 48 80 152 48 80 152 48 80 152 48 80 152 48 80 152 48 80 152 48 80 152 48 80 152 48 80 152 88 104 24 88 104 24 88 104 24 88 104 24 88 104 24 88 104 24 88 104 24 88 104 24 88 104 24 88 104 24 88 104 24 88 104 24 88 104 24 88 104 24 88 104 24 88 104 24 88 104 24 88 104 24 88 104 24 88 104 24 88 104 24 88 104 24 88 104 24 88 104 24 88 104 24 88 104 24 88 104 24 88 104 24 88 104 24 88 104 24 88 104 24 88 104 24
240 88 168 240 88 168 240 88 168 240 88 168 240 88 168 240 88 168 240 88 168 240 88 168 240 88 168 240 88 168 240 88 168 240 88 168 240 88 168 240 88 168 240 88 168 240 88 168 240 88 168 240 88 168 240 88 168 240 88 168 240 88 168 240 88 168 240 88 168 240 88 168 240 88 168 240 88 168 240 88 168 240 88 168 240 88 168 240 88 168 240 88 168 240 88 168 48 80 24 48 80 24 48 80 24 48 80 24 48 80 24 48 80 24 48 80 24 48 80 24 48 80 24 48 80 24 48 80 24 48 80 24 48 80 24 48 80 24 48 80 24 48 80 24 48 80 24 48 80 24 48 80 24 48 80 24 48 80 24 48 80 24 48 80 24 48 80 24 48 80 24 48 80 24 48 80 24 48 80 24 48 80 24 48 80 24 48 80 24 48 80 24 48 80 152 48 80 152 48 80 152 48 80 152 48 80 152 48 80 152 48 80 152 48 80 152 48 80 152 48 80 152 48 80 152 48 80 152 48 80 152 48 80 152 48 80 152 48 80 152 48 80 152 48 80 152 48 80 152 48 80 152 48 80 152 48 80 152 48 80 152 48 80 152 48 80 152 48 80 152 48 80 152 48 80 152 48 80 152 48 80 152 48 80 152 48 80 152 88 104 24 88 104 24 88 104 24 88 104 24 88 104 24 88 104 24 88 104 24 88 104 24 88 104 24 88 104 24 88 104 24 88 104 24 88 104 24 88 104 24 88 104 24 88 104 24 88 104 24 88 104 24 88 104 24 88 104 24 88 104 24 88 104 24 88 104 24 88 104 24 88 104 24 88 104 24 88 104 24 88 104 24 88 104 24 88 104 24 88 104 24 88 104 24
240 88 168 240 88 168 240 88 168 240 88 168 240 88 168 240 88 168 240 88 168 240 88 168 240 88 168 240 88 168 240 88 168 240 88 168 240 88 168 240 88 168 240 88 168 240 88 168 240 88 168 240 88 168 240 88 168 240 88 168 240 88 168 240 88 168 240 88 168 240 88 168 240 88 168 240 88 168 240 88 168 240 88 168 240 88 168 240 88 168 240 88 168 240 88 168 48 80 24 48 80 24 48 80 24 48 80 24 48 80 24 48 80 24 48 80 24 48 80 24 48 80 24 48 80 24 48 80 24 48 80 24 48 80 24 48 80 24 48 80 24 48 80 24 48 80 24 48 80 24 48 80 24 48 80 24 48 80 24 48 80 24 48 80 24 48 80 24 48 80 24 48 80 24 48 80 24 48 80 24 48 80 24 48 80 24 48 80 24 48 80 24 48 80 152 48 80 152 48 80 152 48 80 152 48 80 152 48 80 152 48 80 152 48 80 152 48 80 152 48 80 152 48 80 152 48 80 152 48 80 152 48 80 152 48 80 152 48 80 152 48 80 152 48 80 152 48 80 152 48 80 152 48 80 152 48 80 152 48 80 152 48 80 152 48 80 152 48 80 152 48 80 152 48 80 152 48 80 152 48 80 152 48 80 152 48 80 152 88 104 24 88 104 24 88 104 24 88 104 24 88 104 24 88 104 24 88 104 24 88 104 24 88 104 24 88 104 24 88 104 24 88 104 24 88 104 24 88 104 24 88 104 24 88 104 24 88 104 24 88 104 24 88 104 24 88 104 24 88 104 24 88 104 24 88 104 24 88 104 24 88 104 24 88 104 24 88 104 24 88 104 24 88 104 24 88 104 24 88 104 24 88 104 24
240 88 168 240 88 168 240 88 168 240 88 168 240 88 168 240 88 168 240 88 168 240 88 168 240 88 168 240 88 168 240 88 168 240 88 168 240 88 168 240 88 168 240 88 168 240 88 168 240 88 168 240 88 168 240 88 168 240 88 168 240 88 168 240 88 168 240 88 168 240 88 168 240 88 168 240 88 168 240 88 168 240 88 168 240 88 168 240 88 168 240 88 168 240 88 168 48 80 24 48 80 24 48 80 24 48 80 24 48 80 24 48 80 24 48 80 24 48 80 24 48 80 24 48 80 24 48 80 24 48 80 24 48 80 24 48 80 24 48 80 24 48 80 24 48 80 24 48 80 24 48 80 24 48 80 24 48 80 24 48 80 24 48 80 24 48 80 24 48 80 24 48 80 24 48 80 24 48 80 24 48 80 24 48 80 24 48 80 24 48 80 24 48 80 152 48 80 152 48 80 152 48 80 152 48 80 152 48 80 152 48 80 152 48 80 152 48 80 152 48 80 152 48 80 152 48 80 152 48 80 152 48 80 152 48 80 152 48 80 152 48 80 152 48 80 152 48 80 152 48 80 152 48 80 152 48 80 152 48 80 152 48 80 152 48 80 152 48 80 152 48 80 152 48 80 152 48 80 152 48 80 152 48 80 152 48 80 152 88 104 24 88 104 24 88 104 24 88 104 24 88 104 24 88 104 24 88 104 24 88 104 24 88 104 24 88 104 24 88 104 24 88 104 24 88 104 24 88 104 24 88 104 24 88 104 24 88 104 24 88 104 24 88 104 24 88 104 24 88 104 24 88 104 24 88 104 24 88 104 24 88 104 24 88 104 24 88 104 24 88 104 24 88 104 24 88 104 24 88 104 24 88 104 24
240 88 168 240 88 168 240 88 168 240 88 168 240 88 168 240 88 168 240 88 168 240 88 168 240 88 168 240 88 168 240 88 168 240 88 168 240 88 168 240 88 168 240 88 168 240 88 168 240 88 168 240 88 168 240 88 168 240 88 168 240 88 168 240 88 168 240 88 168 240 88 168 240 88 168 240 88 168 240 88 168 240 88 168 240 88 168 240 88 168 240 88 168 240 88 168 48 80 24 48 80 24 48 80 24 48 80 24 48 80 24 48 80 24 48 80 24 48 80 24 48 80 24 48 80 24 48 80 24 48 80 24 48 80 24 48 80 24 48 80 24 48 80 24 48 80 24 48 80 24 48 80 24 48 80 24 48 80 24 48 80 24 48 80 24 48 80 24 48 80 24 48 80 24 48 80 24 48 80 24 48 80 24 48 80 24 48 80 24 48 80 24 48 80 152 48 80 152 48 80 152 48 80 152 48 80 152 48 80 152 48 80 152 48 80 152 48 80 152 48 80 152 48 80 152 48 80 152 48 80 152 48 80 152 48 80 152 48 80 152 48 80 152 48 80 152 48 80 152 48 80 152 48 80 152 48 80 152 48 80 152 48 80 152 48 80 152 48 80 152 48 80 152 48 80 152 48 80 152 48 80 152 48 80 152 48 80 152 88 104 24 88 104 24 88 104 24 88 104 24 88 104 24 88 104 24 88 104 24 88 104 24 88 104 24 88 104 24 88 104 24 88 104 24 88 104 24 88 104 24 88 104 24 88 104 24 88 104 24 88 104 24 88 104 24 88 104 24 88 104 24 88 104 24 88 104 24 88 104 24 88 104 24 88 104 24 88 104 24 88 104 24 88 104 24 88 104 24 88 104 24 88 104 24
240 88 168 240 88 168 240 88 168 240 88 168 240 88 168 240 88 168 240 88 168 240 88 168 240 88 168 240 88 168 240 88 168 240 88 168 240 88 168 240 88 168 240 88 168 240 88 168 240 88 168 240 88 168 240 88 168 240 88 168 240 88 168 240 88 168 240 88 168 240 88 168 240 88 168 240 88 168 240 88 168 240 88 168 240 88 168 240 88 168 240 88 168 240 88 168 48 80 24 48 80 24 48 80 24 48 80 24 48 80 24 48 80 24 48 80 24 48 80 24 48 80 24 48 80 24 48 80 24 48 80 24 48 80 24 48 80 24 48 80 24 48 80 24 48 80 24 48 80 24 48 80 24 48 80 24 48 80 24 48 80 24 48 80 24 48 80 24 48 80 24 48 80 24 48 80 24 48 80 24 48 80 24 48 80 24 48 80 24 48 80 24 48 80 152 48 80 152 48 80 152 48 80 152 48 80 152 48 80 152 48 80 152 48 80 152 48 80 152 48 80 152 48 80 152 48 80 152 48 80 152 48 80 152 48 80 152 48 80 152 48 80 152 48 80 152 48 80 152 48 80 152 48 80 152 48 80 152 48 80 152 48 80 152 48 80 152 48 80 152 48 80 152 48 80 152 48 80 152 48 80 152 48 80 152 48 80 152 88 104 24 88 104 24 88 104 24 88 104 24 88 104 24 88 104 24 88 104 24 88 104 24 88 104 24 88 104 24 88 104 24 88 104 24 88 104 24 88 104 24 88 104 24 88 104 24 88 104 24 88 104 24 88 104 24 88 104 24 88 104 24 88 104 24 88 104 24 88 104 24 88 104 24 88 104 24 88 104 24 88 104 24 88 104 24 88 104 24 88 104 24 88 104 24
240 88 168 240 88 168 240 88 168 240 88 168 240 88 168 240 88 168 240 88 168 240 88 168 240 88 168 240 88 168 240 88 168 240 88 168 240 88 168 240 88 168 240 88 168 240 88 168 240 88 168 240 88 168 240 88 168 240 88 168 240 88 168 240 88 168 240 88 168 240 88 168 240 88 168 240 88 168 240 88 168 240 88 168 240 88 168 240 88 168 240 88 168 240 88 168 48 80 24 48 80 24 48 80 24 48 80 24 48 80 24 48 80 24 48 80 24 48 80 24 48 80 24 48 80 24 48 80 24 48 80 24 48 80 24 48 80 24 48 80 24 48 80 24 48 80 24 48 80 24 48 80 24 48 80 24 48 80 24 48 80 24 48 80 24 48 80 24 48 80 24 48 80 24 48 80 24 48 80 24 48 80 24 48 80 24 48 80 24 48 80 24 48 80 152 48 80 152 48 80 152 48 80 152 48 80 152 48 80 152 48 80 152 48 80 152 48 80 152 48 80 152 48 80 152 48 80 152 48 80 152 48 80 152 48 80 152 48 80 152 48 80 152 48 80 152 48 80 152 48 80 152 48 80 152 48 80 152 48 80 152 48 80 152 48 80 152 48 80 152 48 80 152 48 80 152 48 80 152 48 80 152 48 80 152 48 80 152 88 104 24 88 104 24 88 104 24 88 104 24 88 104 24 88 104 24 88 104 24 88 104 24 88 104 24 88 104 24 88 104 24 88 104 24 88 104 24 88 104 24 88 104 24 88 104 24 88 104 24 88 104 24 88 104 24 88 104 24 88 104 24 88 104 24 88 104 24 88 104 24 88 104 24 88 104 24 88 104 24 88 104 24 88 104 24 88 104 24 88 104 24 88 104 24
240 88 168 240 88 168 240 88 168 240 88 168 240 88 168 240 88 168 240 88 168 240 88 168 240 88 168 240 88 168 240 88 168 240 88 168 240 88 168 240 88 168 240 88 168 240 88 168 240 88 168 240 88 168 240 88 168 240 88 168 240 88 168 240 88 168 240 88 168 240 88 168 240 88 168 240 88 168 240 88 168 240 88 168 240 88 168 240 88 168 240 88 168 240 88 168 48 80 24 48 80 24 48 80 24 48 80 24 48 80 24 48 80 24 48 80 24 48 80 24 48 80 24 48 80 24 48 80 24 48 80 24 48 80 24 48 80 24 48 80 24 48 80 24 48 80 24 48 80 24 48 80 24 48 80 24 48 80 24 48 80 24 48 80 24 48 80 24 48 80 24 48 80 24 48 80 24 48 80 24 48 80 24 48 80 24 48 80 24 48 80 24 48 80 152 48 80 152 48 80 152 48 80 152 48 80 152 48 80 152 48 80 152 48 80 152 48 80 152 48 80 152 48 80 152 48 80 152 48 80 152 48 80 152 48 80 152 48 80 152 48 80 152 48 80 152 48 80 152 48 80 152 48 80 152 48 80 152 48 80 152 48 80 152 48 80 152 48 80 152 48 80 152 48 80 152 48 80 152 48 80 152 48 80 152 48 80 152 88 104 24 88 104 24 88 104 24 88 104 24 88 104 24 88 104 24 88 104 24 88 104 24 88 104 24 88 104 24 88 104 24 88 104 24 88 104 24 88 104 24 88 104 24 88 104 24 88 104 24 88 104 24 88 104 24 88 104 24 88 104 24 88 104 24 88 104 24 88 104 24 88 104 24 88 104 24 88 104 24 88 104 24 88 104 24 88 104 24 88 104 24 88 104 24
240 88 168 240 88 168 240 88 168 240 88 168 240 88 168 240 88 168 240 88 168 240 88 168 240 88 168 240 88 168 240 88 168 240 88 168 240 88 168 240 88 168 240 88 168 240 88 168 240 88 168 240 88 168 240 88 168 240 88 168 240 88 168 240 88 168 240 88 168 240 88 168 240 88 168 240 88 168 240 88 168 240 88 168 240 88 168 240 88 168 240 88 168 240 88 168 48 80 24 48 80 24 48 80 24 48 80 24 48 80 24 48 80 24 48 80 24 48 80 24 48 80 24 48 80 24 48 80 24 48 80 24 48 80 24 48 80 24 48 80 24 48 80 24 48 80 24 48 80 24 48 80 24 48 80 24 48 80 24 48 80 24 48 80 24 48 80 24 48 80 24 48 80 24 48 80 24 48 80 24 48 80 24 48 80 24 48 80 24 48 80 24 48 80 152 48 80 152 48 80 152 48 80 152 48 80 152 48 80 152 48 80 152 48 80 152 48 80 152 48 80 152 48 80 152 48 80 152 48 80 152 48 80 152 48 80 152 48 80 152 48 80 152 48 80 152 48 80 152 48 80 152 48 80 152 48 80 152 48 80 152 48 80 152 48 80 152 48 80 152 48 80 152 48 80 152 48 80 152 48 80 152 48 80 152 48 80 152 88 104 24 88 104 24 88 104 24 88 104 24 88 104 24 88 104 24 88 104 24 88 104 24 88 104 24 88 104 24 88 104 24 88 104 24 88 104 24 88 104 24 88 104 24 88 104 24 88 104 24 88 104 24 88 104 24 88 104 24 88 104 24 88 104 24 88 104 24 88 104 24 88 104 24 88 104 24 88 104 24 88 104 24 88 104 24 88 104 24 88 104 24 88 104 24
240 88 168 240 88 168 240 88 168 240 88 168 240 88 168 240 88 168 240 88 168 240 88 168 240 88 168 240 88 168 240 88 168 240 88 168 240 88 168 240 88 168 240 88 168 240 88 168 240 88 168 240 88 168 240 88 168 240 88 168 240 88 168 240 88 168 240 88 168 240 88 168 240 88 168 240 88 168 240 88 168 240 88 168 240 88 168 240 88 168 240 88 168 240 88 168 48 80 24 48 80 24 48 80 24 48 80 24 48 80 24 48 80 24 48 80 24 48 80 24 48 80 24 48 80 24 48 80 24 48 80 24 48 80 24 48 80 24 48 80 24 48 80 24 48 80 24 48 80 24 48 80 24 48 80 24 48 80 24 48 80 24 48 80 24 48 80 24 48 80 24 48 80 24 48 80 24 48 80 24 48 80 24 48 80 24 48 80 24 48 80 24 48 80 152 48 80 152 48 80 152 48 80 152 48 80 152 48 80 152 48 80 152 48 80 152 48 80 152 48 80 152 48 80 152 48 80 152 48 80 152 48 80 152 48 80 152 48 80 152 48 80 152 48 80 152 48 80 152 48 80 152 48 80 152 48 80 152 48 80 152 48 80 152 48 80 152 48 80 152 48 80 152 48 80 152 48 80 152 48 80 152 48 80 152 48 80 152 88 104 24 88 104 24 88 104 24 88 104 24 88 104 24 88 104 24 88 104 24 88 104 24 88 104 24 88 104 24 88 104 24 88 104 24 88 104 24 88 104 24 88 104 24 88 104 24 88 104 24 88 104 24 88 104 24 88 104 24 88 104 24 88 104 24 88 104 24 88 104 24 88 104 24 88 104 24 88 104 24 88 104 24 88 104 24 88 104 24 88 104 24 88 104 24
240 88 168 240 88 168 240 88 168 240 88 168 240 88 168 240 88 168 240 88 168 240 88 168 240 88 168 240 88 168 240 88 168 240 88 168 240 88 168 240 88 168 240 88 168 240 88 168 240 88 168 240 88 168 240 88 168 240 88 168 240 88 168 240 88 168 240 88 168 240 88 168 240 88 168 240 88 168 240 88 168 240 88 168 240 88 168 240 88 168 240 88 168 240 88 168 48 80 24 48 80 24 48 80 24 48 80 24 48 80 24 48 80 24 48 80 24 48 80 24 48 80 24 48 80 24 48 80 24 48 80 24 48 80 24 48 80 24 48 80 24 48 80 24 48 80 24 48 80 24 48 80 24 48 80 24 48 80 24 48 80 24 48 80 24 48 80 24 48 80 24 48 80 24 48 80 24 48 80 24 48 80 24 48 80 24 48 80 24 48 80 24 48 80 152 48 80 152 48 80 152 48 80 152 48 80 152 48 80 152 48 80 152 48 80 152 48 80 152 48 80 152 48 80 152 48 80 152 48 80 152 48 80 152 48 80 152 48 80 152 48 80 152 48 80 152 48 80 152 48 80 152 48 80 152 48 80 152 48 80 152 48 80 152 48 80 152 48 80 152 48 80 152 48 80 152 48 80 152 48 80 152 48 80 152 48 80 152 88 104 24 88 104 24 88 104 24 88 104 24 88 104 24 88 104 24 88 104 24 88 104 24 88 104 24 88 104 24 88 104 24 88 104 24 88 104 24 88 104 24 88 104 24 88 104 24 88 104 24 88 104 24 88 104 24 88 104 24 88 104 24 88 104 24 88 104 24 88 104 24 88 104 24 88 104 24 88 104 24 88 104 24 88 104 24 88 104 24 88 104 24 88 104 24
240 88 168 240 88 168 240 88 168 240 88 168 240 88 168 240 88 168 240 88 168 240 88 168 240 88 168 240 88 168 240 88 168 240 88 168 240 88 168 240 88 168 240 88 168 240 88 168 240 88 168 240 88 168 240 88 168 240 88 168 240 88 168 240 88 168 240 88 168 240 88 168 240 88 168 240 88 168 240 88 168 240 88 168 240 88 168 240 88 168 240 88 168 240 88 168 48 80 24 48 80 24 48 80 24 48 80 24 48 80 24 48 80 24 48 80 24 48 80 24 48 80 24 48 80 24 48 80 24 48 80 24 48 80 24 48 80 24 48 80 24 48 80 24 48 80 24 48 80 24 48 80 24 48 80 24 48 80 24 48 80 24 48 80 24 48 80 24 48 80 24 48 80 24 48 80 24 48 80 24 48 80 24 48 80 24 48 80 24 48 80 24 48 80 152 48 80 152 48 80 152 48 80 152 48 80 152 48 80 152 48 80 152 48 80 152 48 80 152 48 80 152 48 80 152 48 80 152 48 80 152 48 80 152 48 80 152 48 80 152 48 80 152 48 80 152 48 80 152 48 80 152 48 80 152 48 80 152 48 80 152 48 80 152 48 80 152 48 80 152 48 80 152 48 80 152 48 80 152 48 80 152 48 80 152 48 80 152 88 104 24 88 104 24 88 104 24 88 104 24 88 104 24 88 104 24 88 104 24 88 104 24 88 104 24 88 104 24 88 104 24 88 104 24 88 104 24 88 104 24 88 104 24 88 104 24 88 104 24 88 104 24 88 104 24 88 104 24 88 104 24 88 104 24 88 104 24 88 104 24 88 104 24 88 104 24 88 104 24 88 104 24 88 104 24 88 104 24 88 104 24 88 104 24
240 88 168 240 88 168 240 88 168 240 88 168 240 88 168 240 88 168 240 88 168 240 88 168 240 88 168 240 88 168 240 88 168 240 88 168 240 88 168 240 88 168 240 88 168 240 88 168 240 88 168 240 88 168 240 88 168 240 88 168 240 88 168 240 88 168 240 88 168 240 88 168 240 88 168 240 88 168 240 88 168 240 88 168 240 88 168 240 88 168 240 88 168 240 88 168 48 80 24 48 80 24 48 80 24 48 80 24 48 80 24 48 80 24 48 80 24 48 80 24 48 80 24 48 80 24 48 80 24 48 80 24 48 80 24 48 80 24 48 80 24 48 80 24 48 80 24 48 80 24 48 80 24 48 80 24 48 80 24 48 80 24 48 80 24 48 80 24 48 80 24 48 80 24 48 80 24 48 80 24 48 80 24 48 80 24 48 80 24 48 80 24 48 80 152 48 80 152 48 80 152 48 80 152 48 80 152 48 80 152 48 80 152 48 80 152 48 80 152 48 80 152 48 80 152 48 80 152 48 80 152 48 80 152 48 80 152 48 80 152 48 80 152 48 80 152 48 80 152 48 80 152 48 80 152 48 80 152 48 80 152 48 80 152 48 80 152 48 80 152 48 80 152 48 80 152 48 80 152 48 80 152 48 80 152 48 80 152 88 104 24 88 104 24 88 104 24 88 104 24 88 104 24 88 104 24 88 104 24 88 104 24 88 104 24 88 104 24 88 104 24 88 104 24 88 104 24 88 104 24 88 104 24 88 104 24 88 104 24 88 104 24 88 104 24 88 104 24 88 104 24 88 104 24 88 104 24 88 104 24 88 104 24 88 104 24 88 104 24 88 104 24 88 104 24 88 104 24 88 104 24 88 104 24
240 88 168 240 88 168 240 88 168 240 88 168 240 88 168 240 88 168 240 88 168 240 88 168 240 88 168 240 88 168 240 88 168 240 88 168 240 88 168 240 88 168 240 88 168 240 88 168 240 88 168 240 88 168 240 88 168 240 88 168 240 88 168 240 88 168 240 88 168 240 88 168 240 88 168 240 88 168 240 88 168 240 88 168 240 88 168 240 88 168 240 88 168 240 88 168 48 80 24 48 80 24 48 80 24 48 80 24 48 80 24 48 80 24 48 80 24 48 80 24 48 80 24 48 80 24 48 80 24 48 80 24 48 80 24 48 80 24 48 80 24 48 80 24 48 80 24 48 80 24 48 80 24 48 80 24 48 80 24 48 80 24 48 80 24 48 80 24 48 80 24 48 80 24 48 80 24 48 80 24 48 80 24 48 80 24 48 80 24 48 80 24 48 80 152 48 80 152 48 80 152 48 80 152 48 80 152 48 80 152 48 80 152 48 80 152 48 80 152 48 80 152 48 80 152 48 80 152 48 80 152 48 80 152 48 80 152 48 80 152 48 80 152 48 80 152 48 80 152 48 80 152 48 80 152 48 80 152 48 80 152 48 80 152 48 80 152 48 80 152 48 80 152 48 80 152 48 80 152 48 80 152 48 80 152 48 80 152 88 104 24 88 104 24 88 104 24 88 104 24 88 104 24 88 104 24 88 104 24 88 104 24 88 104 24 88 104 24 88 104 24 88 104 24 88 104 24 88 104 24 88 104 24 88 104 24 88 104 24 88 104 24 88 104 24 88 104 24 88 104 24 88 104 24 88 104 24 88 104 24 88 104 24 88 104 24 88 104 24 88 104 24 88 104 24 88 104 24 88 104 24 88 104 24
240 88 168 240 88 168 240 88 168 240 88 168 240 88 168 240 88 168 240 88 168 240 88 168 240 88 168 240 88 168 240 88 168 240 88 168 240 88 168 240 88 168 240 88 168 240 88 168 240 88 168 240 88 168 240 88 168 240 88 168 240 88 168 240 88 168 240 88 168 240 88 168 240 88 168 240 88 168 240 88 168 240 88 168 240 88 168 240 88 168 240 88 168 240 88 168 48 80 24 48 80 24 48 80 24 48 80 24 48 80 24 48 80 24 48 80 24 48 80 24 48 80 24 48 80 24 48 80 24 48 80 24 48 80 24 48 80 24 48 80 24 48 80 24 48 80 24 48 80 24 48 80 24 48 80 24 48 80 24 48 80 24 48 80 24 48 80 24 48 80 24 48 80 24 48 80 24 48 80 24 48 80 24 48 80 24 48 80 24 48 80 24 48 80 152 48 80 152 48 80 152 48 80 152 48 80 152 48 80 152 48 80 152 48 80 152 48 80 152 48 80 152 48 80 152 48 80 152 48 80 152 48 80 152 48 80 152 48 80 152 48 80 152 48 80 152 48 80 152 48 80 152 48 80 152 48 80 152 48 80 152 48 80 152 48 80 152 48 80 152 48 80 152 48 80 152 48 80 152 48 80 152 48 80 152 48 80 152 88 104 24 88 104 24 88 104 24 88 104 24 88 104 24 88 104 24 88 104 24 88 104 24 88 104 24 88 104 24 88 104 24 88 104 24 88 104 24 88 104 24 88 104 24 88 104 24 88 104 24 88 104 24 88 104 24 88 104 24 88 104 24 88 104 24 88 104 24 88 104 24 88 104 24 88 104 24 88 104 24 88 104 24 88 104 24 88 104 24 88 104 24 88 104 24
240 88 168 240 88 168 240 88 168 240 88 168 240 88 168 240 88 168 240 88 168 240 88 168 240 88 168 240 88 168 240 88 168 240 88 168 240 88 168 240 88 168 240 88 168 240 88 168 240 88 168 240 88 168 240 88 168 240 88 168 240 88 168 240 88 168 240 88 168 240 88 168 240 88 168 240 88 168 240 88 168 240 88 168 240 88 168 240 88 168 240 88 168 240 88 168 48 80 24 48 80 24 48 80 24 48 80 24 48 80 24 48 80 24 48 80 24 48 80 24 48 80 24 48 80 24 48 80 24 48 80 24 48 80 24 48 80 24 48 80 24 48 80 24 48 80 24 48 80 24 48 80 24 48 80 24 48 80 24 48 80 24 48 80 24 48 80 24 48 80 24 48 80 24 48 80 24 48 80 24 48 80 24 48 80 24 48 80 24 48 80 24 48 80 152 48 80 152 48 80 152 48 80 152 48 80 152 48 80 152 48 80 152 48 80 152 48 80 152 48 80 152 48 80 152 48 80 152 48 80 152 48 80 152 48 80 152 48 80 152 48 80 152 48 80 152 48 80 152 48 80 152 48 80 152 48 80 152 48 80 152 48 80 152 48 80 152 48 80 152 48 80 152 48 80 152 48 80 152 48 80 152 48 80 152 48 80 152 88 104 24 88 104 24 88 104 24 88 104 24 88 104 24 88 104 24 88 104 24 88 104 24 88 104 24 88 104 24 88 104 24 88 104 24 88 104 24 88 104 24 88 104 24 88 104 24 88 104 24 88 104 24 88 104 24 88 104 24 88 104 24 88 104 24 88 104 24 88 104 24 88 104 24 88 104 24 88 104 24 88 104 24 88 104 24 88 104 24 88 104 24 88 104 24
240 88 168 240 88 168 240 88 168 240 88 168 240 88 168 240 88 168 240 88 168 240 88 168 240 88 168 240 88 168 240 88 168 240 88 168 240 88 168 240 88 168 240 88 168 240 88 168 240 88 168 240 88 168 240 88 168 240 88 168 240 88 168 240 88 168 240 88 168 240 88 168 240 88 168 240 88 168 240 88 168 240 88 168 240 88 168 240 88 168 240 88 168 240 88 168 48 80 24 48 80 24 48 80 24 48 80 24 48 80 24 48 80 24 48 80 24 48 80 24 48 80 24 48 80 24 48 80 24 48 80 24 48 80 24 48 80 24 48 80 24 48 80 24 48 80 24 48 80 24 48 80 24 48 80 24 48 80 24 48 80 24 48 80 24 48 80 24 48 80 24 48 80 24 48 80 24 48 80 24 48 80 24 48 80 24 48 80 24 48 80 24 48 80 152 48 80 152 48 80 152 48 80 152 48 80 152 48 80 152 48 80 152 48 80 152 48 80 152 48 80 152 48 80 152 48 80 152 48 80 152 48 80 152 48 80 152 48 80 152 48 80 152 48 80 152 48 80 152 48 80 152 48 80 152 48 80 152 48 80 152 48 80 152 48 80 152 48 80 152 48 80 152 48 80 152 48 80 152 48 80 152 48 80 152 48 80 152 88 104 24 88 104 24 88 104 24 88 104 24 88 104 24 88 104 24 88 104 24 88 104 24 88 104 24 88 104 24 88 104 24 88 104 24 88 104 24 88 104 24 88 104 24 88 104 24 88 104 24 88 104 24 88 104 24 88 104 24 88 104 24 88 104 24 88 104 24 88 104 24 88 104 24 88 104 24 88 104 24 88 104 24 88 104 24 88 104 24 88 104 24 88 104 24
240 88 168 240 88 168 240 88 168 240 88 168 240 88 168 240 88 168 240 88 168 240 88 168 240 88 168 240 88 168 240 88 168 240 88 168 240 88 168 240 88 168 240 88 168 240 88 168 240 88 168 240 88 168 240 88 168 240 88 168 240 88 168 240 88 168 240 88 168 240 88 168 240 88 168 240 88 168 240 88 168 240 88 168 240 88 168 240 88 168 240 88 168 240 88 168 48 80 24 48 80 24 48 80 24 48 80 24 48 80 24 48 80 24 48 80 24 48 80 24 48 80 24 48 80 24 48 80 24 48 80 24 48 80 24 48 80 24 48 80 24 48 80 24 48 80 24 48 80 24 48 80 24 48 80 24 48 80 24 48 80 24 48 80 24 48 80 24 48 80 24 48 80 24 48 80 24 48 80 24 48 80 24 48 80 24 48 80 24 48 80 24 48 80 152 48 80 152 48 80 152 48 80 152 48 80 152 48 80 152 48 80 152 48 80 152 48 80 152 48 80 152 48 80 152 48 80 152 48 80 152 48 80 152 48 80 152 48 80 152 48 80 152 48 80 152 48 80 152 48 80 152 48 80 152 48 80 152 48 80 152 48 80 152 48 80 152 48 80 152 48 80 152 48 80 152 48 80 152 48 80 152 48 80 152 48 80 152 88 104 24 88 104 24 88 104 24 88 104 24 88 104 24 88 104 24 88 104 24 88 104 24 88 104 24 88 104 24 88 104 24 88 104 24 88 104 24 88 104 24 88 104 24 88 104 24 88 104 24 88 104 24 88 104 24 88 104 24 88 104 24 88 104 24 88 104 24 88 104 24 88 104 24 88 104 24 88 104 24 88 104 24 88 104 24 88 104 24 88 104 24 88 104 24
240 88 168 240 88 168 240 88 168 240 88 168 240 88 168 240 88 168 240 88 168 240 88 168 240 88 168 240 88 168 240 88 168 240 88 168 240 88 168 240 88 168 240 88 168 240 88 168 240 88 168 240 88 168 240 88 168 240 88 168 240 88 168 240 88 168 240 88 168 240 88 168 240 88 168 240 88 168 240 88 168 240 88 168 240 88 168 240 88 168 240 88 168 240 88 168 48 80 24 48 80 24 48 80 24 48 80 24 48 80 24 48 80 24 48 80 24 48 80 24 48 80 24 48 80 24 48 80 24 48 80 24 48 80 24 48 80 24 48 80 24 48 80 24 48 80 24 48 80 24 48 80 24 48 80 24 48 80 24 48 80 24 48 80 24 48 80 24 48 80 24 48 80 24 48 80 24 48 80 24 48 80 24 48 80 24 48 80 24 48 80 24 48 80 152 48 80 152 48 80 152 48 80 152 48 80 152 48 80 152 48 80 152 48 80 152 48 80 152 48 80 152 48 80 152 48 80 152 48 80 152 48 80 152 48 80 152 48 80 152 48 80 152 48 80 152 48 80 152 48 80 152 48 80 152 48 80 152 48 80 152 48 80 152 48 80 152 48 80 152 48 80 152 48 80 152 48 80 152 48 80 152 48 80 152 48 80 152 88 104 24 88 104 24 88 104 24 88 104 24 88 104 24 88 104 24 88 104 24 88 104 24 88 104 24 88 104 24 88 104 24 88 104 24 88 104 24 88 104 24 88 104 24 88 104 24 88 104 24 88 104 24 88 104 24 88 104 24 88 104 24 88 104 24 88 104 24 88 104 24 88 104 24 88 104 24 88 104 24 88 104 24 88 104 24 88 104 24 88 104 24 88 104 24
240 88 168 240 88 168 240 88 168 240 88 168 240 88 168 240 88 168 240 88 168 240 88 168 240 88 168 240 88 168 240 88 168 240 88 168 240 88 168 240 88 168 240 88 168 240 88 168 240 88 168 240 88 168 240 88 168 240 88 168 240 88 168 240 88 168 240 88 168 240 88 168 240 88 168 240 88 168 240 88 168 240 88 168 240 88 168 240 88 168 240 88 168 240 88 168 48 80 24 48 80 24 48 80 24 48 80 24 48 80 24 48 80 24 48 80 24 48 80 24 48 80 24 48 80 24 48 80 24 48 80 24 48 80 24 48 80 24 48 80 24 48 80 24 48 80 24 48 80 24 48 80 24 48 80 24 48 80 24 48 80 24 48 80 24 48 80 24 48 80 24 48 80 24 48 80 24 48 80 24 48 80 24 48 80 24 48 80 24 48 80 24 48 80 152 48 80 152 48 80 152 48 80 152 48 80 152 48 80 152 48 80 152 48 80 152 48 80 152 48 80 152 48 80 152 48 80 152 48 80 152 48 80 152 48 80 152 48 80 152 48 80 152 48 80 152 48 80 152 48 80 152 48 80 152 48 80 152 48 80 152 48 80 152 48 80 152 48 80 152 48 80 152 48 80 152 48 80 152 48 80 152 48 80 152 48 80 152 88 104 24 88 104 24 88 104 24 88 104 24 88 104 24 88 104 24 88 104 24 88 104 24 88 104 24 88 104 24 88 104 24 88 104 24 88 104 24 88 104 24 88 104 24 88 104 24 88 104 24 88 104 24 88 104 24 88 104 24 88 104 24 88 104 24 88 104 24 88 104 24 88 104 24 88 104 24 88 104 24 88 104 24 88 104 24 88 104 24 88 104 24 88 104 24
240 88 168 240 88 168 240 88 168 240 88 168 240 88 168 240 88 168 240 88 168 240 88 168 240 88 168 240 88 168 240 88 168 240 88 168 240 88 168 240 88 168 240 88 168 240 88 168 240 88 168 240 88 168 240 88 168 240 88 168 240 88 168 240 88 168 240 88 168 240 88 168 240 88 168 240 88 168 240 88 168 240 88 168 240 88 168 240 88 168 240 88 168 240 88 168 48 80 24 48 80 24 48 80 24 48 80 24 48 80 24 48 80 24 48 80 24 48 80 24 48 80 24 48 80 24 48 80 24 48 80 24 48 80 24 48 80 24 48 80 24 48 80 24 48 80 24 48 80 24 48 80 24 48 80 24 48 80 24 48 80 24 48 80 24 48 80 24 48 80 24 48 80 24 48 80 24 48 80 24 48 80 24 48 80 24 48 80 24 48 80 24 48 80 152 48 80 152 48 80 152 48 80 152 48 80 152 48 80 152 48 80 152 48 80 152 48 80 152 48 80 152 48 80 152 48 80 152 48 80 152 48 80 152 48 80 152 48 80 152 48 80 152 48 80 152 48 80 152 48 80 152 48 80 152 48 80 152 48 80 152 48 80 152 48 80 152 48 80 152 48 80 152 48 80 152 48 80 152 48 80 152 48 80 152 48 80 152 88 104 24 88 104 24 88 104 24 88 104 24 88 104 24 88 104 24 88 104 24 88 104 24 88 104 24 88 104 24 88 104 24 88 104 24 88 104 24 88 104 24 88 104 24 88 104 24 88 104 24 88 104 24 88 104 24 88 104 24 88 104 24 88 104 24 88 104 24 88 104 24 88 104 24 88 104 24 88 104 24 88 104 24 88 104 24 88 104 24 88 104 24 88 104 24
240 88 168 240 88 168 240 88 168 240 88 168 240 88 168 240 88 168 240 88 168 240 88 168 240 88 168 240 88 168 240 88 168 240 88 168 240 88 168 240 88 168 240 88 168 240 88 168 240 88 168 240 88 168 240 88 168 240 88 168 240 88 168 240 88 168 240 88 168 240 88 168 240 88 168 240 88 168 240 88 168 240 88 168 240 88 168 240 88 168 240 88 168 240 88 168 48 80 24 48 80 24 48 80 24 48 80 24 48 80 24 48 80 24 48 80 24 48 80 24 48 80 24 48 80 24 48 80 24 48 80 24 48 80 24 48 80 24 48 80 24 48 80 24 48 80 24 48 80 24 48 80 24 48 80 24 48 80 24 48 80 24 48 80 24 48 80 24 48 80 24 48 80 24 48 80 24 48 80 24 48 80 24 48 80 24 48 80 24 48 80 24 48 80 152 48 80 152 48 80 152 48 80 152 48 80 152 48 80 152 48 80 152 48 80 152 48 80 152 48 80 152 48 80 152 48 80 152 48 80 152 48 80 152 48 80 152 48 80 152 48 80 152 48 80 152 48 80 152 48 80 152 48 80 152 48 80 152 48 80 152 48 80 152 48 80 152 48 80 152 48 80 152 48 80 152 48 80 152 48 80 152 48 80 152 48 80 152 88 104 24 88 104 24 88 104 24 88 104 24 88 104 24 88 104 24 88 104 24 88 104 24 88 104 24 88 104 24 88 104 24 88 104 24 88 104 24 88 104 24 88 104 24 88 104 24 88 104 24 88 104 24 88 104 24 88 104 24 88 104 24 88 104 24 88 104 24 88 104 24 88 104 24 88 104 24 88 104 24 88 104 24 88 104 24 88 104 24 88 104 24 88 104 24
240 88 168 240 88 168 240 88 168 240 88 168 240 88 168 240 88 168 240 88 168 240 88 168 240 88 168 240 88 168 240 88 168 240 88 168 240 88 168 240 88 168 240 88 168 240 88 168 240 88 168 240 88 168 240 88 168 240 88 168 240 88 168 240 88 168 240 88 168 240 88 168 240 88 168 240 88 168 240 88 168 240 88 168 240 88 168 240 88 168 240 88 168 240 88 168 48 80 24 48 80 24 48 80 24 48 80 24 48 80 24 48 80 24 48 80 24 48 80 24 48 80 24 48 80 24 48 80 24 48 80 24 48 80 24 48 80 24 48 80 24 48 80 24 48 80 24 48 80 24 48 80 24 48 80 24 48 80 24 48 80 24 48 80 24 48 80 24 48 80 24 48 80 24 48 80 24 48 80 24 48 80 24 48 80 24 48 80 24 48 80 24 48 80 152 48 80 152 48 80 152 48 80 152 48 80 152 48 80 152 48 80 152 48 80 152 48 80 152 48 80 152 48 80 152 48 80 152 48 80 152 48 80 152 48 80 152 48 80 152 48 80 152 48 80 152 48 80 152 48 80 152 48 80 152 48 80 152 48 80 152 48 80 152 48 80 152 48 80 152 48 80 152 48 80 152 48 80 152 48 80 152 48 80 152 48 80 152 88 104 24 88 104 24 88 104 24 88 104 24 88 104 24 88 104 24 88 104 24 88 104 24 88 104 24 88 104 24 88 104 24 88 104 24 88 104 24 88 104 24 88 104 24 88 104 24 88 104 24 88 104 24 88 104 24 88 104 24 88 104 24 88 104 24 88 104 24 88 104 24 88 104 24 88 104 24 88 104 24 88 104 24 88 104 24 88 104 24 88 104 24 88 104 24
240 88 168 240 88 168 240 88 168 240 88 168 240 88 168 240 88 168 240 88 168 240 88 168 240 88 168 240 88 168 240 88 168 240 88 168 240 88 168 240 88 168 240 88 168 240 88 168 240 88 168 240 88 168 240 88 168 240 88 168 240 88 168 240 88 168 240 88 168 240 88 168 240 88 168 240 88 168 240 88 168 240 88 168 240 88 168 240 88 168 240 88 168 240 88 168 48 80 24 48 80 24 48 80 24 48 80 24 48 80 24 48 80 24 48 80 24 48 80 24 48 80 24 48 80 24 48 80 24 48 80 24 48 80 24 48 80 24 48 80 24 48 80 24 48 80 24 48 80 24 48 80 24 48 80 24 48 80 24 48 80 24 48 80 24 48 80 24 48 80 24 48 80 24 48 80 24 48 80 24 48 80 24 48 80 24 48 80 24 48 80 24 48 80 152 48 80 152 48 80 152 48 80 152 48 80 152 48 80 152 48 80 152 48 80 152 48 80 152 48 80 152 48 80 152 48 80 152 48 80 152 48 80 152 48 80 152 48 80 152 48 80 152 48 80 152 48 80 152 48 80 152 48 80 152 48 80 152 48 80 152 48 80 152 48 80 152 48 80 152 48 80 152 48 80 152 48 80 152 48 80 152 48 80 152 48 80 152 88 104 24 88 104 24 88 104 24 88 104 24 88 104 24 88 104 24 88 104 24 88 104 24 88 104 24 88 104 24 88 104 24 88 104 24 88 104 24 88 104 24 88 104 24 88 104 24 88 104 24 88 104 24 88 104 24 88 104 24 88 104 24 88 104 24 88 104 24 88 104 24 88 104 24 88 104 24 88 104 24 88 104 24 88 104 24 88 104 24 88 104 24 88 104 24
240 88 168 240 88 168 240 88 168 240 88 168 240 88 168 240 88 168 240 88 168 240 88 168 240 88 168 240 88 168 240 88 168 240 88 168 240 88 168 240 88 168 240 88 168 240 88 168 240 88 168 240 88 168 240 88 168 240 88 168 240 88 168 240 88 168 240 88 168 240 88 168 240 88 168 240 88 168 240 88 168 240 88 168 240 88 168 240 88 168 240 88 168 240 88 168 48 80 24 48 80 24 48 80 24 48 80 24 48 80 24 48 80 24 48 80 24 48 80 24 48 80 24 48 80 24 48 80 24 48 80 24 48 80 24 48 80 24 48 80 24 48 80 24 48 80 24 48 80 24 48 80 24 48 80 24 48 80 24 48 80 24 48 80 24 48 80 24 48 80 24 48 80 24 48 80 24 48 80 24 48 80 24 48 80 24 48 80 24 48 80 24 48 80 152 48 80 152 48 80 152 48 80 152 48 80 152 48 80 152 48 80 152 48 80 152 48 80 152 48 80 152 48 80 152 48 80 152 48 80 152 48 80 152 48 80 152 48 80 152 48 80 152 48 80 152 48 80 152 48 80 152 48 80 152 48 80 152 48 80 152 48 80 152 48 80 152 48 80 152 48 80 152 48 80 152 48 80 152 48 80 152 48 80 152 48 80 152 88 104 24 88 104 24 88 104 24 88 104 24 88 104 24 88 104 24 88 104 24 88 104 24 88 104 24 88 104 24 88 104 24 88 104 24 88 104 24 88 104 24 88 104 24 88 104 24 88 104 24 88 104 24 88 104 24 88 104 24 88 104 24 88 104 24 88 104 24 88 104 24 88 104 24 88 104 24 88 104 24 88 104 24 88 104 24 88 104 24 88 104 24 88 104 24
240 88 168 240 88 168 240 88 168 240 88 168 240 88 168 240 88 168 240 88 168 240 88 168 240 88 168 240 88 168 240 88 168 240 88 168 240 88 168 240 88 168 240 88 168 240 88 168 240 88 168 240 88 168 240 88 168 240 88 168 240 88 168 240 88 168 240 88 168 240 88 168 240 88 168 240 88 168 240 88 168 240 88 168 240 88 168 240 88 168 240 88 168 240 88 168 48 80 24 48 80 24 48 80 24 48 80 24 48 80 24 48 80 24 48 80 24 48 80 24 48 80 24 48 80 24 48 80 24 48 80 24 48 80 24 48 80 24 48 80 24 48 80 24 48 80 24 48 80 24 48 80 24 48 80 24 48 80 24 48 80 24 48 80 24 48 80 24 48 80 24 48 80 24 48 80 24 48 80 24 48 80 24 48 80 24 48 80 24 48 80 24 48 80 152 48 80 152 48 80 152 48 80 152 48 80 152 48 80 152 48 80 152 48 80 152 48 80 152 48 80 152 48 80 152 48 80 152 48 80 152 48 80 152 48 80 152 48 80 152 48 80 152 48 80 152 48 80 152 48 80 152 48 80 152 48 80 152 48 80 152 48 80 152 48 80 152 48 80 152 48 80 152 48 80 152 48 80 152 48 80 152 48 80 152 48 80 152 88 104 24 88 104 24 88 104 24 88 104 24 88 104 24 88 104 24 88 104 24 88 104 24 88 104 24 88 104 24 88 104 24 88 104 24 88 104 24 88 104 24 88 104 24 88 104 24 88 104 24 88 104 24 88 104 24 88 104 24 88 104 24 88 104 24 88 104 24 88 104 24 88 104 24 88 104 24 88 104 24 88 104 24 88 104 24 88 104 24 88 104 24 88 104 24
240 88 168 240 88 168 240 88 168 240 88 168 240 88 168 240 88 168 240 88 168 240 88 168 240 88 168 240 88 168 240 88 168 240 88 168 240 88 168 240 88 168 240 88 168 240 88 168 240 88 168 240 88 168 240 88 168 240 88 168 240 88 168 240 88 168 240 88 168 240 88 168 240 88 168 240 88 168 240 88 168 240 88 168 240 88 168 240 88 168 240 88 168 240 88 168 48 80 24 48 80 24 48 80 24 48 80 24 48 80 24 48 80 24 48 80 24 48 80 24 48 80 24 48 80 24 48 80 24 48 80 24 48 80 24 48 80 24 48 80 24 48 80 24 48 80 24 48 80 24 48 80 24 48 80 24 48 80 24 48 80 24 48 80 24 48 80 24 48 80 24 48 80 24 48 80 24 48 80 24 48 80 24 48 80 24 48 80 24 48 80 24 48 80 152 48 80 152 48 80 152 48 80 152 48 80 152 48 80 152 48 80 152 48 80 152 48 80 152 48 80 152 48 80 152 48 80 152 48 80 152 48 80 152 48 80 152 48 80 152 48 80 152 48 80 152 48 80 152 48 80 152 48 80 152 48 80 152 48 80 152 48 80 152 48 80 152 48 80 152 48 80 152 48 80 152 48 80 152 48 80 152 48 80 152 48 80 152 88 104 24 88 104 24 88 104 24 88 104 24 88 104 24 88 104 24 88 104 24 88 104 24 88 104 24 88 104 24 88 104 24 88 104 24 88 104 24 88 104 24 88 104 24 88 104 24 88 104 24 88 104 24 88 104 24 88 104 24 88 104 24 88 104 24 88 104 24 88 104 24 88 104 24 88 104 24 88 104 24 88 104 24 88 104 24 88 104 24 88 104 24 88 104 24
240 88 168 240 88 168 240 88 168 240 88 168 240 88 168 240 88 168 240 88 168 240 88 168 240 88 168 240 88 168 240 88 168 240 88 168 240 88 168 240 88 168 240 88 168 240 88 168 240 88 168 240 88 168 240 88 168 240 88 168 240 88 168 240 88 168 240 88 168 240 88 168 240 88 168 240 88 168 240 88 168 240 88 168 240 88 168 240 88 168 240 88 168 240 88 168 48 80 24 48 80 24 48 80 24 48 80 24 48 80 24 48 80 24 48 80 24 48 80 24 48 80 24 48 80 24 48 80 24 48 80 24 48 80 24 48 80 24 48 80 24 48 80 24 48 80 24 48 80 24 48 80 24 48 80 24 48 80 24 48 80 24 48 80 24 48 80 24 48 80 24 48 80 24 48 80 24 48 80 24 48 80 24 48 80 24 48 80 24 48 80 24 48 80 152 48 80 152 48 80 152 48 80 152 48 80 152 48 80 152 48 80 152 48 80 152 48 80 152 48 80 152 48 80 152 48 80 152 48 80 152 48 80 152 48 80 152 48 80 152 48 80 152 48 80 152 48 80 152 48 80 152 48 80 152 48 80 152 48 80 152 48 80 152 48 80 152 48 80 152 48 80 152 48 80 152 48 80 152 48 80 152 48 80 152 48 80 152 88 104 24 88 104 24 88 104 24 88 104 24 88 104 24 88 104 24 88 104 24 88 104 24 88 104 24 88 104 24 88 104 24 88 104 24 88 104 24 88 104 24 88 104 24 88 104 24 88 104 24 88 104 24 88 104 24 88 104 24 88 104 24 88 104 24 88 104 24 88 104 24 88 104 24 88 104 24 88 104 24 88 104 24 88 104 24 88 104 24 88 104 24 88 104 24
88 104 152 88 104 152 88 104 152 88 104 152 88 104 152 88 104 152 88 104 152 88 104 152 88 104 152 88 104 152 88 104 152 88 104 152 88 104 152 88 104 152 88 104 152 88 104 152 88 104 152 88 104 152 88 104 152 88 104 152 88 104 152 88 104 152 88 104 152 88 104 152 88 104 152 88 104 152 88 104 152 88 104 152 88 104 152 88 104 152 88 104 152 88 104 152 48 80 24 48 80 24 48 80 24 48 80 24 48 80 24 48 80 24 48 80 24 48 80 24 48 80 24 48 80 24 48 80 24 48 80 24 48 80 24 48 80 24 48 80 24 48 80 24 48 80 24 48 80 24 48 80 24 48 80 24 48 80 24 48 80 24 48 80 24 48 80 24 48 80 24 48 80 24 48 80 24 48 80 24 48 80 24 48 80 24 48 80 24 48 80 24 88 104 24 88 104 24 88 104 24 88 104 24 88 104 24 88 104 24 88 104 24 88 104 24 88 104 24 88 104 24 88 104 24 88 104 24 88 104 24 88 104 24 88 104 24 88 104 24 88 104 24 88 104 24 88 104 24 88 104 24 88 104 24 88 104 24 88 104 24 88 104 24 88 104 24 88 104 24 88 104 24 88 104 24 88 104 24 88 104 24 88 104 24 88 104 24 56 80 24 56 80 24 56 80 24 56 80 24 56 80 24 56 80 24 56 80 24 56 80 24 56 80 24 56 80 24 56 80 24 56 80 24 56 80 24 56 80 24 56 80 24 56 80 24 56 80 24 56 80 24 56 80 24 56 80 24 56 80 24 56 80 24 56 80 24 56 80 24 56 80 24 56 80 24 56 80 24 56 80 24 56 80 24 56 80 24 56 80 24 56 80 24
88 104 152 88 104 152 88 104 152 88 104 152 88 104 152 88 104 152 88 104 152 88 104 152 88 104 152 88 104 152 88 104 152 88 104 152 88 104 152 88 104 152 88 104 152 88 104 152 88 104 152 88 104 152 88 104 152 88 104 152 88 104 152 88 104 152 88 104 152 88 104 152 88 104 152 88 104 152 88 104 152 88 104 152 88 104 152 88 104 152 88 104 152 88 104 152 48 80 24 48 80 24 48 80 24 48 80 24 48 80 24 48 80 24 48 80 24 48 80 24 48 80 24 48 80 24 48 80 24 48 80 24 48 80 24 48 80 24 48 80 24 48 80 24 48 80 24 48 80 24 48 80 24 48 80 24 48 80 24 48 80 24 48 80 24 48 80 24 48 80 24 48 80 24 48 80 24 48 80 24 48 80 24 48 80 24 48 80 24 48 80 24 88 104 24 88 104 24 88 104 24 88 104 24 88 104 24 88 104 24 88 104 24 88 104 24 88 104 24 88 104 24 88 104 24 88 104 24 88 104 24 88 104 24 88 104 24 88 104 24 88 104 24 88 104 24 88 104 24 88 104 24 88 104 24 88 104 24 88 104 24 88 104 24 88 104 24 88 104 24 88 104 24 88 104 24 88 104 24 88 104 24 88 104 24 88 104 24 56 80 24 56 80 24 56 80 24 56 80 24 56 80 24 56 80 24 56 80 24 56 80 24 56 80 24 56 80 24 56 80 24 56 80 24 56 80 24 56 80 24 56 80 24 56 80 24 56 80 24 56 80 24 56 80 24 56 80 24 56 80 24 56 80 24 56 80 24 56 80 24 56 80 24 56 80 24 56 80 24 56 80 24 56 80 24 56 80 24 56 80 24 56 80 24
88 104 152 88 104 152 88 104 152 88 104 152 88 104 152 88 104 152 88 104 152 88 104 152 88 104 152 88 104 152 88 104 152 88 104 152 88 104 152 88 104 152 88 104 152 88 104 152 88 104 152 88 104 152 88 104 152 88 104 152 88 104 152 88 104 152 88 104 152 88 104 152 88 104 152 88 104 152 88 104 152 88 104 152 88 104 152 88 104 152 88 104 152 88 104 152 48 80 24 48 80 24 48 80 24 48 80 24 48 80 24 48 80 24 48 80 24 48 80 24 48 80 24 48 80 24 48 80 24 48 80 24 48 80 24 48 80 24 48 80 24 48 80 24 48 80 24 48 80 24 48 80 24 48 80 24 48 80 24 48 80 24 48 80 24 48 80 24 48 80 24 48 80 24 48 80 24 48 80 24 48 80 24 48 80 24 48 80 24 48 80 24 88 104 24 88 104 24 88 104 24 88 104 24 88 104 24 88 104 24 88 104 24 88 104 24 88 104 24 88 104 24 88 104 24 88 104 24 88 104 24 88 104 24 88 104 24 88 104 24 88 104 24 88 104 24 88 104 24 88 104 24 88 104 24 88 104 24 88 104 24 88 104 24 88 104 24 88 104 24 88 104 24 88 104 24 88 104 24 88 104 24 88 104 24 88 104 24 56 80 24 56 80 24 56 80 24 56 80 24 56 80 24 56 80 24 56 80 24 56 80 24 56 80 24 56 80 24 56 80 24 56 80 24 56 80 24 56 80 24 56 80 24 56 80 24 56 80 24 56 80 24 56 80 24 56 80 24 56 80 24 56 80 24 56 80 24 56 80 24 56 80 24 56 80 24 56 80 24 56 80 24 56 80 24 56 80 24 56 80 24 56 80 24
88 104 152 88 104 152 88 104 152 88 104 152 88 104 152 88 104 152 88 104 152 88 104 152 88 104 152 88 104 152 88 104 152 88 104 152 88 104 152 88 104 152 88 104 152 88 104 152 88 104 152 88 104 152 88 104 152 88 104 152 88 104 152 88 104 152 88 104 152 88 104 152 88 104 152 88 104 152 88 104 152 88 104 152 88 104 152 88 104 152 88 104 152 88 104 152 48 80 24 48 80 24 48 80 24 48 80 24 48 80 24 48 80 24 48 80 24 48 80 24 48 80 24 48 80 24 48 80 24 48 80 24 48 80 24 48 80 24 48 80 24 48 80 24 48 80 24 48 80 24 48 80 24 48 80 24 48 80 24 48 80 24 48 80 24 48 80 24 48 80 24 48 80 24 48 80 24 48 80 24 48 80 24 48 80 24 48 80 24 48 80 24 88 104 24 88 104 24 88 104 24 88 104 24 88 104 24 88 104 24 88 104 24 88 104 24 88 104 24 88 104 24 88 104 24 88 104 24 88 104 24 88 104 24 88 104 24 88 104 24 88 104 24 88 104 24 88 104 24 88 104 24 88 104 24 88 104 24 88 104 24 88 104 24 88 104 24 88 104 24 88 104 24 88 104 24 88 104 24 88 104 24 88 104 24 88 104 24 56 80 24 56 80 24 56 80 24 56 80 24 56 80 24 56 80 24 56 80 24 56 80 24 56 80 24 56 80 24 56 80 24 56 80 24 56 80 24 56 80 24 56 80 24 56 80 24 56 80 24 56 80 24 56 80 24 56 80 24 56 80 24 56 80 24 56 80 24 56 80 24 56 80 24 56 80 24 56 80 24 56 80 24 56 80 24 56 80 24 56 80 24 56 80 24
88 104 152 88 104 152 88 104 152 88 104 152 88 104 152 88 104 152 88 104 152 88 104 152 88 104 152 88 104 152 88 104 152 88 104 152 88 104 152 88 104 152 88 104 152 88 104 152 88 104 152 88 104 152 88 104 152 88 104 152 88 104 152 88 104 152 88 104 152 88 104 152 88 104 152 88 104 152 88 104 152 88 104 152 88 104 152 88 104 152 88 104 152 88 104 152 48 80 24 48 80 24 48 80 24 48 80 24 48 80 24 48 80 24 48 80 24 48 80 24 48 80 24 48 80 24 48 80 24 48 80 24 48 80 24 48 80 24 48 80 24 48 80 24 48 80 24 48 80 24 48 80 24 48 80 24 48 80 24 48 80 24 48 80 24 48 80 24 48 80 24 48 80 24 48 80 24 48 80 24 48 80 24 48 80 24 48 80 24 48 80 24 88 104 24 88 104 24 88 104 24 88 104 24 88 104 24 88 104 24 88 104 24 88 104 24 88 104 24 88 104 24 88 104 24 88 104 24 88 104 24 88 104 24 88 104 24 88 104 24 88 104 24 88 104 24 88 104 24 88 104 24 88 104 24 88 104 24 88 104 24 88 104 24 88 104 24 88 104 24 88 104 24 88 104 24 88 104 24 88 104 24 88 104 24 88 104 24 56 80 24 56 80 24 56 80 24 56 80 24 56 80 24 56 80 24 56 80 24 56 80 24 56 80 24 56 80 24 56 80 24 56 80 24 56 80 24 56 80 24 56 80 24 56 80 24 56 80 24 56 80 24 56 80 24 56 80 24 56 80 24 56 80 24 56 80 24 56 80 24 56 80 24 56 80 24 56 80 24 56 80 24 56 80 24 56 80 24 56 80 24 56 80 24
88 104 152 88 104 152 88 104 152 88 104 152 88 104 152 88 104 152 88 104 152 88 104 152 88 104 152 88 104 152 88 104 152 88 104 152 88 104 152 88 104 152 88 104 152 88 104 152 88 104 152 88 104 152 88 104 152 88 104 152 88 104 152 88 104 152 88 104 152 88 104 152 88 104 152 88 104 152 88 104 152 88 104 152 88 104 152 88 104 152 88 104 152 88 104 152 48 80 24 48 80 24 48 80 24 48 80 24 48 80 24 48 80 24 48 80 24 48 80 24 48 80 24 48 80 24 48 80 24 48 80 24 48 80 24 48 80 24 48 80 24 48 80 24 48 80 24 48 80 24 48 80 24 48 80 24 48 80 24 48 80 24 48 80 24 48 80 24 48 80 24 48 80 24 48 80 24 48 80 24 48 80 24 48 80 24 48 80 24 48 80 24 88 104 24 88 104 24 88 104 24 88 104 24 88 104 24 88 104 24 88 104 24 88 104 24 88 104 24 88 104 24 88 104 24 88 104 24 88 104 24 88 104 24 88 104 24 88 104 24 88 104 24 88 104 24 88 104 24 88 104 24 88 104 24 88 104 24 88 104 24 88 104 24 88 104 24 88 104 24 88 104 24 88 104 24 88 104 24 88 104 24 88 104 24 88 104 24 56 80 24 56 80 24 56 80 24 56 80 24 56 80 24 56 80 24 56 80 24 56 80 24 56 80 24 56 80 24 56 80 24 56 80 24 56 80 24 56 80 24 56 80 24 56 80 24 56 80 24 56 80 24 56 80 24 56 80 24 56 80 24 56 80 24 56 80 24 56 80 24 56 80 24 56 80 24 56 80 24 56 80 24 56 80 24 56 80 24 56 80 24 56 80 24
88 104 152 88 104 152 88 104 152 88 104 152 88 104 152 88 104 152 88 104 152 88 104 152 88 104 152 88 104 152 88 104 152 88 104 152 88 104 152 88 104 152 88 104 152 88 104 152 88 104 152 88 104 152 88 104 152 88 104 152 88 104 152 88 104 152 88 104 152 88 104 152 88 104 152 88 104 152 88 104 152 88 104 152 88 104 152 88 104 152 88 104 152 88 104 152 48 80 24 48 80 24 48 80 24 48 80 24 48 80 24 48 80 24 48 80 24 48 80 24 48 80 24 48 80 24 48 80 24 48 80 24 48 80 24 48 80 24 48 80 24 48 80 24 48 80 24 48 80 24 48 80 24 48 80 24 48 80 24 48 80 24 48 80 24 48 80 24 48 80 24 48 80 24 48 80 24 48 80 24 48 80 24 48 80 24 48 80 24 48 80 24 88 104 24 88 104 24 88 104 24 88 104 24 88 104 24 88 104 24 88 104 24 88 104 24 88 104 24 88 104 24 88 104 24 88 104 24 88 104 24 88 104 24 88 104 24 88 104 24 88 104 24 88 104 24 88 104 24 88 104 24 88 104 24 88 104 24 88 104 24 88 104 24 88 104 24 88 104 24 88 104 24 88 104 24 88 104 24 88 104 24 88 104 24 88 104 24 56 80 24 56 80 24 56 80 24 56 80 24 56 80 24 56 80 24 56 80 24 56 80 24 56 80 24 56 80 24 56 80 24 56 80 24 56 80 24 56 80 24 56 80 24 56 80 24 56 80 24 56 80 24 56 80 24 56 80 24 56 80 24 56 80 24 56 80 24 56 80 24 56 80 24 56 80 24 56 80 24 56 80 24 56 80 24 56 80 24 56 80 24 56 80 24
88 104 152 88 104 152 88 104 152 88 104 152 88 104 152 88 104 152 88 104 152 88 104 152 88 104 152 88 104 152 88 104 152 88 104 152 88 104 152 88 104 152 88 104 152 88 104 152 88 104 152 88 104 152 88 104 152 88 104 152 88 104 152 88 104 152 88 104 152 88 104 152 88 104 152 88 104 152 88 104 152 88 104 152 88 104 152 88 104 152 88 104 152 88 104 152 48 80 24 48 80 24 48 80 24 48 80 24 48 80 24 48 80 24 48 80 24 48 80 24 48 80 24 48 80 24 48 80 24 48 80 24 48 80 24 48 80 24 48 80 24 48 80 24 48 80 24 48 80 24 48 80 24 48 80 24 48 80 24 48 80 24 48 80 24 48 80 24 48 80 24 48 80 24 48 80 24 48 80 24 48 80 24 48 80 24 48 80 24 48 80 24 88 104 24 88 104 24 88 104 24 88 104 24 88 104 24 88 104 24 88 104 24 88 104 24 88 104 24 88 104 24 88 104 24 88 104 24 88 104 24 88 104 24 88 104 24 88 104 24 88 104 24 88 104 24 88 104 24 88 104 24 88 104 24 88 104 24 88 104 24 88 104 24 88 104 24 88 104 24 88 104 24 88 104 24 88 104 24 88 104 24 88 104 24 88 104 24 56 80 24 56 80 24 56 80 24 56 80 24 56 80 24 56 80 24 56 80 24 56 80 24 56 80 24 56 80 24 56 80 24 56 80 24 56 80 24 56 80 24 56 80 24 56 80 24 56 80 24 56 80 24 56 80 24 56 80 24 56 80 24 56 80 24 56 80 24 56 80 24 56 80 24 56 80 24 56 80 24 56 80 24 56 80 24 56 80 24 56 80 24 56 80 24
88 104 152 88 104 152 88 104 152 88 104 152 88 104 152 88 104 152 88 104 152 88 104 152 88 104 152 88 104 152 88 104 152 88 104 152 88 104 152 88 104 152 88 104 152 88 104 152 88 104 152 88 104 152 88 104 152 88 104 152 88 104 152 88 104 152 88 104 152 88 104 152 88 104 152 88 104 152 88 104 152 88 104 152 88 104 152 88 104 152 88 104 152 88 104 152 48 80 24 48 80 24 48 80 24 48 80 24 48 80 24 48 80 24 48 80 24 48 80 24 48 80 24 48 80 24 48 80 24 48 80 24 48 80 24 48 80 24 48 80 24 48 80 24 48 80 24 48 80 24 48 80 24 48 80 24 48 80 24 48 80 24 48 80 24 48 80 24 48 80 24 48 80 24 48 80 24 48 80 24 48 80 24 48 80 24 48 80 24 48 80 24 88 104 24 88 104 24 88 104 24 88 104 24 88 104 24 88 104 24 88 104 24 88 104 24 88 104 24 88 104 24 88 104 24 88 104 24 88 104 24 88 104 24 88 104 24 88 104 24 88 104 24 88 104 24 88 104 24 88 104 24 88 104 24 88 104 24 88 104 24 88 104 24 88 104 24 88 104 24 88 104 24 88 104 24 88 104 24 88 104 24 88 104 24 88 104 24 56 80 24 56 80 24 56 80 24 56 80 24 56 80 24 56 80 24 56 80 24 56 80 24 56 80 24 56 80 24 56 80 24 56 80 24 56 80 24 56 80 24 56 80 24 56 80 24 56 80 24 56 80 24 56 80 24 56 80 24 56 80 24 56 80 24 56 80 24 56 80 24 56 80 24 56 80 24 56 80 24 56 80 24 56 80 24 56 80 24 56 80 24 56 80 24
88 104 152 88 104 152 88 104 152 88 104 152 88 104 152 88 104 152 88 104 152 88 104 152 88 104 152 88 104 152 88 104 152 88 104 152 88 104 152 88 104 152 88 104 152 88 104 152 88 104 152 88 104 152 88 104 152 88 104 152 88 104 152 88 104 152 88 104 152 88 104 152 88 104 152 88 104 152 88 104 152 88 104 152 88 104 152 88 104 152 88 104 152 88 104 152 48 80 24 48 80 24 48 80 24 48 80 24 48 80 24 48 80 24 48 80 24 48 80 24 48 80 24 48 80 24 48 80 24 48 80 24 48 80 24 48 80 24 48 80 24 48 80 24 48 80 24 48 80 24 48 80 24 48 80 24 48 80 24 48 80 24 48 80 24 48 80 24 48 80 24 48 80 24 48 80 24 48 80 24 48 80 24 48 80 24 48 80 24 48 80 24 88 104 24 88 104 24 88 104 24 88 104 24 88 104 24 88 104 24 88 104 24 88 104 24 88 104 24 88 104 24 88 104 24 88 104 24 88 104 24 88 104 24 88 104 24 88 104 24 88 104 24 88 104 24 88 104 24 88 104 24 88 104 24 88 104 24 88 104 24 88 104 24 88 104 24 88 104 24 88 104 24 88 104 24 88 104 24 88 104 24 88 104 24 88 104 24 56 80 24 56 80 24 56 80 24 56 80 24 56 80 24 56 80 24 56 80 24 56 80 24 56 80 24 56 80 24 56 80 24 56 80 24 56 80 24 56 80 24 56 80 24 56 80 24 56 80 24 56 80 24 56 80 24 56 80 24 56 80 24 56 80 24 56 80 24 56 80 24 56 80 24 56 80 24 56 80 24 56 80 24 56 80 24 56 80 24 56 80 24 56 80 24
88 104 152 88 104 152 88 104 152 88 104 152 88 104 152 88 104 152 88 104 152 88 104 152 88 104 152 88 104 152 88 104 152 88 104 152 88 104 152 88 104 152 88 104 152 88 104 152 88 104 152 88 104 152 88 104 152 88 104 152 88 104 152 88 104 152 88 104 152 88 104 152 88 104 152 88 104 152 88 104 152 88 104 152 88 104 152 88 104 152 88 104 152 88 104 152 48 80 24 48 80 24 48 80 24 48 80 24 48 80 24 48 80 24 48 80 24 48 80 24 48 80 24 48 80 24 48 80 24 48 80 24 48 80 24 48 80 24 48 80 24 48 80 24 48 80 24 48 80 24 48 80 24 48 80 24 48 80 24 48 80 24 48 80 24 48 80 24 48 80 24 48 80 24 48 80 24 48 80 24 48 80 24 48 80 24 48 80 24 48 80 24 88 104 24 88 104 24 88 104 24 88 104 24 88 104 24 88 104 24 88 104 24 88 104 24 88 104 24 88 104 24 88 104 24 88 104 24 88 104 24 88 104 24 88 104 24 88 104 24 88 104 24 88 104 24 88 104 24 88 104 24 88 104 24 88 104 24 88 104 24 88 104 24 88 104 24 88 104 24 88 104 24 88 104 24 88 104 24 88 104 24 88 104 24 88 104 24 56 80 24 56 80 24 56 80 24 56 80 24 56 80 24 56 80 24 56 80 24 56 80 24 56 80 24 56 80 24 56 80 24 56 80 24 56 80 24 56 80 24 56 80 24 56 80 24 56 80 24 56 80 24 56 80 24 56 80 24 56 80 24 56 80 24 56 80 24 56 80 24 56 80 24 56 80 24 56 80 24 56 80 24 56 80 24 56 80 24 56 80 24 56 80 24
88 104 152 88 104 152 88 104 152 88 104 152 88 104 152 88 104 152 88 104 152 88 104 152 88 104 152 88 104 152 88 104 152 88 104 152 88 104 152 88 104 152 88 104 152 88 104 152 88 104 152 88 104 152 88 104 152 88 104 152 88 104 152 88 104 152 88 104 152 88 104 152 88 104 152 88 104 152 88 104 152 88 104 152 88 104 152 88 104 152 88 104 152 88 104 152 48 80 24 48 80 24 48 80 24 48 80 24 48 80 24 48 80 24 48 80 24 48 80 24 48 80 24 48 80 24 48 80 24 48 80 24 48 80 24 48 80 24 48 80 24 48 80 24 48 80 24 48 80 24 48 80 24 48 80 24 48 80 24 48 80 24 48 80 24 48 80 24 48 80 24 48 80 24 48 80 24 48 80 24 48 80 24 48 80 24 48 80 24 48 80 24 88 104 24 88 104 24 88 104 24 88 104 24 88 104 24 88 104 24 88 104 24 88 104 24 88 104 24 88 104 24 88 104 24 88 104 24 88 104 24 88 104 24 88 104 24 88 104 24 88 104 24 88 104 24 88 104 24 88 104 24 88 104 24 88 104 24 88 104 24 88 104 24 88 104 24 88 104 24 88 104 24 88 104 24 88 104 24 88 104 24 88 104 24 88 104 24 56 80 24 56 80 24 56 80 24 56 80 24 56 80 24 56 80 24 56 80 24 56 80 24 56 80 24 56 80 24 56 80 24 56 80 24 56 80 24 56 80 24 56 80 24 56 80 24 56 80 24 56 80 24 56 80 24 56 80 24 56 80 24 56 80 24 56 80 24 56 80 24 56 80 24 56 80 24 56 80 24 56 80 24 56 80 24 56 80 24 56 80 24 56 80 24
88 104 152 88 104 152 88 104 152 88 104 152 88 104 152 88 104 152 88 104 152 88 104 152 88 104 152 88 104 152 88 104 152 88 104 152 88 104 152 88 104 152 88 104 152 88 104 152 88 104 152 88 104 152 88 104 152 88 104 152 88 104 152 88 104 152 88 104 152 88 104 152 88 104 152 88 104 152 88 104 152 88 104 152 88 104 152 88 104 152 88 104 152 88 104 152 48 80 24 48 80 24 48 80 24 48 80 24 48 80 24 48 80 24 48 80 24 48 80 24 48 80 24 48 80 24 48 80 24 48 80 24 48 80 24 48 80 24 48 80 24 48 80 24 48 80 24 48 80 24 48 80 24 48 80 24 48 80 24 48 80 24 48 80 24 48 80 24 48 80 24 48 80 24 48 80 24 48 80 24 48 80 24 48 80 24 48 80 24 48 80 24 88 104 24 88 104 24 88 104 24 88 104 24 88 104 24 88 104 24 88 104 24 88 104 24 88 104 24 88 104 24 88 104 24 88 104 24 88 104 24 88 104 24 88 104 24 88 104 24 88 104 24 88 104 24 88 104 24 88 104 24 88 104 24 88 104 24 88 104 24 88 104 24 88 104 24 88 104 24 88 104 24 88 104 24 88 104 24 88 104 24 88 104 24 88 104 24 56 80 24 56 80 24 56 80 24 56 80 24 56 80 24 56 80 24 56 80 24 56 80 24 56 80 24 56 80 24 56 80 24 56 80 24 56 80 24 56 80 24 56 80 24 56 80 24 56 80 24 56 80 24 56 80 24 56 80 24 56 80 24 56 80 24 56 80 24 56 80 24 56 80 24 56 80 24 56 80 24 56 80 24 56 80 24 56 80 24 56 80 24 56 80 24
88 104 152 88 104 152 88 104 152 88 104 152 88 104 152 88 104 152 88 104 152 88 104 152 88 104 152 88 104 152 88 104 152 88 104 152 88 104 152 88 104 152 88 104 152 88 104 152 88 104 152 88 104 152 88 104 152 88 104 152 88 104 152 88 104 152 88 104 152 88 104 152 88 104 152 88 104 152 88 104 152 88 104 152 88 104 152 88 104 152 88 104 152 88 104 152 48 80 24 48 80 24 48 80 24 48 80 24 48 80 24 48 80 24 48 80 24 48 80 24 48 80 24 48 80 24 48 80 24 48 80 24 48 80 24 48 80 24 48 80 24 48 80 24 48 80 24 48 80 24 48 80 24 48 80 24 48 80 24 48 80 24 48 80 24 48 80 24 48 80 24 48 80 24 48 80 24 48 80 24 48 80 24 48 80 24 48 80 24 48 80 24 88 104 24 88 104 24 88 104 24 88 104 24 88 104 24 88 104 24 88 104 24 88 104 24 88 104 24 88 104 24 88 104 24 88 104 24 88 104 24 88 104 24 88 104 24 88 104 24 88 104 24 88 104 24 88 104 24 88 104 24 88 104 24 88 104 24 88 104 24 88 104 24 88 104 24 88 104 24 88 104 24 88 104 24 88 104 24 88 104 24 88 104 24 88 104 24 56 80 24 56 80 24 56 80 24 56 80 24 56 80 24 56 80 24 56 80 24 56 80 24 56 80 24 56 80 24 56 80 24 56 80 24 56 80 24 56 80 24 56 80 24 56 80 24 56 80 24 56 80 24 56 80 24 56 80 24 56 80 24 56 80 24 56 80 24 56 80 24 56 80 24 56 80 24 56 80 24 56 80 24 56 80 24 56 80 24 56 80 24 56 80 24
88 104 152 88 104 152 88 104 152 88 104 152 88 104 152 88 104 152 88 104 152 88 104 152 88 104 152 88 104 152 88 104 152 88 104 152 88 104 152 88 104 152 88 104 152 88 104 152 88 104 152 88 104 152 88 104 152 88 104 152 88 104 152 88 104 152 88 104 152 88 104 152 88 104 152 88 104 152 88 104 152 88 104 152 88 104 152 88 104 152 88 104 152 88 104 152 48 80 24 48 80 24 48 80 24 48 80 24 48 80 24 48 80 24 48 80 24 48 80 24 48 80 24 48 80 24 48 80 24 48 80 24 48 80 24 48 80 24 48 80 24 48 80 24 48 80 24 48 80 24 48 80 24 48 80 24 48 80 24 48 80 24 48 80 24 48 80 24 48 80 24 48 80 24 48 80 24 48 80 24 48 80 24 48 80 24 48 80 24 48 80 24 88 104 24 88 104 24 88 104 24 88 104 24 88 104 24 88 104 24 88 104 24 88 104 24 88 104 24 88 104 24 88 104 24 88 104 24 88 104 24 88 104 24 88 104 24 88 104 24 88 104 24 88 104 24 88 104 24 88 104 24 88 104 24 88 104 24 88 104 24 88 104 24 88 104 24 88 104 24 88 104 24 88 104 24 88 104 24 88 104 24 88 104 24 88 104 24 56 80 24 56 80 24 56 80 24 56 80 24 56 80 24 56 80 24 56 80 24 56 80 24 56 80 24 56 80 24 56 80 24 56 80 24 56 80 24 56 80 24 56 80 24 56 80 24 56 80 24 56 80 24 56 80 24 56 80 24 56 80 24 56 80 24 56 80 24 56 80 24 56 80 24 56 80 24 56 80 24 56 80 24 56 80 24 56 80 24 56 80 24 56 80 24
88 104 152 88 104 152 88 104 152 88 104 152 88 104 152 88 104 152 88 104 152 88 104 152 88 104 152 88 104 152 88 104 152 88 104 152 88 104 152 88 104 152 88 104 152 88 104 152 88 104 152 88 104 152 88 104 152 88 104 152 88 104 152 88 104 152 88 104 152 88 104 152 88 104 152 88 104 152 88 104 152 88 104 152 88 104 152 88 104 152 88 104 152 88 104 152 48 80 24 48 80 24 48 80 24 48 80 24 48 80 24 48 80 24 48 80 24 48 80 24 48 80 24 48 80 24 48 80 24 48 80 24 48 80 24 48 80 24 48 80 24 48 80 24 48 80 24 48 80 24 48 80 24 48 80 24 48 80 24 48 80 24 48 80 24 48 80 24 48 80 24 48 80 24 48 80 24 48 80 24 48 80 24 48 80 24 48 80 24 48 80 24 88 104 24 88 104 24 88 104 24 88 104 24 88 104 24 88 104 24 88 104 24 88 104 24 88 104 24 88 104 24 88 104 24 88 104 24 88 104 24 88 104 24 88 104 24 88 104 24 88 104 24 88 104 24 88 104 24 88 104 24 88 104 24 88 104 24 88 104 24 88 104 24 88 104 24 88 104 24 88 104 24 88 104 24 88 104 24 88 104 24 88 104 24 88 104 24 56 80 24 56 80 24 56 80 24 56 80 24 56 80 24 56 80 24 56 80 24 56 80 24 56 80 24 56 80 24 56 80 24 56 80 24 56 80 24 56 80 24 56 80 24 56 80 24 56 80 24 56 80 24 56 80 24 56 80 24 56 80 24 56 80 24 56 80 24 56 80 24 56 80 24 56 80 24 56 80 24 56 80 24 56 80 24 56 80 24 56 80 24 56 80 24
88 104 152 88 104 152 88 104 152 88 104 152 88 104 152 88 104 152 88 104 152 88 104 152 88 104 152 88 104 152 88 104 152 88 104 152 88 104 152 88 104 152 88 104 152 88 104 152 88 104 152 88 104 152 88 104 152 88 104 152 88 104 152 88 104 152 88 104 152 88 104 152 88 104 152 88 104 152 88 104 152 88 104 152 88 104 152 88 104 152 88 104 152 88 104 152 48 80 24 48 80 24 48 80 24 48 80 24 48 80 24 48 80 24 48 80 24 48 80 24 48 80 24 48 80 24 48 80 24 48 80 24 48 80 24 48 80 24 48 80 24 48 80 24 48 80 24 48 80 24 48 80 24 48 80 24 48 80 24 48 80 24 48 80 24 48 80 24 48 80 24 48 80 24 48 80 24 48 80 24 48 80 24 48 80 24 48 80 24 48 80 24 88 104 24 88 104 24 88 104 24 88 104 24 88 104 24 88 104 24 88 104 24 88 104 24 88 104 24 88 104 24 88 104 24 88 104 24 88 104 24 88 104 24 88 104 24 88 104 24 88 104 24 88 104 24 88 104 24 88 104 24 88 104 24 88 104 24 88 104 24 88 104 24 88 104 24 88 104 24 88 104 24 88 104 24 88 104 24 88 104 24 88 104 24 88 104 24 56 80 24 56 80 24 56 80 24 56 80 24 56 80 24 56 80 24 56 80 24 56 80 24 56 80 24 56 80 24 56 80 24 56 80 24 56 80 24 56 80 24 56 80 24 56 80 24 56 80 24 56 80 24 56 80 24 56 80 24 56 80 24 56 80 24 56 80 24 56 80 24 56 80 24 56 80 24 56 80 24 56 80 24 56 80 24 56 80 24 56 80 24 56 80 24
88 104 152 88 104 152 88 104 152 88 104 152 88 104 152 88 104 152 88 104 152 88 104 152 88 104 152 88 104 152 88 104 152 88 104 152 88 104 152 88 104 152 88 104 152 88 104 152 88 104 152 88 104 152 88 104 152 88 104 152 88 104 152 88 104 152 88 104 152 88 104 152 88 104 152 88 104 152 88 104 152 88 104 152 88 104 152 88 104 152 88 104 152 88 104 152 48 80 24 48 80 24 48 80 24 48 80 24 48 80 24 48 80 24 48 80 24 48 80 24 48 80 24 48 80 24 48 80 24 48 80 24 48 80 24 48 80 24 48 80 24 48 80 24 48 80 24 48 80 24 48 80 24 48 80 24 48 80 24 48 80 24 48 80 24 48 80 24 48 80 24 48 80 24 48 80 24 48 80 24 48 80 24 48 80 24 48 80 24 48 80 24 88 104 24 88 104 24 88 104 24 88 104 24 88 104 24 88 104 24 88 104 24 88 104 24 88 104 24 88 104 24 88 104 24 88 104 24 88 104 24 88 104 24 88 104 24 88 104 24 88 104 24 88 104 24 88 104 24 88 104 24 88 104 24 88 104 24 88 104 24 88 104 24 88 104 24 88 104 24 88 104 24 88 104 24 88 104 24 88 104 24 88 104 24 88 104 24 56 80 24 56 80 24 56 80 24 56 80 24 56 80 24 56 80 24 56 80 24 56 80 24 56 80 24 56 80 24 56 80 24 56 80 24 56 80 24 56 80 24 56 80 24 56 80 24 56 80 24 56 80 24 56 80 24 56 80 24 56 80 24 56 80 24 56 80 24 56 80 24 56 80 24 56 80 24 56 80 24 56 80 24 56 80 24 56 80 24 56 80 24 56 80 24
88 104 152 88 104 152 88 104 152 88 104 152 88 104 152 88 104 152 88 104 152 88 104 152 88 104 152 88 104 152 88 104 152 88 104 152 88 104 152 88 104 152 88 104 152 88 104 152 88 104 152 88 104 152 88 104 152 88 104 152 88 104 152 88 104 152 88 104 152 88 104 152 88 104 152 88 104 152 88 104 152 88 104 152 88 104 152 88 104 152 88 104 152 88 104 152 48 80 24 48 80 24 48 80 24 48 80 24 48 80 24 48 80 24 48 80 24 48 80 24 48 80 24 48 80 24 48 80 24 48 80 24 48 80 24 48 80 24 48 80 24 48 80 24 48 80 24 48 80 24 48 80 24 48 80 24 48 80 24 48 80 24 48 80 24 48 80 24 48 80 24 48 80 24 48 80 24 48 80 24 48 80 24 48 80 24 48 80 24 48 80 24 88 104 24 88 104 24 88 104 24 88 104 24 88 104 24 88 104 24 88 104 24 88 104 24 88 104 24 88 104 24 88 104 24 88 104 24 88 104 24 88 104 24 88 104 24 88 104 24 88 104 24 88 104 24 88 104 24 88 104 24 88 104 24 88 104 24 88 104 24 88 104 24 88 104 24 88 104 24 88 104 24 88 104 24 88 104 24 88 104 24 88 104 24 88 104 24 56 80 24 56 80 24 56 80 24 56 80 24 56 80 24 56 80 24 56 80 24 56 80 24 56 80 24 56 80 24 56 80 24 56 80 24 56 80 24 56 80 24 56 80 24 56 80 24 56 80 24 56 80 24 56 80 24 56 80 24 56 80 24 56 80 24 56 80 24 56 80 24 56 80 24 56 80 24 56 80 24 56 80 24 56 80 24 56 80 24 56 80 24 56 80 24
88 104 152 88 104 152 88 104 152 88 104 152 88 104 152 88 104 152 88 104 152 88 104 152 88 104 152 88 104 152 88 104 152 88 104 152 88 104 152 88 104 152 88 104 152 88 104 152 88 104 152 88 104 152 88 104 152 88 104 152 88 104 152 88 104 152 88 104 152 88 104 152 88 104 152 88 104 152 88 104 152 88 104 152 88 104 152 88 104 152 88 104 152 88 104 152 48 80 24 48 80 24 48 80 24 48 80 24 48 80 24 48 80 24 48 80 24 48 80 24 48 80 24 48 80 24 48 80 24 48 80 24 48 80 24 48 80 24 48 80 24 48 80 24 48 80 24 48 80 24 48 80 24 48 80 24 48 80 24 48 80 24 48 80 24 48 80 24 48 80 24 48 80 24 48 80 24 48 80 24 48 80 24 48 80 24 48 80 24 48 80 24 88 104 24 88 104 24 88 104 24 88 104 24 88 104 24 88 104 24 88 104 24 88 104 24 88 104 24 88 104 24 88 104 24 88 104 24 88 104 24 88 104 24 88 104 24 88 104 24 88 104 24 88 104 24 88 104 24 88 104 24 88 104 24 88 104 24 88 104 24 88 104 24 88 104 24 88 104 24 88 104 24 88 104 24 88 104 24 88 104 24 88 104 24 88 104 24 56 80 24 56 80 24 56 80 24 56 80 24 56 80 24 56 80 24 56 80 24 56 80 24 56 80 24 56 80 24 56 80 24 56 80 24 56 80 24 56 80 24 56 80 24 56 80 24 56 80 24 56 80 24 56 80 24 56 80 24 56 80 24 56 80 24 56 80 24 56 80 24 56 80 24 56 80 24 56 80 24 56 80 24 56 80 24 56 80 24 56 80 24 56 80 24
88 104 152 88 104 152 88 104 152 88 104 152 88 104 152 88 104 152 88 104 152 88 104 152 88 104 152 88 104 152 88 104 152 88 104 152 88 104 152 88 104 152 88 104 152 88 104 152 88 104 152 88 104 152 88 104 152 88 104 152 88 104 152 88 104 152 88 104 152 88 104 152 88 104 152 88 104 152 88 104 152 88 104 152 88 104 152 88 104 152 88 104 152 88 104 152 48 80 24 48 80 24 48 80 24 48 80 24 48 80 24 48 80 24 48 80 24 48 80 24 48 80 24 48 80 24 48 80 24 48 80 24 48 80 24 48 80 24 48 80 24 48 80 24 48 80 24 48 80 24 48 80 24 48 80 24 48 80 24 48 80 24 48 80 24 48 80 24 48 80 24 48 80 24 48 80 24 48 80 24 48 80 24 48 80 24 48 80 24 48 80 24 88 104 24 88 104 24 88 104 24 88 104 24 88 104 24 88 104 24 88 104 24 88 104 24 88 104 24 88 104 24 88 104 24 88 104 24 88 104 24 88 104 24 88 104 24 88 104 24 88 104 24 88 104 24 88 104 24 88 104 24 88 104 24 88 104 24 88 104 24 88 104 24 88 104 24 88 104 24 88 104 24 88 104 24 88 104 24 88 104 24 88 104 24 88 104 24 56 80 24 56 80 24 56 80 24 56 80 24 56 80 24 56 80 24 56 80 24 56 80 24 56 80 24 56 80 24 56 80 24 56 80 24 56 80 24 56 80 24 56 80 24 56 80 24 56 80 24 56 80 24 56 80 24 56 80 24 56 80 24 56 80 24 56 80 24 56 80 24 56 80 24 56 80 24 56 80 24 56 80 24 56 80 24 56 80 24 56 80 24 56 80 24
88 104 152 88 104 152 88 104 152 88 104 152 88 104 152 88 104 152 88 104 152 88 104 152 88 104 152 88 104 152 88 104 152 88 104 152 88 104 152 88 104 152 88 104 152 88 104 152 88 104 152 88 104 152 88 104 152 88 104 152 88 104 152 88 104 152 88 104 152 88 104 152 88 104 152 88 104 152 88 104 152 88 104 152 88 104 152 88 104 152 88 104 152 88 104 152 48 80 24 48 80 24 48 80 24 48 80 24 48 80 24 48 80 24 48 80 24 48 80 24 48 80 24 48 80 24 48 80 24 48 80 24 48 80 24 48 80 24 48 80 24 48 80 24 48 80 24 48 80 24 48 80 24 48 80 24 48 80 24 48 80 24 48 80 24 48 80 24 48 80 24 48 80 24 48 80 24 48 80 24 48 80 24 48 80 24 48 80 24 48 80 24 88 104 24 88 104 24 88 104 24 88 104 24 88 104 24 88 104 24 88 104 24 88 104 24 88 104 24 88 104 24 88 104 24 88 104 24 88 104 24 88 104 24 88 104 24 88 104 24 88 104 24 88 104 24 88 104 24 88 104 24 88 104 24 88 104 24 88 104 24 88 104 24 88 104 24 88 104 24 88 104 24 88 104 24 88 104 24 88 104 24 88 104 24 88 104 24 56 80 24 56 80 24 56 80 24 56 80 24 56 80 24 56 80 24 56 80 24 56 80 24 56 80 24 56 80 24 56 80 24 56 80 24 56 80 24 56 80 24 56 80 24 56 80 24 56 80 24 56 80 24 56 80 24 56 80 24 56 80 24 56 80 24 56 80 24 56 80 24 56 80 24 56 80 24 56 80 24 56 80 24 56 80 24 56 80 24 56 80 24 56 80 24
88 104 152 88 104 152 88 104 152 88 104 152 88 104 152 88 104 152 88 104 152 88 104 152 88 104 152 88 104 152 88 104 152 88 104 152 88 104 152 88 104 152 88 104 152 88 104 152 88 104 152 88 104 152 88 104 152 88 104 152 88 104 152 88 104 152 88 104 152 88 104 152 88 104 152 88 104 152 88 104 152 88 104 152 88 104 152 88 104 152 88 104 152 88 104 152 48 80 24 48 80 24 48 80 24 48 80 24 48 80 24 48 80 24 48 80 24 48 80 24 48 80 24 48 80 24 48 80 24 48 80 24 48 80 24 48 80 24 48 80 24 48 80 24 48 80 24 48 80 24 48 80 24 48 80 24 48 80 24 48 80 24 48 80 24 48 80 24 48 80 24 48 80 24 48 80 24 48 80 24 48 80 24 48 80 24 48 80 24 48 80 24 88 104 24 88 104 24 88 104 24 88 104 24 88 104 24 88 104 24 88 104 24 88 104 24 88 104 24 88 104 24 88 104 24 88 104 24 88 104 24 88 104 24 88 104 24 88 104 24 88 104 24 88 104 24 88 104 24 88 104 24 88 104 24 88 104 24 88 104 24 88 104 24 88 104 24 88 104 24 88 104 24 88 104 24 88 104 24 88 104 24 88 104 24 88 104 24 56 80 24 56 80 24 56 80 24 56 80 24 56 80 24 56 80 24 56 80 24 56 80 24 56 80 24 56 80 24 56 80 24 56 80 24 56 80 24 56 80 24 56 80 24 56 80 24 56 80 24 56 80 24 56 80 24 56 80 24 56 80 24 56 80 24 56 80 24 56 80 24 56 80 24 56 80 24 56 80 24 56 80 24 56 80 24 56 80 24 56 80 24 56 80 24
88 104 152 88 104 152 88 104 152 88 104 152 88 104 152 88 104 152 88 104 152 88 104 152 88 104 152 88 104 152 88 104 152 88 104 152 88 104 152 88 104 152 88 104 152 88 104 152 88 104 152 88 104 152 88 104 152 88 104 152 88 104 152 88 104 152 88 104 152 88 104 152 88 104 152 88 104 152 88 104 152 88 104 152 88 104 152 88 104 152 88 104 152 88 104 152 48 80 24 48 80 24 48 80 24 48 80 24 48 80 24 48 80 24 48 80 24 48 80 24 48 80 24 48 80 24 48 80 24 48 80 24 48 80 24 48 80 24 48 80 24 48 80 24 48 80 24 48 80 24 48 80 24 48 80 24 48 80 24 48 80 24 48 80 24 48 80 24 48 80 24 48 80 24 48 80 24 48 80 24 48 80 24 48 80 24 48 80 24 48 80 24 88 104 24 88 104 24 88 104 24 88 104 24 88 104 24 88 104 24 88 104 24 88 104 24 88 104 24 88 104 24 88 104 24 88 104 24 88 104 24 88 104 24 88 104 24 88 104 24 88 104 24 88 104 24 88 104 24 88 104 24 88 104 24 88 104 24 88 104 24 88 104 24 88 104 24 88 104 24 88 104 24 88 104 24 88 104 24 88 104 24 88 104 24 88 104 24 56 80 24 56 80 24 56 80 24 56 80 24 56 80 24 56 80 24 56 80 24 56 80 24 56 80 24 56 80 24 56 80 24 56 80 24 56 80 24 56 80 24 56 80 24 56 80 24 56 80 24 56 80 24 56 80 24 56 80 24 56 80 24 56 80 24 56 80 24 56 80 24 56 80 24 56 80 24 56 80 24 56 80 24 56 80 24 56 80 24 56 80 24 56 80 24
88 104 152 88 104 152 88 104 152 88 104 152 88 104 152 88 104 152 88 104 152 88 104 152 88 104 152 88 104 152 88 104 152 88 104 152 88 104 152 88 104 152 88 104 152 88 104 152 88 104 152 88 104 152 88 104 152 88 104 152 88 104 152 88 104 152 88 104 152 88 104 152 88 104 152 88 104 152 88 104 152 88 104 152 88 104 152 88 104 152 88 104 152 88 104 152 48 80 24 48 80 24 48 80 24 48 80 24 48 80 24 48 80 24 48 80 24 48 80 24 48 80 24 48 80 24 48 80 24 48 80 24 48 80 24 48 80 24 48 80 24 48 80 24 48 80 24 48 80 24 48 80 24 48 80 24 48 80 24 48 80 24 48 80 24 48 80 24 48 80 24 48 80 24 48 80 24 48 80 24 48 80 24 48 80 24 48 80 24 48 80 24 88 104 24 88 104 24 88 104 24 88 104 24 88 104 24 88 104 24 88 104 24 88 104 24 88 104 24 88 104 24 88 104 24 88 104 24 88 104 24 88 104 24 88 104 24 88 104 24 88 104 24 88 104 24 88 104 24 88 104 24 88 104 24 88 104 24 88 104 24 88 104 24 88 104 24 88 104 24 88 104 24 88 104 24 88 104 24 88 104 24 88 104 24 88 104 24 56 80 24 56 80 24 56 80 24 56 80 24 56 80 24 56 80 24 56 80 24 56 80 24 56 80 24 56 80 24 56 80 24 56 80 24 56 80 24 56 80 24 56 80 24 56 80 24 56 80 24 56 80 24 56 80 24 56 80 24 56 80 24 56 80 24 56 80 24 56 80 24 56 80 24 56 80 24 56 80 24 56 80 24 56 80 24 56 80 24 56 80 24 56 80 24
88 104 152 88 104 152 88 104 152 88 104 152 88 104 152 88 104 152 88 104 152 88 104 152 88 104 152 88 104 152 88 104 152 88 104 152 88 104 152 88 104 152 88 104 152 88 104 152 88 104 152 88 104 152 88 104 152 88 104 152 88 104 152 88 104 152 88 104 152 88 104 152 88 104 152 88 104 152 88 104 152 88 104 152 88 104 152 88 104 152 88 104 152 88 104 152 48 80 24 48 80 24 48 80 24 48 80 24 48 80 24 48 80 24 48 80 24 48 80 24 48 80 24 48 80 24 48 80 24 48 80 24 48 80 24 48 80 24 48 80 24 48 80 24 48 80 24 48 80 24 48 80 24 48 80 24 48 80 24 48 80 24 48 80 24 48 80 24 48 80 24 48 80 24 48 80 24 48 80 24 48 80 24 48 80 24 48 80 24 48 80 24 88 104 24 88 104 24 88 104 24 88 104 24 88 104 24 88 104 24 88 104 24 88 104 24 88 104 24 88 104 24 88 104 24 88 104 24 88 104 24 88 104 24 88 104 24 88 104 24 88 104 24 88 104 24 88 104 24 88 104 24 88 104 24 88 104 24 88 104 24 88 104 24 88 104 24 88 104 24 88 104 24 88 104 24 88 104 24 88 104 24 88 104 24 88 104 24 56 80 24 56 80 24 56 80 24 56 80 24 56 80 24 56 80 24 56 80 24 56 80 24 56 80 24 56 80 24 56 80 24 56 80 24 56 80 24 56 80 24 56 80 24 56 80 24 56 80 24 56 80 24 56 80 24 56 80 24 56 80 24 56 80 24 56 80 24 56 80 24 56 80 24 56 80 24 56 80 24 56 80 24 56 80 24 56 80 24 56 80 24 56 80 24
88 104 152 88 104 152 88 104 152 88 104 152 88 104 152 88 104 152 88 104 152 88 104 152 88 104 152 88 104 152 88 104 152 88 104 152 88 104 152 88 104 152 88 104 152 88 104 152 88 104 152 88 104 152 88 104 152 88 104 152 88 104 152 88 104 152 88 104 152 88 104 152 88 104 152 88 104 152 88 104 152 88 104 152 88 104 152 88 104 152 88 104 152 88 104 152 48 80 24 48 80 24 48 80 24 48 80 24 48 80 24 48 80 24 48 80 24 48 80 24 48 80 24 48 80 24 48 80 24 48 80 24 48 80 24 48 80 24 48 80 24 48 80 24 48 80 24 48 80 24 48 80 24 48 80 24 48 80 24 48 80 24 48 80 24 48 80 24 48 80 24 48 80 24 48 80 24 48 80 24 48 80 24 48 80 24 48 80 24 48 80 24 88 104 24 88 104 24 88 104 24 88 104 24 88 104 24 88 104 24 88 104 24 88 104 24 88 104 24 88 104 24 88 104 24 88 104 24 88 104 24 88 104 24 88 104 24 88 104 24 88 104 24 88 104 24 88 104 24 88 104 24 88 104 24 88 104 24 88 104 24 88 104 24 88 104 24 88 104 24 88 104 24 88 104 24 88 104 24 88 104 24 88 104 24 88 104 24 56 80 24 56 80 24 56 80 24 56 80 24 56 80 24 56 80 24 56 80 24 56 80 24 56 80 24 56 80 24 56 80 24 56 80 24 56 80 24 56 80 24 56 80 24 56 80 24 56 80 24 56 80 24 56 80 24 56 80 24 56 80 24 56 80 24 56 80 24 56 80 24 56 80 24 56 80 24 56 80 24 56 80 24 56 80 24 56 80 24 56 80 24 56 80 24
88 104 152 88 104 152 88 104 152 88 104 152 88 104 152 88 104 152 88 104 152 88 104 152 88 104 152 88 104 152 88 104 152 88 104 152 88 104 152 88 104 152 88 104 152 88 104 152 88 104 152 88 104 152 88 104 152 88 104 152 88 104 152 88 104 152 88 104 152 88 104 152 88 104 152 88 104 152 88 104 152 88 104 152 88 104 152 88 104 152 88 104 152 88 104 152 48 80 24 48 80 24 48 80 24 48 80 24 48 80 24 48 80 24 48 80 24 48 80 24 48 80 24 48 80 24 48 80 24 48 80 24 48 80 24 48 80 24 48 80 24 48 80 24 48 80 24 48 80 24 48 80 24 48 80 24 48 80 24 48 80 24 48 80 24 48 80 24 48 80 24 48 80 24 48 80 24 48 80 24 48 80 24 48 80 24 48 80 24 48 80 24 88 104 24 88 104 24 88 104 24 88 104 24 88 104 24 88 104 24 88 104 24 88 104 24 88 104 24 88 104 24 88 104 24 88 104 24 88 104 24 88 104 24 88 104 24 88 104 24 88 104 24 88 104 24 88 104 24 88 104 24 88 104 24 88 104 24 88 104 24 88 104 24 88 104 24 88 104 24 88 104 24 88 104 24 88 104 24 88 104 24 88 104 24 88 104 24 56 80 24 56 80 24 56 80 24 56 80 24 56 80 24 56 80 24 56 80 24 56 80 24 56 80 24 56 80 24 56 80 24 56 80 24 56 80 24 56 80 24 56 80 24 56 80 24 56 80 24 56 80 24 56 80 24 56 80 24 56 80 24 56 80 24 56 80 24 56 80 24 56 80 24 56 80 24 56 80 24 56 80 24 56 80 24 56 80 24 56 80 24 56 80 24
88 104 152 88 104 152 88 104 152 88 104 152 88 104 152 88 104 152 88 104 152 88 104 152 88 104 152 88 104 152 88 104 152 88 104 152 88 104 152 88 104 152 88 104 152 88 104 152 88 104 152 88 104 152 88 104 152 88 104 152 88 104 152 88 104 152 88 104 152 88 104 152 88 104 152 88 104 152 88 104 152 88 104 152 88 104 152 88 104 152 88 104 152 88 104 152 48 80 24 48 80 24 48 80 24 48 80 24 48 80 24 48 80 24 48 80 24 48 80 24 48 80 24 48 80 24 48 80 24 48 80 24 48 80 24 48 80 24 48 80 24 48 80 24 48 80 24 48 80 24 48 80 24 48 80 24 48 80 24 48 80 24 48 80 24 48 80 24 48 80 24 48 80 24 48 80 24 48 80 24 48 80 24 48 80 24 48 80 24 48 80 24 88 104 24 88 104 24 88 104 24 88 104 24 88 104 24 88 104 24 88 104 24 88 104 24 88 104 24 88 104 24 88 104 24 88 104 24 88 104 24 88 104 24 88 104 24 88 104 24 88 104 24 88 104 24 88 104 24 88 104 24 88 104 24 88 104 24 88 104 24 88 104 24 88 104 24 88 104 24 88 104 24 88 104 24 88 104 24 88 104 24 88 104 24 88 104 24 56 80 24 56 80 24 56 80 24 56 80 24 56 80 24 56 80 24 56 80 24 56 80 24 56 80 24 56 80 24 56 80 24 56 80 24 56 80 24 56 80 24 56 80 24 56 80 24 56 80 24 56 80 24 56 80 24 56 80 24 56 80 24 56 80 24 56 80 24 56 80 24 56 80 24 56 80 24 56 80 24 56 80 24 56 80 24 56 80 24 56 80 24 56 80 24
88 104 152 88 104 152 88 104 152 88 104 152 88 104 152 88 104 152 88 104 152 88 104 152 88 104 152 88 104 152 88 104 152 88 104 152 88 104 152 88 104 152 88 104 152 88 104 152 88 104 152 88 104 152 88 104 152 88 104 152 88 104 152 88 104 152 88 104 152 88 104 152 88 104 152 88 104 152 88 104 152 88 104 152 88 104 152 88 104 152 88 104 152 88 104 152 48 80 24 48 80 24 48 80 24 48 80 24 48 80 24 48 80 24 48 80 24 48 80 24 48 80 24 48 80 24 48 80 24 48 80 24 48 80 24 48 80 24 48 80 24 48 80 24 48 80 24 48 80 24 48 80 24 48 80 24 48 80 24 48 80 24 48 80 24 48 80 24 48 80 24 48 80 24 48 80 24 48 80 24 48 80 24 48 80 24 48 80 24 48 80 24 88 104 24 88 104 24 88 104 24 88 104 24 88 104 24 88 104 24 88 104 24 88 104 24 88 104 24 88 104 24 88 104 24 88 104 24 88 104 24 88 104 24 88 104 24 88 104 24 88 104 24 88 104 24 88 104 24 88 104 24 88 104 24 88 104 24 88 104 24 88 104 24 88 104 24 88 104 24 88 104 24 88 104 24 88 104 24 88 104 24 88 104 24 88 104 24 56 80 24 56 80 24 56 80 24 56 80 24 56 80 24 56 80 24 56 80 24 56 80 24 56 80 24 56 80 24 56 80 24 56 80 24 56 80 24 56 80 24 56 80 24 56 80 24 56 80 24 56 80 24 56 80 24 56 80 24 56 80 24 56 80 24 56 80 24 56 80 24 56 80 24 56 80 24 56 80 24 56 80 24 56 80 24 56 80 24 56 80 24 56 80 24
88 104 152 88 104 152 88 104 152 88 104 152 88 104 152 88 104 152 88 104 152 88 104 152 88 104 152 88 104 152 88 104 152 88 104 152 88 104 152 88 104 152 88 104 152 88 104 152 88 104 152 88 104 152 88 104 152 88 104 152 88 104 152 88 104 152 88 104 152 88 104 152 88 104 152 88 104 152 88 104 152 88 104 152 88 104 152 88 104 152 88 104 152 88 104 152 48 80 24 48 80 24 48 80 24 48 80 24 48 80 24 48 80 24 48 80 24 48 80 24 48 80 24 48 80 24 48 80 24 48 80 24 48 80 24 48 80 24 48 80 24 48 80 24 48 80 24 48 80 24 48 80 24 48 80 24 48 80 24 48 80 24 48 80 24 48 80 24 48 80 24 48 80 24 48 80 24 48 80 24 48 80 24 48 80 24 48 80 24 48 80 24 88 104 24 88 104 24 88 104 24 88 104 24 88 104 24 88 104 24 88 104 24 88 104 24 88 104 24 88 104 24 88 104 24 88 104 24 88 104 24 88 104 24 88 104 24 88 104 24 88 104 24 88 104 24 88 104 24 88 104 24 88 104 24 88 104 24 88 104 24 88 104 24 88 104 24 88 104 24 88 104 24 88 104 24 88 104 24 88 104 24 88 104 24 88 104 24 56 80 24 56 80 24 56 80 24 56 80 24 56 80 24 56 80 24 56 80 24 56 80 24 56 80 24 56 80 24 56 80 24 56 80 24 56 80 24 56 80 24 56 80 24 56 80 24 56 80 24 56 80 24 56 80 24 56 80 24 56 80 24 56 80 24 56 80 24 56 80 24 56 80 24 56 80 24 56 80 24 56 80 24 56 80 24 56 80 24 56 80 24 56 80 24
88 104 152 88 104 152 88 104 152 88 104 152 88 104 152 88 104 152 88 104 152 88 104 152 88 104 152 88 104 152 88 104 152 88 104 152 88 104 152 88 104 152 88 104 152 88 104 152 88 104 152 88 104 152 88 104 152 88 104 152 88 104 152 88 104 152 88 104 152 88 104 152 88 104 152 88 104 152 88 104 152 88 104 152 88 104 152 88 104 152 88 104 152 88 104 152 48 80 24 48 80 24 48 80 24 48 80 24 48 80 24 48 80 24 48 80 24 48 80 24 48 80 24 48 80 24 48 80 24 48 80 24 48 80 24 48 80 24 48 80 24 48 80 24 48 80 24 48 80 24 48 80 24 48 80 24 48 80 24 48 80 24 48 80 24 48 80 24 48 80 24 48 80 24 48 80 24 48 80 24 48 80 24 48 80 24 48 80 24 48 80 24 88 104 24 88 104 24 88 104 24 88 104 24 88 104 24 88 104 24 88 104 24 88 104 24 88 104 24 88 104 24 88 104 24 88 104 24 88 104 24 88 104 24 88 104 24 88 104 24 88 104 24 88 104 24 88 104 24 88 104 24 88 104 24 88 104 24 88 104 24 88 104 24 88 104 24 88 104 24 88 104 24 88 104 24 88 104 24 88 104 24 88 104 24 88 104 24 56 80 24 56 80 24 56 80 24 56 80 24 56 80 24 56 80 24 56 80 24 56 80 24 56 80 24 56 80 24 56 80 24 56 80 24 56 80 24 56 80 24 56 80 24 56 80 24 56 80 24 56 80 24 56 80 24 56 80 24 56 80 24 56 80 24 56 80 24 56 80 24 56 80 24 56 80 24 56 80 24 56 80 24 56 80 24 56 80 24 56 80 24 56 80 24
104 104 152 104 104 152 104 104 152 104 104 152 104 104 152 104 104 152 104 104 152 104 104 152 104 104 152 104 104 152 104 104 152 104 104 152 104 104 152 104 104 152 104 104 152 104 104 152 104 104 152 104 104 152 104 104 152 104 104 152 104 104 152 104 104 152 104 104 152 104 104 152 104 104 152 104 104 152 104 104 152 104 104 152 104 104 152 104 104 152 104 104 152 104 104 152 88 104 24 88 104 24 88 104 24 88 104 24 88 104 24 88 104 24 88 104 24 88 104 24 88 104 24 88 104 24 88 104 24 88 104 24 88 104 24 88 104 24 88 104 24 88 104 24 88 104 24 88 104 24 88 104 24 88 104 24 88 104 24 88 104 24 88 104 24 88 104 24 88 104 24 88 104 24 88 104 24 88 104 24 88 104 24 88 104 24 88 104 24 88 104 24 176 80 24 176 80 24 176 80 24 176 80 24 176 80 24 176 80 24 176 80 24 176 80 24 176 80 24 176 80 24 176 80 24 176 80 24 176 80 24 176 80 24 176 80 24 176 80 24 176 80 24 176 80 24 176 80 24 176 80 24 176 80 24 176 80 24 176 80 24 176 80 24 176 80 24 176 80 24 176 80 24 176 80 24 176 80 24 176 80 24 176 80 24 176 80 24 96 104 152 96 104 152 96 104 152 96 104 152 96 104 152 96 104 152 96 104 152 96 104 152 96 104 152 96 104 152 96 104 152 96 104 152 96 104 152 96 104 152 96 104 152 96 104 152 96 104 152 96 104 152 96 104 152 96 104 152 96 104 152 96 104 152 96 104 152 96 104 152 96 104 152 96 104 152 96 104 152 96 104 152 96 104 152 96 104 152 96 104 152 96 104 152
104 104 152 104 104 152 104 104 152 104 104 152 104 104 152 104 104 152 104 104 152 104 104 152 104 104 152 104 104 152 104 104 152 104 104 152 104 104 152 104 104 152 104 104 152 104 104 152 104 104 152 104 104 152 104 104 152 104 104 152 104 104 152 104 104 152 104 104 152 104 104 152 104 104 152 104 104 152 104 104 152 104 104 152 104 104 152 104 104 152 104 104 152 104 104 152 88 104 24 88 104 24 88 104 24 88 104 24 88 104 24 88 104 24 88 104 24 88 104 24 88 104 24 88 104 24 88 104 24 88 104 24 88 104 24 88 104 24 88 104 24 88 104 24 88 104 24 88 104 24 88 104 24 88 104 24 88 104 24 88 104 24 88 104 24 88 104 24 88 104 24 88 104 24 88 104 24 88 104 24 88 104 24 88 104 24 88 104 24 88 104 24 176 80 24 176 80 24 176 80 24 176 80 24 176 80 24 176 80 24 176 80 24 176 80 24 176 80 24 176 80 24 176 80 24 176 80 24 176 80 24 176 80 24 176 80 24 176 80 24 176 80 24 176 80 24 176 80 24 176 80 24 176 80 24 176 80 24 176 80 24 176 80 24 176 80 24 176 80 24 176 80 24 176 80 24 176 80 24 176 80 24 176 80 24 176 80 24 96 104 152 96 104 152 96 104 152 96 104 152 96 104 152 96 104 152 96 104 152 96 104 152 96 104 152 96 104 152 96 104 152 96 104 152 96 104 152 96 104 152 96 104 152 96 104 152 96 104 152 96 104 152 96 104 152 96 104 152 96 104 152 96 104 152 96 104 152 96 104 152 96 104 152 96 104 152 96 104 152 96 104 152 96 104 152 96 104 152 96 104 152 96 104 152
104 104 152 104 104 152 104 104 152 104 104 152 104 104 152 104 104 152 104 104 152 104 104 152 104 104 152 104 104 152 104 104 152 104 104 152 104 104 152 104 104 152 104 104 152 104 104 152 104 104 152 104 104 152 104 104 152 104 104 152 104 104 152 104 104 152 104 104 152 104 104 152 104 104 152 104 104 152 104 104 152 104 104 152 104 104 152 104 104 152 104 104 152 104 104 152 88 104 24 88 104 24 88 104 24 88 104 24 88 104 24 88 104 24 88 104 24 88 104 24 88 104 24 88 104 24 88 104 24 88 104 24 88 104 24 88 104 24 88 104 24 88 104 24 88 104 24 88 104 24 88 104 24 88 104 24 88 104 24 88 104 24 88 104 24 88 104 24 88 104 24 88 104 24 88 104 24 88 104 24 88 104 24 88 104 24 88 104 24 88 104 24 176 80 24 176 80 24 176 80 24 176 80 24 176 80 24 176 80 24 176 80 24 176 80 24 176 80 24 176 80 24 176 80 24 176 80 24 176 80 24 176 80 24 176 80 24 176 80 24 176 80 24 176 80 24 176 80 24 176 80 24 176 80 24 176 80 24 176 80 24 176 80 24 176 80 24 176 80 24 176 80 24 176 80 24 176 80 24 176 80 24 176 80 24 176 80 24 96 104 152 96 104 152 96 104 152 96 104 152 96 104 152 96 104 152 96 104 152 96 104 152 96 104 152 96 104 152 96 104 152 96 104 152 96 104 152 96 104 152 96 104 152 96 104 152 96 104 152 96 104 152 96 104 152 96 104 152 96 104 152 96 104 152 96 104 152 96 104 152 96 104 152 96 104 152 96 104 152 96 104 152 96 104 152 96 104 152 96 104 152 96 104 152
104 104 152 104 104 152 104 104 152 104 104 152 104 104 152 104 104 152 104 104 152 104 104 152 104 104 152 104 104 152 104 104 152 104 104 152 104 104 152 104 104 152 104 104 152 104 104 152 104 104 152 104 104 152 104 104 152 104 104 152 104 104 152 104 104 152 104 104 152 104 104 152 104 104 152 104 104 152 104 104 152 104 104 152 104 104 152 104 104 152 104 104 152 104 104 152 88 104 24 88 104 24 88 104 24 88 104 24 88 104 24 88 104 24 88 104 24 88 104 24 88 104 24 88 104 24 88 104 24 88 104 24 88 104 24 88 104 24 88 104 24 88 104 24 88 104 24 88 104 24 88 104 24 88 104 24 88 104 24 88 104 24 88 104 24 88 104 24 88 104 24 88 104 24 88 104 24 88 104 24 88 104 24 88 104 24 88 104 24 88 104 24 176 80 24 176 80 24 176 80 24 176 80 24 176 80 24 176 80 24 176 80 24 176 80 24 176 80 24 176 80 24 176 80 24 176 80 24 176 80 24 176 80 24 176 80 24 176 80 24 176 80 24 176 80 24 176 80 24 176 80 24 176 80 24 176 80 24 176 80 24 176 80 24 176 80 24 176 80 24 176 80 24 176 80 24 176 80 24 176 80 24 176 80 24 176 80 24 96 104 152 96 104 152 96 104 152 96 104 152 96 104 152 96 104 152 96 104 152 96 104 152 96 104 152 96 104 152 96 104 152 96 104 152 96 104 152 96 104 152 96 104 152 96 104 152 96 104 152 96 104 152 96 104 152 96 104 152 96 104 152 96 104 152 96 104 152 96 104 152 96 104 152 96 104 152 96 104 152 96 104 152 96 104 152 96 104 152 96 104 152 96 104 152
104 104 152 104 104 152 104 104 152 104 104 152 104 104 152 104 104 152 104 104 152 104 104 152 104 104 152 104 104 152 104 104 152 104 104 152 104 104 152 104 104 152 104 104 152 104 104 152 104 104 152 104 104 152 104 104 152 104 104 152 104 104 152 104 104 152 104 104 152 104 104 152 104 104 152 104 104 152 104 104 152 104 104 152 104 104 152 104 104 152 104 104 152 104 104 152 88 104 24 88 104 24 88 104 24 88 104 24 88 104 24 88 104 24 88 104 24 88 104 24 88 104 24 88 104 24 88 104 24 88 104 24 88 104 24 88 104 24 88 104 24 88 104 24 88 104 24 88 104 24 88 104 24 88 104 24 88 104 24 88 104 24 88 104 24 88 104 24 88 104 24 88 104 24 88 104 24 88 104 24 88 104 24 88 104 24 88 104 24 88 104 24 176 80 24 176 80 24 176 80 24 176 80 24 176 80 24 176 80 24 176 80 24 176 80 24 176 80 24 176 80 24 176 80 24 176 80 24 176 80 24 176 80 24 176 80 24 176 80 24 176 80 24 176 80 24 176 80 24 176 80 24 176 80 24 176 80 24 176 80 24 176 80 24 176 80 24 176 80 24 176 80 24 176 80 24 176 80 24 176 80 24 176 80 24 176 80 24 96 104 152 96 104 152 96 104 152 96 104 152 96 104 152 96 104 152 96 104 152 96 104 152 96 104 152 96 104 152 96 104 152 96 104 152 96 104 152 96 104 152 96 104 152 96 104 152 96 104 152 96 104 152 96 104 152 96 104 152 96 104 152 96 104 152 96 104 152 96 104 152 96 104 152 96 104 152 96 104 152 96 104 152 96 104 152 96 104 152 96 104 152 96 104 152
104 104 152 104 104 152 104 104 152 104 104 152 104 104 152 104 104 152 104 104 152 104 104 152 104 104 152 104 104 152 104 104 152 104 104 152 104 104 152 104 104 152 104 104 152 104 104 152 104 104 152 104 104 152 104 104 152 104 104 152 104 104 152 104 104 152 104 104 152 104 104 152 104 104 152 104 104 152 104 104 152 104 104 152 104 104 152 104 104 152 104 104 152 104 104 152 88 104 24 88 104 24 88 104 24 88 104 24 88 104 24 88 104 24 88 104 24 88 104 24 88 104 24 88 104 24 88 104 24 88 104 24 88 104 24 88 104 24 88 104 24 88 104 24 88 104 24 88 104 24 88 104 24 88 104 24 88 104 24 88 104 24 88 104 24 88 104 24 88 104 24 88 104 24 88 104 24 88 104 24 88 104 24 88 104 24 88 104 24 88 104 24 176 80 24 176 80 24 176 80 24 176 80 24 176 80 24 176 80 24 176 80 24 176 80 24 176 80 24 176 80 24 176 80 24 176 80 24 176 80 24 176 80 24 176 80 24 176 80 24 176 80 24 176 80 24 176 80 24 176 80 24 176 80 24 176 80 24 176 80 24 176 80 24 176 80 24 176 80 24 176 80 24 176 80 24 176 80 24 176 80 24 176 80 24 176 80 24 96 104 152 96 104 152 96 104 152 96 104 152 96 104 152 96 104 152 96 104 152 96 104 152 96 104 152 96 104 152 96 104 152 96 104 152 96 104 152 96 104 152 96 104 152 96 104 152 96 104 152 96 104 152 96 104 152 96 104 152 96 104 152 96 104 152 96 104 152 96 104 152 96 104 152 96 104 152 96 104 152 96 104 152 96 104 152 96 104 152 96 104 152 96 104 152
104 104 152 104 104 152 104 104 152 104 104 152 104 104 152 104 104 152 104 104 152 104 104 152 104 104 152 104 104 152 104 104 152 104 104 152 104 104 152 104 104 152 104 104 152 104 104 152 104 104 152 104 104 152 104 104 152 104 104 152 104 104 152 104 104 152 104 104 152 104 104 152 104 104 152 104 104 152 104 104 152 104 104 152 104 104 152 104 104 152 104 104 152 104 104 152 88 104 24 88 104 24 88 104 24 88 104 24 88 104 24 88 104 24 88 104 24 88 104 24 88 104 24 88 104 24 88 104 24 88 104 24 88 104 24 88 104 24 88 104 24 88 104 24 88 104 24 88 104 24 88 104 24 88 104 24 88 104 24 88 104 24 88 104 24 88 104 24 88 104 24 88 104 24 88 104 24 88 104 24 88 104 24 88 104 24 88 104 24 88 104 24 176 80 24 176 80 24 176 80 24 176 80 24 176 80 24 176 80 24 176 80 24 176 80 24 176 80 24 176 80 24 176 80 24 176 80 24 176 80 24 176 80 24 176 80 24 176 80 24 176 80 24 176 80 24 176 80 24 176 80 24 176 80 24 176 80 24 176 80 24 176 80 24 176 80 24 176 80 24 176 80 24 176 80 24 176 80 24 176 80 24 176 80 24 176 80 24 96 104 152 96 104 152 96 104 152 96 104 152 96 104 152 96 104 152 96 104 152 96 104 152 96 104 152 96 104 152 96 104 152 96 104 152 96 104 152 96 104 152 96 104 152 96 104 152 96 104 152 96 104 152 96 104 152 96 104 152 96 104 152 96 104 152 96 104 152 96 104 152 96 104 152 96 104 152 96 104 152 96 104 152 96 104 152 96 104 152 96 104 152 96 104 152
104 104 152 104 104 152 104 104 152 104 104 152 104 104 152 104 104 152 104 104 152 104 104 152 104 104 152 104 104 152 104 104 152 104 104 152 104 104 152 104 104 152 104 104 152 104 104 152 104 104 152 104 104 152 104 104 152 104 104 152 104 104 152 104 104 152 104 104 152 104 104 152 104 104 152 104 104 152 104 104 152 104 104 152 104 104 152 104 104 152 104 104 152 104 104 152 88 104 24 88 104 24 88 104 24 88 104 24 88 104 24 88 104 24 88 104 24 88 104 24 88 104 24 88 104 24 88 104 24 88 104 24 88 104 24 88 104 24 88 104 24 88 104 24 88 104 24 88 104 24 88 104 24 88 104 24 88 104 24 88 104 24 88 104 24 88 104 24 88 104 24 88 104 24 88 104 24 88 104 24 88 104 24 88 104 24 88 104 24 88 104 24 176 80 24 176 80 24 176 80 24 176 80 24 176 80 24 176 80 24 176 80 24 176 80 24 176 80 24 176 80 24 176 80 24 176 80 24 176 80 24 176 80 24 176 80 24 176 80 24 176 80 24 176 80 24 176 80 24 176 80 24 176 80 24 176 80 24 176 80 24 176 80 24 176 80 24 176 80 24 176 80 24 176 80 24 176 80 24 176 80 24 176 80 24 176 80 24 96 104 152 96 104 152 96 104 152 96 104 152 96 104 152 96 104 152 96 104 152 96 104 152 96 104 152 96 104 152 96 104 152 96 104 152 96 104 152 96 104 152 96 104 152 96 104 152 96 104 152 96 104 152 96 104 152 96 104 152 96 104 152 96 104 152 96 104 152 96 104 152 96 104 152 96 104 152 96 104 152 96 104 152 96 104 152 96 104 152 96 104 152 96 104 152
104 104 152 104 104 152 104 104 152 104 104 152 104 104 152 104 104 152 104 104 152 104 104 152 104 104 152 104 104 152 104 104 152 104 104 152 104 104 152 104 104 152 104 104 152 104 104 152 104 104 152 104 104 152 104 104 152 104 104 152 104 104 152 104 104 152 104 104 152 104 104 152 104 104 152 104 104 152 104 104 152 104 104 152 104 104 152 104 104 152 104 104 152 104 104 152 88 104 24 88 104 24 88 104 24 88 104 24 88 104 24 88 104 24 88 104 24 88 104 24 88 104 24 88 104 24 88 104 24 88 104 24 88 104 24 88 104 24 88 104 24 88 104 24 88 104 24 88 104 24 88 104 24 88 104 24 88 104 24 88 104 24 88 104 24 88 104 24 88 104 24 88 104 24 88 104 24 88 104 24 88 104 24 88 104 24 88 104 24 88 104 24 176 80 24 176 80 24 176 80 24 176 80 24 176 80 24 176 80 24 176 80 24 176 80 24 176 80 24 176 80 24 176 80 24 176 80 24 176 80 24 176 80 24 176 80 24 176 80 24 176 80 24 176 80 24 176 80 24 176 80 24 176 80 24 176 80 24 176 80 24 176 80 24 176 80 24 176 80 24 176 80 24 176 80 24 176 80 24 176 80 24 176 80 24 176 80 24 96 104 152 96 104 152 96 104 152 96 104 152 96 104 152 96 104 152 96 104 152 96 104 152 96 104 152 96 104 152 96 104 152 96 104 152 96 104 152 96 104 152 96 104 152 96 104 152 96 104 152 96 104 152 96 104 152 96 104 152 96 104 152 96 104 152 96 104 152 96 104 152 96 104 152 96 104 152 96 104 152 96 104 152 96 104 152 96 104 152 96 104 152 96 104 152
104 104 152 104 104 152 104 104 152 104 104 152 104 104 152 104 104 152 104 104 152 104 104 152 104 104 152 104 104 152 104 104 152 104 104 152 104 104 152 104 104 152 104 104 152 104 104 152 104 104 152 104 104 152 104 104 152 104 104 152 104 104 152 104 104 152 104 104 152 104 104 152 104 104 152 104 104 152 104 104 152 104 104 152 104 104 152 104 104 152 104 104 152 104 104 152 88 104 24 88 104 24 88 104 24 88 104 24 88 104 24 88 104 24 88 104 24 88 104 24 88 104 24 88 104 24 88 104 24 88 104 24 88 104 24 88 104 24 88 104 24 88 104 24 88 104 24 88 104 24 88 104 24 88 104 24 88 104 24 88 104 24 88 104 24 88 104 24 88 104 24 88 104 24 88 104 24 88 104 24 88 104 24 88 104 24 88 104 24 88 104 24 176 80 24 176 80 24 176 80 24 176 80 24 176 80 24 176 80 24 176 80 24 176 80 24 176 80 24 176 80 24 176 80 24 176 80 24 176 80 24 176 80 24 176 80 24 176 80 24 176 80 24 176 80 24 176 80 24 176 80 24 176 80 24 176 80 24 176 80 24 176 80 24 176 80 24 176 80 24 176 80 24 176 80 24 176 80 24 176 80 24 176 80 24 176 80 24 96 104 152 96 104 152 96 104 152 96 104 152 96 104 152 96 104 152 96 104 152 96 104 152 96 104 152 96 104 152 96 104 152 96 104 152 96 104 152 96 104 152 96 104 152 96 104 152 96 104 152 96 104 152 96 104 152 96 104 152 96 104 152 96 104 152 96 104 152 96 104 152 96 104 152 96 104 152 96 104 152 96 104 152 96 104 152 96 104 152 96 104 152 96 104 152
104 104 152 104 104 152 104 104 152 104 104 152 104 104 152 104 104 152 104 104 152 104 104 152 104 104 152 104 104 152 104 104 152 104 104 152 104 104 152 104 104 152 104 104 152 104 104 152 104 104 152 104 104 152 104 104 152 104 104 152 104 104 152 104 104 152 104 104 152 104 104 152 104 104 152 104 104 152 104 104 152 104 104 152 104 104 152 104 104 152 104 104 152 104 104 152 88 104 24 88 104 24 88 104 24 88 104 24 88 104 24 88 104 24 88 104 24 88 104 24 88 104 24 88 104 24 88 104 24 88 104 24 88 104 24 88 104 24 88 104 24 88 104 24 88 104 24 88 104 24 88 104 24 88 104 24 88 104 24 88 104 24 88 104 24 88 104 24 88 104 24 88 104 24 88 104 24 88 104 24 88 104 24 88 104 24 88 104 24 88 104 24 176 80 24 176 80 24 176 80 24 176 80 24 176 80 24 176 80 24 176 80 24 176 80 24 176 80 24 176 80 24 176 80 24 176 80 24 176 80 24 176 80 24 176 80 24 176 80 24 176 80 24 176 80 24 176 80 24 176 80 24 176 80 24 176 80 24 176 80 24 176 80 24 176 80 24 176 80 24 176 80 24 176 80 24 176 80 24 176 80 24 176 80 24 176 80 24 96 104 152 96 104 152 96 104 152 96 104 152 96 104 152 96 104 152 96 104 152 96 104 152 96 104 152 96 104 152 96 104 152 96 104 152 96 104 152 96 104 152 96 104 152 96 104 152 96 104 152 96 104 152 96 104 152 96 104 152 96 104 152 96 104 152 96 104 152 96 104 152 96 104 152 96 104 152 96 104 152 96 104 152 96 104 152 96 104 152 96 104 152 96 104 152
104 104 152 104 104 152 104 104 152 104 104 152 104 104 152 104 104 152 104 104 152 104 104 152 104 104 152 104 104 152 104 104 152 104 104 152 104 104 152 104 104 152 104 104 152 104 104 152 104 104 152 104 104 152 104 104 152 104 104 152 104 104 152 104 104 152 104 104 152 104 104 152 104 104 152 104 104 152 104 104 152 104 104 152 104 104 152 104 104 152 104 104 152 104 104 152 88 104 24 88 104 24 88 104 24 88 104 24 88 104 24 88 104 24 88 104 24 88 104 24 88 104 24 88 104 24 88 104 24 88 104 24 88 104 24 88 104 24 88 104 24 88 104 24 88 104 24 88 104 24 88 104 24 88 104 24 88 104 24 88 104 24 88 104 24 88 104 24 88 104 24 88 104 24 88 104 24 88 104 24 88 104 24 88 104 24 88 104 24 88 104 24 176 80 24 176 80 24 176 80 24 176 80 24 176 80 24 176 80 24 176 80 24 176 80 24 176 80 24 176 80 24 176 80 24 176 80 24 176 80 24 176 80 24 176 80 24 176 80 24 176 80 24 176 80 24 176 80 24 176 80 24 176 80 24 176 80 24 176 80 24 176 80 24 176 80 24 176 80 24 176 80 24 176 80 24 176 80 24 176 80 24 176 80 24 176 80 24 96 104 152 96 104 152 96 104 152 96 104 152 96 104 152 96 104 152 96 104 152 96 104 152 96 104 152 96 104 152 96 104 152 96 104 152 96 104 152 96 104 152 96 104 152 96 104 152 96 104 152 96 104 152 96 104 152 96 104 152 96 104 152 96 104 152 96 104 152 96 104 152 96 104 152 96 104 152 96 104 152 96 104 152 96 104 152 96 104 152 96 104 152 96 104 152
104 104 152 104 104 152 104 104 152 104 104 152 104 104 152 104 104 152 104 104 152 104 104 152 104 104 152 104 104 152 104 104 152 104 104 152 104 104 152 104 104 152 104 104 152 104 104 152 104 104 152 104 104 152 104 104 152 104 104 152 104 104 152 104 104 152 104 104 152 104 104 152 104 104 152 104 104 152 104 104 152 104 104 152 104 104 152 104 104 152 104 104 152 104 104 152 88 104 24 88 104 24 88 104 24 88 104 24 88 104 24 88 104 24 88 104 24 88 104 24 88 104 24 88 104 24 88 104 24 88 104 24 88 104 24 88 104 24 88 104 24 88 104 24 88 104 24 88 104 24 88 104 24 88 104 24 88 104 24 88 104 24 88 104 24 88 104 24 88 104 24 88 104 24 88 104 24 88 104 24 88 104 24 88 104 24 88 104 24 88 104 24 176 80 24 176 80 24 176 80 24 176 80 24 176 80 24 176 80 24 176 80 24 176 80 24 176 80 24 176 80 24 176 80 24 176 80 24 176 80 24 176 80 24 176 80 24 176 80 24 176 80 24 176 80 24 176 80 24 176 80 24 176 80 24 176 80 24 176 80 24 176 80 24 176 80 24 176 80 24 176 80 24 176 80 24 176 80 24 176 80 24 176 80 24 176 80 24 96 104 152 96 104 152 96 104 152 96 104 152 96 104 152 96 104 152 96 104 152 96 104 152 96 104 152 96 104 152 96 104 152 96 104 152 96 104 152 96 104 152 96 104 152 96 104 152 96 104 152 96 104 152 96 104 152 96 104 152 96 104 152 96 104 152 96 104 152 96 104 152 96 104 152 96 104 152 96 104 152 96 104 152 96 104 152 96 104 152 96 104 152 96 104 152
104 104 152 104 104 152 104 104 152 104 104 152 104 104 152 104 104 152 104 104 152 104 104 152 104 104 152 104 104 152 104 104 152 104 104 152 104 104 152 104 104 152 104 104 152 104 104 152 104 104 152 104 104 152 104 104 152 104 104 152 104 104 152 104 104 152 104 104 152 104 104 152 104 104 152 104 104 152 104 104 152 104 104 152 104 104 152 104 104 152 104 104 152 104 104 152 88 104 24 88 104 24 88 104 24 88 104 24 88 104 24 88 104 24 88 104 24 88 104 24 88 104 24 88 104 24 88 104 24 88 104 24 88 104 24 88 104 24 88 104 24 88 104 24 88 104 24 88 104 24 88 104 24 88 104 24 88 104 24 88 104 24 88 104 24 88 104 24 88 104 24 88 104 24 88 104 24 88 104 24 88 104 24 88 104 24 88 104 24 88 104 24 176 80 24 176 80 24 176 80 24 176 80 24 176 80 24 176 80 24 176 80 24 176 80 24 176 80 24 176 80 24 176 80 24 176 80 24 176 80 24 176 80 24 176 80 24 176 80 24 176 80 24 176 80 24 176 80 24 176 80 24 176 80 24 176 80 24 176 80 24 176 80 24 176 80 24 176 80 24 176 80 24 176 80 24 176 80 24 176 80 24 176 80 24 176 80 24 96 104 152 96 104 152 96 104 152 96 104 152 96 104 152 96 104 152 96 104 152 96 104 152 96 104 152 96 104 152 96 104 152 96 104 152 96 104 152 96 104 152 96 104 152 96 104 152 96 104 152 96 104 152 96 104 152 96 104 152 96 104 152 96 104 152 96 104 152 96 104 152 96 104 152 96 104 152 96 104 152 96 104 152 96 104 152 96 104 152 96 104 152 96 104 152
104 104 152 104 104 152 104 104 152 104 104 152 104 104 152 104 104 152 104 104 152 104 104 152 104 104 152 104 104 152 104 104 152 104 104 152 104 104 152 104 104 152 104 104 152 104 104 152 104 104 152 104 104 152 104 104 152 104 104 152 104 104 152 104 104 152 104 104 152 104 104 152 104 104 152 104 104 152 104 104 152 104 104 152 104 104 152 104 104 152 104 104 152 104 104 152 88 104 24 88 104 24 88 104 24 88 104 24 88 104 24 88 104 24 88 104 24 88 104 24 88 104 24 88 104 24 88 104 24 88 104 24 88 104 24 88 104 24 88 104 24 88 104 24 88 104 24 88 104 24 88 104 24 88 104 24 88 104 24 88 104 24 88 104 24 88 104 24 88 104 24 88 104 24 88 104 24 88 104 24 88 104 24 88 104 24 88 104 24 88 104 24 176 80 24 176 80 24 176 80 24 176 80 24 176 80 24 176 80 24 176 80 24 176 80 24 176 80 24 176 80 24 176 80 24 176 80 24 176 80 24 176 80 24 176 80 24 176 80 24 176 80 24 176 80 24 176 80 24 176 80 24 176 80 24 176 80 24 176 80 24 176 80 24 176 80 24 176 80 24 176 80 24 176 80 24 176 80 24 176 80 24 176 80 24 176 80 24 96 104 152 96 104 152 96 104 152 96 104 152 96 104 152 96 104 152 96 104 152 96 104 152 96 104 152 96 104 152 96 104 152 96 104 152 96 104 152 96 104 152 96 104 152 96 104 152 96 104 152 96 104 152 96 104 152 96 104 152 96 104 152 96 104 152 96 104 152 96 104 152 96 104 152 96 104 152 96 104 152 96 104 152 96 104 152 96 104 152 96 104 152 96 104 152
104 104 152 104 104 152 104 104 152 104 104 152 104 104 152 104 104 152 104 104 152 104 104 152 104 104 152 104 104 152 104 104 152 104 104 152 104 104 152 104 104 152 104 104 152 104 104 152 104 104 152 104 104 152 104 104 152 104 104 152 104 104 152 104 104 152 104 104 152 104 104 152 104 104 152 104 104 152 104 104 152 104 104 152 104 104 152 104 104 152 104 104 152 104 104 152 88 104 24 88 104 24 88 104 24 88 104 24 88 104 24 88 104 24 88 104 24 88 104 24 88 104 24 88 104 24 88 104 24 88 104 24 88 104 24 88 104 24 88 104 24 88 104 24 88 104 24 88 104 24 88 104 24 88 104 24 88 104 24 88 104 24 88 104 24 88 104 24 88 104 24 88 104 24 88 104 24 88 104 24 88 104 24 88 104 24 88 104 24 88 104 24 176 80 24 176 80 24 176 80 24 176 80 24 176 80 24 176 80 24 176 80 24 176 80 24 176 80 24 176 80 24 176 80 24 176 80 24 176 80 24 176 80 24 176 80 24 176 80 24 176 80 24 176 80 24 176 80 24 176 80 24 176 80 24 176 80 24 176 80 24 176 80 24 176 80 24 176 80 24 176 80 24 176 80 24 176 80 24 176 80 24 176 80 24 176 80 24 96 104 152 96 104 152 96 104 152 96 104 152 96 104 152 96 104 152 96 104 152 96 104 152 96 104 152 96 104 152 96 104 152 96 104 152 96 104 152 96 104 152 96 104 152 96 104 152 96 104 152 96 104 152 96 104 152 96 104 152 96 104 152 96 104 152 96 104 152 96 104 152 96 104 152 96 104 152 96 104 152 96 104 152 96 104 152 96 104 152 96 104 152 96 104 152
104 104 152 104 104 152 104 104 152 104 104 152 104 104 152 104 104 152 104 104 152 104 104 152 104 104 152 104 104 152 104 104 152 104 104 152 104 104 152 104 104 152 104 104 152 104 104 152 104 104 152 104 104 152 104 104 152 104 104 152 104 104 152 104 104 152 104 104 152 104 104 152 104 104 152 104 104 152 104 104 152 104 104 152 104 104 152 104 104 152 104 104 152 104 104 152 88 104 24 88 104 24 88 104 24 88 104 24 88 104 24 88 104 24 88 104 24 88 104 24 88 104 24 88 104 24 88 104 24 88 104 24 88 104 24 88 104 24 88 104 24 88 104 24 88 104 24 88 104 24 88 104 24 88 104 24 88 104 24 88 104 24 88 104 24 88 104 24 88 104 24 88 104 24 88 104 24 88 104 24 88 104 24 88 104 24 88 104 24 88 104 24 176 80 24 176 80 24 176 80 24 176 80 24 176 80 24 176 80 24 176 80 24 176 80 24 176 80 24 176 80 24 176 80 24 176 80 24 176 80 24 176 80 24 176 80 24 176 80 24 176 80 24 176 80 24 176 80 24 176 80 24 176 80 24 176 80 24 176 80 24 176 80 24 176 80 24 176 80 24 176 80 24 176 80 24 176 80 24 176 80 24 176 80 24 176 80 24 96 104 152 96 104 152 96 104 152 96 104 152 96 104 152 96 104 152 96 104 152 96 104 152 96 104 152 96 104 152 96 104 152 96 104 152 96 104 152 96 104 152 96 104 152 96 104 152 96 104 152 96 104 152 96 104 152 96 104 152 96 104 152 96 104 152 96 104 152 96 104 152 96 104 152 96 104 152 96 104 152 96 104 152 96 104 152 96 104 152 96 104 152 96 104 152
104 104 152 104 104 152 104 104 152 104 104 152 104 104 152 104 104 152 104 104 152 104 104 152 104 104 152 104 104 152 104 104 152 104 104 152 104 104 152 104 104 152 104 104 152 104 104 152 104 104 152 104 104 152 104 104 152 104 104 152 104 104 152 104 104 152 104 104 152 104 104 152 104 104 152 104 104 152 104 104 152 104 104 152 104 104 152 104 104 152 104 104 152 104 104 152 88 104 24 88 104 24 88 104 24 88 104 24 88 104 24 88 104 24 88 104 24 88 104 24 88 104 24 88 104 24 88 104 24 88 104 24 88 104 24 88 104 24 88 104 24 88 104 24 88 104 24 88 104 24 88 104 24 88 104 24 88 104 24 88 104 24 88 104 24 88 104 24 88 104 24 88 104 24 88 104 24 88 104 24 88 104 24 88 104 24 88 104 24 88 104 24 176 80 24 176 80 24 176 80 24 176 80 24 176 80 24 176 80 24 176 80 24 176 80 24 176 80 24 176 80 24 176 80 24 176 80 24 176 80 24 176 80 24 176 80 24 176 80 24 176 80 24 176 80 24 176 80 24 176 80 24 176 80 24 176 80 24 176 80 24 176 80 24 176 80 24 176 80 24 176 80 24 176 80 24 176 80 24 176 80 24 176 80 24 176 80 24 96 104 152 96 104 152 96 104 152 96 104 152 96 104 152 96 104 152 96 104 152 96 104 152 96 104 152 96 104 152 96 104 152 96 104 152 96 104 152 96 104 152 96 104 152 96 104 152 96 104 152 96 104 152 96 104 152 96 104 152 96 104 152 96 104 152 96 104 152 96 104 152 96 104 152 96 104 152 96 104 152 96 104 152 96 104 152 96 104 152 96 104 152 96 104 152
104 104 152 104 104 152 104 104 152 104 104 152 104 104 152 104 104 152 104 104 152 104 104 152 104 104 152 104 104 152 104 104 152 104 104 152 104 104 152 104 104 152 104 104 152 104 104 152 104 104 152 104 104 152 104 104 152 104 104 152 104 104 152 104 104 152 104 104 152 104 104 152 104 104 152 104 104 152 104 104 152 104 104 152 104 104 152 104 104 152 104 104 152 104 104 152 88 104 24 88 104 24 88 104 24 88 104 24 88 104 24 88 104 24 88 104 24 88 104 24 88 104 24 88 104 24 88 104 24 88 104 24 88 104 24 88 104 24 88 104 24 88 104 24 88 104 24 88 104 24 88 104 24 88 104 24 88 104 24 88 104 24 88 104 24 88 104 24 88 104 24 88 104 24 88 104 24 88 104 24 88 104 24 88 104 24 88 104 24 88 104 24 176 80 24 176 80 24 176 80 24 176 80 24 176 80 24 176 80 24 176 80 24 176 80 24 176 80 24 176 80 24 176 80 24 176 80 24 176 80 24 176 80 24 176 80 24 176 80 24 176 80 24 176 80 24 176 80 24 176 80 24 176 80 24 176 80 24 176 80 24 176 80 24 176 80 24 176 80 24 176 80 24 176 80 24 176 80 24 176 80 24 176 80 24 176 80 24 96 104 152 96 104 152 96 104 152 96 104 152 96 104 152 96 104 152 96 104 152 96 104 152 96 104 152 96 104 152 96 104 152 96 104 152 96 104 152 96 104 152 96 104 152 96 104 152 96 104 152 96 104 152 96 104 152 96 104 152 96 104 152 96 104 152 96 104 152 96 104 152 96 104 152 96 104 152 96 104 152 96 104 152 96 104 152 96 104 152 96 104 152 96 104 152
104 104 152 104 104 152 104 104 152 104 104 152 104 104 152 104 104 152 104 104 152 104 104 152 104 104 152 104 104 152 104 104 152 104 104 152 104 104 152 104 104 152 104 104 152 104 104 152 104 104 152 104 104 152 104 104 152 104 104 152 104 104 152 104 104 152 104 104 152 104 104 152 104 104 152 104 104 152 104 104 152 104 104 152 104 104 152 104 104 152 104 104 152 104 104 152 88 104 24 88 104 24 88 104 24 88 104 24 88 104 24 88 104 24 88 104 24 88 104 24 88 104 24 88 104 24 88 104 24 88 104 24 88 104 24 88 104 24 88 104 24 88 104 24 88 104 24 88 104 24 88 104 24 88 104 24 88 104 24 88 104 24 88 104 24 88 104 24 88 104 24 88 104 24 88 104 24 88 104 24 88 104 24 88 104 24 88 104 24 88 104 24 176 80 24 176 80 24 176 80 24 176 80 24 176 80 24 176 80 24 176 80 24 176 80 24 176 80 24 176 80 24 176 80 24 176 80 24 176 80 24 176 80 24 176 80 24 176 80 24 176 80 24 176 80 24 176 80 24 176 80 24 176 80 24 176 80 24 176 80 24 176 80 24 176 80 24 176 80 24 176 80 24 176 80 24 176 80 24 176 80 24 176 80 24 176 80 24 96 104 152 96 104 152 96 104 152 96 104 152 96 104 152 96 104 152 96 104 152 96 104 152 96 104 152 96 104 152 96 104 152 96 104 152 96 104 152 96 104 152 96 104 152 96 104 152 96 104 152 96 104 152 96 104 152 96 104 152 96 104 152 96 104 152 96 104 152 96 104 152 96 104 152 96 104 152 96 104 152 96 104 152 96 104 152 96 104 152 96 104 152 96 104 152
104 104 152 104 104 152 104 104 152 104 104 152 104 104 152 104 104 152 104 104 152 104 104 152 104 104 152 104 104 152 104 104 152 104 104 152 104 104 152 104 104 152 104 104 152 104 104 152 104 104 152 104 104 152 104 104 152 104 104 152 104 104 152 104 104 152 104 104 152 104 104 152 104 104 152 104 104 152 104 104 152 104 104 152 104 104 152 104 104 152 104 104 152 104 104 152 88 104 24 88 104 24 88 104 24 88 104 24 88 104 24 88 104 24 88 104 24 88 104 24 88 104 24 88 104 24 88 104 24 88 104 24 88 104 24 88 104 24 88 104 24 88 104 24 88 104 24 88 104 24 88 104 24 88 104 24 88 104 24 88 104 24 88 104 24 88 104 24 88 104 24 88 104 24 88 104 24 88 104 24 88 104 24 88 104 24 88 104 24 88 104 24 176 80 24 176 80 24 176 80 24 176 80 24 176 80 24 176 80 24 176 80 24 176 80 24 176 80 24 176 80 24 176 80 24 176 80 24 176 80 24 176 80 24 176 80 24 176 80 24 176 80 24 176 80 24 176 80 24 176 80 24 176 80 24 176 80 24 176 80 24 176 80 24 176 80 24 176 80 24 176 80 24 176 80 24 176 80 24 176 80 24 176 80 24 176 80 24 96 104 152 96 104 152 96 104 152 96 104 152 96 104 152 96 104 152 96 104 152 96 104 152 96 104 152 96 104 152 96 104 152 96 104 152 96 104 152 96 104 152 96 104 152 96 104 152 96 104 152 96 104 152 96 104 152 96 104 152 96 104 152 96 104 152 96 104 152 96 104 152 96 104 152 96 104 152 96 104 152 96 104 152 96 104 152 96 104 152 96 104 152 96 104 152
104 104 152 104 104 152 104 104 152 104 104 152 104 104 152 104 104 152 104 104 152 104 104 152 104 104 152 104 104 152 104 104 152 104 104 152 104 104 152 104 104 152 104 104 152 104 104 152 104 104 152 104 104 152 104 104 152 104 104 152 104 104 152 104 104 152 104 104 152 104 104 152 104 104 152 104 104 152 104 104 152 104 104 152 104 104 152 104 104 152 104 104 152 104 104 152 88 104 24 88 104 24 88 104 24 88 104 24 88 104 24 88 104 24 88 104 24 88 104 24 88 104 24 88 104 24 88 104 24 88 104 24 88 104 24 88 104 24 88 104 24 88 104 24 88 104 24 88 104 24 88 104 24 88 104 24 88 104 24 88 104 24 88 104 24 88 104 24 88 104 24 88 104 24 88 104 24 88 104 24 88 104 24 88 104 24 88 104 24 88 104 24 176 80 24 176 80 24 176 80 24 176 80 24 176 80 24 176 80 24 176 80 24 176 80 24 176 80 24 176 80 24 176 80 24 176 80 24 176 80 24 176 80 24 176 80 24 176 80 24 176 80 24 176 80 24 176 80 24 176 80 24 176 80 24 176 80 24 176 80 24 176 80 24 176 80 24 176 80 24 176 80 24 176 80 24 176 80 24 176 80 24 176 80 24 176 80 24 96 104 152 96 104 152 96 104 152 96 104 152 96 104 152 96 104 152 96 104 152 96 104 152 96 104 152 96 104 152 96 104 152 96 104 152 96 104 152 96 104 152 96 104 152 96 104 152 96 104 152 96 104 152 96 104 152 96 104 152 96 104 152 96 104 152 96 104 152 96 104 152 96 104 152 96 104 152 96 104 152 96 104 152 96 104 152 96 104 152 96 104 152 96 104 152
104 104 152 104 104 152 104 104 152 104 104 152 104 104 152 104 104 152 104 104 152 104 104 152 104 104 152 104 104 152 104 104 152 104 104 152 104 104 152 104 104 152 104 104 152 104 104 152 104 104 152 104 104 152 104 104 152 104 104 152 104 104 152 104 104 152 104 104 152 104 104 152 104 104 152 104 104 152 104 104 152 104 104 152 104 104 152 104 104 152 104 104 152 104 104 152 88 104 24 88 104 24 88 104 24 88 104 24 88 104 24 88 104 24 88 104 24 88 104 24 88 104 24 88 104 24 88 104 24 88 104 24 88 104 24 88 104 24 88 104 24 88 104 24 88 104 24 88 104 24 88 104 24 88 104 24 88 104 24 88 104 24 88 104 24 88 104 24 88 104 24 88 104 24 88 104 24 88 104 24 88 104 24 88 104 24 88 104 24 88 104 24 176 80 24 176 80 24 176 80 24 176 80 24 176 80 24 176 80 24 176 80 24 176 80 24 176 80 24 176 80 24 176 80 24 176 80 24 176 80 24 176 80 24 176 80 24 176 80 24 176 80 24 176 80 24 176 80 24 176 80 24 176 80 24 176 80 24 176 80 24 176 80 24 176 80 24 176 80 24 176 80 24 176 80 24 176 80 24 176 80 24 176 80 24 176 80 24 96 104 152 96 104 152 96 104 152 96 104 152 96 104 152 96 104 152 96 104 152 96 104 152 96 104 152 96 104 152 96 104 152 96 104 152 96 104 152 96 104 152 96 104 152 96 104 152 96 104 152 96 104 152 96 104 152 96 104 152 96 104 152 96 104 152 96 104 152 96 104 152 96 104 152 96 104 152 96 104 152 96 104 152 96 104 152 96 104 152 96 104 152 96 104 152
104 104 152 104 104 152 104 104 152 104 104 152 104 104 152 104 104 152 104 104 152 104 104 152 104 104 152 104 104 152 104 104 152 104 104 152 104 104 152 104 104 152 104 104 152 104 104 152 104 104 152 104 104 152 104 104 152 104 104 152 104 104 152 104 104 152 104 104 152 104 104 152 104 104 152 104 104 152 104 104 152 104 104 152 104 104 152 104 104 152 104 104 152 104 104 152 88 104 24 88 104 24 88 104 24 88 104 24 88 104 24 88 104 24 88 104 24 88 104 24 88 104 24 88 104 24 88 104 24 88 104 24 88 104 24 88 104 24 88 104 24 88 104 24 88 104 24 88 104 24 88 104 24 88 104 24 88 104 24 88 104 24 88 104 24 88 104 24 88 104 24 88 104 24 88 104 24 88 104 24 88 104 24 88 104 24 88 104 24 88 104 24 176 80 24 176 80 24 176 80 24 176 80 24 176 80 24 176 80 24 176 80 24 176 80 24 176 80 24 176 80 24 176 80 24 176 80 24 176 80 24 176 80 24 176 80 24 176 80 24 176 80 24 176 80 24 176 80 24 176 80 24 176 80 24 176 80 24 176 80 24 176 80 24 176 80 24 176 80 24 176 80 24 176 80 24 176 80 24 176 80 24 176 80 24 176 80 24 96 104 152 96 104 152 96 104 152 96 104 152 96 104 152 96 104 152 96 104 152 96 104 152 96 104 152 96 104 152 96 104 152 96 104 152 96 104 152 96 104 152 96 104 152 96 104 152 96 104 152 96 104 152 96 104 152 96 104 152 96 104 152 96 104 152 96 104 152 96 104 152 96 104 152 96 104 152 96 104 152 96 104 152 96 104 152 96 104 152 96 104 152 96 104 152
104 104 152 104 104 152 104 104 152 104 104 152 104 104 152 104 104 152 104 104 152 104 104 152 104 104 152 104 104 152 104 104 152 104 104 152 104 104 152 104 104 152 104 104 152 104 104 152 104 104 152 104 104 152 104 104 152 104 104 152 104 104 152 104 104 152 104 104 152 104 104 152 104 104 152 104 104 152 104 104 152 104 104 152 104 104 152 104 104 152 104 104 152 104 104 152 88 104 24 88 104 24 88 104 24 88 104 24 88 104 24 88 104 24 88 104 24 88 104 24 88 104 24 88 104 24 88 104 24 88 104 24 88 104 24 88 104 24 88 104 24 88 104 24 88 104 24 88 104 24 88 104 24 88 104 24 88 104 24 88 104 24 88 104 24 88 104 24 88 104 24 88 104 24 88 104 24 88 104 24 88 104 24 88 104 24 88 104 24 88 104 24 176 80 24 176 80 24 176 80 24 176 80 24 176 80 24 176 80 24 176 80 24 176 80 24 176 80 24 176 80 24 176 80 24 176 80 24 176 80 24 176 80 24 176 80 24 176 80 24 176 80 24 176 80 24 176 80 24 176 80 24 176 80 24 176 80 24 176 80 24 176 80 24 176 80 24 176 80 24 176 80 24 176 80 24 176 80 24 176 80 24 176 80 24 176 80 24 96 104 152 96 104 152 96 104 152 96 104 152 96 104 152 96 104 152 96 104 152 96 104 152 96 104 152 96 104 152 96 104 152 96 104 152 96 104 152 96 104 152 96 104 152 96 104 152 96 104 152 96 104 152 96 104 152 96 104 152 96 104 152 96 104 152 96 104 152 96 104 152 96 104 152 96 104 152 96 104 152 96 104 152 96 104 152 96 104 152 96 104 152 96 104 152
104 104 152 104 104 152 104 104 152 104 104 152 104 104 152 104 104 152 104 104 152 104 104 152 104 104 152 104 104 152 104 104 152 104 104 152 104 104 152 104 104 152 104 104 152 104 104 152 104 104 152 104 104 152 104 104 152 104 104 152 104 104 152 104 104 152 104 104 152 104 104 152 104 104 152 104 104 152 104 104 152 104 104 152 104 104 152 104 104 152 104 104 152 104 104 152 88 104 24 88 104 24 88 104 24 88 104 24 88 104 24 88 104 24 88 104 24 88 104 24 88 104 24 88 104 24 88 104 24 88 104 24 88 104 24 88 104 24 88 104 24 88 104 24 88 104 24 88 104 24 88 104 24 88 104 24 88 104 24 88 104 24 88 104 24 88 104 24 88 104 24 88 104 24 88 104 24 88 104 24 88 104 24 88 104 24 88 104 24 88 104 24 176 80 24 176 80 24 176 80 24 176 80 24 176 80 24 176 80 24 176 80 24 176 80 24 176 80 24 176 80 24 176 80 24 176 80 24 176 80 24 176 80 24 176 80 24 176 80 24 176 80 24 176 80 24 176 80 24 176 80 24 176 80 24 176 80 24 176 80 24 176 80 24 176 80 24 176 80 24 176 80 24 176 80 24 176 80 24 176 80 24 176 80 24 176 80 24 96 104 152 96 104 152 96 104 152 96 104 152 96 104 152 96 104 152 96 104 152 96 104 152 96 104 152 96 104 152 96 104 152 96 104 152 96 104 152 96 104 152 96 104 152 96 104 152 96 104 152 96 104 152 96 104 152 96 104 152 96 104 152 96 104 152 96 104 152 96 104 152 96 104 152 96 104 152 96 104 152 96 104 152 96 104 152 96 104 152 96 104 152 96 104 152
104 104 152 104 104 152 104 104 152 104 104 152 104 104 152 104 104 152 104 104 152 104 104 152 104 104 152 104 104 152 104 104 152 104 104 152 104 104 152 104 104 152 104 104 152 104 104 152 104 104 152 104 104 152 104 104 152 104 104 152 104 104 152 104 104 152 104 104 152 104 104 152 104 104 152 104 104 152 104 104 152 104 104 152 104 104 152 104 104 152 104 104 152 104 104 152 88 104 24 88 104 24 88 104 24 88 104 24 88 104 24 88 104 24 88 104 24 88 104 24 88 104 24 88 104 24 88 104 24 88 104 24 88 104 24 88 104 24 88 104 24 88 104 24 88 104 24 88 104 24 88 104 24 88 104 24 88 104 24 88 104 24 88 104 24 88 104 24 88 104 24 88 104 24 88 104 24 88 104 24 88 104 24 88 104 24 88 104 24 88 104 24 176 80 24 176 80 24 176 80 24 176 80 24 176 80 24 176 80 24 176 80 24 176 80 24 176 80 24 176 80 24 176 80 24 176 80 24 176 80 24 176 80 24 176 80 24 176 80 24 176 80 24 176 80 24 176 80 24 176 80 24 176 80 24 176 80 24 176 80 24 176 80 24 176 80 24 176 80 24 176 80 24 176 80 24 176 80 24 176 80 24 176 80 24 176 80 24 96 104 152 96 104 152 96 104 152 96 104 152 96 104 152 96 104 152 96 104 152 96 104 152 96 104 152 96 104 152 96 104 152 96 104 152 96 104 152 96 104 152 96 104 152 96 104 152 96 104 152 96 104 152 96 104 152 96 104 152 96 104 152 96 104 152 96 104 152 96 104 152 96 104 152 96 104 152 96 104 152 96 104 152 96 104 152 96 104 152 96 104 152 96 104 152
104 104 152 104 104 152 104 104 152 104 104 152 104 104 152 104 104 152 104 104 152 104 104 152 104 104 152 104 104 152 104 104 152 104 104 152 104 104 152 104 104 152 104 104 152 104 104 152 104 104 152 104 104 152 104 104 152 104 104 152 104 104 152 104 104 152 104 104 152 104 104 152 104 104 152 104 104 152 104 104 152 104 104 152 104 104 152 104 104 152 104 104 152 104 104 152 88 104 24 88 104 24 88 104 24 88 104 24 88 104 24 88 104 24 88 104 24 88 104 24 88 104 24 88 104 24 88 104 24 88 104 24 88 104 24 88 104 24 88 104 24 88 104 24 88 104 24 88 104 24 88 104 24 88 104 24 88 104 24 88 104 24 88 104 24 88 104 24 88 104 24 88 104 24 88 104 24 88 104 24 88 104 24 88 104 24 88 104 24 88 104 24 176 80 24 176 80 24 176 80 24 176 80 24 176 80 24 176 80 24 176 80 24 176 80 24 176 80 24 176 80 24 176 80 24 176 80 24 176 80 24 176 80 24 176 80 24 176 80 24 176 80 24 176 80 24 176 80 24 176 80 24 176 80 24 176 80 24 176 80 24 176 80 24 176 80 24 176 80 24 176 80 24 176 80 24 176 80 24 176 80 24 176 80 24 176 80 24 96 104 152 96 104 152 96 104 152 96 104 152 96 104 152 96 104 152 96 104 152 96 104 152 96 104 152 96 104 152 96 104 152 96 104 152 96 104 152 96 104 152 96 104 152 96 104 152 96 104 152 96 104 152 96 104 152 96 104 152 96 104 152 96 104 152 96 104 152 96 104 152 96 104 152 96 104 152 96 104 152 96 104 152 96 104 152 96 104 152 96 104 152 96 104 152
104 104 152 104 104 152 104 104 152 104 104 152 104 104 152 104 104 152 104 104 152 104 104 152 104 104 152 104 104 152 104 104 152 104 104 152 104 104 152 104 104 152 104 104 152 104 104 152 104 104 152 104 104 152 104 104 152 104 104 152 104 104 152 104 104 152 104 104 152 104 104 152 104 104 152 104 104 152 104 104 152 104 104 152 104 104 152 104 104 152 104 104 152 104 104 152 88 104 24 88 104 24 88 104 24 88 104 24 88 104 24 88 104 24 88 104 24 88 104 24 88 104 24 88 104 24 88 104 24 88 104 24 88 104 24 88 104 24 88 104 24 88 104 24 88 104 24 88 104 24 88 104 24 88 104 24 88 104 24 88 104 24 88 104 24 88 104 24 88 104 24 88 104 24 88 104 24 88 104 24 88 104 24 88 104 24 88 104 24 88 104 24 176 80 24 176 80 24 176 80 24 176 80 24 176 80 24 176 80 24 176 80 24 176 80 24 176 80 24 176 80 24 176 80 24 176 80 24 176 80 24 176 80 24 176 80 24 176 80 24 176 80 24 176 80 24 176 80 24 176 80 24 176 80 24 176 80 24 176 80 24 176 80 24 176 80 24 176 80 24 176 80 24 176 80 24 176 80 24 176 80 24 176 80 24 176 80 24 96 104 152 96 104 152 96 104 152 96 104 152 96 104 152 96 104 152 96 104 152 96 104 152 96 104 152 96 104 152 96 104 152 96 104 152 96 104 152 96 104 152 96 104 152 96 104 152 96 104 152 96 104 152 96 104 152 96 104 152 96 104 152 96 104 152 96 104 152 96 104 152 96 104 152 96 104 152 96 104 152 96 104 152 96 104 152 96 104 152 96 104 152 96 104 152
104 104 152 104 104 152 104 104 152 104 104 152 104 104 152 104 104 152 104 104 152 104 104 152 104 104 152 104 104 152 104 104 152 104 104 152 104 104 152 104 104 152 104 104 152 104 104 152 104 104 152 104 104 152 104 104 152 104 104 152 104 104 152 104 104 152 104 104 152 104 104 152 104 104 152 104 104 152 104 104 152 104 104 152 104 104 152 104 104 152 104 104 152 104 104 152 88 104 24 88 104 24 88 104 24 88 104 24 88 104 24 88 104 24 88 104 24 88 104 24 88 104 24 88 104 24 88 104 24 88 104 24 88 104 24 88 104 24 88 104 24 88 104 24 88 104 24 88 104 24 88 104 24 88 104 24 88 104 24 88 104 24 88 104 24 88 104 24 88 104 24 88 104 24 88 104 24 88 104 24 88 104 24 88 104 24 88 104 24 88 104 24 176 80 24 176 80 24 176 80 24 176 80 24 176 80 24 176 80 24 176 80 24 176 80 24 176 80 24 176 80 24 176 80 24 176 80 24 176 80 24 176 80 24 176 80 24 176 80 24 176 80 24 176 80 24 176 80 24 176 80 24 176 80 24 176 80 24 176 80 24 176 80 24 176 80 24 176 80 24 176 80 24 176 80 24 176 80 24 176 80 24 176 80 24 176 80 24 96 104 152 96 104 152 96 104 152 96 104 152 96 104 152 96 104 152 96 104 152 96 104 152 96 104 152 96 104 152 96 104 152 96 104 152 96 104 152 96 104 152 96 104 152 96 104 152 96 104 152 96 104 152 96 104 152 96 104 152 96 104 152 96 104 152 96 104 152 96 104 152 96 104 152 96 104 152 96 104 152 96 104 152 96 104 152 96 104 152 96 104 152 96 104 152
104 104 152 104 104 152 104 104 152 104 104 152 104 104 152 104 104 152 104 104 152 104 104 152 104 104 152 104 104 152 104 104 152 104 104 152 104 104 152 104 104 152 104 104 152 104 104 152 104 104 152 104 104 152 104 104 152 104 104 152 104 104 152 104 104 152 104 104 152 104 104 152 104 104 152 104 104 152 104 104 152 104 104 152 104 104 152 104 104 152 104 104 152 104 104 152 88 104 24 88 104 24 88 104 24 88 104 24 88 104 24 88 104 24 88 104 24 88 104 24 88 104 24 88 104 24 88 104 24 88 104 24 88 104 24 88 104 24 88 104 24 88 104 24 88 104 24 88 104 24 88 104 24 88 104 24 88 104 24 88 104 24 88 104 24 88 104 24 88 104 24 88 104 24 88 104 24 88 104 24 88 104 24 88 104 24 88 104 24 88 104 24 176 80 24 176 80 24 176 80 24 176 80 24 176 80 24 176 80 24 176 80 24 176 80 24 176 80 24 176 80 24 176 80 24 176 80 24 176 80 24 176 80 24 176 80 24 176 80 24 176 80 24 176 80 24 176 80 24 176 80 24 176 80 24 176 80 24 176 80 24 176 80 24 176 80 24 176 80 24 176 80 24 176 80 24 176 80 24 176 80 24 176 80 24 176 80 24 96 104 152 96 104 152 96 104 152 96 104 152 96 104 152 96 104 152 96 104 152 96 104 152 96 104 152 96 104 152 96 104 152 96 104 152 96 104 152 96 104 152 96 104 152 96 104 152 96 104 152 96 104 152 96 104 152 96 104 152 96 104 152 96 104 152 96 104 152 96 104 152 96 104 152 96 104 152 96 104 152 96 104 152 96 104 152 96 104 152 96 104 152 96 104 152
104 104 152 104 104 152 104 104 152 104 104 152 104 104 152 104 104 152 104 104 152 104 104 152 104 104 152 104 104 152 104 104 152 104 104 152 104 104 152 104 104 152 104 104 152 104 104 152 104 104 152 104 104 152 104 104 152 104 104 152 104 104 152 104 104 152 104 104 152 104 104 152 104 104 152 104 104 152 104 104 152 104 104 152 104 104 152 104 104 152 104 104 152 104 104 152 88 104 24 88 104 24 88 104 24 88 104 24 88 104 24 88 104 24 88 104 24 88 104 24 88 104 24 88 104 24 88 104 24 88 104 24 88 104 24 88 104 24 88 104 24 88 104 24 88 104 24 88 104 24 88 104 24 88 104 24 88 104 24 88 104 24 88 104 24 88 104 24 88 104 24 88 104 24 88 104 24 88 104 24 88 104 24 88 104 24 88 104 24 88 104 24 176 80 24 176 80 24 176 80 24 176 80 24 176 80 24 176 80 24 176 80 24 176 80 24 176 80 24 176 80 24 176 80 24 176 80 24 176 80 24 176 80 24 176 80 24 176 80 24 176 80 24 176 80 24 176 80 24 176 80 24 176 80 24 176 80 24 176 80 24 176 80 24 176 80 24 176 80 24 176 80 24 176 80 24 176 80 24 176 80 24 176 80 24 176 80 24 96 104 152 96 104 152 96 104 152 96 104 152 96 104 152 96 104 152 96 104 152 96 104 152 96 104 152 96 104 152 96 104 152 96 104 152 96 104 152 96 104 152 96 104 152 96 104 152 96 104 152 96 104 152 96 104 152 96 104 152 96 104 152 96 104 152 96 104 152 96 104 152 96 104 152 96 104 152 96 104 152 96 104 152 96 104 152 96 104 152 96 104 152 96 104 152
184 80 24 184 80 24 184 80 24 184 80 24 184 80 24 184 80 24 184 80 24 184 80 24 184 80 24 184 80 24 184 80 24 184 80 24 184 80 24 184 80 24 184 80 24 184 80 24 184 80 24 184 80 24 184 80 24 184 80 24 184 80 24 184 80 24 184 80 24 184 80 24 184 80 24 184 80 24 184 80 24 184 80 24 184 80 24 184 80 24 184 80 24 184 80 24 56 80 24 56 80 24 56 80 24 56 80 24 56 80 24 56 80 24 56 80 24 56 80 24 56 80 24 56 80 24 56 80 24 56 80 24 56 80 24 56 80 24 56 80 24 56 80 24 56 80 24 56 80 24 56 80 24 56 80 24 56 80 24 56 80 24 56 80 24 56 80 24 56 80 24 56 80 24 56 80 24 56 80 24 56 80 24 56 80 24 56 80 24 56 80 24 104 104 24 104 104 24 104 104 24 104 104 24 104 104 24 104 104 24 104 104 24 104 104 24 104 104 24 104 104 24 104 104 24 104 104 24 104 104 24 104 104 24 104 104 24 104 104 24 104 104 24 104 104 24 104 104 24 104 104 24 104 104 24 104 104 24 104 104 24 104 104 24 104 104 24 104 104 24 104 104 24 104 104 24 104 104 24 104 104 24 104 104 24 104 104 24 48 80 152 48 80 152 48 80 152 48 80 152 48 80 152 48 80 152 48 80 152 48 80 152 48 80 152 48 80 152 48 80 152 48 80 152 48 80 152 48 80 152 48 80 152 48 80 152 48 80 152 48 80 152 48 80 152 48 80 152 48 80 152 48 80 152 48 80 152 48 80 152 48 80 152 48 80 152 48 80 152 48 80 152 48 80 152 48 80 152 48 80 152 48 80 152
184 80 24 184 80 24 184 80 24 184 80 24 184 80 24 184 80 24 184 80 24 184 80 24 184 80 24 184 80 24 184 80 24 184 80 24 184 80 24 184 80 24 184 80 24 184 80 24 184 80 24 184 80 24 184 80 24 184 80 24 184 80 24 184 80 24 184 80 24 184 80 24 184 80 24 184 80 24 184 80 24 184 80 24 184 80 24 184 80 24 184 80 24 184 80 24 56 80 24 56 80 24 56 80 24 56 80 24 56 80 24 56 80 24 56 80 24 56 80 24 56 80 24 56 80 24 56 80 24 56 80 24 56 80 24 56 80 24 56 80 24 56 80 24 56 80 24 56 80 24 56 80 24 56 80 24 56 80 24 56 80 24 56 80 24 56 80 24 56 80 24 56 80 24 56 80 24 56 80 24 56 80 24 56 80 24 56 80 24 56 80 24 104 104 24 104 104 24 104 104 24 104 104 24 104 104 24 104 104 24 104 104 24 104 104 24 104 104 24 104 104 24 104 104 24 104 104 24 104 104 24 104 104 24 104 104 24 104 104 24 104 104 24 104 104 24 104 104 24 104 104 24 104 104 24 104 104 24 104 104 24 104 104 24 104 104 24 104 104 24 104 104 24 104 104 24 104 104 24 104 104 24 104 104 24 104 104 24 48 80 152 48 80 152 48 80 152 48 80 152 48 80 152 48 80 152 48 80 152 48 80 152 48 80 152 48 80 152 48 80 152 48 80 152 48 80 152 48 80 152 48 80 152 48 80 152 48 80 152 48 80 152 48 80 152 48 80 152 48 80 152 48 80 152 48 80 152 48 80 152 48 80 152 48 80 152 48 80 152 48 80 152 48 80 152 48 80 152 48 80 152 48 80 152
184 80 24 184 80 24 184 80 24 184 80 24 184 80 24 184 80 24 184 80 24 184 80 24 184 80 24 184 80 24 184 80 24 184 80 24 184 80 24 184 80 24 184 80 24 184 80 24 184 80 24 184 80 24 184 80 24 184 80 24 184 80 24 184 80 24 184 80 24 184 80 24 184 80 24 184 80 24 184 80 24 184 80 24 184 80 24 184 80 24 184 80 24 184 80 24 56 80 24 56 80 24 56 80 24 56 80 24 56 80 24 56 80 24 56 80 24 56 80 24 56 80 24 56 80 24 56 80 24 56 80 24 56 80 24 56 80 24 56 80 24 56 80 24 56 80 24 56 80 24 56 80 24 56 80 24 56 80 24 56 80 24 56 80 24 56 80 24 56 80 24 56 80 24 56 80 24 56 80 24 56 80 24 56 80 24 56 80 24 56 80 24 104 104 24 104 104 24 104 104 24 104 104 24 104 104 24 104 104 24 104 104 24 104 104 24 104 104 24 104 104 24 104 104 24 104 104 24 104 104 24 104 104 24 104 104 24 104 104 24 104 104 24 104 104 24 104 104 24 104 104 24 104 104 24 104 104 24 104 104 24 104 104 24 104 104 24 104 104 24 104 104 24 104 104 24 104 104 24 104 104 24 104 104 24 104 104 24 48 80 152 48 80 152 48 80 152 48 80 152 48 80 152 48 80 152 48 80 152 48 80 152 48 80 152 48 80 152 48 80 152 48 80 152 48 80 152 48 80 152 48 80 152 48 80 152 48 80 152 48 80 152 48 80 152 48 80 152 48 80 152 48 80 152 48 80 152 48 80 152 48 80 152 48 80 152 48 80 152 48 80 152 48 80 152 48 80 152 48 80 152 48 80 152
184 80 24 184 80 24 184 80 24 184 80 24 184 80 24 184 80 24 184 80 24 184 80 24 184 80 24 184 80 24 184 80 24 184 80 24 184 80 24 184 80 24 184 80 24 184 80 24 184 80 24 184 80 24 184 80 24 184 80 24 184 80 24 184 80 24 184 80 24 184 80 24 184 80 24 184 80 24 184 80 24 184 80 24 184 80 24 184 80 24 184 80 24 184 80 24 56 80 24 56 80 24 56 80 24 56 80 24 56 80 24 56 80 24 56 80 24 56 80 24 56 80 24 56 80 24 56 80 24 56 80 24 56 80 24 56 80 24 56 80 24 56 80 24 56 80 24 56 80 24 56 80 24 56 80 24 56 80 24 56 80 24 56 80 24 56 80 24 56 80 24 56 80 24 56 80 24 56 80 24 56 80 24 56 80 24 56 80 24 56 80 24 104 104 24 104 104 24 104 104 24 104 104 24 104 104 24 104 104 24 104 104 24 104 104 24 104 104 24 104 104 24 104 104 24 104 104 24 104 104 24 104 104 24 104 104 24 104 104 24 104 104 24 104 104 24 104 104 24 104 104 24 104 104 24 104 104 24 104 104 24 104 104 24 104 104 24 104 104 24 104 104 24 104 104 24 104 104 24 104 104 24 104 104 24 104 104 24 48 80 152 48 80 152 48 80 152 48 80 152 48 80 152 48 80 152 48 80 152 48 80 152 48 80 152 48 80 152 48 80 152 48 80 152 48 80 152 48 80 152 48 80 152 48 80 152 48 80 152 48 80 152 48 80 152 48 80 152 48 80 152 48 80 152 48 80 152 48 80 152 48 80 152 48 80 152 48 80 152 48 80 152 48 80 152 48 80 152 48 80 152 48 80 152
184 80 24 184 80 24 184 80 24 184 80 24 184 80 24 184 80 24 184 80 24 184 80 24 184 80 24 184 80 24 184 80 24 184 80 24 184 80 24 184 80 24 184 80 24 184 80 24 184 80 24 184 80 24 184 80 24 184 80 24 184 80 24 184 80 24 184 80 24 184 80 24 184 80 24 184 80 24 184 80 24 184 80 24 184 80 24 184 80 24 184 80 24 184 80 24 56 80 24 56 80 24 56 80 24 56 80 24 56 80 24 56 80 24 56 80 24 56 80 24 56 80 24 56 80 24 56 80 24 56 80 24 56 80 24 56 80 24 56 80 24 56 80 24 56 80 24 56 80 24 56 80 24 56 80 24 56 80 24 56 80 24 56 80 24 56 80 24 56 80 24 56 80 24 56 80 24 56 80 24 56 80 24 56 80 24 56 80 24 56 80 24 104 104 24 104 104 24 104 104 24 104 104 24 104 104 24 104 104 24 104 104 24 104 104 24 104 104 24 104 104 24 104 104 24 104 104 24 104 104 24 104 104 24 104 104 24 104 104 24 104 104 24 104 104 24 104 104 24 104 104 24 104 104 24 104 104 24 104 104 24 104 104 24 104 104 24 104 104 24 104 104 24 104 104 24 104 104 24 104 104 24 104 104 24 104 104 24 48 80 152 48 80 152 48 80 152 48 80 152 48 80 152 48 80 152 48 80 152 48 80 152 48 80 152 48 80 152 48 80 152 48 80 152 48 80 152 48 80 152 48 80 152 48 80 152 48 80 152 48 80 152 48 80 152 48 80 152 48 80 152 48 80 152 48 80 152 48 80 152 48 80 152 48 80 152 48 80 152 48 80 152 48 80 152 48 80 152 48 80 152 48 80 152
184 80 24 184 80 24 184 80 24 184 80 24 184 80 24 184 80 24 184 80 24 184 80 24 184 80 24 184 80 24 184 80 24 184 80 24 184 80 24 184 80 24 184 80 24 184 80 24 184 80 24 184 80 24 184 80 24 184 80 24 184 80 24 184 80 24 184 80 24 184 80 24 184 80 24 184 80 24 184 80 24 184 80 24 184 80 24 184 80 24 184 80 24 184 80 24 56 80 24 56 80 24 56 80 24 56 80 24 56 80 24 56 80 24 56 80 24 56 80 24 56 80 24 56 80 24 56 80 24 56 80 24 56 80 24 56 80 24 56 80 24 56 80 24 56 80 24 56 80 24 56 80 24 56 80 24 56 80 24 56 80 24 56 80 24 56 80 24 56 80 24 56 80 24 56 80 24 56 80 24 56 80 24 56 80 24 56 80 24 56 80 24 104 104 24 104 104 24 104 104 24 104 104 24 104 104 24 104 104 24 104 104 24 104 104 24 104 104 24 104 104 24 104 104 24 104 104 24 104 104 24 104 104 24 104 104 24 104 104 24 104 104 24 104 104 24 104 104 24 104 104 24 104 104 24 104 104 24 104 104 24 104 104 24 104 104 24 104 104 24 104 104 24 104 104 24 104 104 24 104 104 24 104 104 24 104 104 24 48 80 152 48 80 152 48 80 152 48 80 152 48 80 152 48 80 152 48 80 152 48 80 152 48 80 152 48 80 152 48 80 152 48 80 152 48 80 152 48 80 152 48 80 152 48 80 152 48 80 152 48 80 152 48 80 152 48 80 152 48 80 152 48 80 152 48 80 152 48 80 152 48 80 152 48 80 152 48 80 152 48 80 152 48 80 152 48 80 152 48 80 152 48 80 152
184 80 24 184 80 24 184 80 24 184 80 24 184 80 24 184 80 24 184 80 24 184 80 24 184 80 24 184 80 24 184 80 24 184 80 24 184 80 24 184 80 24 184 80 24 184 80 24 184 80 24 184 80 24 184 80 24 184 80 24 184 80 24 184 80 24 184 80 24 184 80 24 184 80 24 184 80 24 184 80 24 184 80 24 184 80 24 184 80 24 184 80 24 184 80 24 56 80 24 56 80 24 56 80 24 56 80 24 56 80 24 56 80 24 56 80 24 56 80 24 56 80 24 56 80 24 56 80 24 56 80 24 56 80 24 56 80 24 56 80 24 56 80 24 56 80 24 56 80 24 56 80 24 56 80 24 56 80 24 56 80 24 56 80 24 56 80 24 56 80 24 56 80 24 56 80 24 56 80 24 56 80 24 56 80 24 56 80 24 56 80 24 104 104 24 104 104 24 104 104 24 104 104 24 104 104 24 104 104 24 104 104 24 104 104 24 104 104 24 104 104 24 104 104 24 104 104 24 104 104 24 104 104 24 104 104 24 104 104 24 104 104 24 104 104 24 104 104 24 104 104 24 104 104 24 104 104 24 104 104 24 104 104 24 104 104 24 104 104 24 104 104 24 104 104 24 104 104 24 104 104 24 104 104 24 104 104 24 48 80 152 48 80 152 48 80 152 48 80 152 48 80 152 48 80 152 48 80 152 48 80 152 48 80 152 48 80 152 48 80 152 48 80 152 48 80 152 48 80 152 48 80 152 48 80 152 48 80 152 48 80 152 48 80 152 48 80 152 48 80 152 48 80 152 48 80 152 48 80 152 48 80 152 48 80 152 48 80 152 48 80 152 48 80 152 48 80 152 48 80 152 48 80 152
184 80 24 184 80 24 184 80 24 184 80 24 184 80 24 184 80 24 184 80 24 184 80 24 184 80 24 184 80 24 184 80 24 184 80 24 184 80 24 184 80 24 184 80 24 184 80 24 184 80 24 184 80 24 184 80 24 184 80 24 184 80 24 184 80 24 184 80 24 184 80 24 184 80 24 184 80 24 184 80 24 184 80 24 184 80 24 184 80 24 184 80 24 184 80 24 56 80 24 56 80 24 56 80 24 56 80 24 56 80 24 56 80 24 56 80 24 56 80 24 56 80 24 56 80 24 56 80 24 56 80 24 56 80 24 56 80 24 56 80 24 56 80 24 56 80 24 56 80 24 56 80 24 56 80 24 56 80 24 56 80 24 56 80 24 56 80 24 56 80 24 56 80 24 56 80 24 56 80 24 56 80 24 56 80 24 56 80 24 56 80 24 104 104 24 104 104 24 104 104 24 104 104 24 104 104 24 104 104 24 104 104 24 104 104 24 104 104 24 104 104 24 104 104 24 104 104 24 104 104 24 104 104 24 104 104 24 104 104 24 104 104 24 104 104 24 104 104 24 104 104 24 104 104 24 104 104 24 104 104 24 104 104 24 104 104 24 104 104 24 104 104 24 104 104 24 104 104 24 104 104 24 104 104 24 104 104 24 48 80 152 48 80 152 48 80 152 48 80 152 48 80 152 48 80 152 48 80 152 48 80 152 48 80 152 48 80 152 48 80 152 48 80 152 48 80 152 48 80 152 48 80 152 48 80 152 48 80 152 48 80 152 48 80 152 48 80 152 48 80 152 48 80 152 48 80 152 48 80 152 48 80 152 48 80 152 48 80 152 48 80 152 48 80 152 48 80 152 48 80 152 48 80 152
184 80 24 184 80 24 184 80 24 184 80 24 184 80 24 184 80 24 184 80 24 184 80 24 184 80 24 184 80 24 184 80 24 184 80 24 184 80 24 184 80 24 184 80 24 184 80 24 184 80 24 184 80 24 184 80 24 184 80 24 184 80 24 184 80 24 184 80 24 184 80 24 184 80 24 184 80 24 184 80 24 184 80 24 184 80 24 184 80 24 184 80 24 184 80 24 56 80 24 56 80 24 56 80 24 56 80 24 56 80 24 56 80 24 56 80 24 56 80 24 56 80 24 56 80 24 56 80 24 56 80 24 56 80 24 56 80 24 56 80 24 56 80 24 56 80 24 56 80 24 56 80 24 56 80 24 56 80 24 56 80 24 56 80 24 56 80 24 56 80 24 56 80 24 56 80 24 56 80 24 56 80 24 56 80 24 56 80 24 56 80 24 104 104 24 104 104 24 104 104 24 104 104 24 104 104 24 104 104 24 104 104 24 104 104 24 104 104 24 104 104 24 104 104 24 104 104 24 104 104 24 104 104 24 104 104 24 104 104 24 104 104 24 104 104 24 104 104 24 104 104 24 104 104 24 104 104 24 104 104 24 104 104 24 104 104 24 104 104 24 104 104 24 104 104 24 104 104 24 104 104 24 104 104 24 104 104 24 48 80 152 48 80 152 48 80 152 48 80 152 48 80 152 48 80 152 48 80 152 48 80 152 48 80 152 48 80 152 48 80 152 48 80 152 48 80 152 48 80 152 48 80 152 48 80 152 48 80 152 48 80 152 48 80 152 48 80 152 48 80 152 48 80 152 48 80 152 48 80 152 48 80 152 48 80 152 48 80 152 48 80 152 48 80 152 48 80 152 48 80 152 48 80 152
184 80 24 184 80 24 184 80 24 184 80 24 184 80 24 184 80 24 184 80 24 184 80 24 184 80 24 184 80 24 184 80 24 184 80 24 184 80 24 184 80 24 184 80 24 184 80 24 184 80 24 184 80 24 184 80 24 184 80 24 184 80 24 184 80 24 184 80 24 184 80 24 184 80 24 184 80 24 184 80 24 184 80 24 184 80 24 184 80 24 184 80 24 184 80 24 56 80 24 56 80 24 56 80 24 56 80 24 56 80 24 56 80 24 56 80 24 56 80 24 56 80 24 56 80 24 56 80 24 56 80 24 56 80 24 56 80 24 56 80 24 56 80 24 56 80 24 56 80 24 56 80 24 56 80 24 56 80 24 56 80 24 56 80 24 56 80 24 56 80 24 56 80 24 56 80 24 56 80 24 56 80 24 56 80 24 56 80 24 56 80 24 104 104 24 104 104 24 104 104 24 104 104 24 104 104 24 104 104 24 104 104 24 104 104 24 104 104 24 104 104 24 104 104 24 104 104 24 104 104 24 104 104 24 104 104 24 104 104 24 104 104 24 104 104 24 104 104 24 104 104 24 104 104 24 104 104 24 104 104 24 104 104 24 104 104 24 104 104 24 104 104 24 104 104 24 104 104 24 104 104 24 104 104 24 104 104 24 48 80 152 48 80 152 48 80 152 48 80 152 48 80 152 48 80 152 48 80 152 48 80 152 48 80 152 48 80 152 48 80 152 48 80 152 48 80 152 48 80 152 48 80 152 48 80 152 48 80 152 48 80 152 48 80 152 48 80 152 48 80 152 48 80 152 48 80 152 48 80 152 48 80 152 48 80 152 48 80 152 48 80 152 48 80 152 48 80 152 48 80 152 48 80 152
184 80 24 184 80 24 184 80 24 184 80 24 184 80 24 184 80 24 184 80 24 184 80 24 184 80 24 184 80 24 184 80 24 184 80 24 184 80 24 184 80 24 184 80 24 184 80 24 184 80 24 184 80 24 184 80 24 184 80 24 184 80 24 184 80 24 184 80 24 184 80 24 184 80 24 184 80 24 184 80 24 184 80 24 184 80 24 184 80 24 184 80 24 184 80 24 56 80 24 56 80 24 56 80 24 56 80 24 56 80 24 56 80 24 56 80 24 56 80 24 56 80 24 56 80 24 56 80 24 56 80 24 56 80 24 56 80 24 56 80 24 56 80 24 56 80 24 56 80 24 56 80 24 56 80 24 56 80 24 56 80 24 56 80 24 56 80 24 56 80 24 56 80 24 56 80 24 56 80 24 56 80 24 56 80 24 56 80 24 56 80 24 104 104 24 104 104 24 104 104 24 104 104 24 104 104 24 104 104 24 104 104 24 104 104 24 104 104 24 104 104 24 104 104 24 104 104 24 104 104 24 104 104 24 104 104 24 104 104 24 104 104 24 104 104 24 104 104 24 104 104 24 104 104 24 104 104 24 104 104 24 104 104 24 104 104 24 104 104 24 104 104 24 104 104 24 104 104 24 104 104 24 104 104 24 104 104 24 48 80 152 48 80 152 48 80 152 48 80 152 48 80 152 48 80 152 48 80 152 48 80 152 48 80 152 48 80 152 48 80 152 48 80 152 48 80 152 48 80 152 48 80 152 48 80 152 48 80 152 48 80 152 48 80 152 48 80 152 48 80 152 48 80 152 48 80 152 48 80 152 48 80 152 48 80 152 48 80 152 48 80 152 48 80 152 48 80 152 48 80 152 48 80 152
184 80 24 184 80 24 184 80 24 184 80 24 184 80 24 184 80 24 184 80 24 184 80 24 184 80 24 184 80 24 184 80 24 184 80 24 184 80 24 184 80 24 184 80 24 184 80 24 184 80 24 184 80 24 184 80 24 184 80 24 184 80 24 184 80 24 184 80 24 184 80 24 184 80 24 184 80 24 184 80 24 184 80 24 184 80 24 184 80 24 184 80 24 184 80 24 56 80 24 56 80 24 56 80 24 56 80 24 56 80 24 56 80 24 56 80 24 56 80 24 56 80 24 56 80 24 56 80 24 56 80 24 56 80 24 56 80 24 56 80 24 56 80 24 56 80 24 56 80 24 56 80 24 56 80 24 56 80 24 56 80 24 56 80 24 56 80 24 56 80 24 56 80 24 56 80 24 56 80 24 56 80 24 56 80 24 56 80 24 56 80 24 104 104 24 104 104 24 104 104 24 104 104 24 104 104 24 104 104 24 104 104 24 104 104 24 104 104 24 104 104 24 104 104 24 104 104 24 104 104 24 104 104 24 104 104 24 104 104 24 104 104 24 104 104 24 104 104 24 104 104 24 104 104 24 104 104 24 104 104 24 104 104 24 104 104 24 104 104 24 104 104 24 104 104 24 104 104 24 104 104 24 104 104 24 104 104 24 48 80 152 48 80 152 48 80 152 48 80 152 48 80 152 48 80 152 48 80 152 48 80 152 48 80 152 48 80 152 48 80 152 48 80 152 48 80 152 48 80 152 48 80 152 48 80 152 48 80 152 48 80 152 48 80 152 48 80 152 48 80 152 48 80 152 48 80 152 48 80 152 48 80 152 48 80 152 48 80 152 48 80 152 48 80 152 48 80 152 48 80 152 48 80 152
184 80 24 184 80 24 184 80 24 184 80 24 184 80 24 184 80 24 184 80 24 184 80 24 184 80 24 184 80 24 184 80 24 184 80 24 184 80 24 184 80 24 184 80 24 184 80 24 184 80 24 184 80 24 184 80 24 184 80 24 184 80 24 184 80 24 184 80 24 184 80 24 184 80 24 184 80 24 184 80 24 184 80 24 184 80 24 184 80 24 184 80 24 184 80 24 56 80 24 56 80 24 56 80 24 56 80 24 56 80 24 56 80 24 56 80 24 56 80 24 56 80 24 56 80 24 56 80 24 56 80 24 56 80 24 56 80 24 56 80 24 56 80 24 56 80 24 56 80 24 56 80 24 56 80 24 56 80 24 56 80 24 56 80 24 56 80 24 56 80 24 56 80 24 56 80 24 56 80 24 56 80 24 56 80 24 56 80 24 56 80 24 104 104 24 104 104 24 104 104 24 104 104 24 104 104 24 104 104 24 104 104 24 104 104 24 104 104 24 104 104 24 104 104 24 104 104 24 104 104 24 104 104 24 104 104 24 104 104 24 104 104 24 104 104 24 104 104 24 104 104 24 104 104 24 104 104 24 104 104 24 104 104 24 104 104 24 104 104 24 104 104 24 104 104 24 104 104 24 104 104 24 104 104 24 104 104 24 48 80 152 48 80 152 48 80 152 48 80 152 48 80 152 48 80 152 48 80 152 48 80 152 48 80 152 48 80 152 48 80 152 48 80 152 48 80 152 48 80 152 48 80 152 48 80 152 48 80 152 48 80 152 48 80 152 48 80 152 48 80 152 48 80 152 48 80 152 48 80 152 48 80 152 48 80 152 48 80 152 48 80 152 48 80 152 48 80 152 48 80 152 48 80 152
184 80 24 184 80 24 184 80 24 184 80 24 184 80 24 184 80 24 184 80 24 184 80 24 184 80 24 184 80 24 184 80 24 184 80 24 184 80 24 184 80 24 184 80 24 184 80 24 184 80 24 184 80 24 184 80 24 184 80 24 184 80 24 184 80 24 184 80 24 184 80 24 184 80 24 184 80 24 184 80 24 184 80 24 184 80 24 184 80 24 184 80 24 184 80 24 56 80 24 56 80 24 56 80 24 56 80 24 56 80 24 56 80 24 56 80 24 56 80 24 56 80 24 56 80 24 56 80 24 56 80 24 56 80 24 56 80 24 56 80 24 56 80 24 56 80 24 56 80 24 56 80 24 56 80 24 56 80 24 56 80 24 56 80 24 56 80 24 56 80 24 56 80 24 56 80 24 56 80 24 56 80 24 56 80 24 56 80 24 56 80 24 104 104 24 104 104 24 104 104 24 104 104 24 104 104 24 104 104 24 104 104 24 104 104 24 104 104 24 104 104 24 104 104 24 104 104 24 104 104 24 104 104 24 104 104 24 104 104 24 104 104 24 104 104 24 104 104 24 104 104 24 104 104 24 104 104 24 104 104 24 104 104 24 104 104 24 104 104 24 104 104 24 104 104 24 104 104 24 104 104 24 104 104 24 104 104 24 48 80 152 48 80 152 48 80 152 48 80 152 48 80 152 48 80 152 48 80 152 48 80 152 48 80 152 48 80 152 48 80 152 48 80 152 48 80 152 48 80 152 48 80 152 48 80 152 48 80 152 48 80 152 48 80 152 48 80 152 48 80 152 48 80 152 48 80 152 48 80 152 48 80 152 48 80 152 48 80 152 48 80 152 48 80 152 48 80 152 48 80 152 48 80 152
184 80 24 184 80 24 184 80 24 184 80 24 184 80 24 184 80 24 184 80 24 184 80 24 184 80 24 184 80 24 184 80 24 184 80 24 184 80 24 184 80 24 184 80 24 184 80 24 184 80 24 184 80 24 184 80 24 184 80 24 184 80 24 184 80 24 184 80 24 184 80 24 184 80 24 184 80 24 184 80 24 184 80 24 184 80 24 184 80 24 184 80 24 184 80 24 56 80 24 56 80 24 56 80 24 56 80 24 56 80 24 56 80 24 56 80 24 56 80 24 56 80 24 56 80 24 56 80 24 56 80 24 56 80 24 56 80 24 56 80 24 56 80 24 56 80 24 56 80 24 56 80 24 56 80 24 56 80 24 56 80 24 56 80 24 56 80 24 56 80 24 56 80 24 56 80 24 56 80 24 56 80 24 56 80 24 56 80 24 56 80 24 104 104 24 104 104 24 104 104 24 104 104 24 104 104 24 104 104 24 104 104 24 104 104 24 104 104 24 104 104 24 104 104 24 104 104 24 104 104 24 104 104 24 104 104 24 104 104 24 104 104 24 104 104 24 104 104 24 104 104 24 104 104 24 104 104 24 104 104 24 104 104 24 104 104 24 104 104 24 104 104 24 104 104 24 104 104 24 104 104 24 104 104 24 104 104 24 48 80 152 48 80 152 48 80 152 48 80 152 48 80 152 48 80 152 48 80 152 48 80 152 48 80 152 48 80 152 48 80 152 48 80 152 48 80 152 48 80 152 48 80 152 48 80 152 48 80 152 48 80 152 48 80 152 48 80 152 48 80 152 48 80 152 48 80 152 48 80 152 48 80 152 48 80 152 48 80 152 48 80 152 48 80 152 48 80 152 48 80 152 48 80 152
184 80 24 184 80 24 184 80 24 184 80 24 184 80 24 184 80 24 184 80 24 184 80 24 184 80 24 184 80 24 184 80 24 184 80 24 184 80 24 184 80 24 184 80 24 184 80 24 184 80 24 184 80 24 184 80 24 184 80 24 184 80 24 184 80 24 184 80 24 184 80 24 184 80 24 184 80 24 184 80 24 184 80 24 184 80 24 184 80 24 184 80 24 184 80 24 56 80 24 56 80 24 56 80 24 56 80 24 56 80 24 56 80 24 56 80 24 56 80 24 56 80 24 56 80 24 56 80 24 56 80 24 56 80 24 56 80 24 56 80 24 56 80 24 56 80 24 56 80 24 56 80 24 56 80 24 56 80 24 56 80 24 56 80 24 56 80 24 56 80 24 56 80 24 56 80 24 56 80 24 56 80 24 56 80 24 56 80 24 56 80 24 104 104 24 104 104 24 104 104 24 104 104 24 104 104 24 104 104 24 104 104 24 104 104 24 104 104 24 104 104 24 104 104 24 104 104 24 104 104 24 104 104 24 104 104 24 104 104 24 104 104 24 104 104 24 104 104 24 104 104 24 104 104 24 104 104 24 104 104 24 104 104 24 104 104 24 104 104 24 104 104 24 104 104 24 104 104 24 104 104 24 104 104 24 104 104 24 48 80 152 48 80 152 48 80 152 48 80 152 48 80 152 48 80 152 48 80 152 48 80 152 48 80 152 48 80 152 48 80 152 48 80 152 48 80 152 48 80 152 48 80 152 48 80 152 48 80 152 48 80 152 48 80 152 48 80 152 48 80 152 48 80 152 48 80 152 48 80 152 48 80 152 48 80 152 48 80 152 48 80 152 48 80 152 48 80 152 48 80 152 48 80 152
184 80 24 184 80 24 184 80 24 184 80 24 184 80 24 184 80 24 184 80 24 184 80 24 184 80 24 184 80 24 184 80 24 184 80 24 184 80 24 184 80 24 184 80 24 184 80 24 184 80 24 184 80 24 184 80 24 184 80 24 184 80 24 184 80 24 184 80 24 184 80 24 184 80 24 184 80 24 184 80 24 184 80 24 184 80 24 184 80 24 184 80 24 184 80 24 56 80 24 56 80 24 56 80 24 56 80 24 56 80 24 56 80 24 56 80 24 56 80 24 56 80 24 56 80 24 56 80 24 56 80 24 56 80 24 56 80 24 56 80 24 56 80 24 56 80 24 56 80 24 56 80 24 56 80 24 56 80 24 56 80 24 56 80 24 56 80 24 56 80 24 56 80 24 56 80 24 56 80 24 56 80 24 56 80 24 56 80 24 56 80 24 104 104 24 104 104 24 104 104 24 104 104 24 104 104 24 104 104 24 104 104 24 104 104 24 104 104 24 104 104 24 104 104 24 104 104 24 104 104 24 104 104 24 104 104 24 104 104 24 104 104 24 104 104 24 104 104 24 104 104 24 104 104 24 104 104 24 104 104 24 104 104 24 104 104 24 104 104 24 104 104 24 104 104 24 104 104 24 104 104 24 104 104 24 104 104 24 48 80 152 48 80 152 48 80 152 48 80 152 48 80 152 48 80 152 48 80 152 48 80 152 48 80 152 48 80 152 48 80 152 48 80 152 48 80 152 48 80 152 48 80 152 48 80 152 48 80 152 48 80 152 48 80 152 48 80 152 48 80 152 48 80 152 48 80 152 48 80 152 48 80 152 48 80 152 48 80 152 48 80 152 48 80 152 48 80 152 48 80 152 48 80 152
184 80 24 184 80 24 184 80 24 184 80 24 184 80 24 184 80 24 184 80 24 184 80 24 184 80 24 184 80 24 184 80 24 184 80 24 184 80 24 184 80 24 184 80 24 184 80 24 184 80 24 184 80 24 184 80 24 184 80 24 184 80 24 184 80 24 184 80 24 184 80 24 184 80 24 184 80 24 184 80 24 184 80 24 184 80 24 184 80 24 184 80 24 184 80 24 56 80 24 56 80 24 56 80 24 56 80 24 56 80 24 56 80 24 56 80 24 56 80 24 56 80 24 56 80 24 56 80 24 56 80 24 56 80 24 56 80 24 56 80 24 56 80 24 56 80 24 56 80 24 56 80 24 56 80 24 56 80 24 56 80 24 56 80 24 56 80 24 56 80 24 56 80 24 56 80 24 56 80 24 56 80 24 56 80 24 56 80 24 56 80 24 104 104 24 104 104 24 104 104 24 104 104 24 104 104 24 104 104 24 104 104 24 104 104 24 104 104 24 104 104 24 104 104 24 104 104 24 104 104 24 104 104 24 104 104 24 104 104 24 104 104 24 104 104 24 104 104 24 104 104 24 104 104 24 104 104 24 104 104 24 104 104 24 104 104 24 104 104 24 104 104 24 104 104 24 104 104 24 104 104 24 104 104 24 104 104 24 48 80 152 48 80 152 48 80 152 48 80 152 48 80 152 48 80 152 48 80 152 48 80 152 48 80 152 48 80 152 48 80 152 48 80 152 48 80 152 48 80 152 48 80 152 48 80 152 48 80 152 48 80 152 48 80 152 48 80 152 48 80 152 48 80 152 48 80 152 48 80 152 48 80 152 48 80 152 48 80 152 48 80 152 48 80 152 48 80 152 48 80 152 48 80 152
184 80 24 184 80 24 184 80 24 184 80 24 184 80 24 184 80 24 184 80 24 184 80 24 184 80 24 184 80 24 184 80 24 184 80 24 184 80 24 184 80 24 184 80 24 184 80 24 184 80 24 184 80 24 184 80 24 184 80 24 184 80 24 184 80 24 184 80 24 184 80 24 184 80 24 184 80 24 184 80 24 184 80 24 184 80 24 184 80 24 184 80 24 184 80 24 56 80 24 56 80 24 56 80 24 56 80 24 56 80 24 56 80 24 56 80 24 56 80 24 56 80 24 56 80 24 56 80 24 56 80 24 56 80 24 56 80 24 56 80 24 56 80 24 56 80 24 56 80 24 56 80 24 56 80 24 56 80 24 56 80 24 56 80 24 56 80 24 56 80 24 56 80 24 56 80 24 56 80 24 56 80 24 56 80 24 56 80 24 56 80 24 104 104 24 104 104 24 104 104 24 104 104 24 104 104 24 104 104 24 104 104 24 104 104 24 104 104 24 104 104 24 104 104 24 104 104 24 104 104 24 104 104 24 104 104 24 104 104 24 104 104 24 104 104 24 104 104 24 104 104 24 104 104 24 104 104 24 104 104 24 104 104 24 104 104 24 104 104 24 104 104 24 104 104 24 104 104 24 104 104 24 104 104 24 104 104 24 48 80 152 48 80 152 48 80 152 48 80 152 48 80 152 48 80 152 48 80 152 48 80 152 48 80 152 48 80 152 48 80 152 48 80 152 48 80 152 48 80 152 48 80 152 48 80 152 48 80 152 48 80 152 48 80 152 48 80 152 48 80 152 48 80 152 48 80 152 48 80 152 48 80 152 48 80 152 48 80 152 48 80 152 48 80 152 48 80 152 48 80 152 48 80 152
184 80 24 184 80 24 184 80 24 184 80 24 184 80 24 184 80 24 184 80 24 184 80 24 184 80 24 184 80 24 184 80 24 184 80 24 184 80 24 184 80 24 184 80 24 184 80 24 184 80 24 184 80 24 184 80 24 184 80 24 184 80 24 184 80 24 184 80 24 184 80 24 184 80 24 184 80 24 184 80 24 184 80 24 184 80 24 184 80 24 184 80 24 184 80 24 56 80 24 56 80 24 56 80 24 56 80 24 56 80 24 56 80 24 56 80 24 56 80 24 56 80 24 56 80 24 56 80 24 56 80 24 56 80 24 56 80 24 56 80 24 56 80 24 56 80 24 56 80 24 56 80 24 56 80 24 56 80 24 56 80 24 56 80 24 56 80 24 56 80 24 56 80 24 56 80 24 56 80 24 56 80 24 56 80 24 56 80 24 56 80 24 104 104 24 104 104 24 104 104 24 104 104 24 104 104 24 104 104 24 104 104 24 104 104 24 104 104 24 104 104 24 104 104 24 104 104 24 104 104 24 104 104 24 104 104 24 104 104 24 104 104 24 104 104 24 104 104 24 104 104 24 104 104 24 104 104 24 104 104 24 104 104 24 104 104 24 104 104 24 104 104 24 104 104 24 104 104 24 104 104 24 104 104 24 104 104 24 48 80 152 48 80 152 48 80 152 48 80 152 48 80 152 48 80 152 48 80 152 48 80 152 48 80 152 48 80 152 48 80 152 48 80 152 48 80 152 48 80 152 48 80 152 48 80 152 48 80 152 48 80 152 48 80 152 48 80 152 48 80 152 48 80 152 48 80 152 48 80 152 48 80 152 48 80 152 48 80 152 48 80 152 48 80 152 48 80 152 48 80 152 48 80 152
184 80 24 184 80 24 184 80 24 184 80 24 184 80 24 184 80 24 184 80 24 184 80 24 184 80 24 184 80 24 184 80 24 184 80 24 184 80 24 184 80 24 184 80 24 184 80 24 184 80 24 184 80 24 184 80 24 184 80 24 184 80 24 184 80 24 184 80 24 184 80 24 184 80 24 184 80 24 184 80 24 184 80 24 184 80 24 184 80 24 184 80 24 184 80 24 56 80 24 56 80 24 56 80 24 56 80 24 56 80 24 56 80 24 56 80 24 56 80 24 56 80 24 56 80 24 56 80 24 56 80 24 56 80 24 56 80 24 56 80 24 56 80 24 56 80 24 56 80 24 56 80 24 56 80 24 56 80 24 56 80 24 56 80 24 56 80 24 56 80 24 56 80 24 56 80 24 56 80 24 56 80 24 56 80 24 56 80 24 56 80 24 104 104 24 104 104 24 104 104 24 104 104 24 104 104 24 104 104 24 104 104 24 104 104 24 104 104 24 104 104 24 104 104 24 104 104 24 104 104 24 104 104 24 104 104 24 104 104 24 104 104 24 104 104 24 104 104 24 104 104 24 104 104 24 104 104 24 104 104 24 104 104 24 104 104 24 104 104 24 104 104 24 104 104 24 104 104 24 104 104 24 104 104 24 104 104 24 48 80 152 48 80 152 48 80 152 48 80 152 48 80 152 48 80 152 48 80 152 48 80 152 48 80 152 48 80 152 48 80 152 48 80 152 48 80 152 48 80 152 48 80 152 48 80 152 48 80 152 48 80 152 48 80 152 48 80 152 48 80 152 48 80 152 48 80 152 48 80 152 48 80 152 48 80 152 48 80 152 48 80 152 48 80 152 48 80 152 48 80 152 48 80 152
184 80 24 184 80 24 184 80 24 184 80 24 184 80 24 184 80 24 184 80 24 184 80 24 184 80 24 184 80 24 184 80 24 184 80 24 184 80 24 184 80 24 184 80 24 184 80 24 184 80 24 184 80 24 184 80 24 184 80 24 184 80 24 184 80 24 184 80 24 184 80 24 184 80 24 184 80 24 184 80 24 184 80 24 184 80 24 184 80 24 184 80 24 184 80 24 56 80 24 56 80 24 56 80 24 56 80 24 56 80 24 56 80 24 56 80 24 56 80 24 56 80 24 56 80 24 56 80 24 56 80 24 56 80 24 56 80 24 56 80 24 56 80 24 56 80 24 56 80 24 56 80 24 56 80 24 56 80 24 56 80 24 56 80 24 56 80 24 56 80 24 56 80 24 56 80 24 56 80 24 56 80 24 56 80 24 56 80 24 56 80 24 104 104 24 104 104 24 104 104 24 104 104 24 104 104 24 104 104 24 104 104 24 104 104 24 104 104 24 104 104 24 104 104 24 104 104 24 104 104 24 104 104 24 104 104 24 104 104 24 104 104 24 104 104 24 104 104 24 104 104 24 104 104 24 104 104 24 104 104 24 104 104 24 104 104 24 104 104 24 104 104 24 104 104 24 104 104 24 104 104 24 104 104 24 104 104 24 48 80 152 48 80 152 48 80 152 48 80 152 48 80 152 48 80 152 48 80 152 48 80 152 48 80 152 48 80 152 48 80 152 48 80 152 48 80 152 48 80 152 48 80 152 48 80 152 48 80 152 48 80 152 48 80 152 48 80 152 48 80 152 48 80 152 48 80 152 48 80 152 48 80 152 48 80 152 48 80 152 48 80 152 48 80 152 48 80 152 48 80 152 48 80 152
184 80 24 184 80 24 184 80 24 184 80 24 184 80 24 184 80 24 184 80 24 184 80 24 184 80 24 184 80 24 184 80 24 184 80 24 184 80 24 184 80 24 184 80 24 184 80 24 184 80 24 184 80 24 184 80 24 184 80 24 184 80 24 184 80 24 184 80 24 184 80 24 184 80 24 184 80 24 184 80 24 184 80 24 184 80 24 184 80 24 184 80 24 184 80 24 56 80 24 56 80 24 56 80 24 56 80 24 56 80 24 56 80 24 56 80 24 56 80 24 56 80 24 56 80 24 56 80 24 56 80 24 56 80 24 56 80 24 56 80 24 56 80 24 56 80 24 56 80 24 56 80 24 56 80 24 56 80 24 56 80 24 56 80 24 56 80 24 56 80 24 56 80 24 56 80 24 56 80 24 56 80 24 56 80 24 56 80 24 56 80 24 104 104 24 104 104 24 104 104 24 104 104 24 104 104 24 104 104 24 104 104 24 104 104 24 104 104 24 104 104 24 104 104 24 104 104 24 104 104 24 104 104 24 104 104 24 104 104 24 104 104 24 104 104 24 104 104 24 104 104 24 104 104 24 104 104 24 104 104 24 104 104 24 104 104 24 104 104 24 104 104 24 104 104 24 104 104 24 104 104 24 104 104 24 104 104 24 48 80 152 48 80 152 48 80 152 48 80 152 48 80 152 48 80 152 48 80 152 48 80 152 48 80 152 48 80 152 48 80 152 48 80 152 48 80 152 48 80 152 48 80 152 48 80 152 48 80 152 48 80 152 48 80 152 48 80 152 48 80 152 48 80 152 48 80 152 48 80 152 48 80 152 48 80 152 48 80 152 48 80 152 48 80 152 48 80 152 48 80 152 48 80 152
184 80 24 184 80 24 184 80 24 184 80 24 184 80 24 184 80 24 184 80 24 184 80 24 184 80 24 184 80 24 184 80 24 184 80 24 184 80 24 184 80 24 184 80 24 184 80 24 184 80 24 184 80 24 184 80 24 184 80 24 184 80 24 184 80 24 184 80 24 184 80 24 184 80 24 184 80 24 184 80 24 184 80 24 184 80 24 184 80 24 184 80 24 184 80 24 56 80 24 56 80 24 56 80 24 56 80 24 56 80 24 56 80 24 56 80 24 56 80 24 56 80 24 56 80 24 56 80 24 56 80 24 56 80 24 56 80 24 56 80 24 56 80 24 56 80 24 56 80 24 56 80 24 56 80 24 56 80 24 56 80 24 56 80 24 56 80 24 56 80 24 56 80 24 56 80 24 56 80 24 56 80 24 56 80 24 56 80 24 56 80 24 104 104 24 104 104 24 104 104 24 104 104 24 104 104 24 104 104 24 104 104 24 104 104 24 104 104 24 104 104 24 104 104 24 104 104 24 104 104 24 104 104 24 104 104 24 104 104 24 104 104 24 104 104 24 104 104 24 104 104 24 104 104 24 104 104 24 104 104 24 104 104 24 104 104 24 104 104 24 104 104 24 104 104 24 104 104 24 104 104 24 104 104 24 104 104 24 48 80 152 48 80 152 48 80 152 48 80 152 48 80 152 48 80 152 48 80 152 48 80 152 48 80 152 48 80 152 48 80 152 48 80 152 48 80 152 48 80 152 48 80 152 48 80 152 48 80 152 48 80 152 48 80 152 48 80 152 48 80 152 48 80 152 48 80 152 48 80 152 48 80 152 48 80 152 48 80 152 48 80 152 48 80 152 48 80 152 48 80 152 48 80 152
184 80 24 184 80 24 184 80 24 184 80 24 184 80 24 184 80 24 184 80 24 184 80 24 184 80 24 184 80 24 184 80 24 184 80 24 184 80 24 184 80 24 184 80 24 184 80 24 184 80 24 184 80 24 184 80 24 184 80 24 184 80 24 184 80 24 184 80 24 184 80 24 184 80 24 184 80 24 184 80 24 184 80 24 184 80 24 184 80 24 184 80 24 184 80 24 56 80 24 56 80 24 56 80 24 56 80 24 56 80 24 56 80 24 56 80 24 56 80 24 56 80 24 56 80 24 56 80 24 56 80 24 56 80 24 56 80 24 56 80 24 56 80 24 56 80 24 56 80 24 56 80 24 56 80 24 56 80 24 56 80 24 56 80 24 56 80 24 56 80 24 56 80 24 56 80 24 56 80 24 56 80 24 56 80 24 56 80 24 56 80 24 104 104 24 104 104 24 104 104 24 104 104 24 104 104 24 104 104 24 104 104 24 104 104 24 104 104 24 104 104 24 104 104 24 104 104 24 104 104 24 104 104 24 104 104 24 104 104 24 104 104 24 104 104 24 104 104 24 104 104 24 104 104 24 104 104 24 104 104 24 104 104 24 104 104 24 104 104 24 104 104 24 104 104 24 104 104 24 104 104 24 104 104 24 104 104 24 48 80 152 48 80 152 48 80 152 48 80 152 48 80 152 48 80 152 48 80 152 48 80 152 48 80 152 48 80 152 48 80 152 48 80 152 48 80 152 48 80 152 48 80 152 48 80 152 48 80 152 48 80 152 48 80 152 48 80 152 48 80 152 48 80 152 48 80 152 48 80 152 48 80 152 48 80 152 48 80 152 48 80 152 48 80 152 48 80 152 48 80 152 48 80 152
184 80 24 184 80 24 184 80 24 184 80 24 184 80 24 184 80 24 184 80 24 184 80 24 184 80 24 184 80 24 184 80 24 184 80 24 184 80 24 184 80 24 184 80 24 184 80 24 184 80 24 184 80 24 184 80 24 184 80 24 184 80 24 184 80 24 184 80 24 184 80 24 184 80 24 184 80 24 184 80 24 184 80 24 184 80 24 184 80 24 184 80 24 184 80 24 56 80 24 56 80 24 56 80 24 56 80 24 56 80 24 56 80 24 56 80 24 56 80 24 56 80 24 56 80 24 56 80 24 56 80 24 56 80 24 56 80 24 56 80 24 56 80 24 56 80 24 56 80 24 56 80 24 56 80 24 56 80 24 56 80 24 56 80 24 56 80 24 56 80 24 56 80 24 56 80 24 56 80 24 56 80 24 56 80 24 56 80 24 56 80 24 104 104 24 104 104 24 104 104 24 104 104 24 104 104 24 104 104 24 104 104 24 104 104 24 104 104 24 104 104 24 104 104 24 104 104 24 104 104 24 104 104 24 104 104 24 104 104 24 104 104 24 104 104 24 104 104 24 104 104 24 104 104 24 104 104 24 104 104 24 104 104 24 104 104 24 104 104 24 104 104 24 104 104 24 104 104 24 104 104 24 104 104 24 104 104 24 48 80 152 48 80 152 48 80 152 48 80 152 48 80 152 48 80 152 48 80 152 48 80 152 48 80 152 48 80 152 48 80 152 48 80 152 48 80 152 48 80 152 48 80 152 48 80 152 48 80 152 48 80 152 48 80 152 48 80 152 48 80 152 48 80 152 48 80 152 48 80 152 48 80 152 48 80 152 48 80 152 48 80 152 48 80 152 48 80 152 48 80 152 48 80 152
184 80 24 184 80 24 184 80 24 184 80 24 184 80 24 184 80 24 184 80 24 184 80 24 184 80 24 184 80 24 184 80 24 184 80 24 184 80 24 184 80 24 184 80 24 184 80 24 184 80 24 184 80 24 184 80 24 184 80 24 184 80 24 184 80 24 184 80 24 184 80 24 184 80 24 184 80 24 184 80 24 184 80 24 184 80 24 184 80 24 184 80 24 184 80 24 56 80 24 56 80 24 56 80 24 56 80 24 56 80 24 56 80 24 56 80 24 56 80 24 56 80 24 56 80 24 56 80 24 56 80 24 56 80 24 56 80 24 56 80 24 56 80 24 56 80 24 56 80 24 56 80 24 56 80 24 56 80 24 56 80 24 56 80 24 56 80 24 56 80 24 56 80 24 56 80 24 56 80 24 56 80 24 56 80 24 56 80 24 56 80 24 104 104 24 104 104 24 104 104 24 104 104 24 104 104 24 104 104 24 104 104 24 104 104 24 104 104 24 104 104 24 104 104 24 104 104 24 104 104 24 104 104 24 104 104 24 104 104 24 104 104 24 104 104 24 104 104 24 104 104 24 104 104 24 104 104 24 104 104 24 104 104 24 104 104 24 104 104 24 104 104 24 104 104 24 104 104 24 104 104 24 104 104 24 104 104 24 48 80 152 48 80 152 48 80 152 48 80 152 48 80 152 48 80 152 48 80 152 48 80 152 48 80 152 48 80 152 48 80 152 48 80 152 48 80 152 48 80 152 48 80 152 48 80 152 48 80 152 48 80 152 48 80 152 48 80 152 48 80 152 48 80 152 48 80 152 48 80 152 48 80 152 48 80 152 48 80 152 48 80 152 48 80 152 48 80 152 48 80 152 48 80 152
184 80 24 184 80 24 184 80 24 184 80 24 184 80 24 184 80 24 184 80 24 184 80 24 184 80 24 184 80 24 184 80 24 184 80 24 184 80 24 184 80 24 184 80 24 184 80 24 184 80 24 184 80 24 184 80 24 184 80 24 184 80 24 184 80 24 184 80 24 184 80 24 184 80 24 184 80 24 184 80 24 184 80 24 184 80 24 184 80 24 184 80 24 184 80 24 56 80 24 56 80 24 56 80 24 56 80 24 56 80 24 56 80 24 56 80 24 56 80 24 56 80 24 56 80 24 56 80 24 56 80 24 56 80 24 56 80 24 56 80 24 56 80 24 56 80 24 56 80 24 56 80 24 56 80 24 56 80 24 56 80 24 56 80 24 56 80 24 56 80 24 56 80 24 56 80 24 56 80 24 56 80 24 56 80 24 56 80 24 56 80 24 104 104 24 104 104 24 104 104 24 104 104 24 104 104 24 104 104 24 104 104 24 104 104 24 104 104 24 104 104 24 104 104 24 104 104 24 104 104 24 104 104 24 104 104 24 104 104 24 104 104 24 104 104 24 104 104 24 104 104 24 104 104 24 104 104 24 104 104 24 104 104 24 104 104 24 104 104 24 104 104 24 104 104 24 104 104 24 104 104 24 104 104 24 104 104 24 48 80 152 48 80 152 48 80 152 48 80 152 48 80 152 48 80 152 48 80 152 48 80 152 48 80 152 48 80 152 48 80 152 48 80 152 48 80 152 48 80 152 48 80 152 48 80 152 48 80 152 48 80 152 48 80 152 48 80 152 48 80 152 48 80 152 48 80 152 48 80 152 48 80 152 48 80 152 48 80 152 48 80 152 48 80 152 48 80 152 48 80 152 48 80 152
184 80 24 184 80 24 184 80 24 184 80 24 184 80 24 184 80 24 184 80 24 184 80 24 184 80 24 184 80 24 184 80 24 184 80 24 184 80 24 184 80 24 184 80 24 184 80 24 184 80 24 184 80 24 184 80 24 184 80 24 184 80 24 184 80 24 184 80 24 184 80 24 184 80 24 184 80 24 184 80 24 184 80 24 184 80 24 184 80 24 184 80 24 184 80 24 56 80 24 56 80 24 56 80 24 56 80 24 56 80 24 56 80 24 56 80 24 56 80 24 56 80 24 56 80 24 56 80 24 56 80 24 56 80 24 56 80 24 56 80 24 56 80 24 56 80 24 56 80 24 56 80 24 56 80 24 56 80 24 56 80 24 56 80 24 56 80 24 56 80 24 56 80 24 56 80 24 56 80 24 56 80 24 56 80 24 56 80 24 56 80 24 104 104 24 104 104 24 104 104 24 104 104 24 104 104 24 104 104 24 104 104 24 104 104 24 104 104 24 104 104 24 104 104 24 104 104 24 104 104 24 104 104 24 104 104 24 104 104 24 104 104 24 104 104 24 104 104 24 104 104 24 104 104 24 104 104 24 104 104 24 104 104 24 104 104 24 104 104 24 104 104 24 104 104 24 104 104 24 104 104 24 104 104 24 104 104 24 48 80 152 48 80 152 48 80 152 48 80 152 48 80 152 48 80 152 48 80 152 48 80 152 48 80 152 48 80 152 48 80 152 48 80 152 48 80 152 48 80 152 48 80 152 48 80 152 48 80 152 48 80 152 48 80 152 48 80 152 48 80 152 48 80 152 48 80 152 48 80 152 48 80 152 48 80 152 48 80 152 48 80 152 48 80 152 48 80 152 48 80 152 48 80 152
184 80 24 184 80 24 184 80 24 184 80 24 184 80 24 184 80 24 184 80 24 184 80 24 184 80 24 184 80 24 184 80 24 184 80 24 184 80 24 184 80 24 184 80 24 184 80 24 184 80 24 184 80 24 184 80 24 184 80 24 184 80 24 184 80 24 184 80 24 184 80 24 184 80 24 184 80 24 184 80 24 184 80 24 184 80 24 184 80 24 184 80 24 184 80 24 56 80 24 56 80 24 56 80 24 56 80 24 56 80 24 56 80 24 56 80 24 56 80 24 56 80 24 56 80 24 56 80 24 56 80 24 56 80 24 56 80 24 56 80 24 56 80 24 56 80 24 56 80 24 56 80 24 56 80 24 56 80 24 56 80 24 56 80 24 56 80 24 56 80 24 56 80 24 56 80 24 56 80 24 56 80 24 56 80 24 56 80 24 56 80 24 104 104 24 104 104 24 104 104 24 104 104 24 104 104 24 104 104 24 104 104 24 104 104 24 104 104 24 104 104 24 104 104 24 104 104 24 104 104 24 104 104 24 104 104 24 104 104 24 104 104 24 104 104 24 104 104 24 104 104 24 104 104 24 104 104 24 104 104 24 104 104 24 104 104 24 104 104 24 104 104 24 104 104 24 104 104 24 104 104 24 104 104 24 104 104 24 48 80 152 48 80 152 48 80 152 48 80 152 48 80 152 48 80 152 48 80 152 48 80 152 48 80 152 48 80 152 48 80 152 48 80 152 48 80 152 48 80 152 48 80 152 48 80 152 48 80 152 48 80 152 48 80 152 48 80 152 48 80 152 48 80 152 48 80 152 48 80 152 48 80 152 48 80 152 48 80 152 48 80 152 48 80 152 48 80 152 48 80 152 48 80 152
184 80 24 184 80 24 184 80 24 184 80 24 184 80 24 184 80 24 184 80 24 184 80 24 184 80 24 184 80 24 184 80 24 184 80 24 184 80 24 184 80 24 184 80 24 184 80 24 184 80 24 184 80 24 184 80 24 184 80 24 184 80 24 184 80 24 184 80 24 184 80 24 184 80 24 184 80 24 184 80 24 184 80 24 184 80 24 184 80 24 184 80 24 184 80 24 56 80 24 56 80 24 56 80 24 56 80 24 56 80 24 56 80 24 56 80 24 56 80 24 56 80 24 56 80 24 56 80 24 56 80 24 56 80 24 56 80 24 56 80 24 56 80 24 56 80 24 56 80 24 56 80 24 56 80 24 56 80 24 56 80 24 56 80 24 56 80 24 56 80 24 56 80 24 56 80 24 56 80 24 56 80 24 56 80 24 56 80 24 56 80 24 104 104 24 104 104 24 104 104 24 104 104 24 104 104 24 104 104 24 104 104 24 104 104 24 104 104 24 104 104 24 104 104 24 104 104 24 104 104 24 104 104 24 104 104 24 104 104 24 104 104 24 104 104 24 104 104 24 104 104 24 104 104 24 104 104 24 104 104 24 104 104 24 104 104 24 104 104 24 104 104 24 104 104 24 104 104 24 104 104 24 104 104 24 104 104 24 48 80 152 48 80 152 48 80 152 48 80 152 48 80 152 48 80 152 48 80 152 48 80 152 48 80 152 48 80 152 48 80 152 48 80 152 48 80 152 48 80 152 48 80 152 48 80 152 48 80 152 48 80 152 48 80 152 48 80 152 48 80 152 48 80 152 48 80 152 48 80 152 48 80 152 48 80 152 48 80 152 48 80 152 48 80 152 48 80 152 48 80 152 48 80 152
184 80 24 184 80 24 184 80 24 184 80 24 184 80 24 184 80 24 184 80 24 184 80 24 184 80 24 184 80 24 184 80 24 184 80 24 184 80 24 184 80 24 184 80 24 184 80 24 184 80 24 184 80 24 184 80 24 184 80 24 184 80 24 184 80 24 184 80 24 184 80 24 184 80 24 184 80 24 184 80 24 184 80 24 184 80 24 184 80 24 184 80 24 184 80 24 56 80 24 56 80 24 56 80 24 56 80 24 56 80 24 56 80 24 56 80 24 56 80 24 56 80 24 56 80 24 56 80 24 56 80 24 56 80 24 56 80 24 56 80 24 56 80 24 56 80 24 56 80 24 56 80 24 56 80 24 56 80 24 56 80 24 56 80 24 56 80 24 56 80 24 56 80 24 56 80 24 56 80 24 56 80 24 56 80 24 56 80 24 56 80 24 104 104 24 104 104 24 104 104 24 104 104 24 104 104 24 104 104 24 104 104 24 104 104 24 104 104 24 104 104 24 104 104 24 104 104 24 104 104 24 104 104 24 104 104 24 104 104 24 104 104 24 104 104 24 104 104 24 104 104 24 104 104 24 104 104 24 104 104 24 104 104 24 104 104 24 104 104 24 104 104 24 104 104 24 104 104 24 104 104 24 104 104 24 104 104 24 48 80 152 48 80 152 48 80 152 48 80 152 48 80 152 48 80 152 48 80 152 48 80 152 48 80 152 48 80 152 48 80 152 48 80 152 48 80 152 48 80 152 48 80 152 48 80 152 48 80 152 48 80 152 48 80 152 48 80 152 48 80 152 48 80 152 48 80 152 48 80 152 48 80 152 48 80 152 48 80 152 48 80 152 48 80 152 48 80 152 48 80 152 48 80 152